P3
300 200
255
0 0 145 0 0 145 0 0 145 0 0 145 0 0 145 0 0 145 0 0 145 0 0 145 0 0 145 0 0 145 0 0 145 0 0 145 0 0 145 0 0 145 0 0 145 0 0 145 0 0 145 0 0 145 0 0 145 0 0 145 0 0 145 0 0 145 0 0 145 0 0 145 0 0 145 0 0 145 0 0 145 0 0 145 0 0 145 0 0 145 0 0 145 0 0 145 0 0 145 0 0 145 0 0 145 0 0 145 0 0 145 0 0 145 0 0 145 0 0 145 0 0 145 0 0 145 0 0 145 0 0 145 0 0 145 0 0 145 0 0 145 0 0 145 0 0 145 0 0 145 0 0 145 0 0 145 0 0 145 0 0 145 0 0 145 0 0 145 0 0 145 0 0 145 0 0 145 0 0 145 0 0 145 0 0 145 0 0 145 0 0 145 0 0 145 0 0 145 0 0 145 0 0 145 0 0 145 0 0 145 0 0 145 0 0 145 0 0 145 0 0 145 0 0 145 0 0 145 0 0 145 0 0 145 0 0 145 0 0 145 0 0 145 0 0 145 0 0 145 0 0 145 0 0 145 0 0 145 0 0 145 0 0 145 0 0 145 0 0 145 0 0 145 0 0 145 0 0 145 0 0 145 0 0 145 0 0 145 0 0 145 0 0 145 0 0 145 225 0 15 255 255 255 255 255 255 255 255 255 255 255 255 255 255 255 255 255 255 255 255 255 255 255 255 255 255 255 255 255 255 255 255 255 255 255 255 255 255 255 255 255 255 255 255 255 255 255 255 255 255 255 255 255 255 255 255 255 255 255 255 255 255 255 255 255 255 255 255 255 255 255 255 255 255 255 255 255 255 255 255 255 255 255 255 255 255 255 255 255 255 255 255 255 255 255 255 255 255 255 255 255 255 255 255 255 255 255 255 255 255 255 255 255 255 255 255 255 255 255 255 255 255 255 255 255 255 255 255 255 255 255 255 255 255 255 255 255 255 255 255 255 255 255 255 255 255 255 255 255 255 255 255 255 255 255 255 255 255 255 255 255 255 255 255 255 255 255 255 255 255 255 255 255 255 255 255 255 255 255 255 255 255 255 255 255 255 255 255 255 255 255 255 255 255 255 255 255 255 255 255 255 255 255 255 255 255 255 255 255 255 255 255 255 255 255 255 255 255 255 255 255 255 255 255 255 255 255 255 255 255 255 255 255 255 255 255 255 255 255 255 255 255 255 255 255 255 255 255 255 255 255 255 255 255 255 255 255 255 255 255 255 255 255 255 255 255 255 255 255 255 255 255 255 255 255 255 255 255 255 255 255 255 255 255 255 255 255 255 255 255 255 255 255 255 255 255 255 225 0 15 225 0 15 225 0 15 225 0 15 225 0 15 225 0 15 225 0 15 225 0 15 225 0 15 225 0 15 225 0 15 225 0 15 225 0 15 225 0 15 225 0 15 225 0 15 225 0 15 225 0 15 225 0 15 225 0 15 225 0 15 225 0 15 225 0 15 225 0 15 225 0 15 225 0 15 225 0 15 225 0 15 225 0 15 225 0 15 225 0 15 225 0 15 225 0 15 225 0 15 225 0 15 225 0 15 225 0 15 225 0 15 225 0 15 225 0 15 225 0 15 225 0 15 225 0 15 225 0 15 225 0 15 225 0 15 225 0 15 225 0 15 225 0 15 225 0 15 225 0 15 225 0 15 225 0 15 225 0 15 225 0 15 225 0 15 225 0 15 225 0 15 225 0 15 225 0 15 225 0 15 225 0 15 225 0 15 225 0 15 225 0 15 225 0 15 225 0 15 225 0 15 225 0 15 225 0 15 225 0 15 225 0 15 225 0 15 225 0 15 225 0 15 225 0 15 225 0 15 225 0 15 225 0 15 225 0 15 225 0 15 225 0 15 225 0 15 225 0 15 225 0 15 225 0 15 225 0 15 225 0 15 225 0 15 225 0 15 225 0 15 225 0 15 225 0 15 225 0 15 225 0 15 225 0 15 225 0 15 225 0 15 225 0 15 225 0 15 225 0 15 
0 0 145 0 0 145 0 0 145 0 0 145 0 0 145 0 0 145 0 0 145 0 0 145 0 0 145 0 0 145 0 0 145 0 0 145 0 0 145 0 0 145 0 0 145 0 0 145 0 0 145 0 0 145 0 0 145 0 0 145 0 0 145 0 0 145 0 0 145 0 0 145 0 0 145 0 0 145 0 0 145 0 0 145 0 0 145 0 0 145 0 0 145 0 0 145 0 0 145 0 0 145 0 0 145 0 0 145 0 0 145 0 0 145 0 0 145 0 0 145 0 0 145 0 0 145 0 0 145 0 0 145 0 0 145 0 0 145 0 0 145 0 0 145 0 0 145 0 0 145 0 0 145 0 0 145 0 0 145 0 0 145 0 0 145 0 0 145 0 0 145 0 0 145 0 0 145 0 0 145 0 0 145 0 0 145 0 0 145 0 0 145 0 0 145 0 0 145 0 0 145 0 0 145 0 0 145 0 0 145 0 0 145 0 0 145 0 0 145 0 0 145 0 0 145 0 0 145 0 0 145 0 0 145 0 0 145 0 0 145 0 0 145 0 0 145 0 0 145 0 0 145 0 0 145 0 0 145 0 0 145 0 0 145 0 0 145 0 0 145 0 0 145 0 0 145 0 0 145 0 0 145 0 0 145 0 0 145 0 0 145 0 0 145 0 0 145 225 0 15 255 255 255 255 255 255 255 255 255 255 255 255 255 255 255 255 255 255 255 255 255 255 255 255 255 255 255 255 255 255 255 255 255 255 255 255 255 255 255 255 255 255 255 255 255 255 255 255 255 255 255 255 255 255 255 255 255 255 255 255 255 255 255 255 255 255 255 255 255 255 255 255 255 255 255 255 255 255 255 255 255 255 255 255 255 255 255 255 255 255 255 255 255 255 255 255 255 255 255 255 255 255 255 255 255 255 255 255 255 255 255 255 255 255 255 255 255 255 255 255 255 255 255 255 255 255 255 255 255 255 255 255 255 255 255 255 255 255 255 255 255 255 255 255 255 255 255 255 255 255 255 255 255 255 255 255 255 255 255 255 255 255 255 255 255 255 255 255 255 255 255 255 255 255 255 255 255 255 255 255 255 255 255 255 255 255 255 255 255 255 255 255 255 255 255 255 255 255 255 255 255 255 255 255 255 255 255 255 255 255 255 255 255 255 255 255 255 255 255 255 255 255 255 255 255 255 255 255 255 255 255 255 255 255 255 255 255 255 255 255 255 255 255 255 255 255 255 255 255 255 255 255 255 255 255 255 255 255 255 255 255 255 255 255 255 255 255 255 255 255 255 255 255 255 255 255 255 255 255 255 255 255 255 255 255 255 255 255 255 255 255 255 255 255 255 255 255 225 0 15 225 0 15 225 0 15 225 0 15 225 0 15 225 0 15 225 0 15 225 0 15 225 0 15 225 0 15 225 0 15 225 0 15 225 0 15 225 0 15 225 0 15 225 0 15 225 0 15 225 0 15 225 0 15 225 0 15 225 0 15 225 0 15 225 0 15 225 0 15 225 0 15 225 0 15 225 0 15 225 0 15 225 0 15 225 0 15 225 0 15 225 0 15 225 0 15 225 0 15 225 0 15 225 0 15 225 0 15 225 0 15 225 0 15 225 0 15 225 0 15 225 0 15 225 0 15 225 0 15 225 0 15 225 0 15 225 0 15 225 0 15 225 0 15 225 0 15 225 0 15 225 0 15 225 0 15 225 0 15 225 0 15 225 0 15 225 0 15 225 0 15 225 0 15 225 0 15 225 0 15 225 0 15 225 0 15 225 0 15 225 0 15 225 0 15 225 0 15 225 0 15 225 0 15 225 0 15 225 0 15 225 0 15 225 0 15 225 0 15 225 0 15 225 0 15 225 0 15 225 0 15 225 0 15 225 0 15 225 0 15 225 0 15 225 0 15 225 0 15 225 0 15 225 0 15 225 0 15 225 0 15 225 0 15 225 0 15 225 0 15 225 0 15 225 0 15 225 0 15 225 0 15 225 0 15 225 0 15 225 0 15 225 0 15 225 0 15 225 0 15 
0 0 145 0 0 145 0 0 145 0 0 145 0 0 145 0 0 145 0 0 145 0 0 145 0 0 145 0 0 145 0 0 145 0 0 145 0 0 145 0 0 145 0 0 145 0 0 145 0 0 145 0 0 145 0 0 145 0 0 145 0 0 145 0 0 145 0 0 145 0 0 145 0 0 145 0 0 145 0 0 145 0 0 145 0 0 145 0 0 145 0 0 145 0 0 145 0 0 145 0 0 145 0 0 145 0 0 145 0 0 145 0 0 145 0 0 145 0 0 145 0 0 145 0 0 145 0 0 145 0 0 145 0 0 145 0 0 145 0 0 145 0 0 145 0 0 145 0 0 145 0 0 145 0 0 145 0 0 145 0 0 145 0 0 145 0 0 145 0 0 145 0 0 145 0 0 145 0 0 145 0 0 145 0 0 145 0 0 145 0 0 145 0 0 145 0 0 145 0 0 145 0 0 145 0 0 145 0 0 145 0 0 145 0 0 145 0 0 145 0 0 145 0 0 145 0 0 145 0 0 145 0 0 145 0 0 145 0 0 145 0 0 145 0 0 145 0 0 145 0 0 145 0 0 145 0 0 145 0 0 145 0 0 145 0 0 145 0 0 145 0 0 145 0 0 145 0 0 145 0 0 145 0 0 145 0 0 145 0 0 145 0 0 145 0 0 145 225 0 15 255 255 255 255 255 255 255 255 255 255 255 255 255 255 255 255 255 255 255 255 255 255 255 255 255 255 255 255 255 255 255 255 255 255 255 255 255 255 255 255 255 255 255 255 255 255 255 255 255 255 255 255 255 255 255 255 255 255 255 255 255 255 255 255 255 255 255 255 255 255 255 255 255 255 255 255 255 255 255 255 255 255 255 255 255 255 255 255 255 255 255 255 255 255 255 255 255 255 255 255 255 255 255 255 255 255 255 255 255 255 255 255 255 255 255 255 255 255 255 255 255 255 255 255 255 255 255 255 255 255 255 255 255 255 255 255 255 255 255 255 255 255 255 255 255 255 255 255 255 255 255 255 255 255 255 255 255 255 255 255 255 255 255 255 255 255 255 255 255 255 255 255 255 255 255 255 255 255 255 255 255 255 255 255 255 255 255 255 255 255 255 255 255 255 255 255 255 255 255 255 255 255 255 255 255 255 255 255 255 255 255 255 255 255 255 255 255 255 255 255 255 255 255 255 255 255 255 255 255 255 255 255 255 255 255 255 255 255 255 255 255 255 255 255 255 255 255 255 255 255 255 255 255 255 255 255 255 255 255 255 255 255 255 255 255 255 255 255 255 255 255 255 255 255 255 255 255 255 255 255 255 255 255 255 255 255 255 255 255 255 255 255 255 255 255 255 255 225 0 15 225 0 15 225 0 15 225 0 15 225 0 15 225 0 15 225 0 15 225 0 15 225 0 15 225 0 15 225 0 15 225 0 15 225 0 15 225 0 15 225 0 15 225 0 15 225 0 15 225 0 15 225 0 15 225 0 15 225 0 15 225 0 15 225 0 15 225 0 15 225 0 15 225 0 15 225 0 15 225 0 15 225 0 15 225 0 15 225 0 15 225 0 15 225 0 15 225 0 15 225 0 15 225 0 15 225 0 15 225 0 15 225 0 15 225 0 15 225 0 15 225 0 15 225 0 15 225 0 15 225 0 15 225 0 15 225 0 15 225 0 15 225 0 15 225 0 15 225 0 15 225 0 15 225 0 15 225 0 15 225 0 15 225 0 15 225 0 15 225 0 15 225 0 15 225 0 15 225 0 15 225 0 15 225 0 15 225 0 15 225 0 15 225 0 15 225 0 15 225 0 15 225 0 15 225 0 15 225 0 15 225 0 15 225 0 15 225 0 15 225 0 15 225 0 15 225 0 15 225 0 15 225 0 15 225 0 15 225 0 15 225 0 15 225 0 15 225 0 15 225 0 15 225 0 15 225 0 15 225 0 15 225 0 15 225 0 15 225 0 15 225 0 15 225 0 15 225 0 15 225 0 15 225 0 15 225 0 15 225 0 15 225 0 15 225 0 15 225 0 15 
0 0 145 0 0 145 0 0 145 0 0 145 0 0 145 0 0 145 0 0 145 0 0 145 0 0 145 0 0 145 0 0 145 0 0 145 0 0 145 0 0 145 0 0 145 0 0 145 0 0 145 0 0 145 0 0 145 0 0 145 0 0 145 0 0 145 0 0 145 0 0 145 0 0 145 0 0 145 0 0 145 0 0 145 0 0 145 0 0 145 0 0 145 0 0 145 0 0 145 0 0 145 0 0 145 0 0 145 0 0 145 0 0 145 0 0 145 0 0 145 0 0 145 0 0 145 0 0 145 0 0 145 0 0 145 0 0 145 0 0 145 0 0 145 0 0 145 0 0 145 0 0 145 0 0 145 0 0 145 0 0 145 0 0 145 0 0 145 0 0 145 0 0 145 0 0 145 0 0 145 0 0 145 0 0 145 0 0 145 0 0 145 0 0 145 0 0 145 0 0 145 0 0 145 0 0 145 0 0 145 0 0 145 0 0 145 0 0 145 0 0 145 0 0 145 0 0 145 0 0 145 0 0 145 0 0 145 0 0 145 0 0 145 0 0 145 0 0 145 0 0 145 0 0 145 0 0 145 0 0 145 0 0 145 0 0 145 0 0 145 0 0 145 0 0 145 0 0 145 0 0 145 0 0 145 0 0 145 0 0 145 0 0 145 0 0 145 225 0 15 255 255 255 255 255 255 255 255 255 255 255 255 255 255 255 255 255 255 255 255 255 255 255 255 255 255 255 255 255 255 255 255 255 255 255 255 255 255 255 255 255 255 255 255 255 255 255 255 255 255 255 255 255 255 255 255 255 255 255 255 255 255 255 255 255 255 255 255 255 255 255 255 255 255 255 255 255 255 255 255 255 255 255 255 255 255 255 255 255 255 255 255 255 255 255 255 255 255 255 255 255 255 255 255 255 255 255 255 255 255 255 255 255 255 255 255 255 255 255 255 255 255 255 255 255 255 255 255 255 255 255 255 255 255 255 255 255 255 255 255 255 255 255 255 255 255 255 255 255 255 255 255 255 255 255 255 255 255 255 255 255 255 255 255 255 255 255 255 255 255 255 255 255 255 255 255 255 255 255 255 255 255 255 255 255 255 255 255 255 255 255 255 255 255 255 255 255 255 255 255 255 255 255 255 255 255 255 255 255 255 255 255 255 255 255 255 255 255 255 255 255 255 255 255 255 255 255 255 255 255 255 255 255 255 255 255 255 255 255 255 255 255 255 255 255 255 255 255 255 255 255 255 255 255 255 255 255 255 255 255 255 255 255 255 255 255 255 255 255 255 255 255 255 255 255 255 255 255 255 255 255 255 255 255 255 255 255 255 255 255 255 255 255 255 255 255 255 225 0 15 225 0 15 225 0 15 225 0 15 225 0 15 225 0 15 225 0 15 225 0 15 225 0 15 225 0 15 225 0 15 225 0 15 225 0 15 225 0 15 225 0 15 225 0 15 225 0 15 225 0 15 225 0 15 225 0 15 225 0 15 225 0 15 225 0 15 225 0 15 225 0 15 225 0 15 225 0 15 225 0 15 225 0 15 225 0 15 225 0 15 225 0 15 225 0 15 225 0 15 225 0 15 225 0 15 225 0 15 225 0 15 225 0 15 225 0 15 225 0 15 225 0 15 225 0 15 225 0 15 225 0 15 225 0 15 225 0 15 225 0 15 225 0 15 225 0 15 225 0 15 225 0 15 225 0 15 225 0 15 225 0 15 225 0 15 225 0 15 225 0 15 225 0 15 225 0 15 225 0 15 225 0 15 225 0 15 225 0 15 225 0 15 225 0 15 225 0 15 225 0 15 225 0 15 225 0 15 225 0 15 225 0 15 225 0 15 225 0 15 225 0 15 225 0 15 225 0 15 225 0 15 225 0 15 225 0 15 225 0 15 225 0 15 225 0 15 225 0 15 225 0 15 225 0 15 225 0 15 225 0 15 225 0 15 225 0 15 225 0 15 225 0 15 225 0 15 225 0 15 225 0 15 225 0 15 225 0 15 225 0 15 225 0 15 225 0 15 225 0 15 
0 0 145 0 0 145 0 0 145 0 0 145 0 0 145 0 0 145 0 0 145 0 0 145 0 0 145 0 0 145 0 0 145 0 0 145 0 0 145 0 0 145 0 0 145 0 0 145 0 0 145 0 0 145 0 0 145 0 0 145 0 0 145 0 0 145 0 0 145 0 0 145 0 0 145 0 0 145 0 0 145 0 0 145 0 0 145 0 0 145 0 0 145 0 0 145 0 0 145 0 0 145 0 0 145 0 0 145 0 0 145 0 0 145 0 0 145 0 0 145 0 0 145 0 0 145 0 0 145 0 0 145 0 0 145 0 0 145 0 0 145 0 0 145 0 0 145 0 0 145 0 0 145 0 0 145 0 0 145 0 0 145 0 0 145 0 0 145 0 0 145 0 0 145 0 0 145 0 0 145 0 0 145 0 0 145 0 0 145 0 0 145 0 0 145 0 0 145 0 0 145 0 0 145 0 0 145 0 0 145 0 0 145 0 0 145 0 0 145 0 0 145 0 0 145 0 0 145 0 0 145 0 0 145 0 0 145 0 0 145 0 0 145 0 0 145 0 0 145 0 0 145 0 0 145 0 0 145 0 0 145 0 0 145 0 0 145 0 0 145 0 0 145 0 0 145 0 0 145 0 0 145 0 0 145 0 0 145 0 0 145 0 0 145 0 0 145 225 0 15 255 255 255 255 255 255 255 255 255 255 255 255 255 255 255 255 255 255 255 255 255 255 255 255 255 255 255 255 255 255 255 255 255 255 255 255 255 255 255 255 255 255 255 255 255 255 255 255 255 255 255 255 255 255 255 255 255 255 255 255 255 255 255 255 255 255 255 255 255 255 255 255 255 255 255 255 255 255 255 255 255 255 255 255 255 255 255 255 255 255 255 255 255 255 255 255 255 255 255 255 255 255 255 255 255 255 255 255 255 255 255 255 255 255 255 255 255 255 255 255 255 255 255 255 255 255 255 255 255 255 255 255 255 255 255 255 255 255 255 255 255 255 255 255 255 255 255 255 255 255 255 255 255 255 255 255 255 255 255 255 255 255 255 255 255 255 255 255 255 255 255 255 255 255 255 255 255 255 255 255 255 255 255 255 255 255 255 255 255 255 255 255 255 255 255 255 255 255 255 255 255 255 255 255 255 255 255 255 255 255 255 255 255 255 255 255 255 255 255 255 255 255 255 255 255 255 255 255 255 255 255 255 255 255 255 255 255 255 255 255 255 255 255 255 255 255 255 255 255 255 255 255 255 255 255 255 255 255 255 255 255 255 255 255 255 255 255 255 255 255 255 255 255 255 255 255 255 255 255 255 255 255 255 255 255 255 255 255 255 255 255 255 255 255 255 255 255 225 0 15 225 0 15 225 0 15 225 0 15 225 0 15 225 0 15 225 0 15 225 0 15 225 0 15 225 0 15 225 0 15 225 0 15 225 0 15 225 0 15 225 0 15 225 0 15 225 0 15 225 0 15 225 0 15 225 0 15 225 0 15 225 0 15 225 0 15 225 0 15 225 0 15 225 0 15 225 0 15 225 0 15 225 0 15 225 0 15 225 0 15 225 0 15 225 0 15 225 0 15 225 0 15 225 0 15 225 0 15 225 0 15 225 0 15 225 0 15 225 0 15 225 0 15 225 0 15 225 0 15 225 0 15 225 0 15 225 0 15 225 0 15 225 0 15 225 0 15 225 0 15 225 0 15 225 0 15 225 0 15 225 0 15 225 0 15 225 0 15 225 0 15 225 0 15 225 0 15 225 0 15 225 0 15 225 0 15 225 0 15 225 0 15 225 0 15 225 0 15 225 0 15 225 0 15 225 0 15 225 0 15 225 0 15 225 0 15 225 0 15 225 0 15 225 0 15 225 0 15 225 0 15 225 0 15 225 0 15 225 0 15 225 0 15 225 0 15 225 0 15 225 0 15 225 0 15 225 0 15 225 0 15 225 0 15 225 0 15 225 0 15 225 0 15 225 0 15 225 0 15 225 0 15 225 0 15 225 0 15 225 0 15 225 0 15 225 0 15 225 0 15 
0 0 145 0 0 145 0 0 145 0 0 145 0 0 145 0 0 145 0 0 145 0 0 145 0 0 145 0 0 145 0 0 145 0 0 145 0 0 145 0 0 145 0 0 145 0 0 145 0 0 145 0 0 145 0 0 145 0 0 145 0 0 145 0 0 145 0 0 145 0 0 145 0 0 145 0 0 145 0 0 145 0 0 145 0 0 145 0 0 145 0 0 145 0 0 145 0 0 145 0 0 145 0 0 145 0 0 145 0 0 145 0 0 145 0 0 145 0 0 145 0 0 145 0 0 145 0 0 145 0 0 145 0 0 145 0 0 145 0 0 145 0 0 145 0 0 145 0 0 145 0 0 145 0 0 145 0 0 145 0 0 145 0 0 145 0 0 145 0 0 145 0 0 145 0 0 145 0 0 145 0 0 145 0 0 145 0 0 145 0 0 145 0 0 145 0 0 145 0 0 145 0 0 145 0 0 145 0 0 145 0 0 145 0 0 145 0 0 145 0 0 145 0 0 145 0 0 145 0 0 145 0 0 145 0 0 145 0 0 145 0 0 145 0 0 145 0 0 145 0 0 145 0 0 145 0 0 145 0 0 145 0 0 145 0 0 145 0 0 145 0 0 145 0 0 145 0 0 145 0 0 145 0 0 145 0 0 145 0 0 145 0 0 145 0 0 145 225 0 15 255 255 255 255 255 255 255 255 255 255 255 255 255 255 255 255 255 255 255 255 255 255 255 255 255 255 255 255 255 255 255 255 255 255 255 255 255 255 255 255 255 255 255 255 255 255 255 255 255 255 255 255 255 255 255 255 255 255 255 255 255 255 255 255 255 255 255 255 255 255 255 255 255 255 255 255 255 255 255 255 255 255 255 255 255 255 255 255 255 255 255 255 255 255 255 255 255 255 255 255 255 255 255 255 255 255 255 255 255 255 255 255 255 255 255 255 255 255 255 255 255 255 255 255 255 255 255 255 255 255 255 255 255 255 255 255 255 255 255 255 255 255 255 255 255 255 255 255 255 255 255 255 255 255 255 255 255 255 255 255 255 255 255 255 255 255 255 255 255 255 255 255 255 255 255 255 255 255 255 255 255 255 255 255 255 255 255 255 255 255 255 255 255 255 255 255 255 255 255 255 255 255 255 255 255 255 255 255 255 255 255 255 255 255 255 255 255 255 255 255 255 255 255 255 255 255 255 255 255 255 255 255 255 255 255 255 255 255 255 255 255 255 255 255 255 255 255 255 255 255 255 255 255 255 255 255 255 255 255 255 255 255 255 255 255 255 255 255 255 255 255 255 255 255 255 255 255 255 255 255 255 255 255 255 255 255 255 255 255 255 255 255 255 255 255 255 255 225 0 15 225 0 15 225 0 15 225 0 15 225 0 15 225 0 15 225 0 15 225 0 15 225 0 15 225 0 15 225 0 15 225 0 15 225 0 15 225 0 15 225 0 15 225 0 15 225 0 15 225 0 15 225 0 15 225 0 15 225 0 15 225 0 15 225 0 15 225 0 15 225 0 15 225 0 15 225 0 15 225 0 15 225 0 15 225 0 15 225 0 15 225 0 15 225 0 15 225 0 15 225 0 15 225 0 15 225 0 15 225 0 15 225 0 15 225 0 15 225 0 15 225 0 15 225 0 15 225 0 15 225 0 15 225 0 15 225 0 15 225 0 15 225 0 15 225 0 15 225 0 15 225 0 15 225 0 15 225 0 15 225 0 15 225 0 15 225 0 15 225 0 15 225 0 15 225 0 15 225 0 15 225 0 15 225 0 15 225 0 15 225 0 15 225 0 15 225 0 15 225 0 15 225 0 15 225 0 15 225 0 15 225 0 15 225 0 15 225 0 15 225 0 15 225 0 15 225 0 15 225 0 15 225 0 15 225 0 15 225 0 15 225 0 15 225 0 15 225 0 15 225 0 15 225 0 15 225 0 15 225 0 15 225 0 15 225 0 15 225 0 15 225 0 15 225 0 15 225 0 15 225 0 15 225 0 15 225 0 15 225 0 15 225 0 15 225 0 15 225 0 15 
0 0 145 0 0 145 0 0 145 0 0 145 0 0 145 0 0 145 0 0 145 0 0 145 0 0 145 0 0 145 0 0 145 0 0 145 0 0 145 0 0 145 0 0 145 0 0 145 0 0 145 0 0 145 0 0 145 0 0 145 0 0 145 0 0 145 0 0 145 0 0 145 0 0 145 0 0 145 0 0 145 0 0 145 0 0 145 0 0 145 0 0 145 0 0 145 0 0 145 0 0 145 0 0 145 0 0 145 0 0 145 0 0 145 0 0 145 0 0 145 0 0 145 0 0 145 0 0 145 0 0 145 0 0 145 0 0 145 0 0 145 0 0 145 0 0 145 0 0 145 0 0 145 0 0 145 0 0 145 0 0 145 0 0 145 0 0 145 0 0 145 0 0 145 0 0 145 0 0 145 0 0 145 0 0 145 0 0 145 0 0 145 0 0 145 0 0 145 0 0 145 0 0 145 0 0 145 0 0 145 0 0 145 0 0 145 0 0 145 0 0 145 0 0 145 0 0 145 0 0 145 0 0 145 0 0 145 0 0 145 0 0 145 0 0 145 0 0 145 0 0 145 0 0 145 0 0 145 0 0 145 0 0 145 0 0 145 0 0 145 0 0 145 0 0 145 0 0 145 0 0 145 0 0 145 0 0 145 0 0 145 0 0 145 0 0 145 225 0 15 255 255 255 255 255 255 255 255 255 255 255 255 255 255 255 255 255 255 255 255 255 255 255 255 255 255 255 255 255 255 255 255 255 255 255 255 255 255 255 255 255 255 255 255 255 255 255 255 255 255 255 255 255 255 255 255 255 255 255 255 255 255 255 255 255 255 255 255 255 255 255 255 255 255 255 255 255 255 255 255 255 255 255 255 255 255 255 255 255 255 255 255 255 255 255 255 255 255 255 255 255 255 255 255 255 255 255 255 255 255 255 255 255 255 255 255 255 255 255 255 255 255 255 255 255 255 255 255 255 255 255 255 255 255 255 255 255 255 255 255 255 255 255 255 255 255 255 255 255 255 255 255 255 255 255 255 255 255 255 255 255 255 255 255 255 255 255 255 255 255 255 255 255 255 255 255 255 255 255 255 255 255 255 255 255 255 255 255 255 255 255 255 255 255 255 255 255 255 255 255 255 255 255 255 255 255 255 255 255 255 255 255 255 255 255 255 255 255 255 255 255 255 255 255 255 255 255 255 255 255 255 255 255 255 255 255 255 255 255 255 255 255 255 255 255 255 255 255 255 255 255 255 255 255 255 255 255 255 255 255 255 255 255 255 255 255 255 255 255 255 255 255 255 255 255 255 255 255 255 255 255 255 255 255 255 255 255 255 255 255 255 255 255 255 255 255 255 225 0 15 225 0 15 225 0 15 225 0 15 225 0 15 225 0 15 225 0 15 225 0 15 225 0 15 225 0 15 225 0 15 225 0 15 225 0 15 225 0 15 225 0 15 225 0 15 225 0 15 225 0 15 225 0 15 225 0 15 225 0 15 225 0 15 225 0 15 225 0 15 225 0 15 225 0 15 225 0 15 225 0 15 225 0 15 225 0 15 225 0 15 225 0 15 225 0 15 225 0 15 225 0 15 225 0 15 225 0 15 225 0 15 225 0 15 225 0 15 225 0 15 225 0 15 225 0 15 225 0 15 225 0 15 225 0 15 225 0 15 225 0 15 225 0 15 225 0 15 225 0 15 225 0 15 225 0 15 225 0 15 225 0 15 225 0 15 225 0 15 225 0 15 225 0 15 225 0 15 225 0 15 225 0 15 225 0 15 225 0 15 225 0 15 225 0 15 225 0 15 225 0 15 225 0 15 225 0 15 225 0 15 225 0 15 225 0 15 225 0 15 225 0 15 225 0 15 225 0 15 225 0 15 225 0 15 225 0 15 225 0 15 225 0 15 225 0 15 225 0 15 225 0 15 225 0 15 225 0 15 225 0 15 225 0 15 225 0 15 225 0 15 225 0 15 225 0 15 225 0 15 225 0 15 225 0 15 225 0 15 225 0 15 225 0 15 225 0 15 225 0 15 
0 0 145 0 0 145 0 0 145 0 0 145 0 0 145 0 0 145 0 0 145 0 0 145 0 0 145 0 0 145 0 0 145 0 0 145 0 0 145 0 0 145 0 0 145 0 0 145 0 0 145 0 0 145 0 0 145 0 0 145 0 0 145 0 0 145 0 0 145 0 0 145 0 0 145 0 0 145 0 0 145 0 0 145 0 0 145 0 0 145 0 0 145 0 0 145 0 0 145 0 0 145 0 0 145 0 0 145 0 0 145 0 0 145 0 0 145 0 0 145 0 0 145 0 0 145 0 0 145 0 0 145 0 0 145 0 0 145 0 0 145 0 0 145 0 0 145 0 0 145 0 0 145 0 0 145 0 0 145 0 0 145 0 0 145 0 0 145 0 0 145 0 0 145 0 0 145 0 0 145 0 0 145 0 0 145 0 0 145 0 0 145 0 0 145 0 0 145 0 0 145 0 0 145 0 0 145 0 0 145 0 0 145 0 0 145 0 0 145 0 0 145 0 0 145 0 0 145 0 0 145 0 0 145 0 0 145 0 0 145 0 0 145 0 0 145 0 0 145 0 0 145 0 0 145 0 0 145 0 0 145 0 0 145 0 0 145 0 0 145 0 0 145 0 0 145 0 0 145 0 0 145 0 0 145 0 0 145 0 0 145 0 0 145 0 0 145 225 0 15 255 255 255 255 255 255 255 255 255 255 255 255 255 255 255 255 255 255 255 255 255 255 255 255 255 255 255 255 255 255 255 255 255 255 255 255 255 255 255 255 255 255 255 255 255 255 255 255 255 255 255 255 255 255 255 255 255 255 255 255 255 255 255 255 255 255 255 255 255 255 255 255 255 255 255 255 255 255 255 255 255 255 255 255 255 255 255 255 255 255 255 255 255 255 255 255 255 255 255 255 255 255 255 255 255 255 255 255 255 255 255 255 255 255 255 255 255 255 255 255 255 255 255 255 255 255 255 255 255 255 255 255 255 255 255 255 255 255 255 255 255 255 255 255 255 255 255 255 255 255 255 255 255 255 255 255 255 255 255 255 255 255 255 255 255 255 255 255 255 255 255 255 255 255 255 255 255 255 255 255 255 255 255 255 255 255 255 255 255 255 255 255 255 255 255 255 255 255 255 255 255 255 255 255 255 255 255 255 255 255 255 255 255 255 255 255 255 255 255 255 255 255 255 255 255 255 255 255 255 255 255 255 255 255 255 255 255 255 255 255 255 255 255 255 255 255 255 255 255 255 255 255 255 255 255 255 255 255 255 255 255 255 255 255 255 255 255 255 255 255 255 255 255 255 255 255 255 255 255 255 255 255 255 255 255 255 255 255 255 255 255 255 255 255 255 255 255 225 0 15 225 0 15 225 0 15 225 0 15 225 0 15 225 0 15 225 0 15 225 0 15 225 0 15 225 0 15 225 0 15 225 0 15 225 0 15 225 0 15 225 0 15 225 0 15 225 0 15 225 0 15 225 0 15 225 0 15 225 0 15 225 0 15 225 0 15 225 0 15 225 0 15 225 0 15 225 0 15 225 0 15 225 0 15 225 0 15 225 0 15 225 0 15 225 0 15 225 0 15 225 0 15 225 0 15 225 0 15 225 0 15 225 0 15 225 0 15 225 0 15 225 0 15 225 0 15 225 0 15 225 0 15 225 0 15 225 0 15 225 0 15 225 0 15 225 0 15 225 0 15 225 0 15 225 0 15 225 0 15 225 0 15 225 0 15 225 0 15 225 0 15 225 0 15 225 0 15 225 0 15 225 0 15 225 0 15 225 0 15 225 0 15 225 0 15 225 0 15 225 0 15 225 0 15 225 0 15 225 0 15 225 0 15 225 0 15 225 0 15 225 0 15 225 0 15 225 0 15 225 0 15 225 0 15 225 0 15 225 0 15 225 0 15 225 0 15 225 0 15 225 0 15 225 0 15 225 0 15 225 0 15 225 0 15 225 0 15 225 0 15 225 0 15 225 0 15 225 0 15 225 0 15 225 0 15 225 0 15 225 0 15 225 0 15 225 0 15 225 0 15 
0 0 145 0 0 145 0 0 145 0 0 145 0 0 145 0 0 145 0 0 145 0 0 145 0 0 145 0 0 145 0 0 145 0 0 145 0 0 145 0 0 145 0 0 145 0 0 145 0 0 145 0 0 145 0 0 145 0 0 145 0 0 145 0 0 145 0 0 145 0 0 145 0 0 145 0 0 145 0 0 145 0 0 145 0 0 145 0 0 145 0 0 145 0 0 145 0 0 145 0 0 145 0 0 145 0 0 145 0 0 145 0 0 145 0 0 145 0 0 145 0 0 145 0 0 145 0 0 145 0 0 145 0 0 145 0 0 145 0 0 145 0 0 145 0 0 145 0 0 145 0 0 145 0 0 145 0 0 145 0 0 145 0 0 145 0 0 145 0 0 145 0 0 145 0 0 145 0 0 145 0 0 145 0 0 145 0 0 145 0 0 145 0 0 145 0 0 145 0 0 145 0 0 145 0 0 145 0 0 145 0 0 145 0 0 145 0 0 145 0 0 145 0 0 145 0 0 145 0 0 145 0 0 145 0 0 145 0 0 145 0 0 145 0 0 145 0 0 145 0 0 145 0 0 145 0 0 145 0 0 145 0 0 145 0 0 145 0 0 145 0 0 145 0 0 145 0 0 145 0 0 145 0 0 145 0 0 145 0 0 145 0 0 145 0 0 145 225 0 15 255 255 255 255 255 255 255 255 255 255 255 255 255 255 255 255 255 255 255 255 255 255 255 255 255 255 255 255 255 255 255 255 255 255 255 255 255 255 255 255 255 255 255 255 255 255 255 255 255 255 255 255 255 255 255 255 255 255 255 255 255 255 255 255 255 255 255 255 255 255 255 255 255 255 255 255 255 255 255 255 255 255 255 255 255 255 255 255 255 255 255 255 255 255 255 255 255 255 255 255 255 255 255 255 255 255 255 255 255 255 255 255 255 255 255 255 255 255 255 255 255 255 255 255 255 255 255 255 255 255 255 255 255 255 255 255 255 255 255 255 255 255 255 255 255 255 255 255 255 255 255 255 255 255 255 255 255 255 255 255 255 255 255 255 255 255 255 255 255 255 255 255 255 255 255 255 255 255 255 255 255 255 255 255 255 255 255 255 255 255 255 255 255 255 255 255 255 255 255 255 255 255 255 255 255 255 255 255 255 255 255 255 255 255 255 255 255 255 255 255 255 255 255 255 255 255 255 255 255 255 255 255 255 255 255 255 255 255 255 255 255 255 255 255 255 255 255 255 255 255 255 255 255 255 255 255 255 255 255 255 255 255 255 255 255 255 255 255 255 255 255 255 255 255 255 255 255 255 255 255 255 255 255 255 255 255 255 255 255 255 255 255 255 255 255 255 255 225 0 15 225 0 15 225 0 15 225 0 15 225 0 15 225 0 15 225 0 15 225 0 15 225 0 15 225 0 15 225 0 15 225 0 15 225 0 15 225 0 15 225 0 15 225 0 15 225 0 15 225 0 15 225 0 15 225 0 15 225 0 15 225 0 15 225 0 15 225 0 15 225 0 15 225 0 15 225 0 15 225 0 15 225 0 15 225 0 15 225 0 15 225 0 15 225 0 15 225 0 15 225 0 15 225 0 15 225 0 15 225 0 15 225 0 15 225 0 15 225 0 15 225 0 15 225 0 15 225 0 15 225 0 15 225 0 15 225 0 15 225 0 15 225 0 15 225 0 15 225 0 15 225 0 15 225 0 15 225 0 15 225 0 15 225 0 15 225 0 15 225 0 15 225 0 15 225 0 15 225 0 15 225 0 15 225 0 15 225 0 15 225 0 15 225 0 15 225 0 15 225 0 15 225 0 15 225 0 15 225 0 15 225 0 15 225 0 15 225 0 15 225 0 15 225 0 15 225 0 15 225 0 15 225 0 15 225 0 15 225 0 15 225 0 15 225 0 15 225 0 15 225 0 15 225 0 15 225 0 15 225 0 15 225 0 15 225 0 15 225 0 15 225 0 15 225 0 15 225 0 15 225 0 15 225 0 15 225 0 15 225 0 15 225 0 15 225 0 15 225 0 15 
0 0 145 0 0 145 0 0 145 0 0 145 0 0 145 0 0 145 0 0 145 0 0 145 0 0 145 0 0 145 0 0 145 0 0 145 0 0 145 0 0 145 0 0 145 0 0 145 0 0 145 0 0 145 0 0 145 0 0 145 0 0 145 0 0 145 0 0 145 0 0 145 0 0 145 0 0 145 0 0 145 0 0 145 0 0 145 0 0 145 0 0 145 0 0 145 0 0 145 0 0 145 0 0 145 0 0 145 0 0 145 0 0 145 0 0 145 0 0 145 0 0 145 0 0 145 0 0 145 0 0 145 0 0 145 0 0 145 0 0 145 0 0 145 0 0 145 0 0 145 0 0 145 0 0 145 0 0 145 0 0 145 0 0 145 0 0 145 0 0 145 0 0 145 0 0 145 0 0 145 0 0 145 0 0 145 0 0 145 0 0 145 0 0 145 0 0 145 0 0 145 0 0 145 0 0 145 0 0 145 0 0 145 0 0 145 0 0 145 0 0 145 0 0 145 0 0 145 0 0 145 0 0 145 0 0 145 0 0 145 0 0 145 0 0 145 0 0 145 0 0 145 0 0 145 0 0 145 0 0 145 0 0 145 0 0 145 0 0 145 0 0 145 0 0 145 0 0 145 0 0 145 0 0 145 0 0 145 0 0 145 0 0 145 0 0 145 225 0 15 255 255 255 255 255 255 255 255 255 255 255 255 255 255 255 255 255 255 255 255 255 255 255 255 255 255 255 255 255 255 255 255 255 255 255 255 255 255 255 255 255 255 255 255 255 255 255 255 255 255 255 255 255 255 255 255 255 255 255 255 255 255 255 255 255 255 255 255 255 255 255 255 255 255 255 255 255 255 255 255 255 255 255 255 255 255 255 255 255 255 255 255 255 255 255 255 255 255 255 255 255 255 255 255 255 255 255 255 255 255 255 255 255 255 255 255 255 255 255 255 255 255 255 255 255 255 255 255 255 255 255 255 255 255 255 255 255 255 255 255 255 255 255 255 255 255 255 255 255 255 255 255 255 255 255 255 255 255 255 255 255 255 255 255 255 255 255 255 255 255 255 255 255 255 255 255 255 255 255 255 255 255 255 255 255 255 255 255 255 255 255 255 255 255 255 255 255 255 255 255 255 255 255 255 255 255 255 255 255 255 255 255 255 255 255 255 255 255 255 255 255 255 255 255 255 255 255 255 255 255 255 255 255 255 255 255 255 255 255 255 255 255 255 255 255 255 255 255 255 255 255 255 255 255 255 255 255 255 255 255 255 255 255 255 255 255 255 255 255 255 255 255 255 255 255 255 255 255 255 255 255 255 255 255 255 255 255 255 255 255 255 255 255 255 255 255 255 225 0 15 225 0 15 225 0 15 225 0 15 225 0 15 225 0 15 225 0 15 225 0 15 225 0 15 225 0 15 225 0 15 225 0 15 225 0 15 225 0 15 225 0 15 225 0 15 225 0 15 225 0 15 225 0 15 225 0 15 225 0 15 225 0 15 225 0 15 225 0 15 225 0 15 225 0 15 225 0 15 225 0 15 225 0 15 225 0 15 225 0 15 225 0 15 225 0 15 225 0 15 225 0 15 225 0 15 225 0 15 225 0 15 225 0 15 225 0 15 225 0 15 225 0 15 225 0 15 225 0 15 225 0 15 225 0 15 225 0 15 225 0 15 225 0 15 225 0 15 225 0 15 225 0 15 225 0 15 225 0 15 225 0 15 225 0 15 225 0 15 225 0 15 225 0 15 225 0 15 225 0 15 225 0 15 225 0 15 225 0 15 225 0 15 225 0 15 225 0 15 225 0 15 225 0 15 225 0 15 225 0 15 225 0 15 225 0 15 225 0 15 225 0 15 225 0 15 225 0 15 225 0 15 225 0 15 225 0 15 225 0 15 225 0 15 225 0 15 225 0 15 225 0 15 225 0 15 225 0 15 225 0 15 225 0 15 225 0 15 225 0 15 225 0 15 225 0 15 225 0 15 225 0 15 225 0 15 225 0 15 225 0 15 225 0 15 225 0 15 225 0 15 
0 0 145 0 0 145 0 0 145 0 0 145 0 0 145 0 0 145 0 0 145 0 0 145 0 0 145 0 0 145 0 0 145 0 0 145 0 0 145 0 0 145 0 0 145 0 0 145 0 0 145 0 0 145 0 0 145 0 0 145 0 0 145 0 0 145 0 0 145 0 0 145 0 0 145 0 0 145 0 0 145 0 0 145 0 0 145 0 0 145 0 0 145 0 0 145 0 0 145 0 0 145 0 0 145 0 0 145 0 0 145 0 0 145 0 0 145 0 0 145 0 0 145 0 0 145 0 0 145 0 0 145 0 0 145 0 0 145 0 0 145 0 0 145 0 0 145 0 0 145 0 0 145 0 0 145 0 0 145 0 0 145 0 0 145 0 0 145 0 0 145 0 0 145 0 0 145 0 0 145 0 0 145 0 0 145 0 0 145 0 0 145 0 0 145 0 0 145 0 0 145 0 0 145 0 0 145 0 0 145 0 0 145 0 0 145 0 0 145 0 0 145 0 0 145 0 0 145 0 0 145 0 0 145 0 0 145 0 0 145 0 0 145 0 0 145 0 0 145 0 0 145 0 0 145 0 0 145 0 0 145 0 0 145 0 0 145 0 0 145 0 0 145 0 0 145 0 0 145 0 0 145 0 0 145 0 0 145 0 0 145 0 0 145 0 0 145 225 0 15 255 255 255 255 255 255 255 255 255 255 255 255 255 255 255 255 255 255 255 255 255 255 255 255 255 255 255 255 255 255 255 255 255 255 255 255 255 255 255 255 255 255 255 255 255 255 255 255 255 255 255 255 255 255 255 255 255 255 255 255 255 255 255 255 255 255 255 255 255 255 255 255 255 255 255 255 255 255 255 255 255 255 255 255 255 255 255 255 255 255 255 255 255 255 255 255 255 255 255 255 255 255 255 255 255 255 255 255 255 255 255 255 255 255 255 255 255 255 255 255 255 255 255 255 255 255 255 255 255 255 255 255 255 255 255 255 255 255 255 255 255 255 255 255 255 255 255 255 255 255 255 255 255 255 255 255 255 255 255 255 255 255 255 255 255 255 255 255 255 255 255 255 255 255 255 255 255 255 255 255 255 255 255 255 255 255 255 255 255 255 255 255 255 255 255 255 255 255 255 255 255 255 255 255 255 255 255 255 255 255 255 255 255 255 255 255 255 255 255 255 255 255 255 255 255 255 255 255 255 255 255 255 255 255 255 255 255 255 255 255 255 255 255 255 255 255 255 255 255 255 255 255 255 255 255 255 255 255 255 255 255 255 255 255 255 255 255 255 255 255 255 255 255 255 255 255 255 255 255 255 255 255 255 255 255 255 255 255 255 255 255 255 255 255 255 255 255 225 0 15 225 0 15 225 0 15 225 0 15 225 0 15 225 0 15 225 0 15 225 0 15 225 0 15 225 0 15 225 0 15 225 0 15 225 0 15 225 0 15 225 0 15 225 0 15 225 0 15 225 0 15 225 0 15 225 0 15 225 0 15 225 0 15 225 0 15 225 0 15 225 0 15 225 0 15 225 0 15 225 0 15 225 0 15 225 0 15 225 0 15 225 0 15 225 0 15 225 0 15 225 0 15 225 0 15 225 0 15 225 0 15 225 0 15 225 0 15 225 0 15 225 0 15 225 0 15 225 0 15 225 0 15 225 0 15 225 0 15 225 0 15 225 0 15 225 0 15 225 0 15 225 0 15 225 0 15 225 0 15 225 0 15 225 0 15 225 0 15 225 0 15 225 0 15 225 0 15 225 0 15 225 0 15 225 0 15 225 0 15 225 0 15 225 0 15 225 0 15 225 0 15 225 0 15 225 0 15 225 0 15 225 0 15 225 0 15 225 0 15 225 0 15 225 0 15 225 0 15 225 0 15 225 0 15 225 0 15 225 0 15 225 0 15 225 0 15 225 0 15 225 0 15 225 0 15 225 0 15 225 0 15 225 0 15 225 0 15 225 0 15 225 0 15 225 0 15 225 0 15 225 0 15 225 0 15 225 0 15 225 0 15 225 0 15 225 0 15 225 0 15 
0 0 145 0 0 145 0 0 145 0 0 145 0 0 145 0 0 145 0 0 145 0 0 145 0 0 145 0 0 145 0 0 145 0 0 145 0 0 145 0 0 145 0 0 145 0 0 145 0 0 145 0 0 145 0 0 145 0 0 145 0 0 145 0 0 145 0 0 145 0 0 145 0 0 145 0 0 145 0 0 145 0 0 145 0 0 145 0 0 145 0 0 145 0 0 145 0 0 145 0 0 145 0 0 145 0 0 145 0 0 145 0 0 145 0 0 145 0 0 145 0 0 145 0 0 145 0 0 145 0 0 145 0 0 145 0 0 145 0 0 145 0 0 145 0 0 145 0 0 145 0 0 145 0 0 145 0 0 145 0 0 145 0 0 145 0 0 145 0 0 145 0 0 145 0 0 145 0 0 145 0 0 145 0 0 145 0 0 145 0 0 145 0 0 145 0 0 145 0 0 145 0 0 145 0 0 145 0 0 145 0 0 145 0 0 145 0 0 145 0 0 145 0 0 145 0 0 145 0 0 145 0 0 145 0 0 145 0 0 145 0 0 145 0 0 145 0 0 145 0 0 145 0 0 145 0 0 145 0 0 145 0 0 145 0 0 145 0 0 145 0 0 145 0 0 145 0 0 145 0 0 145 0 0 145 0 0 145 0 0 145 0 0 145 0 0 145 225 0 15 255 255 255 255 255 255 255 255 255 255 255 255 255 255 255 255 255 255 255 255 255 255 255 255 255 255 255 255 255 255 255 255 255 255 255 255 255 255 255 255 255 255 255 255 255 255 255 255 255 255 255 255 255 255 255 255 255 255 255 255 255 255 255 255 255 255 255 255 255 255 255 255 255 255 255 255 255 255 255 255 255 255 255 255 255 255 255 255 255 255 255 255 255 255 255 255 255 255 255 255 255 255 255 255 255 255 255 255 255 255 255 255 255 255 255 255 255 255 255 255 255 255 255 255 255 255 255 255 255 255 255 255 255 255 255 255 255 255 255 255 255 255 255 255 255 255 255 255 255 255 255 255 255 255 255 255 255 255 255 255 255 255 255 255 255 255 255 255 255 255 255 255 255 255 255 255 255 255 255 255 255 255 255 255 255 255 255 255 255 255 255 255 255 255 255 255 255 255 255 255 255 255 255 255 255 255 255 255 255 255 255 255 255 255 255 255 255 255 255 255 255 255 255 255 255 255 255 255 255 255 255 255 255 255 255 255 255 255 255 255 255 255 255 255 255 255 255 255 255 255 255 255 255 255 255 255 255 255 255 255 255 255 255 255 255 255 255 255 255 255 255 255 255 255 255 255 255 255 255 255 255 255 255 255 255 255 255 255 255 255 255 255 255 255 255 255 255 225 0 15 225 0 15 225 0 15 225 0 15 225 0 15 225 0 15 225 0 15 225 0 15 225 0 15 225 0 15 225 0 15 225 0 15 225 0 15 225 0 15 225 0 15 225 0 15 225 0 15 225 0 15 225 0 15 225 0 15 225 0 15 225 0 15 225 0 15 225 0 15 225 0 15 225 0 15 225 0 15 225 0 15 225 0 15 225 0 15 225 0 15 225 0 15 225 0 15 225 0 15 225 0 15 225 0 15 225 0 15 225 0 15 225 0 15 225 0 15 225 0 15 225 0 15 225 0 15 225 0 15 225 0 15 225 0 15 225 0 15 225 0 15 225 0 15 225 0 15 225 0 15 225 0 15 225 0 15 225 0 15 225 0 15 225 0 15 225 0 15 225 0 15 225 0 15 225 0 15 225 0 15 225 0 15 225 0 15 225 0 15 225 0 15 225 0 15 225 0 15 225 0 15 225 0 15 225 0 15 225 0 15 225 0 15 225 0 15 225 0 15 225 0 15 225 0 15 225 0 15 225 0 15 225 0 15 225 0 15 225 0 15 225 0 15 225 0 15 225 0 15 225 0 15 225 0 15 225 0 15 225 0 15 225 0 15 225 0 15 225 0 15 225 0 15 225 0 15 225 0 15 225 0 15 225 0 15 225 0 15 225 0 15 225 0 15 225 0 15 225 0 15 
0 0 145 0 0 145 0 0 145 0 0 145 0 0 145 0 0 145 0 0 145 0 0 145 0 0 145 0 0 145 0 0 145 0 0 145 0 0 145 0 0 145 0 0 145 0 0 145 0 0 145 0 0 145 0 0 145 0 0 145 0 0 145 0 0 145 0 0 145 0 0 145 0 0 145 0 0 145 0 0 145 0 0 145 0 0 145 0 0 145 0 0 145 0 0 145 0 0 145 0 0 145 0 0 145 0 0 145 0 0 145 0 0 145 0 0 145 0 0 145 0 0 145 0 0 145 0 0 145 0 0 145 0 0 145 0 0 145 0 0 145 0 0 145 0 0 145 0 0 145 0 0 145 0 0 145 0 0 145 0 0 145 0 0 145 0 0 145 0 0 145 0 0 145 0 0 145 0 0 145 0 0 145 0 0 145 0 0 145 0 0 145 0 0 145 0 0 145 0 0 145 0 0 145 0 0 145 0 0 145 0 0 145 0 0 145 0 0 145 0 0 145 0 0 145 0 0 145 0 0 145 0 0 145 0 0 145 0 0 145 0 0 145 0 0 145 0 0 145 0 0 145 0 0 145 0 0 145 0 0 145 0 0 145 0 0 145 0 0 145 0 0 145 0 0 145 0 0 145 0 0 145 0 0 145 0 0 145 0 0 145 0 0 145 0 0 145 225 0 15 255 255 255 255 255 255 255 255 255 255 255 255 255 255 255 255 255 255 255 255 255 255 255 255 255 255 255 255 255 255 255 255 255 255 255 255 255 255 255 255 255 255 255 255 255 255 255 255 255 255 255 255 255 255 255 255 255 255 255 255 255 255 255 255 255 255 255 255 255 255 255 255 255 255 255 255 255 255 255 255 255 255 255 255 255 255 255 255 255 255 255 255 255 255 255 255 255 255 255 255 255 255 255 255 255 255 255 255 255 255 255 255 255 255 255 255 255 255 255 255 255 255 255 255 255 255 255 255 255 255 255 255 255 255 255 255 255 255 255 255 255 255 255 255 255 255 255 255 255 255 255 255 255 255 255 255 255 255 255 255 255 255 255 255 255 255 255 255 255 255 255 255 255 255 255 255 255 255 255 255 255 255 255 255 255 255 255 255 255 255 255 255 255 255 255 255 255 255 255 255 255 255 255 255 255 255 255 255 255 255 255 255 255 255 255 255 255 255 255 255 255 255 255 255 255 255 255 255 255 255 255 255 255 255 255 255 255 255 255 255 255 255 255 255 255 255 255 255 255 255 255 255 255 255 255 255 255 255 255 255 255 255 255 255 255 255 255 255 255 255 255 255 255 255 255 255 255 255 255 255 255 255 255 255 255 255 255 255 255 255 255 255 255 255 255 255 255 225 0 15 225 0 15 225 0 15 225 0 15 225 0 15 225 0 15 225 0 15 225 0 15 225 0 15 225 0 15 225 0 15 225 0 15 225 0 15 225 0 15 225 0 15 225 0 15 225 0 15 225 0 15 225 0 15 225 0 15 225 0 15 225 0 15 225 0 15 225 0 15 225 0 15 225 0 15 225 0 15 225 0 15 225 0 15 225 0 15 225 0 15 225 0 15 225 0 15 225 0 15 225 0 15 225 0 15 225 0 15 225 0 15 225 0 15 225 0 15 225 0 15 225 0 15 225 0 15 225 0 15 225 0 15 225 0 15 225 0 15 225 0 15 225 0 15 225 0 15 225 0 15 225 0 15 225 0 15 225 0 15 225 0 15 225 0 15 225 0 15 225 0 15 225 0 15 225 0 15 225 0 15 225 0 15 225 0 15 225 0 15 225 0 15 225 0 15 225 0 15 225 0 15 225 0 15 225 0 15 225 0 15 225 0 15 225 0 15 225 0 15 225 0 15 225 0 15 225 0 15 225 0 15 225 0 15 225 0 15 225 0 15 225 0 15 225 0 15 225 0 15 225 0 15 225 0 15 225 0 15 225 0 15 225 0 15 225 0 15 225 0 15 225 0 15 225 0 15 225 0 15 225 0 15 225 0 15 225 0 15 225 0 15 225 0 15 225 0 15 225 0 15 
0 0 145 0 0 145 0 0 145 0 0 145 0 0 145 0 0 145 0 0 145 0 0 145 0 0 145 0 0 145 0 0 145 0 0 145 0 0 145 0 0 145 0 0 145 0 0 145 0 0 145 0 0 145 0 0 145 0 0 145 0 0 145 0 0 145 0 0 145 0 0 145 0 0 145 0 0 145 0 0 145 0 0 145 0 0 145 0 0 145 0 0 145 0 0 145 0 0 145 0 0 145 0 0 145 0 0 145 0 0 145 0 0 145 0 0 145 0 0 145 0 0 145 0 0 145 0 0 145 0 0 145 0 0 145 0 0 145 0 0 145 0 0 145 0 0 145 0 0 145 0 0 145 0 0 145 0 0 145 0 0 145 0 0 145 0 0 145 0 0 145 0 0 145 0 0 145 0 0 145 0 0 145 0 0 145 0 0 145 0 0 145 0 0 145 0 0 145 0 0 145 0 0 145 0 0 145 0 0 145 0 0 145 0 0 145 0 0 145 0 0 145 0 0 145 0 0 145 0 0 145 0 0 145 0 0 145 0 0 145 0 0 145 0 0 145 0 0 145 0 0 145 0 0 145 0 0 145 0 0 145 0 0 145 0 0 145 0 0 145 0 0 145 0 0 145 0 0 145 0 0 145 0 0 145 0 0 145 0 0 145 0 0 145 0 0 145 225 0 15 255 255 255 255 255 255 255 255 255 255 255 255 255 255 255 255 255 255 255 255 255 255 255 255 255 255 255 255 255 255 255 255 255 255 255 255 255 255 255 255 255 255 255 255 255 255 255 255 255 255 255 255 255 255 255 255 255 255 255 255 255 255 255 255 255 255 255 255 255 255 255 255 255 255 255 255 255 255 255 255 255 255 255 255 255 255 255 255 255 255 255 255 255 255 255 255 255 255 255 255 255 255 255 255 255 255 255 255 255 255 255 255 255 255 255 255 255 255 255 255 255 255 255 255 255 255 255 255 255 255 255 255 255 255 255 255 255 255 255 255 255 255 255 255 255 255 255 255 255 255 255 255 255 255 255 255 255 255 255 255 255 255 255 255 255 255 255 255 255 255 255 255 255 255 255 255 255 255 255 255 255 255 255 255 255 255 255 255 255 255 255 255 255 255 255 255 255 255 255 255 255 255 255 255 255 255 255 255 255 255 255 255 255 255 255 255 255 255 255 255 255 255 255 255 255 255 255 255 255 255 255 255 255 255 255 255 255 255 255 255 255 255 255 255 255 255 255 255 255 255 255 255 255 255 255 255 255 255 255 255 255 255 255 255 255 255 255 255 255 255 255 255 255 255 255 255 255 255 255 255 255 255 255 255 255 255 255 255 255 255 255 255 255 255 255 255 255 225 0 15 225 0 15 225 0 15 225 0 15 225 0 15 225 0 15 225 0 15 225 0 15 225 0 15 225 0 15 225 0 15 225 0 15 225 0 15 225 0 15 225 0 15 225 0 15 225 0 15 225 0 15 225 0 15 225 0 15 225 0 15 225 0 15 225 0 15 225 0 15 225 0 15 225 0 15 225 0 15 225 0 15 225 0 15 225 0 15 225 0 15 225 0 15 225 0 15 225 0 15 225 0 15 225 0 15 225 0 15 225 0 15 225 0 15 225 0 15 225 0 15 225 0 15 225 0 15 225 0 15 225 0 15 225 0 15 225 0 15 225 0 15 225 0 15 225 0 15 225 0 15 225 0 15 225 0 15 225 0 15 225 0 15 225 0 15 225 0 15 225 0 15 225 0 15 225 0 15 225 0 15 225 0 15 225 0 15 225 0 15 225 0 15 225 0 15 225 0 15 225 0 15 225 0 15 225 0 15 225 0 15 225 0 15 225 0 15 225 0 15 225 0 15 225 0 15 225 0 15 225 0 15 225 0 15 225 0 15 225 0 15 225 0 15 225 0 15 225 0 15 225 0 15 225 0 15 225 0 15 225 0 15 225 0 15 225 0 15 225 0 15 225 0 15 225 0 15 225 0 15 225 0 15 225 0 15 225 0 15 225 0 15 225 0 15 225 0 15 225 0 15 
0 0 145 0 0 145 0 0 145 0 0 145 0 0 145 0 0 145 0 0 145 0 0 145 0 0 145 0 0 145 0 0 145 0 0 145 0 0 145 0 0 145 0 0 145 0 0 145 0 0 145 0 0 145 0 0 145 0 0 145 0 0 145 0 0 145 0 0 145 0 0 145 0 0 145 0 0 145 0 0 145 0 0 145 0 0 145 0 0 145 0 0 145 0 0 145 0 0 145 0 0 145 0 0 145 0 0 145 0 0 145 0 0 145 0 0 145 0 0 145 0 0 145 0 0 145 0 0 145 0 0 145 0 0 145 0 0 145 0 0 145 0 0 145 0 0 145 0 0 145 0 0 145 0 0 145 0 0 145 0 0 145 0 0 145 0 0 145 0 0 145 0 0 145 0 0 145 0 0 145 0 0 145 0 0 145 0 0 145 0 0 145 0 0 145 0 0 145 0 0 145 0 0 145 0 0 145 0 0 145 0 0 145 0 0 145 0 0 145 0 0 145 0 0 145 0 0 145 0 0 145 0 0 145 0 0 145 0 0 145 0 0 145 0 0 145 0 0 145 0 0 145 0 0 145 0 0 145 0 0 145 0 0 145 0 0 145 0 0 145 0 0 145 0 0 145 0 0 145 0 0 145 0 0 145 0 0 145 0 0 145 0 0 145 0 0 145 225 0 15 255 255 255 255 255 255 255 255 255 255 255 255 255 255 255 255 255 255 255 255 255 255 255 255 255 255 255 255 255 255 255 255 255 255 255 255 255 255 255 255 255 255 255 255 255 255 255 255 255 255 255 255 255 255 255 255 255 255 255 255 255 255 255 255 255 255 255 255 255 255 255 255 255 255 255 255 255 255 255 255 255 255 255 255 255 255 255 255 255 255 255 255 255 255 255 255 255 255 255 255 255 255 255 255 255 255 255 255 255 255 255 255 255 255 255 255 255 255 255 255 255 255 255 255 255 255 255 255 255 255 255 255 255 255 255 255 255 255 255 255 255 255 255 255 255 255 255 255 255 255 255 255 255 255 255 255 255 255 255 255 255 255 255 255 255 255 255 255 255 255 255 255 255 255 255 255 255 255 255 255 255 255 255 255 255 255 255 255 255 255 255 255 255 255 255 255 255 255 255 255 255 255 255 255 255 255 255 255 255 255 255 255 255 255 255 255 255 255 255 255 255 255 255 255 255 255 255 255 255 255 255 255 255 255 255 255 255 255 255 255 255 255 255 255 255 255 255 255 255 255 255 255 255 255 255 255 255 255 255 255 255 255 255 255 255 255 255 255 255 255 255 255 255 255 255 255 255 255 255 255 255 255 255 255 255 255 255 255 255 255 255 255 255 255 255 255 255 225 0 15 225 0 15 225 0 15 225 0 15 225 0 15 225 0 15 225 0 15 225 0 15 225 0 15 225 0 15 225 0 15 225 0 15 225 0 15 225 0 15 225 0 15 225 0 15 225 0 15 225 0 15 225 0 15 225 0 15 225 0 15 225 0 15 225 0 15 225 0 15 225 0 15 225 0 15 225 0 15 225 0 15 225 0 15 225 0 15 225 0 15 225 0 15 225 0 15 225 0 15 225 0 15 225 0 15 225 0 15 225 0 15 225 0 15 225 0 15 225 0 15 225 0 15 225 0 15 225 0 15 225 0 15 225 0 15 225 0 15 225 0 15 225 0 15 225 0 15 225 0 15 225 0 15 225 0 15 225 0 15 225 0 15 225 0 15 225 0 15 225 0 15 225 0 15 225 0 15 225 0 15 225 0 15 225 0 15 225 0 15 225 0 15 225 0 15 225 0 15 225 0 15 225 0 15 225 0 15 225 0 15 225 0 15 225 0 15 225 0 15 225 0 15 225 0 15 225 0 15 225 0 15 225 0 15 225 0 15 225 0 15 225 0 15 225 0 15 225 0 15 225 0 15 225 0 15 225 0 15 225 0 15 225 0 15 225 0 15 225 0 15 225 0 15 225 0 15 225 0 15 225 0 15 225 0 15 225 0 15 225 0 15 225 0 15 225 0 15 225 0 15 
0 0 145 0 0 145 0 0 145 0 0 145 0 0 145 0 0 145 0 0 145 0 0 145 0 0 145 0 0 145 0 0 145 0 0 145 0 0 145 0 0 145 0 0 145 0 0 145 0 0 145 0 0 145 0 0 145 0 0 145 0 0 145 0 0 145 0 0 145 0 0 145 0 0 145 0 0 145 0 0 145 0 0 145 0 0 145 0 0 145 0 0 145 0 0 145 0 0 145 0 0 145 0 0 145 0 0 145 0 0 145 0 0 145 0 0 145 0 0 145 0 0 145 0 0 145 0 0 145 0 0 145 0 0 145 0 0 145 0 0 145 0 0 145 0 0 145 0 0 145 0 0 145 0 0 145 0 0 145 0 0 145 0 0 145 0 0 145 0 0 145 0 0 145 0 0 145 0 0 145 0 0 145 0 0 145 0 0 145 0 0 145 0 0 145 0 0 145 0 0 145 0 0 145 0 0 145 0 0 145 0 0 145 0 0 145 0 0 145 0 0 145 0 0 145 0 0 145 0 0 145 0 0 145 0 0 145 0 0 145 0 0 145 0 0 145 0 0 145 0 0 145 0 0 145 0 0 145 0 0 145 0 0 145 0 0 145 0 0 145 0 0 145 0 0 145 0 0 145 0 0 145 0 0 145 0 0 145 0 0 145 0 0 145 0 0 145 225 0 15 255 255 255 255 255 255 255 255 255 255 255 255 255 255 255 255 255 255 255 255 255 255 255 255 255 255 255 255 255 255 255 255 255 255 255 255 255 255 255 255 255 255 255 255 255 255 255 255 255 255 255 255 255 255 255 255 255 255 255 255 255 255 255 255 255 255 255 255 255 255 255 255 255 255 255 255 255 255 255 255 255 255 255 255 255 255 255 255 255 255 255 255 255 255 255 255 255 255 255 255 255 255 255 255 255 255 255 255 255 255 255 255 255 255 255 255 255 255 255 255 255 255 255 255 255 255 255 255 255 255 255 255 255 255 255 255 255 255 255 255 255 255 255 255 255 255 255 255 255 255 255 255 255 255 255 255 255 255 255 255 255 255 255 255 255 255 255 255 255 255 255 255 255 255 255 255 255 255 255 255 255 255 255 255 255 255 255 255 255 255 255 255 255 255 255 255 255 255 255 255 255 255 255 255 255 255 255 255 255 255 255 255 255 255 255 255 255 255 255 255 255 255 255 255 255 255 255 255 255 255 255 255 255 255 255 255 255 255 255 255 255 255 255 255 255 255 255 255 255 255 255 255 255 255 255 255 255 255 255 255 255 255 255 255 255 255 255 255 255 255 255 255 255 255 255 255 255 255 255 255 255 255 255 255 255 255 255 255 255 255 255 255 255 255 255 255 255 225 0 15 225 0 15 225 0 15 225 0 15 225 0 15 225 0 15 225 0 15 225 0 15 225 0 15 225 0 15 225 0 15 225 0 15 225 0 15 225 0 15 225 0 15 225 0 15 225 0 15 225 0 15 225 0 15 225 0 15 225 0 15 225 0 15 225 0 15 225 0 15 225 0 15 225 0 15 225 0 15 225 0 15 225 0 15 225 0 15 225 0 15 225 0 15 225 0 15 225 0 15 225 0 15 225 0 15 225 0 15 225 0 15 225 0 15 225 0 15 225 0 15 225 0 15 225 0 15 225 0 15 225 0 15 225 0 15 225 0 15 225 0 15 225 0 15 225 0 15 225 0 15 225 0 15 225 0 15 225 0 15 225 0 15 225 0 15 225 0 15 225 0 15 225 0 15 225 0 15 225 0 15 225 0 15 225 0 15 225 0 15 225 0 15 225 0 15 225 0 15 225 0 15 225 0 15 225 0 15 225 0 15 225 0 15 225 0 15 225 0 15 225 0 15 225 0 15 225 0 15 225 0 15 225 0 15 225 0 15 225 0 15 225 0 15 225 0 15 225 0 15 225 0 15 225 0 15 225 0 15 225 0 15 225 0 15 225 0 15 225 0 15 225 0 15 225 0 15 225 0 15 225 0 15 225 0 15 225 0 15 225 0 15 225 0 15 225 0 15 225 0 15 
0 0 145 0 0 145 0 0 145 0 0 145 0 0 145 0 0 145 0 0 145 0 0 145 0 0 145 0 0 145 0 0 145 0 0 145 0 0 145 0 0 145 0 0 145 0 0 145 0 0 145 0 0 145 0 0 145 0 0 145 0 0 145 0 0 145 0 0 145 0 0 145 0 0 145 0 0 145 0 0 145 0 0 145 0 0 145 0 0 145 0 0 145 0 0 145 0 0 145 0 0 145 0 0 145 0 0 145 0 0 145 0 0 145 0 0 145 0 0 145 0 0 145 0 0 145 0 0 145 0 0 145 0 0 145 0 0 145 0 0 145 0 0 145 0 0 145 0 0 145 0 0 145 0 0 145 0 0 145 0 0 145 0 0 145 0 0 145 0 0 145 0 0 145 0 0 145 0 0 145 0 0 145 0 0 145 0 0 145 0 0 145 0 0 145 0 0 145 0 0 145 0 0 145 0 0 145 0 0 145 0 0 145 0 0 145 0 0 145 0 0 145 0 0 145 0 0 145 0 0 145 0 0 145 0 0 145 0 0 145 0 0 145 0 0 145 0 0 145 0 0 145 0 0 145 0 0 145 0 0 145 0 0 145 0 0 145 0 0 145 0 0 145 0 0 145 0 0 145 0 0 145 0 0 145 0 0 145 0 0 145 0 0 145 0 0 145 225 0 15 255 255 255 255 255 255 255 255 255 255 255 255 255 255 255 255 255 255 255 255 255 255 255 255 255 255 255 255 255 255 255 255 255 255 255 255 255 255 255 255 255 255 255 255 255 255 255 255 255 255 255 255 255 255 255 255 255 255 255 255 255 255 255 255 255 255 255 255 255 255 255 255 255 255 255 255 255 255 255 255 255 255 255 255 255 255 255 255 255 255 255 255 255 255 255 255 255 255 255 255 255 255 255 255 255 255 255 255 255 255 255 255 255 255 255 255 255 255 255 255 255 255 255 255 255 255 255 255 255 255 255 255 255 255 255 255 255 255 255 255 255 255 255 255 255 255 255 255 255 255 255 255 255 255 255 255 255 255 255 255 255 255 255 255 255 255 255 255 255 255 255 255 255 255 255 255 255 255 255 255 255 255 255 255 255 255 255 255 255 255 255 255 255 255 255 255 255 255 255 255 255 255 255 255 255 255 255 255 255 255 255 255 255 255 255 255 255 255 255 255 255 255 255 255 255 255 255 255 255 255 255 255 255 255 255 255 255 255 255 255 255 255 255 255 255 255 255 255 255 255 255 255 255 255 255 255 255 255 255 255 255 255 255 255 255 255 255 255 255 255 255 255 255 255 255 255 255 255 255 255 255 255 255 255 255 255 255 255 255 255 255 255 255 255 255 255 255 225 0 15 225 0 15 225 0 15 225 0 15 225 0 15 225 0 15 225 0 15 225 0 15 225 0 15 225 0 15 225 0 15 225 0 15 225 0 15 225 0 15 225 0 15 225 0 15 225 0 15 225 0 15 225 0 15 225 0 15 225 0 15 225 0 15 225 0 15 225 0 15 225 0 15 225 0 15 225 0 15 225 0 15 225 0 15 225 0 15 225 0 15 225 0 15 225 0 15 225 0 15 225 0 15 225 0 15 225 0 15 225 0 15 225 0 15 225 0 15 225 0 15 225 0 15 225 0 15 225 0 15 225 0 15 225 0 15 225 0 15 225 0 15 225 0 15 225 0 15 225 0 15 225 0 15 225 0 15 225 0 15 225 0 15 225 0 15 225 0 15 225 0 15 225 0 15 225 0 15 225 0 15 225 0 15 225 0 15 225 0 15 225 0 15 225 0 15 225 0 15 225 0 15 225 0 15 225 0 15 225 0 15 225 0 15 225 0 15 225 0 15 225 0 15 225 0 15 225 0 15 225 0 15 225 0 15 225 0 15 225 0 15 225 0 15 225 0 15 225 0 15 225 0 15 225 0 15 225 0 15 225 0 15 225 0 15 225 0 15 225 0 15 225 0 15 225 0 15 225 0 15 225 0 15 225 0 15 225 0 15 225 0 15 225 0 15 225 0 15 225 0 15 
0 0 145 0 0 145 0 0 145 0 0 145 0 0 145 0 0 145 0 0 145 0 0 145 0 0 145 0 0 145 0 0 145 0 0 145 0 0 145 0 0 145 0 0 145 0 0 145 0 0 145 0 0 145 0 0 145 0 0 145 0 0 145 0 0 145 0 0 145 0 0 145 0 0 145 0 0 145 0 0 145 0 0 145 0 0 145 0 0 145 0 0 145 0 0 145 0 0 145 0 0 145 0 0 145 0 0 145 0 0 145 0 0 145 0 0 145 0 0 145 0 0 145 0 0 145 0 0 145 0 0 145 0 0 145 0 0 145 0 0 145 0 0 145 0 0 145 0 0 145 0 0 145 0 0 145 0 0 145 0 0 145 0 0 145 0 0 145 0 0 145 0 0 145 0 0 145 0 0 145 0 0 145 0 0 145 0 0 145 0 0 145 0 0 145 0 0 145 0 0 145 0 0 145 0 0 145 0 0 145 0 0 145 0 0 145 0 0 145 0 0 145 0 0 145 0 0 145 0 0 145 0 0 145 0 0 145 0 0 145 0 0 145 0 0 145 0 0 145 0 0 145 0 0 145 0 0 145 0 0 145 0 0 145 0 0 145 0 0 145 0 0 145 0 0 145 0 0 145 0 0 145 0 0 145 0 0 145 0 0 145 0 0 145 0 0 145 225 0 15 255 255 255 255 255 255 255 255 255 255 255 255 255 255 255 255 255 255 255 255 255 255 255 255 255 255 255 255 255 255 255 255 255 255 255 255 255 255 255 255 255 255 255 255 255 255 255 255 255 255 255 255 255 255 255 255 255 255 255 255 255 255 255 255 255 255 255 255 255 255 255 255 255 255 255 255 255 255 255 255 255 255 255 255 255 255 255 255 255 255 255 255 255 255 255 255 255 255 255 255 255 255 255 255 255 255 255 255 255 255 255 255 255 255 255 255 255 255 255 255 255 255 255 255 255 255 255 255 255 255 255 255 255 255 255 255 255 255 255 255 255 255 255 255 255 255 255 255 255 255 255 255 255 255 255 255 255 255 255 255 255 255 255 255 255 255 255 255 255 255 255 255 255 255 255 255 255 255 255 255 255 255 255 255 255 255 255 255 255 255 255 255 255 255 255 255 255 255 255 255 255 255 255 255 255 255 255 255 255 255 255 255 255 255 255 255 255 255 255 255 255 255 255 255 255 255 255 255 255 255 255 255 255 255 255 255 255 255 255 255 255 255 255 255 255 255 255 255 255 255 255 255 255 255 255 255 255 255 255 255 255 255 255 255 255 255 255 255 255 255 255 255 255 255 255 255 255 255 255 255 255 255 255 255 255 255 255 255 255 255 255 255 255 255 255 255 255 225 0 15 225 0 15 225 0 15 225 0 15 225 0 15 225 0 15 225 0 15 225 0 15 225 0 15 225 0 15 225 0 15 225 0 15 225 0 15 225 0 15 225 0 15 225 0 15 225 0 15 225 0 15 225 0 15 225 0 15 225 0 15 225 0 15 225 0 15 225 0 15 225 0 15 225 0 15 225 0 15 225 0 15 225 0 15 225 0 15 225 0 15 225 0 15 225 0 15 225 0 15 225 0 15 225 0 15 225 0 15 225 0 15 225 0 15 225 0 15 225 0 15 225 0 15 225 0 15 225 0 15 225 0 15 225 0 15 225 0 15 225 0 15 225 0 15 225 0 15 225 0 15 225 0 15 225 0 15 225 0 15 225 0 15 225 0 15 225 0 15 225 0 15 225 0 15 225 0 15 225 0 15 225 0 15 225 0 15 225 0 15 225 0 15 225 0 15 225 0 15 225 0 15 225 0 15 225 0 15 225 0 15 225 0 15 225 0 15 225 0 15 225 0 15 225 0 15 225 0 15 225 0 15 225 0 15 225 0 15 225 0 15 225 0 15 225 0 15 225 0 15 225 0 15 225 0 15 225 0 15 225 0 15 225 0 15 225 0 15 225 0 15 225 0 15 225 0 15 225 0 15 225 0 15 225 0 15 225 0 15 225 0 15 225 0 15 225 0 15 225 0 15 
0 0 145 0 0 145 0 0 145 0 0 145 0 0 145 0 0 145 0 0 145 0 0 145 0 0 145 0 0 145 0 0 145 0 0 145 0 0 145 0 0 145 0 0 145 0 0 145 0 0 145 0 0 145 0 0 145 0 0 145 0 0 145 0 0 145 0 0 145 0 0 145 0 0 145 0 0 145 0 0 145 0 0 145 0 0 145 0 0 145 0 0 145 0 0 145 0 0 145 0 0 145 0 0 145 0 0 145 0 0 145 0 0 145 0 0 145 0 0 145 0 0 145 0 0 145 0 0 145 0 0 145 0 0 145 0 0 145 0 0 145 0 0 145 0 0 145 0 0 145 0 0 145 0 0 145 0 0 145 0 0 145 0 0 145 0 0 145 0 0 145 0 0 145 0 0 145 0 0 145 0 0 145 0 0 145 0 0 145 0 0 145 0 0 145 0 0 145 0 0 145 0 0 145 0 0 145 0 0 145 0 0 145 0 0 145 0 0 145 0 0 145 0 0 145 0 0 145 0 0 145 0 0 145 0 0 145 0 0 145 0 0 145 0 0 145 0 0 145 0 0 145 0 0 145 0 0 145 0 0 145 0 0 145 0 0 145 0 0 145 0 0 145 0 0 145 0 0 145 0 0 145 0 0 145 0 0 145 0 0 145 0 0 145 0 0 145 225 0 15 255 255 255 255 255 255 255 255 255 255 255 255 255 255 255 255 255 255 255 255 255 255 255 255 255 255 255 255 255 255 255 255 255 255 255 255 255 255 255 255 255 255 255 255 255 255 255 255 255 255 255 255 255 255 255 255 255 255 255 255 255 255 255 255 255 255 255 255 255 255 255 255 255 255 255 255 255 255 255 255 255 255 255 255 255 255 255 255 255 255 255 255 255 255 255 255 255 255 255 255 255 255 255 255 255 255 255 255 255 255 255 255 255 255 255 255 255 255 255 255 255 255 255 255 255 255 255 255 255 255 255 255 255 255 255 255 255 255 255 255 255 255 255 255 255 255 255 255 255 255 255 255 255 255 255 255 255 255 255 255 255 255 255 255 255 255 255 255 255 255 255 255 255 255 255 255 255 255 255 255 255 255 255 255 255 255 255 255 255 255 255 255 255 255 255 255 255 255 255 255 255 255 255 255 255 255 255 255 255 255 255 255 255 255 255 255 255 255 255 255 255 255 255 255 255 255 255 255 255 255 255 255 255 255 255 255 255 255 255 255 255 255 255 255 255 255 255 255 255 255 255 255 255 255 255 255 255 255 255 255 255 255 255 255 255 255 255 255 255 255 255 255 255 255 255 255 255 255 255 255 255 255 255 255 255 255 255 255 255 255 255 255 255 255 255 255 255 225 0 15 225 0 15 225 0 15 225 0 15 225 0 15 225 0 15 225 0 15 225 0 15 225 0 15 225 0 15 225 0 15 225 0 15 225 0 15 225 0 15 225 0 15 225 0 15 225 0 15 225 0 15 225 0 15 225 0 15 225 0 15 225 0 15 225 0 15 225 0 15 225 0 15 225 0 15 225 0 15 225 0 15 225 0 15 225 0 15 225 0 15 225 0 15 225 0 15 225 0 15 225 0 15 225 0 15 225 0 15 225 0 15 225 0 15 225 0 15 225 0 15 225 0 15 225 0 15 225 0 15 225 0 15 225 0 15 225 0 15 225 0 15 225 0 15 225 0 15 225 0 15 225 0 15 225 0 15 225 0 15 225 0 15 225 0 15 225 0 15 225 0 15 225 0 15 225 0 15 225 0 15 225 0 15 225 0 15 225 0 15 225 0 15 225 0 15 225 0 15 225 0 15 225 0 15 225 0 15 225 0 15 225 0 15 225 0 15 225 0 15 225 0 15 225 0 15 225 0 15 225 0 15 225 0 15 225 0 15 225 0 15 225 0 15 225 0 15 225 0 15 225 0 15 225 0 15 225 0 15 225 0 15 225 0 15 225 0 15 225 0 15 225 0 15 225 0 15 225 0 15 225 0 15 225 0 15 225 0 15 225 0 15 225 0 15 225 0 15 225 0 15 
0 0 145 0 0 145 0 0 145 0 0 145 0 0 145 0 0 145 0 0 145 0 0 145 0 0 145 0 0 145 0 0 145 0 0 145 0 0 145 0 0 145 0 0 145 0 0 145 0 0 145 0 0 145 0 0 145 0 0 145 0 0 145 0 0 145 0 0 145 0 0 145 0 0 145 0 0 145 0 0 145 0 0 145 0 0 145 0 0 145 0 0 145 0 0 145 0 0 145 0 0 145 0 0 145 0 0 145 0 0 145 0 0 145 0 0 145 0 0 145 0 0 145 0 0 145 0 0 145 0 0 145 0 0 145 0 0 145 0 0 145 0 0 145 0 0 145 0 0 145 0 0 145 0 0 145 0 0 145 0 0 145 0 0 145 0 0 145 0 0 145 0 0 145 0 0 145 0 0 145 0 0 145 0 0 145 0 0 145 0 0 145 0 0 145 0 0 145 0 0 145 0 0 145 0 0 145 0 0 145 0 0 145 0 0 145 0 0 145 0 0 145 0 0 145 0 0 145 0 0 145 0 0 145 0 0 145 0 0 145 0 0 145 0 0 145 0 0 145 0 0 145 0 0 145 0 0 145 0 0 145 0 0 145 0 0 145 0 0 145 0 0 145 0 0 145 0 0 145 0 0 145 0 0 145 0 0 145 0 0 145 0 0 145 0 0 145 225 0 15 255 255 255 255 255 255 255 255 255 255 255 255 255 255 255 255 255 255 255 255 255 255 255 255 255 255 255 255 255 255 255 255 255 255 255 255 255 255 255 255 255 255 255 255 255 255 255 255 255 255 255 255 255 255 255 255 255 255 255 255 255 255 255 255 255 255 255 255 255 255 255 255 255 255 255 255 255 255 255 255 255 255 255 255 255 255 255 255 255 255 255 255 255 255 255 255 255 255 255 255 255 255 255 255 255 255 255 255 255 255 255 255 255 255 255 255 255 255 255 255 255 255 255 255 255 255 255 255 255 255 255 255 255 255 255 255 255 255 255 255 255 255 255 255 255 255 255 255 255 255 255 255 255 255 255 255 255 255 255 255 255 255 255 255 255 255 255 255 255 255 255 255 255 255 255 255 255 255 255 255 255 255 255 255 255 255 255 255 255 255 255 255 255 255 255 255 255 255 255 255 255 255 255 255 255 255 255 255 255 255 255 255 255 255 255 255 255 255 255 255 255 255 255 255 255 255 255 255 255 255 255 255 255 255 255 255 255 255 255 255 255 255 255 255 255 255 255 255 255 255 255 255 255 255 255 255 255 255 255 255 255 255 255 255 255 255 255 255 255 255 255 255 255 255 255 255 255 255 255 255 255 255 255 255 255 255 255 255 255 255 255 255 255 255 255 255 255 225 0 15 225 0 15 225 0 15 225 0 15 225 0 15 225 0 15 225 0 15 225 0 15 225 0 15 225 0 15 225 0 15 225 0 15 225 0 15 225 0 15 225 0 15 225 0 15 225 0 15 225 0 15 225 0 15 225 0 15 225 0 15 225 0 15 225 0 15 225 0 15 225 0 15 225 0 15 225 0 15 225 0 15 225 0 15 225 0 15 225 0 15 225 0 15 225 0 15 225 0 15 225 0 15 225 0 15 225 0 15 225 0 15 225 0 15 225 0 15 225 0 15 225 0 15 225 0 15 225 0 15 225 0 15 225 0 15 225 0 15 225 0 15 225 0 15 225 0 15 225 0 15 225 0 15 225 0 15 225 0 15 225 0 15 225 0 15 225 0 15 225 0 15 225 0 15 225 0 15 225 0 15 225 0 15 225 0 15 225 0 15 225 0 15 225 0 15 225 0 15 225 0 15 225 0 15 225 0 15 225 0 15 225 0 15 225 0 15 225 0 15 225 0 15 225 0 15 225 0 15 225 0 15 225 0 15 225 0 15 225 0 15 225 0 15 225 0 15 225 0 15 225 0 15 225 0 15 225 0 15 225 0 15 225 0 15 225 0 15 225 0 15 225 0 15 225 0 15 225 0 15 225 0 15 225 0 15 225 0 15 225 0 15 225 0 15 225 0 15 225 0 15 
0 0 145 0 0 145 0 0 145 0 0 145 0 0 145 0 0 145 0 0 145 0 0 145 0 0 145 0 0 145 0 0 145 0 0 145 0 0 145 0 0 145 0 0 145 0 0 145 0 0 145 0 0 145 0 0 145 0 0 145 0 0 145 0 0 145 0 0 145 0 0 145 0 0 145 0 0 145 0 0 145 0 0 145 0 0 145 0 0 145 0 0 145 0 0 145 0 0 145 0 0 145 0 0 145 0 0 145 0 0 145 0 0 145 0 0 145 0 0 145 0 0 145 0 0 145 0 0 145 0 0 145 0 0 145 0 0 145 0 0 145 0 0 145 0 0 145 0 0 145 0 0 145 0 0 145 0 0 145 0 0 145 0 0 145 0 0 145 0 0 145 0 0 145 0 0 145 0 0 145 0 0 145 0 0 145 0 0 145 0 0 145 0 0 145 0 0 145 0 0 145 0 0 145 0 0 145 0 0 145 0 0 145 0 0 145 0 0 145 0 0 145 0 0 145 0 0 145 0 0 145 0 0 145 0 0 145 0 0 145 0 0 145 0 0 145 0 0 145 0 0 145 0 0 145 0 0 145 0 0 145 0 0 145 0 0 145 0 0 145 0 0 145 0 0 145 0 0 145 0 0 145 0 0 145 0 0 145 0 0 145 0 0 145 0 0 145 225 0 15 255 255 255 255 255 255 255 255 255 255 255 255 255 255 255 255 255 255 255 255 255 255 255 255 255 255 255 255 255 255 255 255 255 255 255 255 255 255 255 255 255 255 255 255 255 255 255 255 255 255 255 255 255 255 255 255 255 255 255 255 255 255 255 255 255 255 255 255 255 255 255 255 255 255 255 255 255 255 255 255 255 255 255 255 255 255 255 255 255 255 255 255 255 255 255 255 255 255 255 255 255 255 255 255 255 255 255 255 255 255 255 255 255 255 255 255 255 255 255 255 255 255 255 255 255 255 255 255 255 255 255 255 255 255 255 255 255 255 255 255 255 255 255 255 255 255 255 255 255 255 255 255 255 255 255 255 255 255 255 255 255 255 255 255 255 255 255 255 255 255 255 255 255 255 255 255 255 255 255 255 255 255 255 255 255 255 255 255 255 255 255 255 255 255 255 255 255 255 255 255 255 255 255 255 255 255 255 255 255 255 255 255 255 255 255 255 255 255 255 255 255 255 255 255 255 255 255 255 255 255 255 255 255 255 255 255 255 255 255 255 255 255 255 255 255 255 255 255 255 255 255 255 255 255 255 255 255 255 255 255 255 255 255 255 255 255 255 255 255 255 255 255 255 255 255 255 255 255 255 255 255 255 255 255 255 255 255 255 255 255 255 255 255 255 255 255 255 225 0 15 225 0 15 225 0 15 225 0 15 225 0 15 225 0 15 225 0 15 225 0 15 225 0 15 225 0 15 225 0 15 225 0 15 225 0 15 225 0 15 225 0 15 225 0 15 225 0 15 225 0 15 225 0 15 225 0 15 225 0 15 225 0 15 225 0 15 225 0 15 225 0 15 225 0 15 225 0 15 225 0 15 225 0 15 225 0 15 225 0 15 225 0 15 225 0 15 225 0 15 225 0 15 225 0 15 225 0 15 225 0 15 225 0 15 225 0 15 225 0 15 225 0 15 225 0 15 225 0 15 225 0 15 225 0 15 225 0 15 225 0 15 225 0 15 225 0 15 225 0 15 225 0 15 225 0 15 225 0 15 225 0 15 225 0 15 225 0 15 225 0 15 225 0 15 225 0 15 225 0 15 225 0 15 225 0 15 225 0 15 225 0 15 225 0 15 225 0 15 225 0 15 225 0 15 225 0 15 225 0 15 225 0 15 225 0 15 225 0 15 225 0 15 225 0 15 225 0 15 225 0 15 225 0 15 225 0 15 225 0 15 225 0 15 225 0 15 225 0 15 225 0 15 225 0 15 225 0 15 225 0 15 225 0 15 225 0 15 225 0 15 225 0 15 225 0 15 225 0 15 225 0 15 225 0 15 225 0 15 225 0 15 225 0 15 225 0 15 225 0 15 
0 0 145 0 0 145 0 0 145 0 0 145 0 0 145 0 0 145 0 0 145 0 0 145 0 0 145 0 0 145 0 0 145 0 0 145 0 0 145 0 0 145 0 0 145 0 0 145 0 0 145 0 0 145 0 0 145 0 0 145 0 0 145 0 0 145 0 0 145 0 0 145 0 0 145 0 0 145 0 0 145 0 0 145 0 0 145 0 0 145 0 0 145 0 0 145 0 0 145 0 0 145 0 0 145 0 0 145 0 0 145 0 0 145 0 0 145 0 0 145 0 0 145 0 0 145 0 0 145 0 0 145 0 0 145 0 0 145 0 0 145 0 0 145 0 0 145 0 0 145 0 0 145 0 0 145 0 0 145 0 0 145 0 0 145 0 0 145 0 0 145 0 0 145 0 0 145 0 0 145 0 0 145 0 0 145 0 0 145 0 0 145 0 0 145 0 0 145 0 0 145 0 0 145 0 0 145 0 0 145 0 0 145 0 0 145 0 0 145 0 0 145 0 0 145 0 0 145 0 0 145 0 0 145 0 0 145 0 0 145 0 0 145 0 0 145 0 0 145 0 0 145 0 0 145 0 0 145 0 0 145 0 0 145 0 0 145 0 0 145 0 0 145 0 0 145 0 0 145 0 0 145 0 0 145 0 0 145 0 0 145 0 0 145 0 0 145 225 0 15 255 255 255 255 255 255 255 255 255 255 255 255 255 255 255 255 255 255 255 255 255 255 255 255 255 255 255 255 255 255 255 255 255 255 255 255 255 255 255 255 255 255 255 255 255 255 255 255 255 255 255 255 255 255 255 255 255 255 255 255 255 255 255 255 255 255 255 255 255 255 255 255 255 255 255 255 255 255 255 255 255 255 255 255 255 255 255 255 255 255 255 255 255 255 255 255 255 255 255 255 255 255 255 255 255 255 255 255 255 255 255 255 255 255 255 255 255 255 255 255 255 255 255 255 255 255 255 255 255 255 255 255 255 255 255 255 255 255 255 255 255 255 255 255 255 255 255 255 255 255 255 255 255 255 255 255 255 255 255 255 255 255 255 255 255 255 255 255 255 255 255 255 255 255 255 255 255 255 255 255 255 255 255 255 255 255 255 255 255 255 255 255 255 255 255 255 255 255 255 255 255 255 255 255 255 255 255 255 255 255 255 255 255 255 255 255 255 255 255 255 255 255 255 255 255 255 255 255 255 255 255 255 255 255 255 255 255 255 255 255 255 255 255 255 255 255 255 255 255 255 255 255 255 255 255 255 255 255 255 255 255 255 255 255 255 255 255 255 255 255 255 255 255 255 255 255 255 255 255 255 255 255 255 255 255 255 255 255 255 255 255 255 255 255 255 255 255 225 0 15 225 0 15 225 0 15 225 0 15 225 0 15 225 0 15 225 0 15 225 0 15 225 0 15 225 0 15 225 0 15 225 0 15 225 0 15 225 0 15 225 0 15 225 0 15 225 0 15 225 0 15 225 0 15 225 0 15 225 0 15 225 0 15 225 0 15 225 0 15 225 0 15 225 0 15 225 0 15 225 0 15 225 0 15 225 0 15 225 0 15 225 0 15 225 0 15 225 0 15 225 0 15 225 0 15 225 0 15 225 0 15 225 0 15 225 0 15 225 0 15 225 0 15 225 0 15 225 0 15 225 0 15 225 0 15 225 0 15 225 0 15 225 0 15 225 0 15 225 0 15 225 0 15 225 0 15 225 0 15 225 0 15 225 0 15 225 0 15 225 0 15 225 0 15 225 0 15 225 0 15 225 0 15 225 0 15 225 0 15 225 0 15 225 0 15 225 0 15 225 0 15 225 0 15 225 0 15 225 0 15 225 0 15 225 0 15 225 0 15 225 0 15 225 0 15 225 0 15 225 0 15 225 0 15 225 0 15 225 0 15 225 0 15 225 0 15 225 0 15 225 0 15 225 0 15 225 0 15 225 0 15 225 0 15 225 0 15 225 0 15 225 0 15 225 0 15 225 0 15 225 0 15 225 0 15 225 0 15 225 0 15 225 0 15 225 0 15 225 0 15 
0 0 145 0 0 145 0 0 145 0 0 145 0 0 145 0 0 145 0 0 145 0 0 145 0 0 145 0 0 145 0 0 145 0 0 145 0 0 145 0 0 145 0 0 145 0 0 145 0 0 145 0 0 145 0 0 145 0 0 145 0 0 145 0 0 145 0 0 145 0 0 145 0 0 145 0 0 145 0 0 145 0 0 145 0 0 145 0 0 145 0 0 145 0 0 145 0 0 145 0 0 145 0 0 145 0 0 145 0 0 145 0 0 145 0 0 145 0 0 145 0 0 145 0 0 145 0 0 145 0 0 145 0 0 145 0 0 145 0 0 145 0 0 145 0 0 145 0 0 145 0 0 145 0 0 145 0 0 145 0 0 145 0 0 145 0 0 145 0 0 145 0 0 145 0 0 145 0 0 145 0 0 145 0 0 145 0 0 145 0 0 145 0 0 145 0 0 145 0 0 145 0 0 145 0 0 145 0 0 145 0 0 145 0 0 145 0 0 145 0 0 145 0 0 145 0 0 145 0 0 145 0 0 145 0 0 145 0 0 145 0 0 145 0 0 145 0 0 145 0 0 145 0 0 145 0 0 145 0 0 145 0 0 145 0 0 145 0 0 145 0 0 145 0 0 145 0 0 145 0 0 145 0 0 145 0 0 145 0 0 145 0 0 145 0 0 145 225 0 15 255 255 255 255 255 255 255 255 255 255 255 255 255 255 255 255 255 255 255 255 255 255 255 255 255 255 255 255 255 255 255 255 255 255 255 255 255 255 255 255 255 255 255 255 255 255 255 255 255 255 255 255 255 255 255 255 255 255 255 255 255 255 255 255 255 255 255 255 255 255 255 255 255 255 255 255 255 255 255 255 255 255 255 255 255 255 255 255 255 255 255 255 255 255 255 255 255 255 255 255 255 255 255 255 255 255 255 255 255 255 255 255 255 255 255 255 255 255 255 255 255 255 255 255 255 255 255 255 255 255 255 255 255 255 255 255 255 255 255 255 255 255 255 255 255 255 255 255 255 255 255 255 255 255 255 255 255 255 255 255 255 255 255 255 255 255 255 255 255 255 255 255 255 255 255 255 255 255 255 255 255 255 255 255 255 255 255 255 255 255 255 255 255 255 255 255 255 255 255 255 255 255 255 255 255 255 255 255 255 255 255 255 255 255 255 255 255 255 255 255 255 255 255 255 255 255 255 255 255 255 255 255 255 255 255 255 255 255 255 255 255 255 255 255 255 255 255 255 255 255 255 255 255 255 255 255 255 255 255 255 255 255 255 255 255 255 255 255 255 255 255 255 255 255 255 255 255 255 255 255 255 255 255 255 255 255 255 255 255 255 255 255 255 255 255 255 255 225 0 15 225 0 15 225 0 15 225 0 15 225 0 15 225 0 15 225 0 15 225 0 15 225 0 15 225 0 15 225 0 15 225 0 15 225 0 15 225 0 15 225 0 15 225 0 15 225 0 15 225 0 15 225 0 15 225 0 15 225 0 15 225 0 15 225 0 15 225 0 15 225 0 15 225 0 15 225 0 15 225 0 15 225 0 15 225 0 15 225 0 15 225 0 15 225 0 15 225 0 15 225 0 15 225 0 15 225 0 15 225 0 15 225 0 15 225 0 15 225 0 15 225 0 15 225 0 15 225 0 15 225 0 15 225 0 15 225 0 15 225 0 15 225 0 15 225 0 15 225 0 15 225 0 15 225 0 15 225 0 15 225 0 15 225 0 15 225 0 15 225 0 15 225 0 15 225 0 15 225 0 15 225 0 15 225 0 15 225 0 15 225 0 15 225 0 15 225 0 15 225 0 15 225 0 15 225 0 15 225 0 15 225 0 15 225 0 15 225 0 15 225 0 15 225 0 15 225 0 15 225 0 15 225 0 15 225 0 15 225 0 15 225 0 15 225 0 15 225 0 15 225 0 15 225 0 15 225 0 15 225 0 15 225 0 15 225 0 15 225 0 15 225 0 15 225 0 15 225 0 15 225 0 15 225 0 15 225 0 15 225 0 15 225 0 15 225 0 15 225 0 15 
0 0 145 0 0 145 0 0 145 0 0 145 0 0 145 0 0 145 0 0 145 0 0 145 0 0 145 0 0 145 0 0 145 0 0 145 0 0 145 0 0 145 0 0 145 0 0 145 0 0 145 0 0 145 0 0 145 0 0 145 0 0 145 0 0 145 0 0 145 0 0 145 0 0 145 0 0 145 0 0 145 0 0 145 0 0 145 0 0 145 0 0 145 0 0 145 0 0 145 0 0 145 0 0 145 0 0 145 0 0 145 0 0 145 0 0 145 0 0 145 0 0 145 0 0 145 0 0 145 0 0 145 0 0 145 0 0 145 0 0 145 0 0 145 0 0 145 0 0 145 0 0 145 0 0 145 0 0 145 0 0 145 0 0 145 0 0 145 0 0 145 0 0 145 0 0 145 0 0 145 0 0 145 0 0 145 0 0 145 0 0 145 0 0 145 0 0 145 0 0 145 0 0 145 0 0 145 0 0 145 0 0 145 0 0 145 0 0 145 0 0 145 0 0 145 0 0 145 0 0 145 0 0 145 0 0 145 0 0 145 0 0 145 0 0 145 0 0 145 0 0 145 0 0 145 0 0 145 0 0 145 0 0 145 0 0 145 0 0 145 0 0 145 0 0 145 0 0 145 0 0 145 0 0 145 0 0 145 0 0 145 0 0 145 0 0 145 225 0 15 255 255 255 255 255 255 255 255 255 255 255 255 255 255 255 255 255 255 255 255 255 255 255 255 255 255 255 255 255 255 255 255 255 255 255 255 255 255 255 255 255 255 255 255 255 255 255 255 255 255 255 255 255 255 255 255 255 255 255 255 255 255 255 255 255 255 255 255 255 255 255 255 255 255 255 255 255 255 255 255 255 255 255 255 255 255 255 255 255 255 255 255 255 255 255 255 255 255 255 255 255 255 255 255 255 255 255 255 255 255 255 255 255 255 255 255 255 255 255 255 255 255 255 255 255 255 255 255 255 255 255 255 255 255 255 255 255 255 255 255 255 255 255 255 255 255 255 255 255 255 255 255 255 255 255 255 255 255 255 255 255 255 255 255 255 255 255 255 255 255 255 255 255 255 255 255 255 255 255 255 255 255 255 255 255 255 255 255 255 255 255 255 255 255 255 255 255 255 255 255 255 255 255 255 255 255 255 255 255 255 255 255 255 255 255 255 255 255 255 255 255 255 255 255 255 255 255 255 255 255 255 255 255 255 255 255 255 255 255 255 255 255 255 255 255 255 255 255 255 255 255 255 255 255 255 255 255 255 255 255 255 255 255 255 255 255 255 255 255 255 255 255 255 255 255 255 255 255 255 255 255 255 255 255 255 255 255 255 255 255 255 255 255 255 255 255 255 225 0 15 225 0 15 225 0 15 225 0 15 225 0 15 225 0 15 225 0 15 225 0 15 225 0 15 225 0 15 225 0 15 225 0 15 225 0 15 225 0 15 225 0 15 225 0 15 225 0 15 225 0 15 225 0 15 225 0 15 225 0 15 225 0 15 225 0 15 225 0 15 225 0 15 225 0 15 225 0 15 225 0 15 225 0 15 225 0 15 225 0 15 225 0 15 225 0 15 225 0 15 225 0 15 225 0 15 225 0 15 225 0 15 225 0 15 225 0 15 225 0 15 225 0 15 225 0 15 225 0 15 225 0 15 225 0 15 225 0 15 225 0 15 225 0 15 225 0 15 225 0 15 225 0 15 225 0 15 225 0 15 225 0 15 225 0 15 225 0 15 225 0 15 225 0 15 225 0 15 225 0 15 225 0 15 225 0 15 225 0 15 225 0 15 225 0 15 225 0 15 225 0 15 225 0 15 225 0 15 225 0 15 225 0 15 225 0 15 225 0 15 225 0 15 225 0 15 225 0 15 225 0 15 225 0 15 225 0 15 225 0 15 225 0 15 225 0 15 225 0 15 225 0 15 225 0 15 225 0 15 225 0 15 225 0 15 225 0 15 225 0 15 225 0 15 225 0 15 225 0 15 225 0 15 225 0 15 225 0 15 225 0 15 225 0 15 225 0 15 225 0 15 
0 0 145 0 0 145 0 0 145 0 0 145 0 0 145 0 0 145 0 0 145 0 0 145 0 0 145 0 0 145 0 0 145 0 0 145 0 0 145 0 0 145 0 0 145 0 0 145 0 0 145 0 0 145 0 0 145 0 0 145 0 0 145 0 0 145 0 0 145 0 0 145 0 0 145 0 0 145 0 0 145 0 0 145 0 0 145 0 0 145 0 0 145 0 0 145 0 0 145 0 0 145 0 0 145 0 0 145 0 0 145 0 0 145 0 0 145 0 0 145 0 0 145 0 0 145 0 0 145 0 0 145 0 0 145 0 0 145 0 0 145 0 0 145 0 0 145 0 0 145 0 0 145 0 0 145 0 0 145 0 0 145 0 0 145 0 0 145 0 0 145 0 0 145 0 0 145 0 0 145 0 0 145 0 0 145 0 0 145 0 0 145 0 0 145 0 0 145 0 0 145 0 0 145 0 0 145 0 0 145 0 0 145 0 0 145 0 0 145 0 0 145 0 0 145 0 0 145 0 0 145 0 0 145 0 0 145 0 0 145 0 0 145 0 0 145 0 0 145 0 0 145 0 0 145 0 0 145 0 0 145 0 0 145 0 0 145 0 0 145 0 0 145 0 0 145 0 0 145 0 0 145 0 0 145 0 0 145 0 0 145 0 0 145 0 0 145 225 0 15 255 255 255 255 255 255 255 255 255 255 255 255 255 255 255 255 255 255 255 255 255 255 255 255 255 255 255 255 255 255 255 255 255 255 255 255 255 255 255 255 255 255 255 255 255 255 255 255 255 255 255 255 255 255 255 255 255 255 255 255 255 255 255 255 255 255 255 255 255 255 255 255 255 255 255 255 255 255 255 255 255 255 255 255 255 255 255 255 255 255 255 255 255 255 255 255 255 255 255 255 255 255 255 255 255 255 255 255 255 255 255 255 255 255 255 255 255 255 255 255 255 255 255 255 255 255 255 255 255 255 255 255 255 255 255 255 255 255 255 255 255 255 255 255 255 255 255 255 255 255 255 255 255 255 255 255 255 255 255 255 255 255 255 255 255 255 255 255 255 255 255 255 255 255 255 255 255 255 255 255 255 255 255 255 255 255 255 255 255 255 255 255 255 255 255 255 255 255 255 255 255 255 255 255 255 255 255 255 255 255 255 255 255 255 255 255 255 255 255 255 255 255 255 255 255 255 255 255 255 255 255 255 255 255 255 255 255 255 255 255 255 255 255 255 255 255 255 255 255 255 255 255 255 255 255 255 255 255 255 255 255 255 255 255 255 255 255 255 255 255 255 255 255 255 255 255 255 255 255 255 255 255 255 255 255 255 255 255 255 255 255 255 255 255 255 255 255 225 0 15 225 0 15 225 0 15 225 0 15 225 0 15 225 0 15 225 0 15 225 0 15 225 0 15 225 0 15 225 0 15 225 0 15 225 0 15 225 0 15 225 0 15 225 0 15 225 0 15 225 0 15 225 0 15 225 0 15 225 0 15 225 0 15 225 0 15 225 0 15 225 0 15 225 0 15 225 0 15 225 0 15 225 0 15 225 0 15 225 0 15 225 0 15 225 0 15 225 0 15 225 0 15 225 0 15 225 0 15 225 0 15 225 0 15 225 0 15 225 0 15 225 0 15 225 0 15 225 0 15 225 0 15 225 0 15 225 0 15 225 0 15 225 0 15 225 0 15 225 0 15 225 0 15 225 0 15 225 0 15 225 0 15 225 0 15 225 0 15 225 0 15 225 0 15 225 0 15 225 0 15 225 0 15 225 0 15 225 0 15 225 0 15 225 0 15 225 0 15 225 0 15 225 0 15 225 0 15 225 0 15 225 0 15 225 0 15 225 0 15 225 0 15 225 0 15 225 0 15 225 0 15 225 0 15 225 0 15 225 0 15 225 0 15 225 0 15 225 0 15 225 0 15 225 0 15 225 0 15 225 0 15 225 0 15 225 0 15 225 0 15 225 0 15 225 0 15 225 0 15 225 0 15 225 0 15 225 0 15 225 0 15 225 0 15 225 0 15 225 0 15 
0 0 145 0 0 145 0 0 145 0 0 145 0 0 145 0 0 145 0 0 145 0 0 145 0 0 145 0 0 145 0 0 145 0 0 145 0 0 145 0 0 145 0 0 145 0 0 145 0 0 145 0 0 145 0 0 145 0 0 145 0 0 145 0 0 145 0 0 145 0 0 145 0 0 145 0 0 145 0 0 145 0 0 145 0 0 145 0 0 145 0 0 145 0 0 145 0 0 145 0 0 145 0 0 145 0 0 145 0 0 145 0 0 145 0 0 145 0 0 145 0 0 145 0 0 145 0 0 145 0 0 145 0 0 145 0 0 145 0 0 145 0 0 145 0 0 145 0 0 145 0 0 145 0 0 145 0 0 145 0 0 145 0 0 145 0 0 145 0 0 145 0 0 145 0 0 145 0 0 145 0 0 145 0 0 145 0 0 145 0 0 145 0 0 145 0 0 145 0 0 145 0 0 145 0 0 145 0 0 145 0 0 145 0 0 145 0 0 145 0 0 145 0 0 145 0 0 145 0 0 145 0 0 145 0 0 145 0 0 145 0 0 145 0 0 145 0 0 145 0 0 145 0 0 145 0 0 145 0 0 145 0 0 145 0 0 145 0 0 145 0 0 145 0 0 145 0 0 145 0 0 145 0 0 145 0 0 145 0 0 145 0 0 145 0 0 145 225 0 15 255 255 255 255 255 255 255 255 255 255 255 255 255 255 255 255 255 255 255 255 255 255 255 255 255 255 255 255 255 255 255 255 255 255 255 255 255 255 255 255 255 255 255 255 255 255 255 255 255 255 255 255 255 255 255 255 255 255 255 255 255 255 255 255 255 255 255 255 255 255 255 255 255 255 255 255 255 255 255 255 255 255 255 255 255 255 255 255 255 255 255 255 255 255 255 255 255 255 255 255 255 255 255 255 255 255 255 255 255 255 255 255 255 255 255 255 255 255 255 255 255 255 255 255 255 255 255 255 255 255 255 255 255 255 255 255 255 255 255 255 255 255 255 255 255 255 255 255 255 255 255 255 255 255 255 255 255 255 255 255 255 255 255 255 255 255 255 255 255 255 255 255 255 255 255 255 255 255 255 255 255 255 255 255 255 255 255 255 255 255 255 255 255 255 255 255 255 255 255 255 255 255 255 255 255 255 255 255 255 255 255 255 255 255 255 255 255 255 255 255 255 255 255 255 255 255 255 255 255 255 255 255 255 255 255 255 255 255 255 255 255 255 255 255 255 255 255 255 255 255 255 255 255 255 255 255 255 255 255 255 255 255 255 255 255 255 255 255 255 255 255 255 255 255 255 255 255 255 255 255 255 255 255 255 255 255 255 255 255 255 255 255 255 255 255 255 255 225 0 15 225 0 15 225 0 15 225 0 15 225 0 15 225 0 15 225 0 15 225 0 15 225 0 15 225 0 15 225 0 15 225 0 15 225 0 15 225 0 15 225 0 15 225 0 15 225 0 15 225 0 15 225 0 15 225 0 15 225 0 15 225 0 15 225 0 15 225 0 15 225 0 15 225 0 15 225 0 15 225 0 15 225 0 15 225 0 15 225 0 15 225 0 15 225 0 15 225 0 15 225 0 15 225 0 15 225 0 15 225 0 15 225 0 15 225 0 15 225 0 15 225 0 15 225 0 15 225 0 15 225 0 15 225 0 15 225 0 15 225 0 15 225 0 15 225 0 15 225 0 15 225 0 15 225 0 15 225 0 15 225 0 15 225 0 15 225 0 15 225 0 15 225 0 15 225 0 15 225 0 15 225 0 15 225 0 15 225 0 15 225 0 15 225 0 15 225 0 15 225 0 15 225 0 15 225 0 15 225 0 15 225 0 15 225 0 15 225 0 15 225 0 15 225 0 15 225 0 15 225 0 15 225 0 15 225 0 15 225 0 15 225 0 15 225 0 15 225 0 15 225 0 15 225 0 15 225 0 15 225 0 15 225 0 15 225 0 15 225 0 15 225 0 15 225 0 15 225 0 15 225 0 15 225 0 15 225 0 15 225 0 15 225 0 15 225 0 15 225 0 15 
0 0 145 0 0 145 0 0 145 0 0 145 0 0 145 0 0 145 0 0 145 0 0 145 0 0 145 0 0 145 0 0 145 0 0 145 0 0 145 0 0 145 0 0 145 0 0 145 0 0 145 0 0 145 0 0 145 0 0 145 0 0 145 0 0 145 0 0 145 0 0 145 0 0 145 0 0 145 0 0 145 0 0 145 0 0 145 0 0 145 0 0 145 0 0 145 0 0 145 0 0 145 0 0 145 0 0 145 0 0 145 0 0 145 0 0 145 0 0 145 0 0 145 0 0 145 0 0 145 0 0 145 0 0 145 0 0 145 0 0 145 0 0 145 0 0 145 0 0 145 0 0 145 0 0 145 0 0 145 0 0 145 0 0 145 0 0 145 0 0 145 0 0 145 0 0 145 0 0 145 0 0 145 0 0 145 0 0 145 0 0 145 0 0 145 0 0 145 0 0 145 0 0 145 0 0 145 0 0 145 0 0 145 0 0 145 0 0 145 0 0 145 0 0 145 0 0 145 0 0 145 0 0 145 0 0 145 0 0 145 0 0 145 0 0 145 0 0 145 0 0 145 0 0 145 0 0 145 0 0 145 0 0 145 0 0 145 0 0 145 0 0 145 0 0 145 0 0 145 0 0 145 0 0 145 0 0 145 0 0 145 0 0 145 0 0 145 225 0 15 255 255 255 255 255 255 255 255 255 255 255 255 255 255 255 255 255 255 255 255 255 255 255 255 255 255 255 255 255 255 255 255 255 255 255 255 255 255 255 255 255 255 255 255 255 255 255 255 255 255 255 255 255 255 255 255 255 255 255 255 255 255 255 255 255 255 255 255 255 255 255 255 255 255 255 255 255 255 255 255 255 255 255 255 255 255 255 255 255 255 255 255 255 255 255 255 255 255 255 255 255 255 255 255 255 255 255 255 255 255 255 255 255 255 255 255 255 255 255 255 255 255 255 255 255 255 255 255 255 255 255 255 255 255 255 255 255 255 255 255 255 255 255 255 255 255 255 255 255 255 255 255 255 255 255 255 255 255 255 255 255 255 255 255 255 255 255 255 255 255 255 255 255 255 255 255 255 255 255 255 255 255 255 255 255 255 255 255 255 255 255 255 255 255 255 255 255 255 255 255 255 255 255 255 255 255 255 255 255 255 255 255 255 255 255 255 255 255 255 255 255 255 255 255 255 255 255 255 255 255 255 255 255 255 255 255 255 255 255 255 255 255 255 255 255 255 255 255 255 255 255 255 255 255 255 255 255 255 255 255 255 255 255 255 255 255 255 255 255 255 255 255 255 255 255 255 255 255 255 255 255 255 255 255 255 255 255 255 255 255 255 255 255 255 255 255 255 225 0 15 225 0 15 225 0 15 225 0 15 225 0 15 225 0 15 225 0 15 225 0 15 225 0 15 225 0 15 225 0 15 225 0 15 225 0 15 225 0 15 225 0 15 225 0 15 225 0 15 225 0 15 225 0 15 225 0 15 225 0 15 225 0 15 225 0 15 225 0 15 225 0 15 225 0 15 225 0 15 225 0 15 225 0 15 225 0 15 225 0 15 225 0 15 225 0 15 225 0 15 225 0 15 225 0 15 225 0 15 225 0 15 225 0 15 225 0 15 225 0 15 225 0 15 225 0 15 225 0 15 225 0 15 225 0 15 225 0 15 225 0 15 225 0 15 225 0 15 225 0 15 225 0 15 225 0 15 225 0 15 225 0 15 225 0 15 225 0 15 225 0 15 225 0 15 225 0 15 225 0 15 225 0 15 225 0 15 225 0 15 225 0 15 225 0 15 225 0 15 225 0 15 225 0 15 225 0 15 225 0 15 225 0 15 225 0 15 225 0 15 225 0 15 225 0 15 225 0 15 225 0 15 225 0 15 225 0 15 225 0 15 225 0 15 225 0 15 225 0 15 225 0 15 225 0 15 225 0 15 225 0 15 225 0 15 225 0 15 225 0 15 225 0 15 225 0 15 225 0 15 225 0 15 225 0 15 225 0 15 225 0 15 225 0 15 225 0 15 225 0 15 
0 0 145 0 0 145 0 0 145 0 0 145 0 0 145 0 0 145 0 0 145 0 0 145 0 0 145 0 0 145 0 0 145 0 0 145 0 0 145 0 0 145 0 0 145 0 0 145 0 0 145 0 0 145 0 0 145 0 0 145 0 0 145 0 0 145 0 0 145 0 0 145 0 0 145 0 0 145 0 0 145 0 0 145 0 0 145 0 0 145 0 0 145 0 0 145 0 0 145 0 0 145 0 0 145 0 0 145 0 0 145 0 0 145 0 0 145 0 0 145 0 0 145 0 0 145 0 0 145 0 0 145 0 0 145 0 0 145 0 0 145 0 0 145 0 0 145 0 0 145 0 0 145 0 0 145 0 0 145 0 0 145 0 0 145 0 0 145 0 0 145 0 0 145 0 0 145 0 0 145 0 0 145 0 0 145 0 0 145 0 0 145 0 0 145 0 0 145 0 0 145 0 0 145 0 0 145 0 0 145 0 0 145 0 0 145 0 0 145 0 0 145 0 0 145 0 0 145 0 0 145 0 0 145 0 0 145 0 0 145 0 0 145 0 0 145 0 0 145 0 0 145 0 0 145 0 0 145 0 0 145 0 0 145 0 0 145 0 0 145 0 0 145 0 0 145 0 0 145 0 0 145 0 0 145 0 0 145 0 0 145 0 0 145 0 0 145 225 0 15 255 255 255 255 255 255 255 255 255 255 255 255 255 255 255 255 255 255 255 255 255 255 255 255 255 255 255 255 255 255 255 255 255 255 255 255 255 255 255 255 255 255 255 255 255 255 255 255 255 255 255 255 255 255 255 255 255 255 255 255 255 255 255 255 255 255 255 255 255 255 255 255 255 255 255 255 255 255 255 255 255 255 255 255 255 255 255 255 255 255 255 255 255 255 255 255 255 255 255 255 255 255 255 255 255 255 255 255 255 255 255 255 255 255 255 255 255 255 255 255 255 255 255 255 255 255 255 255 255 255 255 255 255 255 255 255 255 255 255 255 255 255 255 255 255 255 255 255 255 255 255 255 255 255 255 255 255 255 255 255 255 255 255 255 255 255 255 255 255 255 255 255 255 255 255 255 255 255 255 255 255 255 255 255 255 255 255 255 255 255 255 255 255 255 255 255 255 255 255 255 255 255 255 255 255 255 255 255 255 255 255 255 255 255 255 255 255 255 255 255 255 255 255 255 255 255 255 255 255 255 255 255 255 255 255 255 255 255 255 255 255 255 255 255 255 255 255 255 255 255 255 255 255 255 255 255 255 255 255 255 255 255 255 255 255 255 255 255 255 255 255 255 255 255 255 255 255 255 255 255 255 255 255 255 255 255 255 255 255 255 255 255 255 255 255 255 255 225 0 15 225 0 15 225 0 15 225 0 15 225 0 15 225 0 15 225 0 15 225 0 15 225 0 15 225 0 15 225 0 15 225 0 15 225 0 15 225 0 15 225 0 15 225 0 15 225 0 15 225 0 15 225 0 15 225 0 15 225 0 15 225 0 15 225 0 15 225 0 15 225 0 15 225 0 15 225 0 15 225 0 15 225 0 15 225 0 15 225 0 15 225 0 15 225 0 15 225 0 15 225 0 15 225 0 15 225 0 15 225 0 15 225 0 15 225 0 15 225 0 15 225 0 15 225 0 15 225 0 15 225 0 15 225 0 15 225 0 15 225 0 15 225 0 15 225 0 15 225 0 15 225 0 15 225 0 15 225 0 15 225 0 15 225 0 15 225 0 15 225 0 15 225 0 15 225 0 15 225 0 15 225 0 15 225 0 15 225 0 15 225 0 15 225 0 15 225 0 15 225 0 15 225 0 15 225 0 15 225 0 15 225 0 15 225 0 15 225 0 15 225 0 15 225 0 15 225 0 15 225 0 15 225 0 15 225 0 15 225 0 15 225 0 15 225 0 15 225 0 15 225 0 15 225 0 15 225 0 15 225 0 15 225 0 15 225 0 15 225 0 15 225 0 15 225 0 15 225 0 15 225 0 15 225 0 15 225 0 15 225 0 15 225 0 15 225 0 15 225 0 15 
0 0 145 0 0 145 0 0 145 0 0 145 0 0 145 0 0 145 0 0 145 0 0 145 0 0 145 0 0 145 0 0 145 0 0 145 0 0 145 0 0 145 0 0 145 0 0 145 0 0 145 0 0 145 0 0 145 0 0 145 0 0 145 0 0 145 0 0 145 0 0 145 0 0 145 0 0 145 0 0 145 0 0 145 0 0 145 0 0 145 0 0 145 0 0 145 0 0 145 0 0 145 0 0 145 0 0 145 0 0 145 0 0 145 0 0 145 0 0 145 0 0 145 0 0 145 0 0 145 0 0 145 0 0 145 0 0 145 0 0 145 0 0 145 0 0 145 0 0 145 0 0 145 0 0 145 0 0 145 0 0 145 0 0 145 0 0 145 0 0 145 0 0 145 0 0 145 0 0 145 0 0 145 0 0 145 0 0 145 0 0 145 0 0 145 0 0 145 0 0 145 0 0 145 0 0 145 0 0 145 0 0 145 0 0 145 0 0 145 0 0 145 0 0 145 0 0 145 0 0 145 0 0 145 0 0 145 0 0 145 0 0 145 0 0 145 0 0 145 0 0 145 0 0 145 0 0 145 0 0 145 0 0 145 0 0 145 0 0 145 0 0 145 0 0 145 0 0 145 0 0 145 0 0 145 0 0 145 0 0 145 0 0 145 0 0 145 225 0 15 255 255 255 255 255 255 255 255 255 255 255 255 255 255 255 255 255 255 255 255 255 255 255 255 255 255 255 255 255 255 255 255 255 255 255 255 255 255 255 255 255 255 255 255 255 255 255 255 255 255 255 255 255 255 255 255 255 255 255 255 255 255 255 255 255 255 255 255 255 255 255 255 255 255 255 255 255 255 255 255 255 255 255 255 255 255 255 255 255 255 255 255 255 255 255 255 255 255 255 255 255 255 255 255 255 255 255 255 255 255 255 255 255 255 255 255 255 255 255 255 255 255 255 255 255 255 255 255 255 255 255 255 255 255 255 255 255 255 255 255 255 255 255 255 255 255 255 255 255 255 255 255 255 255 255 255 255 255 255 255 255 255 255 255 255 255 255 255 255 255 255 255 255 255 255 255 255 255 255 255 255 255 255 255 255 255 255 255 255 255 255 255 255 255 255 255 255 255 255 255 255 255 255 255 255 255 255 255 255 255 255 255 255 255 255 255 255 255 255 255 255 255 255 255 255 255 255 255 255 255 255 255 255 255 255 255 255 255 255 255 255 255 255 255 255 255 255 255 255 255 255 255 255 255 255 255 255 255 255 255 255 255 255 255 255 255 255 255 255 255 255 255 255 255 255 255 255 255 255 255 255 255 255 255 255 255 255 255 255 255 255 255 255 255 255 255 255 225 0 15 225 0 15 225 0 15 225 0 15 225 0 15 225 0 15 225 0 15 225 0 15 225 0 15 225 0 15 225 0 15 225 0 15 225 0 15 225 0 15 225 0 15 225 0 15 225 0 15 225 0 15 225 0 15 225 0 15 225 0 15 225 0 15 225 0 15 225 0 15 225 0 15 225 0 15 225 0 15 225 0 15 225 0 15 225 0 15 225 0 15 225 0 15 225 0 15 225 0 15 225 0 15 225 0 15 225 0 15 225 0 15 225 0 15 225 0 15 225 0 15 225 0 15 225 0 15 225 0 15 225 0 15 225 0 15 225 0 15 225 0 15 225 0 15 225 0 15 225 0 15 225 0 15 225 0 15 225 0 15 225 0 15 225 0 15 225 0 15 225 0 15 225 0 15 225 0 15 225 0 15 225 0 15 225 0 15 225 0 15 225 0 15 225 0 15 225 0 15 225 0 15 225 0 15 225 0 15 225 0 15 225 0 15 225 0 15 225 0 15 225 0 15 225 0 15 225 0 15 225 0 15 225 0 15 225 0 15 225 0 15 225 0 15 225 0 15 225 0 15 225 0 15 225 0 15 225 0 15 225 0 15 225 0 15 225 0 15 225 0 15 225 0 15 225 0 15 225 0 15 225 0 15 225 0 15 225 0 15 225 0 15 225 0 15 225 0 15 225 0 15 
0 0 145 0 0 145 0 0 145 0 0 145 0 0 145 0 0 145 0 0 145 0 0 145 0 0 145 0 0 145 0 0 145 0 0 145 0 0 145 0 0 145 0 0 145 0 0 145 0 0 145 0 0 145 0 0 145 0 0 145 0 0 145 0 0 145 0 0 145 0 0 145 0 0 145 0 0 145 0 0 145 0 0 145 0 0 145 0 0 145 0 0 145 0 0 145 0 0 145 0 0 145 0 0 145 0 0 145 0 0 145 0 0 145 0 0 145 0 0 145 0 0 145 0 0 145 0 0 145 0 0 145 0 0 145 0 0 145 0 0 145 0 0 145 0 0 145 0 0 145 0 0 145 0 0 145 0 0 145 0 0 145 0 0 145 0 0 145 0 0 145 0 0 145 0 0 145 0 0 145 0 0 145 0 0 145 0 0 145 0 0 145 0 0 145 0 0 145 0 0 145 0 0 145 0 0 145 0 0 145 0 0 145 0 0 145 0 0 145 0 0 145 0 0 145 0 0 145 0 0 145 0 0 145 0 0 145 0 0 145 0 0 145 0 0 145 0 0 145 0 0 145 0 0 145 0 0 145 0 0 145 0 0 145 0 0 145 0 0 145 0 0 145 0 0 145 0 0 145 0 0 145 0 0 145 0 0 145 0 0 145 0 0 145 0 0 145 225 0 15 255 255 255 255 255 255 255 255 255 255 255 255 255 255 255 255 255 255 255 255 255 255 255 255 255 255 255 255 255 255 255 255 255 255 255 255 255 255 255 255 255 255 255 255 255 255 255 255 255 255 255 255 255 255 255 255 255 255 255 255 255 255 255 255 255 255 255 255 255 255 255 255 255 255 255 255 255 255 255 255 255 255 255 255 255 255 255 255 255 255 255 255 255 255 255 255 255 255 255 255 255 255 255 255 255 255 255 255 255 255 255 255 255 255 255 255 255 255 255 255 255 255 255 255 255 255 255 255 255 255 255 255 255 255 255 255 255 255 255 255 255 255 255 255 255 255 255 255 255 255 255 255 255 255 255 255 255 255 255 255 255 255 255 255 255 255 255 255 255 255 255 255 255 255 255 255 255 255 255 255 255 255 255 255 255 255 255 255 255 255 255 255 255 255 255 255 255 255 255 255 255 255 255 255 255 255 255 255 255 255 255 255 255 255 255 255 255 255 255 255 255 255 255 255 255 255 255 255 255 255 255 255 255 255 255 255 255 255 255 255 255 255 255 255 255 255 255 255 255 255 255 255 255 255 255 255 255 255 255 255 255 255 255 255 255 255 255 255 255 255 255 255 255 255 255 255 255 255 255 255 255 255 255 255 255 255 255 255 255 255 255 255 255 255 255 255 255 225 0 15 225 0 15 225 0 15 225 0 15 225 0 15 225 0 15 225 0 15 225 0 15 225 0 15 225 0 15 225 0 15 225 0 15 225 0 15 225 0 15 225 0 15 225 0 15 225 0 15 225 0 15 225 0 15 225 0 15 225 0 15 225 0 15 225 0 15 225 0 15 225 0 15 225 0 15 225 0 15 225 0 15 225 0 15 225 0 15 225 0 15 225 0 15 225 0 15 225 0 15 225 0 15 225 0 15 225 0 15 225 0 15 225 0 15 225 0 15 225 0 15 225 0 15 225 0 15 225 0 15 225 0 15 225 0 15 225 0 15 225 0 15 225 0 15 225 0 15 225 0 15 225 0 15 225 0 15 225 0 15 225 0 15 225 0 15 225 0 15 225 0 15 225 0 15 225 0 15 225 0 15 225 0 15 225 0 15 225 0 15 225 0 15 225 0 15 225 0 15 225 0 15 225 0 15 225 0 15 225 0 15 225 0 15 225 0 15 225 0 15 225 0 15 225 0 15 225 0 15 225 0 15 225 0 15 225 0 15 225 0 15 225 0 15 225 0 15 225 0 15 225 0 15 225 0 15 225 0 15 225 0 15 225 0 15 225 0 15 225 0 15 225 0 15 225 0 15 225 0 15 225 0 15 225 0 15 225 0 15 225 0 15 225 0 15 225 0 15 225 0 15 
0 0 145 0 0 145 0 0 145 0 0 145 0 0 145 0 0 145 0 0 145 0 0 145 0 0 145 0 0 145 0 0 145 0 0 145 0 0 145 0 0 145 0 0 145 0 0 145 0 0 145 0 0 145 0 0 145 0 0 145 0 0 145 0 0 145 0 0 145 0 0 145 0 0 145 0 0 145 0 0 145 0 0 145 0 0 145 0 0 145 0 0 145 0 0 145 0 0 145 0 0 145 0 0 145 0 0 145 0 0 145 0 0 145 0 0 145 0 0 145 0 0 145 0 0 145 0 0 145 0 0 145 0 0 145 0 0 145 0 0 145 0 0 145 0 0 145 0 0 145 0 0 145 0 0 145 0 0 145 0 0 145 0 0 145 0 0 145 0 0 145 0 0 145 0 0 145 0 0 145 0 0 145 0 0 145 0 0 145 0 0 145 0 0 145 0 0 145 0 0 145 0 0 145 0 0 145 0 0 145 0 0 145 0 0 145 0 0 145 0 0 145 0 0 145 0 0 145 0 0 145 0 0 145 0 0 145 0 0 145 0 0 145 0 0 145 0 0 145 0 0 145 0 0 145 0 0 145 0 0 145 0 0 145 0 0 145 0 0 145 0 0 145 0 0 145 0 0 145 0 0 145 0 0 145 0 0 145 0 0 145 0 0 145 0 0 145 225 0 15 255 255 255 255 255 255 255 255 255 255 255 255 255 255 255 255 255 255 255 255 255 255 255 255 255 255 255 255 255 255 255 255 255 255 255 255 255 255 255 255 255 255 255 255 255 255 255 255 255 255 255 255 255 255 255 255 255 255 255 255 255 255 255 255 255 255 255 255 255 255 255 255 255 255 255 255 255 255 255 255 255 255 255 255 255 255 255 255 255 255 255 255 255 255 255 255 255 255 255 255 255 255 255 255 255 255 255 255 255 255 255 255 255 255 255 255 255 255 255 255 255 255 255 255 255 255 255 255 255 255 255 255 255 255 255 255 255 255 255 255 255 255 255 255 255 255 255 255 255 255 255 255 255 255 255 255 255 255 255 255 255 255 255 255 255 255 255 255 255 255 255 255 255 255 255 255 255 255 255 255 255 255 255 255 255 255 255 255 255 255 255 255 255 255 255 255 255 255 255 255 255 255 255 255 255 255 255 255 255 255 255 255 255 255 255 255 255 255 255 255 255 255 255 255 255 255 255 255 255 255 255 255 255 255 255 255 255 255 255 255 255 255 255 255 255 255 255 255 255 255 255 255 255 255 255 255 255 255 255 255 255 255 255 255 255 255 255 255 255 255 255 255 255 255 255 255 255 255 255 255 255 255 255 255 255 255 255 255 255 255 255 255 255 255 255 255 255 225 0 15 225 0 15 225 0 15 225 0 15 225 0 15 225 0 15 225 0 15 225 0 15 225 0 15 225 0 15 225 0 15 225 0 15 225 0 15 225 0 15 225 0 15 225 0 15 225 0 15 225 0 15 225 0 15 225 0 15 225 0 15 225 0 15 225 0 15 225 0 15 225 0 15 225 0 15 225 0 15 225 0 15 225 0 15 225 0 15 225 0 15 225 0 15 225 0 15 225 0 15 225 0 15 225 0 15 225 0 15 225 0 15 225 0 15 225 0 15 225 0 15 225 0 15 225 0 15 225 0 15 225 0 15 225 0 15 225 0 15 225 0 15 225 0 15 225 0 15 225 0 15 225 0 15 225 0 15 225 0 15 225 0 15 225 0 15 225 0 15 225 0 15 225 0 15 225 0 15 225 0 15 225 0 15 225 0 15 225 0 15 225 0 15 225 0 15 225 0 15 225 0 15 225 0 15 225 0 15 225 0 15 225 0 15 225 0 15 225 0 15 225 0 15 225 0 15 225 0 15 225 0 15 225 0 15 225 0 15 225 0 15 225 0 15 225 0 15 225 0 15 225 0 15 225 0 15 225 0 15 225 0 15 225 0 15 225 0 15 225 0 15 225 0 15 225 0 15 225 0 15 225 0 15 225 0 15 225 0 15 225 0 15 225 0 15 225 0 15 225 0 15 
0 0 145 0 0 145 0 0 145 0 0 145 0 0 145 0 0 145 0 0 145 0 0 145 0 0 145 0 0 145 0 0 145 0 0 145 0 0 145 0 0 145 0 0 145 0 0 145 0 0 145 0 0 145 0 0 145 0 0 145 0 0 145 0 0 145 0 0 145 0 0 145 0 0 145 0 0 145 0 0 145 0 0 145 0 0 145 0 0 145 0 0 145 0 0 145 0 0 145 0 0 145 0 0 145 0 0 145 0 0 145 0 0 145 0 0 145 0 0 145 0 0 145 0 0 145 0 0 145 0 0 145 0 0 145 0 0 145 0 0 145 0 0 145 0 0 145 0 0 145 0 0 145 0 0 145 0 0 145 0 0 145 0 0 145 0 0 145 0 0 145 0 0 145 0 0 145 0 0 145 0 0 145 0 0 145 0 0 145 0 0 145 0 0 145 0 0 145 0 0 145 0 0 145 0 0 145 0 0 145 0 0 145 0 0 145 0 0 145 0 0 145 0 0 145 0 0 145 0 0 145 0 0 145 0 0 145 0 0 145 0 0 145 0 0 145 0 0 145 0 0 145 0 0 145 0 0 145 0 0 145 0 0 145 0 0 145 0 0 145 0 0 145 0 0 145 0 0 145 0 0 145 0 0 145 0 0 145 0 0 145 0 0 145 0 0 145 225 0 15 255 255 255 255 255 255 255 255 255 255 255 255 255 255 255 255 255 255 255 255 255 255 255 255 255 255 255 255 255 255 255 255 255 255 255 255 255 255 255 255 255 255 255 255 255 255 255 255 255 255 255 255 255 255 255 255 255 255 255 255 255 255 255 255 255 255 255 255 255 255 255 255 255 255 255 255 255 255 255 255 255 255 255 255 255 255 255 255 255 255 255 255 255 255 255 255 255 255 255 255 255 255 255 255 255 255 255 255 255 255 255 255 255 255 255 255 255 255 255 255 255 255 255 255 255 255 255 255 255 255 255 255 255 255 255 255 255 255 255 255 255 255 255 255 255 255 255 255 255 255 255 255 255 255 255 255 255 255 255 255 255 255 255 255 255 255 255 255 255 255 255 255 255 255 255 255 255 255 255 255 255 255 255 255 255 255 255 255 255 255 255 255 255 255 255 255 255 255 255 255 255 255 255 255 255 255 255 255 255 255 255 255 255 255 255 255 255 255 255 255 255 255 255 255 255 255 255 255 255 255 255 255 255 255 255 255 255 255 255 255 255 255 255 255 255 255 255 255 255 255 255 255 255 255 255 255 255 255 255 255 255 255 255 255 255 255 255 255 255 255 255 255 255 255 255 255 255 255 255 255 255 255 255 255 255 255 255 255 255 255 255 255 255 255 255 255 255 225 0 15 225 0 15 225 0 15 225 0 15 225 0 15 225 0 15 225 0 15 225 0 15 225 0 15 225 0 15 225 0 15 225 0 15 225 0 15 225 0 15 225 0 15 225 0 15 225 0 15 225 0 15 225 0 15 225 0 15 225 0 15 225 0 15 225 0 15 225 0 15 225 0 15 225 0 15 225 0 15 225 0 15 225 0 15 225 0 15 225 0 15 225 0 15 225 0 15 225 0 15 225 0 15 225 0 15 225 0 15 225 0 15 225 0 15 225 0 15 225 0 15 225 0 15 225 0 15 225 0 15 225 0 15 225 0 15 225 0 15 225 0 15 225 0 15 225 0 15 225 0 15 225 0 15 225 0 15 225 0 15 225 0 15 225 0 15 225 0 15 225 0 15 225 0 15 225 0 15 225 0 15 225 0 15 225 0 15 225 0 15 225 0 15 225 0 15 225 0 15 225 0 15 225 0 15 225 0 15 225 0 15 225 0 15 225 0 15 225 0 15 225 0 15 225 0 15 225 0 15 225 0 15 225 0 15 225 0 15 225 0 15 225 0 15 225 0 15 225 0 15 225 0 15 225 0 15 225 0 15 225 0 15 225 0 15 225 0 15 225 0 15 225 0 15 225 0 15 225 0 15 225 0 15 225 0 15 225 0 15 225 0 15 225 0 15 225 0 15 225 0 15 
0 0 145 0 0 145 0 0 145 0 0 145 0 0 145 0 0 145 0 0 145 0 0 145 0 0 145 0 0 145 0 0 145 0 0 145 0 0 145 0 0 145 0 0 145 0 0 145 0 0 145 0 0 145 0 0 145 0 0 145 0 0 145 0 0 145 0 0 145 0 0 145 0 0 145 0 0 145 0 0 145 0 0 145 0 0 145 0 0 145 0 0 145 0 0 145 0 0 145 0 0 145 0 0 145 0 0 145 0 0 145 0 0 145 0 0 145 0 0 145 0 0 145 0 0 145 0 0 145 0 0 145 0 0 145 0 0 145 0 0 145 0 0 145 0 0 145 0 0 145 0 0 145 0 0 145 0 0 145 0 0 145 0 0 145 0 0 145 0 0 145 0 0 145 0 0 145 0 0 145 0 0 145 0 0 145 0 0 145 0 0 145 0 0 145 0 0 145 0 0 145 0 0 145 0 0 145 0 0 145 0 0 145 0 0 145 0 0 145 0 0 145 0 0 145 0 0 145 0 0 145 0 0 145 0 0 145 0 0 145 0 0 145 0 0 145 0 0 145 0 0 145 0 0 145 0 0 145 0 0 145 0 0 145 0 0 145 0 0 145 0 0 145 0 0 145 0 0 145 0 0 145 0 0 145 0 0 145 0 0 145 0 0 145 0 0 145 225 0 15 255 255 255 255 255 255 255 255 255 255 255 255 255 255 255 255 255 255 255 255 255 255 255 255 255 255 255 255 255 255 255 255 255 255 255 255 255 255 255 255 255 255 255 255 255 255 255 255 255 255 255 255 255 255 255 255 255 255 255 255 255 255 255 255 255 255 255 255 255 255 255 255 255 255 255 255 255 255 255 255 255 255 255 255 255 255 255 255 255 255 255 255 255 255 255 255 255 255 255 255 255 255 255 255 255 255 255 255 255 255 255 255 255 255 255 255 255 255 255 255 255 255 255 255 255 255 255 255 255 255 255 255 255 255 255 255 255 255 255 255 255 255 255 255 255 255 255 255 255 255 255 255 255 255 255 255 255 255 255 255 255 255 255 255 255 255 255 255 255 255 255 255 255 255 255 255 255 255 255 255 255 255 255 255 255 255 255 255 255 255 255 255 255 255 255 255 255 255 255 255 255 255 255 255 255 255 255 255 255 255 255 255 255 255 255 255 255 255 255 255 255 255 255 255 255 255 255 255 255 255 255 255 255 255 255 255 255 255 255 255 255 255 255 255 255 255 255 255 255 255 255 255 255 255 255 255 255 255 255 255 255 255 255 255 255 255 255 255 255 255 255 255 255 255 255 255 255 255 255 255 255 255 255 255 255 255 255 255 255 255 255 255 255 255 255 255 255 225 0 15 225 0 15 225 0 15 225 0 15 225 0 15 225 0 15 225 0 15 225 0 15 225 0 15 225 0 15 225 0 15 225 0 15 225 0 15 225 0 15 225 0 15 225 0 15 225 0 15 225 0 15 225 0 15 225 0 15 225 0 15 225 0 15 225 0 15 225 0 15 225 0 15 225 0 15 225 0 15 225 0 15 225 0 15 225 0 15 225 0 15 225 0 15 225 0 15 225 0 15 225 0 15 225 0 15 225 0 15 225 0 15 225 0 15 225 0 15 225 0 15 225 0 15 225 0 15 225 0 15 225 0 15 225 0 15 225 0 15 225 0 15 225 0 15 225 0 15 225 0 15 225 0 15 225 0 15 225 0 15 225 0 15 225 0 15 225 0 15 225 0 15 225 0 15 225 0 15 225 0 15 225 0 15 225 0 15 225 0 15 225 0 15 225 0 15 225 0 15 225 0 15 225 0 15 225 0 15 225 0 15 225 0 15 225 0 15 225 0 15 225 0 15 225 0 15 225 0 15 225 0 15 225 0 15 225 0 15 225 0 15 225 0 15 225 0 15 225 0 15 225 0 15 225 0 15 225 0 15 225 0 15 225 0 15 225 0 15 225 0 15 225 0 15 225 0 15 225 0 15 225 0 15 225 0 15 225 0 15 225 0 15 225 0 15 225 0 15 225 0 15 
0 0 145 0 0 145 0 0 145 0 0 145 0 0 145 0 0 145 0 0 145 0 0 145 0 0 145 0 0 145 0 0 145 0 0 145 0 0 145 0 0 145 0 0 145 0 0 145 0 0 145 0 0 145 0 0 145 0 0 145 0 0 145 0 0 145 0 0 145 0 0 145 0 0 145 0 0 145 0 0 145 0 0 145 0 0 145 0 0 145 0 0 145 0 0 145 0 0 145 0 0 145 0 0 145 0 0 145 0 0 145 0 0 145 0 0 145 0 0 145 0 0 145 0 0 145 0 0 145 0 0 145 0 0 145 0 0 145 0 0 145 0 0 145 0 0 145 0 0 145 0 0 145 0 0 145 0 0 145 0 0 145 0 0 145 0 0 145 0 0 145 0 0 145 0 0 145 0 0 145 0 0 145 0 0 145 0 0 145 0 0 145 0 0 145 0 0 145 0 0 145 0 0 145 0 0 145 0 0 145 0 0 145 0 0 145 0 0 145 0 0 145 0 0 145 0 0 145 0 0 145 0 0 145 0 0 145 0 0 145 0 0 145 0 0 145 0 0 145 0 0 145 0 0 145 0 0 145 0 0 145 0 0 145 0 0 145 0 0 145 0 0 145 0 0 145 0 0 145 0 0 145 0 0 145 0 0 145 0 0 145 0 0 145 0 0 145 225 0 15 255 255 255 255 255 255 255 255 255 255 255 255 255 255 255 255 255 255 255 255 255 255 255 255 255 255 255 255 255 255 255 255 255 255 255 255 255 255 255 255 255 255 255 255 255 255 255 255 255 255 255 255 255 255 255 255 255 255 255 255 255 255 255 255 255 255 255 255 255 255 255 255 255 255 255 255 255 255 255 255 255 255 255 255 255 255 255 255 255 255 255 255 255 255 255 255 255 255 255 255 255 255 255 255 255 255 255 255 255 255 255 255 255 255 255 255 255 255 255 255 255 255 255 255 255 255 255 255 255 255 255 255 255 255 255 255 255 255 255 255 255 255 255 255 255 255 255 255 255 255 255 255 255 255 255 255 255 255 255 255 255 255 255 255 255 255 255 255 255 255 255 255 255 255 255 255 255 255 255 255 255 255 255 255 255 255 255 255 255 255 255 255 255 255 255 255 255 255 255 255 255 255 255 255 255 255 255 255 255 255 255 255 255 255 255 255 255 255 255 255 255 255 255 255 255 255 255 255 255 255 255 255 255 255 255 255 255 255 255 255 255 255 255 255 255 255 255 255 255 255 255 255 255 255 255 255 255 255 255 255 255 255 255 255 255 255 255 255 255 255 255 255 255 255 255 255 255 255 255 255 255 255 255 255 255 255 255 255 255 255 255 255 255 255 255 255 255 225 0 15 225 0 15 225 0 15 225 0 15 225 0 15 225 0 15 225 0 15 225 0 15 225 0 15 225 0 15 225 0 15 225 0 15 225 0 15 225 0 15 225 0 15 225 0 15 225 0 15 225 0 15 225 0 15 225 0 15 225 0 15 225 0 15 225 0 15 225 0 15 225 0 15 225 0 15 225 0 15 225 0 15 225 0 15 225 0 15 225 0 15 225 0 15 225 0 15 225 0 15 225 0 15 225 0 15 225 0 15 225 0 15 225 0 15 225 0 15 225 0 15 225 0 15 225 0 15 225 0 15 225 0 15 225 0 15 225 0 15 225 0 15 225 0 15 225 0 15 225 0 15 225 0 15 225 0 15 225 0 15 225 0 15 225 0 15 225 0 15 225 0 15 225 0 15 225 0 15 225 0 15 225 0 15 225 0 15 225 0 15 225 0 15 225 0 15 225 0 15 225 0 15 225 0 15 225 0 15 225 0 15 225 0 15 225 0 15 225 0 15 225 0 15 225 0 15 225 0 15 225 0 15 225 0 15 225 0 15 225 0 15 225 0 15 225 0 15 225 0 15 225 0 15 225 0 15 225 0 15 225 0 15 225 0 15 225 0 15 225 0 15 225 0 15 225 0 15 225 0 15 225 0 15 225 0 15 225 0 15 225 0 15 225 0 15 225 0 15 225 0 15 
0 0 145 0 0 145 0 0 145 0 0 145 0 0 145 0 0 145 0 0 145 0 0 145 0 0 145 0 0 145 0 0 145 0 0 145 0 0 145 0 0 145 0 0 145 0 0 145 0 0 145 0 0 145 0 0 145 0 0 145 0 0 145 0 0 145 0 0 145 0 0 145 0 0 145 0 0 145 0 0 145 0 0 145 0 0 145 0 0 145 0 0 145 0 0 145 0 0 145 0 0 145 0 0 145 0 0 145 0 0 145 0 0 145 0 0 145 0 0 145 0 0 145 0 0 145 0 0 145 0 0 145 0 0 145 0 0 145 0 0 145 0 0 145 0 0 145 0 0 145 0 0 145 0 0 145 0 0 145 0 0 145 0 0 145 0 0 145 0 0 145 0 0 145 0 0 145 0 0 145 0 0 145 0 0 145 0 0 145 0 0 145 0 0 145 0 0 145 0 0 145 0 0 145 0 0 145 0 0 145 0 0 145 0 0 145 0 0 145 0 0 145 0 0 145 0 0 145 0 0 145 0 0 145 0 0 145 0 0 145 0 0 145 0 0 145 0 0 145 0 0 145 0 0 145 0 0 145 0 0 145 0 0 145 0 0 145 0 0 145 0 0 145 0 0 145 0 0 145 0 0 145 0 0 145 0 0 145 0 0 145 0 0 145 0 0 145 225 0 15 255 255 255 255 255 255 255 255 255 255 255 255 255 255 255 255 255 255 255 255 255 255 255 255 255 255 255 255 255 255 255 255 255 255 255 255 255 255 255 255 255 255 255 255 255 255 255 255 255 255 255 255 255 255 255 255 255 255 255 255 255 255 255 255 255 255 255 255 255 255 255 255 255 255 255 255 255 255 255 255 255 255 255 255 255 255 255 255 255 255 255 255 255 255 255 255 255 255 255 255 255 255 255 255 255 255 255 255 255 255 255 255 255 255 255 255 255 255 255 255 255 255 255 255 255 255 255 255 255 255 255 255 255 255 255 255 255 255 255 255 255 255 255 255 255 255 255 255 255 255 255 255 255 255 255 255 255 255 255 255 255 255 255 255 255 255 255 255 255 255 255 255 255 255 255 255 255 255 255 255 255 255 255 255 255 255 255 255 255 255 255 255 255 255 255 255 255 255 255 255 255 255 255 255 255 255 255 255 255 255 255 255 255 255 255 255 255 255 255 255 255 255 255 255 255 255 255 255 255 255 255 255 255 255 255 255 255 255 255 255 255 255 255 255 255 255 255 255 255 255 255 255 255 255 255 255 255 255 255 255 255 255 255 255 255 255 255 255 255 255 255 255 255 255 255 255 255 255 255 255 255 255 255 255 255 255 255 255 255 255 255 255 255 255 255 255 255 225 0 15 225 0 15 225 0 15 225 0 15 225 0 15 225 0 15 225 0 15 225 0 15 225 0 15 225 0 15 225 0 15 225 0 15 225 0 15 225 0 15 225 0 15 225 0 15 225 0 15 225 0 15 225 0 15 225 0 15 225 0 15 225 0 15 225 0 15 225 0 15 225 0 15 225 0 15 225 0 15 225 0 15 225 0 15 225 0 15 225 0 15 225 0 15 225 0 15 225 0 15 225 0 15 225 0 15 225 0 15 225 0 15 225 0 15 225 0 15 225 0 15 225 0 15 225 0 15 225 0 15 225 0 15 225 0 15 225 0 15 225 0 15 225 0 15 225 0 15 225 0 15 225 0 15 225 0 15 225 0 15 225 0 15 225 0 15 225 0 15 225 0 15 225 0 15 225 0 15 225 0 15 225 0 15 225 0 15 225 0 15 225 0 15 225 0 15 225 0 15 225 0 15 225 0 15 225 0 15 225 0 15 225 0 15 225 0 15 225 0 15 225 0 15 225 0 15 225 0 15 225 0 15 225 0 15 225 0 15 225 0 15 225 0 15 225 0 15 225 0 15 225 0 15 225 0 15 225 0 15 225 0 15 225 0 15 225 0 15 225 0 15 225 0 15 225 0 15 225 0 15 225 0 15 225 0 15 225 0 15 225 0 15 225 0 15 225 0 15 225 0 15 
0 0 145 0 0 145 0 0 145 0 0 145 0 0 145 0 0 145 0 0 145 0 0 145 0 0 145 0 0 145 0 0 145 0 0 145 0 0 145 0 0 145 0 0 145 0 0 145 0 0 145 0 0 145 0 0 145 0 0 145 0 0 145 0 0 145 0 0 145 0 0 145 0 0 145 0 0 145 0 0 145 0 0 145 0 0 145 0 0 145 0 0 145 0 0 145 0 0 145 0 0 145 0 0 145 0 0 145 0 0 145 0 0 145 0 0 145 0 0 145 0 0 145 0 0 145 0 0 145 0 0 145 0 0 145 0 0 145 0 0 145 0 0 145 0 0 145 0 0 145 0 0 145 0 0 145 0 0 145 0 0 145 0 0 145 0 0 145 0 0 145 0 0 145 0 0 145 0 0 145 0 0 145 0 0 145 0 0 145 0 0 145 0 0 145 0 0 145 0 0 145 0 0 145 0 0 145 0 0 145 0 0 145 0 0 145 0 0 145 0 0 145 0 0 145 0 0 145 0 0 145 0 0 145 0 0 145 0 0 145 0 0 145 0 0 145 0 0 145 0 0 145 0 0 145 0 0 145 0 0 145 0 0 145 0 0 145 0 0 145 0 0 145 0 0 145 0 0 145 0 0 145 0 0 145 0 0 145 0 0 145 0 0 145 0 0 145 225 0 15 255 255 255 255 255 255 255 255 255 255 255 255 255 255 255 255 255 255 255 255 255 255 255 255 255 255 255 255 255 255 255 255 255 255 255 255 255 255 255 255 255 255 255 255 255 255 255 255 255 255 255 255 255 255 255 255 255 255 255 255 255 255 255 255 255 255 255 255 255 255 255 255 255 255 255 255 255 255 255 255 255 255 255 255 255 255 255 255 255 255 255 255 255 255 255 255 255 255 255 255 255 255 255 255 255 255 255 255 255 255 255 255 255 255 255 255 255 255 255 255 255 255 255 255 255 255 255 255 255 255 255 255 255 255 255 255 255 255 255 255 255 255 255 255 255 255 255 255 255 255 255 255 255 255 255 255 255 255 255 255 255 255 255 255 255 255 255 255 255 255 255 255 255 255 255 255 255 255 255 255 255 255 255 255 255 255 255 255 255 255 255 255 255 255 255 255 255 255 255 255 255 255 255 255 255 255 255 255 255 255 255 255 255 255 255 255 255 255 255 255 255 255 255 255 255 255 255 255 255 255 255 255 255 255 255 255 255 255 255 255 255 255 255 255 255 255 255 255 255 255 255 255 255 255 255 255 255 255 255 255 255 255 255 255 255 255 255 255 255 255 255 255 255 255 255 255 255 255 255 255 255 255 255 255 255 255 255 255 255 255 255 255 255 255 255 255 255 225 0 15 225 0 15 225 0 15 225 0 15 225 0 15 225 0 15 225 0 15 225 0 15 225 0 15 225 0 15 225 0 15 225 0 15 225 0 15 225 0 15 225 0 15 225 0 15 225 0 15 225 0 15 225 0 15 225 0 15 225 0 15 225 0 15 225 0 15 225 0 15 225 0 15 225 0 15 225 0 15 225 0 15 225 0 15 225 0 15 225 0 15 225 0 15 225 0 15 225 0 15 225 0 15 225 0 15 225 0 15 225 0 15 225 0 15 225 0 15 225 0 15 225 0 15 225 0 15 225 0 15 225 0 15 225 0 15 225 0 15 225 0 15 225 0 15 225 0 15 225 0 15 225 0 15 225 0 15 225 0 15 225 0 15 225 0 15 225 0 15 225 0 15 225 0 15 225 0 15 225 0 15 225 0 15 225 0 15 225 0 15 225 0 15 225 0 15 225 0 15 225 0 15 225 0 15 225 0 15 225 0 15 225 0 15 225 0 15 225 0 15 225 0 15 225 0 15 225 0 15 225 0 15 225 0 15 225 0 15 225 0 15 225 0 15 225 0 15 225 0 15 225 0 15 225 0 15 225 0 15 225 0 15 225 0 15 225 0 15 225 0 15 225 0 15 225 0 15 225 0 15 225 0 15 225 0 15 225 0 15 225 0 15 225 0 15 225 0 15 225 0 15 
0 0 145 0 0 145 0 0 145 0 0 145 0 0 145 0 0 145 0 0 145 0 0 145 0 0 145 0 0 145 0 0 145 0 0 145 0 0 145 0 0 145 0 0 145 0 0 145 0 0 145 0 0 145 0 0 145 0 0 145 0 0 145 0 0 145 0 0 145 0 0 145 0 0 145 0 0 145 0 0 145 0 0 145 0 0 145 0 0 145 0 0 145 0 0 145 0 0 145 0 0 145 0 0 145 0 0 145 0 0 145 0 0 145 0 0 145 0 0 145 0 0 145 0 0 145 0 0 145 0 0 145 0 0 145 0 0 145 0 0 145 0 0 145 0 0 145 0 0 145 0 0 145 0 0 145 0 0 145 0 0 145 0 0 145 0 0 145 0 0 145 0 0 145 0 0 145 0 0 145 0 0 145 0 0 145 0 0 145 0 0 145 0 0 145 0 0 145 0 0 145 0 0 145 0 0 145 0 0 145 0 0 145 0 0 145 0 0 145 0 0 145 0 0 145 0 0 145 0 0 145 0 0 145 0 0 145 0 0 145 0 0 145 0 0 145 0 0 145 0 0 145 0 0 145 0 0 145 0 0 145 0 0 145 0 0 145 0 0 145 0 0 145 0 0 145 0 0 145 0 0 145 0 0 145 0 0 145 0 0 145 0 0 145 0 0 145 225 0 15 255 255 255 255 255 255 255 255 255 255 255 255 255 255 255 255 255 255 255 255 255 255 255 255 255 255 255 255 255 255 255 255 255 255 255 255 255 255 255 255 255 255 255 255 255 255 255 255 255 255 255 255 255 255 255 255 255 255 255 255 255 255 255 255 255 255 255 255 255 255 255 255 255 255 255 255 255 255 255 255 255 255 255 255 255 255 255 255 255 255 255 255 255 255 255 255 255 255 255 255 255 255 255 255 255 255 255 255 255 255 255 255 255 255 255 255 255 255 255 255 255 255 255 255 255 255 255 255 255 255 255 255 255 255 255 255 255 255 255 255 255 255 255 255 255 255 255 255 255 255 255 255 255 255 255 255 255 255 255 255 255 255 255 255 255 255 255 255 255 255 255 255 255 255 255 255 255 255 255 255 255 255 255 255 255 255 255 255 255 255 255 255 255 255 255 255 255 255 255 255 255 255 255 255 255 255 255 255 255 255 255 255 255 255 255 255 255 255 255 255 255 255 255 255 255 255 255 255 255 255 255 255 255 255 255 255 255 255 255 255 255 255 255 255 255 255 255 255 255 255 255 255 255 255 255 255 255 255 255 255 255 255 255 255 255 255 255 255 255 255 255 255 255 255 255 255 255 255 255 255 255 255 255 255 255 255 255 255 255 255 255 255 255 255 255 255 255 225 0 15 225 0 15 225 0 15 225 0 15 225 0 15 225 0 15 225 0 15 225 0 15 225 0 15 225 0 15 225 0 15 225 0 15 225 0 15 225 0 15 225 0 15 225 0 15 225 0 15 225 0 15 225 0 15 225 0 15 225 0 15 225 0 15 225 0 15 225 0 15 225 0 15 225 0 15 225 0 15 225 0 15 225 0 15 225 0 15 225 0 15 225 0 15 225 0 15 225 0 15 225 0 15 225 0 15 225 0 15 225 0 15 225 0 15 225 0 15 225 0 15 225 0 15 225 0 15 225 0 15 225 0 15 225 0 15 225 0 15 225 0 15 225 0 15 225 0 15 225 0 15 225 0 15 225 0 15 225 0 15 225 0 15 225 0 15 225 0 15 225 0 15 225 0 15 225 0 15 225 0 15 225 0 15 225 0 15 225 0 15 225 0 15 225 0 15 225 0 15 225 0 15 225 0 15 225 0 15 225 0 15 225 0 15 225 0 15 225 0 15 225 0 15 225 0 15 225 0 15 225 0 15 225 0 15 225 0 15 225 0 15 225 0 15 225 0 15 225 0 15 225 0 15 225 0 15 225 0 15 225 0 15 225 0 15 225 0 15 225 0 15 225 0 15 225 0 15 225 0 15 225 0 15 225 0 15 225 0 15 225 0 15 225 0 15 225 0 15 225 0 15 
0 0 145 0 0 145 0 0 145 0 0 145 0 0 145 0 0 145 0 0 145 0 0 145 0 0 145 0 0 145 0 0 145 0 0 145 0 0 145 0 0 145 0 0 145 0 0 145 0 0 145 0 0 145 0 0 145 0 0 145 0 0 145 0 0 145 0 0 145 0 0 145 0 0 145 0 0 145 0 0 145 0 0 145 0 0 145 0 0 145 0 0 145 0 0 145 0 0 145 0 0 145 0 0 145 0 0 145 0 0 145 0 0 145 0 0 145 0 0 145 0 0 145 0 0 145 0 0 145 0 0 145 0 0 145 0 0 145 0 0 145 0 0 145 0 0 145 0 0 145 0 0 145 0 0 145 0 0 145 0 0 145 0 0 145 0 0 145 0 0 145 0 0 145 0 0 145 0 0 145 0 0 145 0 0 145 0 0 145 0 0 145 0 0 145 0 0 145 0 0 145 0 0 145 0 0 145 0 0 145 0 0 145 0 0 145 0 0 145 0 0 145 0 0 145 0 0 145 0 0 145 0 0 145 0 0 145 0 0 145 0 0 145 0 0 145 0 0 145 0 0 145 0 0 145 0 0 145 0 0 145 0 0 145 0 0 145 0 0 145 0 0 145 0 0 145 0 0 145 0 0 145 0 0 145 0 0 145 0 0 145 0 0 145 0 0 145 225 0 15 255 255 255 255 255 255 255 255 255 255 255 255 255 255 255 255 255 255 255 255 255 255 255 255 255 255 255 255 255 255 255 255 255 255 255 255 255 255 255 255 255 255 255 255 255 255 255 255 255 255 255 255 255 255 255 255 255 255 255 255 255 255 255 255 255 255 255 255 255 255 255 255 255 255 255 255 255 255 255 255 255 255 255 255 255 255 255 255 255 255 255 255 255 255 255 255 255 255 255 255 255 255 255 255 255 255 255 255 255 255 255 255 255 255 255 255 255 255 255 255 255 255 255 255 255 255 255 255 255 255 255 255 255 255 255 255 255 255 255 255 255 255 255 255 255 255 255 255 255 255 255 255 255 255 255 255 255 255 255 255 255 255 255 255 255 255 255 255 255 255 255 255 255 255 255 255 255 255 255 255 255 255 255 255 255 255 255 255 255 255 255 255 255 255 255 255 255 255 255 255 255 255 255 255 255 255 255 255 255 255 255 255 255 255 255 255 255 255 255 255 255 255 255 255 255 255 255 255 255 255 255 255 255 255 255 255 255 255 255 255 255 255 255 255 255 255 255 255 255 255 255 255 255 255 255 255 255 255 255 255 255 255 255 255 255 255 255 255 255 255 255 255 255 255 255 255 255 255 255 255 255 255 255 255 255 255 255 255 255 255 255 255 255 255 255 255 255 225 0 15 225 0 15 225 0 15 225 0 15 225 0 15 225 0 15 225 0 15 225 0 15 225 0 15 225 0 15 225 0 15 225 0 15 225 0 15 225 0 15 225 0 15 225 0 15 225 0 15 225 0 15 225 0 15 225 0 15 225 0 15 225 0 15 225 0 15 225 0 15 225 0 15 225 0 15 225 0 15 225 0 15 225 0 15 225 0 15 225 0 15 225 0 15 225 0 15 225 0 15 225 0 15 225 0 15 225 0 15 225 0 15 225 0 15 225 0 15 225 0 15 225 0 15 225 0 15 225 0 15 225 0 15 225 0 15 225 0 15 225 0 15 225 0 15 225 0 15 225 0 15 225 0 15 225 0 15 225 0 15 225 0 15 225 0 15 225 0 15 225 0 15 225 0 15 225 0 15 225 0 15 225 0 15 225 0 15 225 0 15 225 0 15 225 0 15 225 0 15 225 0 15 225 0 15 225 0 15 225 0 15 225 0 15 225 0 15 225 0 15 225 0 15 225 0 15 225 0 15 225 0 15 225 0 15 225 0 15 225 0 15 225 0 15 225 0 15 225 0 15 225 0 15 225 0 15 225 0 15 225 0 15 225 0 15 225 0 15 225 0 15 225 0 15 225 0 15 225 0 15 225 0 15 225 0 15 225 0 15 225 0 15 225 0 15 225 0 15 225 0 15 
0 0 145 0 0 145 0 0 145 0 0 145 0 0 145 0 0 145 0 0 145 0 0 145 0 0 145 0 0 145 0 0 145 0 0 145 0 0 145 0 0 145 0 0 145 0 0 145 0 0 145 0 0 145 0 0 145 0 0 145 0 0 145 0 0 145 0 0 145 0 0 145 0 0 145 0 0 145 0 0 145 0 0 145 0 0 145 0 0 145 0 0 145 0 0 145 0 0 145 0 0 145 0 0 145 0 0 145 0 0 145 0 0 145 0 0 145 0 0 145 0 0 145 0 0 145 0 0 145 0 0 145 0 0 145 0 0 145 0 0 145 0 0 145 0 0 145 0 0 145 0 0 145 0 0 145 0 0 145 0 0 145 0 0 145 0 0 145 0 0 145 0 0 145 0 0 145 0 0 145 0 0 145 0 0 145 0 0 145 0 0 145 0 0 145 0 0 145 0 0 145 0 0 145 0 0 145 0 0 145 0 0 145 0 0 145 0 0 145 0 0 145 0 0 145 0 0 145 0 0 145 0 0 145 0 0 145 0 0 145 0 0 145 0 0 145 0 0 145 0 0 145 0 0 145 0 0 145 0 0 145 0 0 145 0 0 145 0 0 145 0 0 145 0 0 145 0 0 145 0 0 145 0 0 145 0 0 145 0 0 145 0 0 145 0 0 145 225 0 15 255 255 255 255 255 255 255 255 255 255 255 255 255 255 255 255 255 255 255 255 255 255 255 255 255 255 255 255 255 255 255 255 255 255 255 255 255 255 255 255 255 255 255 255 255 255 255 255 255 255 255 255 255 255 255 255 255 255 255 255 255 255 255 255 255 255 255 255 255 255 255 255 255 255 255 255 255 255 255 255 255 255 255 255 255 255 255 255 255 255 255 255 255 255 255 255 255 255 255 255 255 255 255 255 255 255 255 255 255 255 255 255 255 255 255 255 255 255 255 255 255 255 255 255 255 255 255 255 255 255 255 255 255 255 255 255 255 255 255 255 255 255 255 255 255 255 255 255 255 255 255 255 255 255 255 255 255 255 255 255 255 255 255 255 255 255 255 255 255 255 255 255 255 255 255 255 255 255 255 255 255 255 255 255 255 255 255 255 255 255 255 255 255 255 255 255 255 255 255 255 255 255 255 255 255 255 255 255 255 255 255 255 255 255 255 255 255 255 255 255 255 255 255 255 255 255 255 255 255 255 255 255 255 255 255 255 255 255 255 255 255 255 255 255 255 255 255 255 255 255 255 255 255 255 255 255 255 255 255 255 255 255 255 255 255 255 255 255 255 255 255 255 255 255 255 255 255 255 255 255 255 255 255 255 255 255 255 255 255 255 255 255 255 255 255 255 255 225 0 15 225 0 15 225 0 15 225 0 15 225 0 15 225 0 15 225 0 15 225 0 15 225 0 15 225 0 15 225 0 15 225 0 15 225 0 15 225 0 15 225 0 15 225 0 15 225 0 15 225 0 15 225 0 15 225 0 15 225 0 15 225 0 15 225 0 15 225 0 15 225 0 15 225 0 15 225 0 15 225 0 15 225 0 15 225 0 15 225 0 15 225 0 15 225 0 15 225 0 15 225 0 15 225 0 15 225 0 15 225 0 15 225 0 15 225 0 15 225 0 15 225 0 15 225 0 15 225 0 15 225 0 15 225 0 15 225 0 15 225 0 15 225 0 15 225 0 15 225 0 15 225 0 15 225 0 15 225 0 15 225 0 15 225 0 15 225 0 15 225 0 15 225 0 15 225 0 15 225 0 15 225 0 15 225 0 15 225 0 15 225 0 15 225 0 15 225 0 15 225 0 15 225 0 15 225 0 15 225 0 15 225 0 15 225 0 15 225 0 15 225 0 15 225 0 15 225 0 15 225 0 15 225 0 15 225 0 15 225 0 15 225 0 15 225 0 15 225 0 15 225 0 15 225 0 15 225 0 15 225 0 15 225 0 15 225 0 15 225 0 15 225 0 15 225 0 15 225 0 15 225 0 15 225 0 15 225 0 15 225 0 15 225 0 15 225 0 15 225 0 15 
0 0 145 0 0 145 0 0 145 0 0 145 0 0 145 0 0 145 0 0 145 0 0 145 0 0 145 0 0 145 0 0 145 0 0 145 0 0 145 0 0 145 0 0 145 0 0 145 0 0 145 0 0 145 0 0 145 0 0 145 0 0 145 0 0 145 0 0 145 0 0 145 0 0 145 0 0 145 0 0 145 0 0 145 0 0 145 0 0 145 0 0 145 0 0 145 0 0 145 0 0 145 0 0 145 0 0 145 0 0 145 0 0 145 0 0 145 0 0 145 0 0 145 0 0 145 0 0 145 0 0 145 0 0 145 0 0 145 0 0 145 0 0 145 0 0 145 0 0 145 0 0 145 0 0 145 0 0 145 0 0 145 0 0 145 0 0 145 0 0 145 0 0 145 0 0 145 0 0 145 0 0 145 0 0 145 0 0 145 0 0 145 0 0 145 0 0 145 0 0 145 0 0 145 0 0 145 0 0 145 0 0 145 0 0 145 0 0 145 0 0 145 0 0 145 0 0 145 0 0 145 0 0 145 0 0 145 0 0 145 0 0 145 0 0 145 0 0 145 0 0 145 0 0 145 0 0 145 0 0 145 0 0 145 0 0 145 0 0 145 0 0 145 0 0 145 0 0 145 0 0 145 0 0 145 0 0 145 0 0 145 0 0 145 0 0 145 225 0 15 255 255 255 255 255 255 255 255 255 255 255 255 255 255 255 255 255 255 255 255 255 255 255 255 255 255 255 255 255 255 255 255 255 255 255 255 255 255 255 255 255 255 255 255 255 255 255 255 255 255 255 255 255 255 255 255 255 255 255 255 255 255 255 255 255 255 255 255 255 255 255 255 255 255 255 255 255 255 255 255 255 255 255 255 255 255 255 255 255 255 255 255 255 255 255 255 255 255 255 255 255 255 255 255 255 255 255 255 255 255 255 255 255 255 255 255 255 255 255 255 255 255 255 255 255 255 255 255 255 255 255 255 255 255 255 255 255 255 255 255 255 255 255 255 255 255 255 255 255 255 255 255 255 255 255 255 255 255 255 255 255 255 255 255 255 255 255 255 255 255 255 255 255 255 255 255 255 255 255 255 255 255 255 255 255 255 255 255 255 255 255 255 255 255 255 255 255 255 255 255 255 255 255 255 255 255 255 255 255 255 255 255 255 255 255 255 255 255 255 255 255 255 255 255 255 255 255 255 255 255 255 255 255 255 255 255 255 255 255 255 255 255 255 255 255 255 255 255 255 255 255 255 255 255 255 255 255 255 255 255 255 255 255 255 255 255 255 255 255 255 255 255 255 255 255 255 255 255 255 255 255 255 255 255 255 255 255 255 255 255 255 255 255 255 255 255 255 225 0 15 225 0 15 225 0 15 225 0 15 225 0 15 225 0 15 225 0 15 225 0 15 225 0 15 225 0 15 225 0 15 225 0 15 225 0 15 225 0 15 225 0 15 225 0 15 225 0 15 225 0 15 225 0 15 225 0 15 225 0 15 225 0 15 225 0 15 225 0 15 225 0 15 225 0 15 225 0 15 225 0 15 225 0 15 225 0 15 225 0 15 225 0 15 225 0 15 225 0 15 225 0 15 225 0 15 225 0 15 225 0 15 225 0 15 225 0 15 225 0 15 225 0 15 225 0 15 225 0 15 225 0 15 225 0 15 225 0 15 225 0 15 225 0 15 225 0 15 225 0 15 225 0 15 225 0 15 225 0 15 225 0 15 225 0 15 225 0 15 225 0 15 225 0 15 225 0 15 225 0 15 225 0 15 225 0 15 225 0 15 225 0 15 225 0 15 225 0 15 225 0 15 225 0 15 225 0 15 225 0 15 225 0 15 225 0 15 225 0 15 225 0 15 225 0 15 225 0 15 225 0 15 225 0 15 225 0 15 225 0 15 225 0 15 225 0 15 225 0 15 225 0 15 225 0 15 225 0 15 225 0 15 225 0 15 225 0 15 225 0 15 225 0 15 225 0 15 225 0 15 225 0 15 225 0 15 225 0 15 225 0 15 225 0 15 225 0 15 225 0 15 
0 0 145 0 0 145 0 0 145 0 0 145 0 0 145 0 0 145 0 0 145 0 0 145 0 0 145 0 0 145 0 0 145 0 0 145 0 0 145 0 0 145 0 0 145 0 0 145 0 0 145 0 0 145 0 0 145 0 0 145 0 0 145 0 0 145 0 0 145 0 0 145 0 0 145 0 0 145 0 0 145 0 0 145 0 0 145 0 0 145 0 0 145 0 0 145 0 0 145 0 0 145 0 0 145 0 0 145 0 0 145 0 0 145 0 0 145 0 0 145 0 0 145 0 0 145 0 0 145 0 0 145 0 0 145 0 0 145 0 0 145 0 0 145 0 0 145 0 0 145 0 0 145 0 0 145 0 0 145 0 0 145 0 0 145 0 0 145 0 0 145 0 0 145 0 0 145 0 0 145 0 0 145 0 0 145 0 0 145 0 0 145 0 0 145 0 0 145 0 0 145 0 0 145 0 0 145 0 0 145 0 0 145 0 0 145 0 0 145 0 0 145 0 0 145 0 0 145 0 0 145 0 0 145 0 0 145 0 0 145 0 0 145 0 0 145 0 0 145 0 0 145 0 0 145 0 0 145 0 0 145 0 0 145 0 0 145 0 0 145 0 0 145 0 0 145 0 0 145 0 0 145 0 0 145 0 0 145 0 0 145 0 0 145 0 0 145 225 0 15 255 255 255 255 255 255 255 255 255 255 255 255 255 255 255 255 255 255 255 255 255 255 255 255 255 255 255 255 255 255 255 255 255 255 255 255 255 255 255 255 255 255 255 255 255 255 255 255 255 255 255 255 255 255 255 255 255 255 255 255 255 255 255 255 255 255 255 255 255 255 255 255 255 255 255 255 255 255 255 255 255 255 255 255 255 255 255 255 255 255 255 255 255 255 255 255 255 255 255 255 255 255 255 255 255 255 255 255 255 255 255 255 255 255 255 255 255 255 255 255 255 255 255 255 255 255 255 255 255 255 255 255 255 255 255 255 255 255 255 255 255 255 255 255 255 255 255 255 255 255 255 255 255 255 255 255 255 255 255 255 255 255 255 255 255 255 255 255 255 255 255 255 255 255 255 255 255 255 255 255 255 255 255 255 255 255 255 255 255 255 255 255 255 255 255 255 255 255 255 255 255 255 255 255 255 255 255 255 255 255 255 255 255 255 255 255 255 255 255 255 255 255 255 255 255 255 255 255 255 255 255 255 255 255 255 255 255 255 255 255 255 255 255 255 255 255 255 255 255 255 255 255 255 255 255 255 255 255 255 255 255 255 255 255 255 255 255 255 255 255 255 255 255 255 255 255 255 255 255 255 255 255 255 255 255 255 255 255 255 255 255 255 255 255 255 255 255 225 0 15 225 0 15 225 0 15 225 0 15 225 0 15 225 0 15 225 0 15 225 0 15 225 0 15 225 0 15 225 0 15 225 0 15 225 0 15 225 0 15 225 0 15 225 0 15 225 0 15 225 0 15 225 0 15 225 0 15 225 0 15 225 0 15 225 0 15 225 0 15 225 0 15 225 0 15 225 0 15 225 0 15 225 0 15 225 0 15 225 0 15 225 0 15 225 0 15 225 0 15 225 0 15 225 0 15 225 0 15 225 0 15 225 0 15 225 0 15 225 0 15 225 0 15 225 0 15 225 0 15 225 0 15 225 0 15 225 0 15 225 0 15 225 0 15 225 0 15 225 0 15 225 0 15 225 0 15 225 0 15 225 0 15 225 0 15 225 0 15 225 0 15 225 0 15 225 0 15 225 0 15 225 0 15 225 0 15 225 0 15 225 0 15 225 0 15 225 0 15 225 0 15 225 0 15 225 0 15 225 0 15 225 0 15 225 0 15 225 0 15 225 0 15 225 0 15 225 0 15 225 0 15 225 0 15 225 0 15 225 0 15 225 0 15 225 0 15 225 0 15 225 0 15 225 0 15 225 0 15 225 0 15 225 0 15 225 0 15 225 0 15 225 0 15 225 0 15 225 0 15 225 0 15 225 0 15 225 0 15 225 0 15 225 0 15 225 0 15 225 0 15 
0 0 145 0 0 145 0 0 145 0 0 145 0 0 145 0 0 145 0 0 145 0 0 145 0 0 145 0 0 145 0 0 145 0 0 145 0 0 145 0 0 145 0 0 145 0 0 145 0 0 145 0 0 145 0 0 145 0 0 145 0 0 145 0 0 145 0 0 145 0 0 145 0 0 145 0 0 145 0 0 145 0 0 145 0 0 145 0 0 145 0 0 145 0 0 145 0 0 145 0 0 145 0 0 145 0 0 145 0 0 145 0 0 145 0 0 145 0 0 145 0 0 145 0 0 145 0 0 145 0 0 145 0 0 145 0 0 145 0 0 145 0 0 145 0 0 145 0 0 145 0 0 145 0 0 145 0 0 145 0 0 145 0 0 145 0 0 145 0 0 145 0 0 145 0 0 145 0 0 145 0 0 145 0 0 145 0 0 145 0 0 145 0 0 145 0 0 145 0 0 145 0 0 145 0 0 145 0 0 145 0 0 145 0 0 145 0 0 145 0 0 145 0 0 145 0 0 145 0 0 145 0 0 145 0 0 145 0 0 145 0 0 145 0 0 145 0 0 145 0 0 145 0 0 145 0 0 145 0 0 145 0 0 145 0 0 145 0 0 145 0 0 145 0 0 145 0 0 145 0 0 145 0 0 145 0 0 145 0 0 145 0 0 145 0 0 145 225 0 15 255 255 255 255 255 255 255 255 255 255 255 255 255 255 255 255 255 255 255 255 255 255 255 255 255 255 255 255 255 255 255 255 255 255 255 255 255 255 255 255 255 255 255 255 255 255 255 255 255 255 255 255 255 255 255 255 255 255 255 255 255 255 255 255 255 255 255 255 255 255 255 255 255 255 255 255 255 255 255 255 255 255 255 255 255 255 255 255 255 255 255 255 255 255 255 255 255 255 255 255 255 255 255 255 255 255 255 255 255 255 255 255 255 255 255 255 255 255 255 255 255 255 255 255 255 255 255 255 255 255 255 255 255 255 255 255 255 255 255 255 255 255 255 255 255 255 255 255 255 255 255 255 255 255 255 255 255 255 255 255 255 255 255 255 255 255 255 255 255 255 255 255 255 255 255 255 255 255 255 255 255 255 255 255 255 255 255 255 255 255 255 255 255 255 255 255 255 255 255 255 255 255 255 255 255 255 255 255 255 255 255 255 255 255 255 255 255 255 255 255 255 255 255 255 255 255 255 255 255 255 255 255 255 255 255 255 255 255 255 255 255 255 255 255 255 255 255 255 255 255 255 255 255 255 255 255 255 255 255 255 255 255 255 255 255 255 255 255 255 255 255 255 255 255 255 255 255 255 255 255 255 255 255 255 255 255 255 255 255 255 255 255 255 255 255 255 255 225 0 15 225 0 15 225 0 15 225 0 15 225 0 15 225 0 15 225 0 15 225 0 15 225 0 15 225 0 15 225 0 15 225 0 15 225 0 15 225 0 15 225 0 15 225 0 15 225 0 15 225 0 15 225 0 15 225 0 15 225 0 15 225 0 15 225 0 15 225 0 15 225 0 15 225 0 15 225 0 15 225 0 15 225 0 15 225 0 15 225 0 15 225 0 15 225 0 15 225 0 15 225 0 15 225 0 15 225 0 15 225 0 15 225 0 15 225 0 15 225 0 15 225 0 15 225 0 15 225 0 15 225 0 15 225 0 15 225 0 15 225 0 15 225 0 15 225 0 15 225 0 15 225 0 15 225 0 15 225 0 15 225 0 15 225 0 15 225 0 15 225 0 15 225 0 15 225 0 15 225 0 15 225 0 15 225 0 15 225 0 15 225 0 15 225 0 15 225 0 15 225 0 15 225 0 15 225 0 15 225 0 15 225 0 15 225 0 15 225 0 15 225 0 15 225 0 15 225 0 15 225 0 15 225 0 15 225 0 15 225 0 15 225 0 15 225 0 15 225 0 15 225 0 15 225 0 15 225 0 15 225 0 15 225 0 15 225 0 15 225 0 15 225 0 15 225 0 15 225 0 15 225 0 15 225 0 15 225 0 15 225 0 15 225 0 15 225 0 15 225 0 15 
0 0 145 0 0 145 0 0 145 0 0 145 0 0 145 0 0 145 0 0 145 0 0 145 0 0 145 0 0 145 0 0 145 0 0 145 0 0 145 0 0 145 0 0 145 0 0 145 0 0 145 0 0 145 0 0 145 0 0 145 0 0 145 0 0 145 0 0 145 0 0 145 0 0 145 0 0 145 0 0 145 0 0 145 0 0 145 0 0 145 0 0 145 0 0 145 0 0 145 0 0 145 0 0 145 0 0 145 0 0 145 0 0 145 0 0 145 0 0 145 0 0 145 0 0 145 0 0 145 0 0 145 0 0 145 0 0 145 0 0 145 0 0 145 0 0 145 0 0 145 0 0 145 0 0 145 0 0 145 0 0 145 0 0 145 0 0 145 0 0 145 0 0 145 0 0 145 0 0 145 0 0 145 0 0 145 0 0 145 0 0 145 0 0 145 0 0 145 0 0 145 0 0 145 0 0 145 0 0 145 0 0 145 0 0 145 0 0 145 0 0 145 0 0 145 0 0 145 0 0 145 0 0 145 0 0 145 0 0 145 0 0 145 0 0 145 0 0 145 0 0 145 0 0 145 0 0 145 0 0 145 0 0 145 0 0 145 0 0 145 0 0 145 0 0 145 0 0 145 0 0 145 0 0 145 0 0 145 0 0 145 0 0 145 0 0 145 225 0 15 255 255 255 255 255 255 255 255 255 255 255 255 255 255 255 255 255 255 255 255 255 255 255 255 255 255 255 255 255 255 255 255 255 255 255 255 255 255 255 255 255 255 255 255 255 255 255 255 255 255 255 255 255 255 255 255 255 255 255 255 255 255 255 255 255 255 255 255 255 255 255 255 255 255 255 255 255 255 255 255 255 255 255 255 255 255 255 255 255 255 255 255 255 255 255 255 255 255 255 255 255 255 255 255 255 255 255 255 255 255 255 255 255 255 255 255 255 255 255 255 255 255 255 255 255 255 255 255 255 255 255 255 255 255 255 255 255 255 255 255 255 255 255 255 255 255 255 255 255 255 255 255 255 255 255 255 255 255 255 255 255 255 255 255 255 255 255 255 255 255 255 255 255 255 255 255 255 255 255 255 255 255 255 255 255 255 255 255 255 255 255 255 255 255 255 255 255 255 255 255 255 255 255 255 255 255 255 255 255 255 255 255 255 255 255 255 255 255 255 255 255 255 255 255 255 255 255 255 255 255 255 255 255 255 255 255 255 255 255 255 255 255 255 255 255 255 255 255 255 255 255 255 255 255 255 255 255 255 255 255 255 255 255 255 255 255 255 255 255 255 255 255 255 255 255 255 255 255 255 255 255 255 255 255 255 255 255 255 255 255 255 255 255 255 255 255 255 225 0 15 225 0 15 225 0 15 225 0 15 225 0 15 225 0 15 225 0 15 225 0 15 225 0 15 225 0 15 225 0 15 225 0 15 225 0 15 225 0 15 225 0 15 225 0 15 225 0 15 225 0 15 225 0 15 225 0 15 225 0 15 225 0 15 225 0 15 225 0 15 225 0 15 225 0 15 225 0 15 225 0 15 225 0 15 225 0 15 225 0 15 225 0 15 225 0 15 225 0 15 225 0 15 225 0 15 225 0 15 225 0 15 225 0 15 225 0 15 225 0 15 225 0 15 225 0 15 225 0 15 225 0 15 225 0 15 225 0 15 225 0 15 225 0 15 225 0 15 225 0 15 225 0 15 225 0 15 225 0 15 225 0 15 225 0 15 225 0 15 225 0 15 225 0 15 225 0 15 225 0 15 225 0 15 225 0 15 225 0 15 225 0 15 225 0 15 225 0 15 225 0 15 225 0 15 225 0 15 225 0 15 225 0 15 225 0 15 225 0 15 225 0 15 225 0 15 225 0 15 225 0 15 225 0 15 225 0 15 225 0 15 225 0 15 225 0 15 225 0 15 225 0 15 225 0 15 225 0 15 225 0 15 225 0 15 225 0 15 225 0 15 225 0 15 225 0 15 225 0 15 225 0 15 225 0 15 225 0 15 225 0 15 225 0 15 225 0 15 225 0 15 
0 0 145 0 0 145 0 0 145 0 0 145 0 0 145 0 0 145 0 0 145 0 0 145 0 0 145 0 0 145 0 0 145 0 0 145 0 0 145 0 0 145 0 0 145 0 0 145 0 0 145 0 0 145 0 0 145 0 0 145 0 0 145 0 0 145 0 0 145 0 0 145 0 0 145 0 0 145 0 0 145 0 0 145 0 0 145 0 0 145 0 0 145 0 0 145 0 0 145 0 0 145 0 0 145 0 0 145 0 0 145 0 0 145 0 0 145 0 0 145 0 0 145 0 0 145 0 0 145 0 0 145 0 0 145 0 0 145 0 0 145 0 0 145 0 0 145 0 0 145 0 0 145 0 0 145 0 0 145 0 0 145 0 0 145 0 0 145 0 0 145 0 0 145 0 0 145 0 0 145 0 0 145 0 0 145 0 0 145 0 0 145 0 0 145 0 0 145 0 0 145 0 0 145 0 0 145 0 0 145 0 0 145 0 0 145 0 0 145 0 0 145 0 0 145 0 0 145 0 0 145 0 0 145 0 0 145 0 0 145 0 0 145 0 0 145 0 0 145 0 0 145 0 0 145 0 0 145 0 0 145 0 0 145 0 0 145 0 0 145 0 0 145 0 0 145 0 0 145 0 0 145 0 0 145 0 0 145 0 0 145 0 0 145 0 0 145 225 0 15 255 255 255 255 255 255 255 255 255 255 255 255 255 255 255 255 255 255 255 255 255 255 255 255 255 255 255 255 255 255 255 255 255 255 255 255 255 255 255 255 255 255 255 255 255 255 255 255 255 255 255 255 255 255 255 255 255 255 255 255 255 255 255 255 255 255 255 255 255 255 255 255 255 255 255 255 255 255 255 255 255 255 255 255 255 255 255 255 255 255 255 255 255 255 255 255 255 255 255 255 255 255 255 255 255 255 255 255 255 255 255 255 255 255 255 255 255 255 255 255 255 255 255 255 255 255 255 255 255 255 255 255 255 255 255 255 255 255 255 255 255 255 255 255 255 255 255 255 255 255 255 255 255 255 255 255 255 255 255 255 255 255 255 255 255 255 255 255 255 255 255 255 255 255 255 255 255 255 255 255 255 255 255 255 255 255 255 255 255 255 255 255 255 255 255 255 255 255 255 255 255 255 255 255 255 255 255 255 255 255 255 255 255 255 255 255 255 255 255 255 255 255 255 255 255 255 255 255 255 255 255 255 255 255 255 255 255 255 255 255 255 255 255 255 255 255 255 255 255 255 255 255 255 255 255 255 255 255 255 255 255 255 255 255 255 255 255 255 255 255 255 255 255 255 255 255 255 255 255 255 255 255 255 255 255 255 255 255 255 255 255 255 255 255 255 255 255 225 0 15 225 0 15 225 0 15 225 0 15 225 0 15 225 0 15 225 0 15 225 0 15 225 0 15 225 0 15 225 0 15 225 0 15 225 0 15 225 0 15 225 0 15 225 0 15 225 0 15 225 0 15 225 0 15 225 0 15 225 0 15 225 0 15 225 0 15 225 0 15 225 0 15 225 0 15 225 0 15 225 0 15 225 0 15 225 0 15 225 0 15 225 0 15 225 0 15 225 0 15 225 0 15 225 0 15 225 0 15 225 0 15 225 0 15 225 0 15 225 0 15 225 0 15 225 0 15 225 0 15 225 0 15 225 0 15 225 0 15 225 0 15 225 0 15 225 0 15 225 0 15 225 0 15 225 0 15 225 0 15 225 0 15 225 0 15 225 0 15 225 0 15 225 0 15 225 0 15 225 0 15 225 0 15 225 0 15 225 0 15 225 0 15 225 0 15 225 0 15 225 0 15 225 0 15 225 0 15 225 0 15 225 0 15 225 0 15 225 0 15 225 0 15 225 0 15 225 0 15 225 0 15 225 0 15 225 0 15 225 0 15 225 0 15 225 0 15 225 0 15 225 0 15 225 0 15 225 0 15 225 0 15 225 0 15 225 0 15 225 0 15 225 0 15 225 0 15 225 0 15 225 0 15 225 0 15 225 0 15 225 0 15 225 0 15 225 0 15 225 0 15 
0 0 145 0 0 145 0 0 145 0 0 145 0 0 145 0 0 145 0 0 145 0 0 145 0 0 145 0 0 145 0 0 145 0 0 145 0 0 145 0 0 145 0 0 145 0 0 145 0 0 145 0 0 145 0 0 145 0 0 145 0 0 145 0 0 145 0 0 145 0 0 145 0 0 145 0 0 145 0 0 145 0 0 145 0 0 145 0 0 145 0 0 145 0 0 145 0 0 145 0 0 145 0 0 145 0 0 145 0 0 145 0 0 145 0 0 145 0 0 145 0 0 145 0 0 145 0 0 145 0 0 145 0 0 145 0 0 145 0 0 145 0 0 145 0 0 145 0 0 145 0 0 145 0 0 145 0 0 145 0 0 145 0 0 145 0 0 145 0 0 145 0 0 145 0 0 145 0 0 145 0 0 145 0 0 145 0 0 145 0 0 145 0 0 145 0 0 145 0 0 145 0 0 145 0 0 145 0 0 145 0 0 145 0 0 145 0 0 145 0 0 145 0 0 145 0 0 145 0 0 145 0 0 145 0 0 145 0 0 145 0 0 145 0 0 145 0 0 145 0 0 145 0 0 145 0 0 145 0 0 145 0 0 145 0 0 145 0 0 145 0 0 145 0 0 145 0 0 145 0 0 145 0 0 145 0 0 145 0 0 145 0 0 145 0 0 145 225 0 15 255 255 255 255 255 255 255 255 255 255 255 255 255 255 255 255 255 255 255 255 255 255 255 255 255 255 255 255 255 255 255 255 255 255 255 255 255 255 255 255 255 255 255 255 255 255 255 255 255 255 255 255 255 255 255 255 255 255 255 255 255 255 255 255 255 255 255 255 255 255 255 255 255 255 255 255 255 255 255 255 255 255 255 255 255 255 255 255 255 255 255 255 255 255 255 255 255 255 255 255 255 255 255 255 255 255 255 255 255 255 255 255 255 255 255 255 255 255 255 255 255 255 255 255 255 255 255 255 255 255 255 255 255 255 255 255 255 255 255 255 255 255 255 255 255 255 255 255 255 255 255 255 255 255 255 255 255 255 255 255 255 255 255 255 255 255 255 255 255 255 255 255 255 255 255 255 255 255 255 255 255 255 255 255 255 255 255 255 255 255 255 255 255 255 255 255 255 255 255 255 255 255 255 255 255 255 255 255 255 255 255 255 255 255 255 255 255 255 255 255 255 255 255 255 255 255 255 255 255 255 255 255 255 255 255 255 255 255 255 255 255 255 255 255 255 255 255 255 255 255 255 255 255 255 255 255 255 255 255 255 255 255 255 255 255 255 255 255 255 255 255 255 255 255 255 255 255 255 255 255 255 255 255 255 255 255 255 255 255 255 255 255 255 255 255 255 255 225 0 15 225 0 15 225 0 15 225 0 15 225 0 15 225 0 15 225 0 15 225 0 15 225 0 15 225 0 15 225 0 15 225 0 15 225 0 15 225 0 15 225 0 15 225 0 15 225 0 15 225 0 15 225 0 15 225 0 15 225 0 15 225 0 15 225 0 15 225 0 15 225 0 15 225 0 15 225 0 15 225 0 15 225 0 15 225 0 15 225 0 15 225 0 15 225 0 15 225 0 15 225 0 15 225 0 15 225 0 15 225 0 15 225 0 15 225 0 15 225 0 15 225 0 15 225 0 15 225 0 15 225 0 15 225 0 15 225 0 15 225 0 15 225 0 15 225 0 15 225 0 15 225 0 15 225 0 15 225 0 15 225 0 15 225 0 15 225 0 15 225 0 15 225 0 15 225 0 15 225 0 15 225 0 15 225 0 15 225 0 15 225 0 15 225 0 15 225 0 15 225 0 15 225 0 15 225 0 15 225 0 15 225 0 15 225 0 15 225 0 15 225 0 15 225 0 15 225 0 15 225 0 15 225 0 15 225 0 15 225 0 15 225 0 15 225 0 15 225 0 15 225 0 15 225 0 15 225 0 15 225 0 15 225 0 15 225 0 15 225 0 15 225 0 15 225 0 15 225 0 15 225 0 15 225 0 15 225 0 15 225 0 15 225 0 15 225 0 15 225 0 15 
0 0 145 0 0 145 0 0 145 0 0 145 0 0 145 0 0 145 0 0 145 0 0 145 0 0 145 0 0 145 0 0 145 0 0 145 0 0 145 0 0 145 0 0 145 0 0 145 0 0 145 0 0 145 0 0 145 0 0 145 0 0 145 0 0 145 0 0 145 0 0 145 0 0 145 0 0 145 0 0 145 0 0 145 0 0 145 0 0 145 0 0 145 0 0 145 0 0 145 0 0 145 0 0 145 0 0 145 0 0 145 0 0 145 0 0 145 0 0 145 0 0 145 0 0 145 0 0 145 0 0 145 0 0 145 0 0 145 0 0 145 0 0 145 0 0 145 0 0 145 0 0 145 0 0 145 0 0 145 0 0 145 0 0 145 0 0 145 0 0 145 0 0 145 0 0 145 0 0 145 0 0 145 0 0 145 0 0 145 0 0 145 0 0 145 0 0 145 0 0 145 0 0 145 0 0 145 0 0 145 0 0 145 0 0 145 0 0 145 0 0 145 0 0 145 0 0 145 0 0 145 0 0 145 0 0 145 0 0 145 0 0 145 0 0 145 0 0 145 0 0 145 0 0 145 0 0 145 0 0 145 0 0 145 0 0 145 0 0 145 0 0 145 0 0 145 0 0 145 0 0 145 0 0 145 0 0 145 0 0 145 0 0 145 0 0 145 225 0 15 255 255 255 255 255 255 255 255 255 255 255 255 255 255 255 255 255 255 255 255 255 255 255 255 255 255 255 255 255 255 255 255 255 255 255 255 255 255 255 255 255 255 255 255 255 255 255 255 255 255 255 255 255 255 255 255 255 255 255 255 255 255 255 255 255 255 255 255 255 255 255 255 255 255 255 255 255 255 255 255 255 255 255 255 255 255 255 255 255 255 255 255 255 255 255 255 255 255 255 255 255 255 255 255 255 255 255 255 255 255 255 255 255 255 255 255 255 255 255 255 255 255 255 255 255 255 255 255 255 255 255 255 255 255 255 255 255 255 255 255 255 255 255 255 255 255 255 255 255 255 255 255 255 255 255 255 255 255 255 255 255 255 255 255 255 255 255 255 255 255 255 255 255 255 255 255 255 255 255 255 255 255 255 255 255 255 255 255 255 255 255 255 255 255 255 255 255 255 255 255 255 255 255 255 255 255 255 255 255 255 255 255 255 255 255 255 255 255 255 255 255 255 255 255 255 255 255 255 255 255 255 255 255 255 255 255 255 255 255 255 255 255 255 255 255 255 255 255 255 255 255 255 255 255 255 255 255 255 255 255 255 255 255 255 255 255 255 255 255 255 255 255 255 255 255 255 255 255 255 255 255 255 255 255 255 255 255 255 255 255 255 255 255 255 255 255 255 225 0 15 225 0 15 225 0 15 225 0 15 225 0 15 225 0 15 225 0 15 225 0 15 225 0 15 225 0 15 225 0 15 225 0 15 225 0 15 225 0 15 225 0 15 225 0 15 225 0 15 225 0 15 225 0 15 225 0 15 225 0 15 225 0 15 225 0 15 225 0 15 225 0 15 225 0 15 225 0 15 225 0 15 225 0 15 225 0 15 225 0 15 225 0 15 225 0 15 225 0 15 225 0 15 225 0 15 225 0 15 225 0 15 225 0 15 225 0 15 225 0 15 225 0 15 225 0 15 225 0 15 225 0 15 225 0 15 225 0 15 225 0 15 225 0 15 225 0 15 225 0 15 225 0 15 225 0 15 225 0 15 225 0 15 225 0 15 225 0 15 225 0 15 225 0 15 225 0 15 225 0 15 225 0 15 225 0 15 225 0 15 225 0 15 225 0 15 225 0 15 225 0 15 225 0 15 225 0 15 225 0 15 225 0 15 225 0 15 225 0 15 225 0 15 225 0 15 225 0 15 225 0 15 225 0 15 225 0 15 225 0 15 225 0 15 225 0 15 225 0 15 225 0 15 225 0 15 225 0 15 225 0 15 225 0 15 225 0 15 225 0 15 225 0 15 225 0 15 225 0 15 225 0 15 225 0 15 225 0 15 225 0 15 225 0 15 225 0 15 225 0 15 
0 0 145 0 0 145 0 0 145 0 0 145 0 0 145 0 0 145 0 0 145 0 0 145 0 0 145 0 0 145 0 0 145 0 0 145 0 0 145 0 0 145 0 0 145 0 0 145 0 0 145 0 0 145 0 0 145 0 0 145 0 0 145 0 0 145 0 0 145 0 0 145 0 0 145 0 0 145 0 0 145 0 0 145 0 0 145 0 0 145 0 0 145 0 0 145 0 0 145 0 0 145 0 0 145 0 0 145 0 0 145 0 0 145 0 0 145 0 0 145 0 0 145 0 0 145 0 0 145 0 0 145 0 0 145 0 0 145 0 0 145 0 0 145 0 0 145 0 0 145 0 0 145 0 0 145 0 0 145 0 0 145 0 0 145 0 0 145 0 0 145 0 0 145 0 0 145 0 0 145 0 0 145 0 0 145 0 0 145 0 0 145 0 0 145 0 0 145 0 0 145 0 0 145 0 0 145 0 0 145 0 0 145 0 0 145 0 0 145 0 0 145 0 0 145 0 0 145 0 0 145 0 0 145 0 0 145 0 0 145 0 0 145 0 0 145 0 0 145 0 0 145 0 0 145 0 0 145 0 0 145 0 0 145 0 0 145 0 0 145 0 0 145 0 0 145 0 0 145 0 0 145 0 0 145 0 0 145 0 0 145 0 0 145 0 0 145 225 0 15 255 255 255 255 255 255 255 255 255 255 255 255 255 255 255 255 255 255 255 255 255 255 255 255 255 255 255 255 255 255 255 255 255 255 255 255 255 255 255 255 255 255 255 255 255 255 255 255 255 255 255 255 255 255 255 255 255 255 255 255 255 255 255 255 255 255 255 255 255 255 255 255 255 255 255 255 255 255 255 255 255 255 255 255 255 255 255 255 255 255 255 255 255 255 255 255 255 255 255 255 255 255 255 255 255 255 255 255 255 255 255 255 255 255 255 255 255 255 255 255 255 255 255 255 255 255 255 255 255 255 255 255 255 255 255 255 255 255 255 255 255 255 255 255 255 255 255 255 255 255 255 255 255 255 255 255 255 255 255 255 255 255 255 255 255 255 255 255 255 255 255 255 255 255 255 255 255 255 255 255 255 255 255 255 255 255 255 255 255 255 255 255 255 255 255 255 255 255 255 255 255 255 255 255 255 255 255 255 255 255 255 255 255 255 255 255 255 255 255 255 255 255 255 255 255 255 255 255 255 255 255 255 255 255 255 255 255 255 255 255 255 255 255 255 255 255 255 255 255 255 255 255 255 255 255 255 255 255 255 255 255 255 255 255 255 255 255 255 255 255 255 255 255 255 255 255 255 255 255 255 255 255 255 255 255 255 255 255 255 255 255 255 255 255 255 255 255 225 0 15 225 0 15 225 0 15 225 0 15 225 0 15 225 0 15 225 0 15 225 0 15 225 0 15 225 0 15 225 0 15 225 0 15 225 0 15 225 0 15 225 0 15 225 0 15 225 0 15 225 0 15 225 0 15 225 0 15 225 0 15 225 0 15 225 0 15 225 0 15 225 0 15 225 0 15 225 0 15 225 0 15 225 0 15 225 0 15 225 0 15 225 0 15 225 0 15 225 0 15 225 0 15 225 0 15 225 0 15 225 0 15 225 0 15 225 0 15 225 0 15 225 0 15 225 0 15 225 0 15 225 0 15 225 0 15 225 0 15 225 0 15 225 0 15 225 0 15 225 0 15 225 0 15 225 0 15 225 0 15 225 0 15 225 0 15 225 0 15 225 0 15 225 0 15 225 0 15 225 0 15 225 0 15 225 0 15 225 0 15 225 0 15 225 0 15 225 0 15 225 0 15 225 0 15 225 0 15 225 0 15 225 0 15 225 0 15 225 0 15 225 0 15 225 0 15 225 0 15 225 0 15 225 0 15 225 0 15 225 0 15 225 0 15 225 0 15 225 0 15 225 0 15 225 0 15 225 0 15 225 0 15 225 0 15 225 0 15 225 0 15 225 0 15 225 0 15 225 0 15 225 0 15 225 0 15 225 0 15 225 0 15 225 0 15 225 0 15 225 0 15 
0 0 145 0 0 145 0 0 145 0 0 145 0 0 145 0 0 145 0 0 145 0 0 145 0 0 145 0 0 145 0 0 145 0 0 145 0 0 145 0 0 145 0 0 145 0 0 145 0 0 145 0 0 145 0 0 145 0 0 145 0 0 145 0 0 145 0 0 145 0 0 145 0 0 145 0 0 145 0 0 145 0 0 145 0 0 145 0 0 145 0 0 145 0 0 145 0 0 145 0 0 145 0 0 145 0 0 145 0 0 145 0 0 145 0 0 145 0 0 145 0 0 145 0 0 145 0 0 145 0 0 145 0 0 145 0 0 145 0 0 145 0 0 145 0 0 145 0 0 145 0 0 145 0 0 145 0 0 145 0 0 145 0 0 145 0 0 145 0 0 145 0 0 145 0 0 145 0 0 145 0 0 145 0 0 145 0 0 145 0 0 145 0 0 145 0 0 145 0 0 145 0 0 145 0 0 145 0 0 145 0 0 145 0 0 145 0 0 145 0 0 145 0 0 145 0 0 145 0 0 145 0 0 145 0 0 145 0 0 145 0 0 145 0 0 145 0 0 145 0 0 145 0 0 145 0 0 145 0 0 145 0 0 145 0 0 145 0 0 145 0 0 145 0 0 145 0 0 145 0 0 145 0 0 145 0 0 145 0 0 145 0 0 145 0 0 145 225 0 15 255 255 255 255 255 255 255 255 255 255 255 255 255 255 255 255 255 255 255 255 255 255 255 255 255 255 255 255 255 255 255 255 255 255 255 255 255 255 255 255 255 255 255 255 255 255 255 255 255 255 255 255 255 255 255 255 255 255 255 255 255 255 255 255 255 255 255 255 255 255 255 255 255 255 255 255 255 255 255 255 255 255 255 255 255 255 255 255 255 255 255 255 255 255 255 255 255 255 255 255 255 255 255 255 255 255 255 255 255 255 255 255 255 255 255 255 255 255 255 255 255 255 255 255 255 255 255 255 255 255 255 255 255 255 255 255 255 255 255 255 255 255 255 255 255 255 255 255 255 255 255 255 255 255 255 255 255 255 255 255 255 255 255 255 255 255 255 255 255 255 255 255 255 255 255 255 255 255 255 255 255 255 255 255 255 255 255 255 255 255 255 255 255 255 255 255 255 255 255 255 255 255 255 255 255 255 255 255 255 255 255 255 255 255 255 255 255 255 255 255 255 255 255 255 255 255 255 255 255 255 255 255 255 255 255 255 255 255 255 255 255 255 255 255 255 255 255 255 255 255 255 255 255 255 255 255 255 255 255 255 255 255 255 255 255 255 255 255 255 255 255 255 255 255 255 255 255 255 255 255 255 255 255 255 255 255 255 255 255 255 255 255 255 255 255 255 255 225 0 15 225 0 15 225 0 15 225 0 15 225 0 15 225 0 15 225 0 15 225 0 15 225 0 15 225 0 15 225 0 15 225 0 15 225 0 15 225 0 15 225 0 15 225 0 15 225 0 15 225 0 15 225 0 15 225 0 15 225 0 15 225 0 15 225 0 15 225 0 15 225 0 15 225 0 15 225 0 15 225 0 15 225 0 15 225 0 15 225 0 15 225 0 15 225 0 15 225 0 15 225 0 15 225 0 15 225 0 15 225 0 15 225 0 15 225 0 15 225 0 15 225 0 15 225 0 15 225 0 15 225 0 15 225 0 15 225 0 15 225 0 15 225 0 15 225 0 15 225 0 15 225 0 15 225 0 15 225 0 15 225 0 15 225 0 15 225 0 15 225 0 15 225 0 15 225 0 15 225 0 15 225 0 15 225 0 15 225 0 15 225 0 15 225 0 15 225 0 15 225 0 15 225 0 15 225 0 15 225 0 15 225 0 15 225 0 15 225 0 15 225 0 15 225 0 15 225 0 15 225 0 15 225 0 15 225 0 15 225 0 15 225 0 15 225 0 15 225 0 15 225 0 15 225 0 15 225 0 15 225 0 15 225 0 15 225 0 15 225 0 15 225 0 15 225 0 15 225 0 15 225 0 15 225 0 15 225 0 15 225 0 15 225 0 15 225 0 15 225 0 15 
0 0 145 0 0 145 0 0 145 0 0 145 0 0 145 0 0 145 0 0 145 0 0 145 0 0 145 0 0 145 0 0 145 0 0 145 0 0 145 0 0 145 0 0 145 0 0 145 0 0 145 0 0 145 0 0 145 0 0 145 0 0 145 0 0 145 0 0 145 0 0 145 0 0 145 0 0 145 0 0 145 0 0 145 0 0 145 0 0 145 0 0 145 0 0 145 0 0 145 0 0 145 0 0 145 0 0 145 0 0 145 0 0 145 0 0 145 0 0 145 0 0 145 0 0 145 0 0 145 0 0 145 0 0 145 0 0 145 0 0 145 0 0 145 0 0 145 0 0 145 0 0 145 0 0 145 0 0 145 0 0 145 0 0 145 0 0 145 0 0 145 0 0 145 0 0 145 0 0 145 0 0 145 0 0 145 0 0 145 0 0 145 0 0 145 0 0 145 0 0 145 0 0 145 0 0 145 0 0 145 0 0 145 0 0 145 0 0 145 0 0 145 0 0 145 0 0 145 0 0 145 0 0 145 0 0 145 0 0 145 0 0 145 0 0 145 0 0 145 0 0 145 0 0 145 0 0 145 0 0 145 0 0 145 0 0 145 0 0 145 0 0 145 0 0 145 0 0 145 0 0 145 0 0 145 0 0 145 0 0 145 0 0 145 0 0 145 225 0 15 255 255 255 255 255 255 255 255 255 255 255 255 255 255 255 255 255 255 255 255 255 255 255 255 255 255 255 255 255 255 255 255 255 255 255 255 255 255 255 255 255 255 255 255 255 255 255 255 255 255 255 255 255 255 255 255 255 255 255 255 255 255 255 255 255 255 255 255 255 255 255 255 255 255 255 255 255 255 255 255 255 255 255 255 255 255 255 255 255 255 255 255 255 255 255 255 255 255 255 255 255 255 255 255 255 255 255 255 255 255 255 255 255 255 255 255 255 255 255 255 255 255 255 255 255 255 255 255 255 255 255 255 255 255 255 255 255 255 255 255 255 255 255 255 255 255 255 255 255 255 255 255 255 255 255 255 255 255 255 255 255 255 255 255 255 255 255 255 255 255 255 255 255 255 255 255 255 255 255 255 255 255 255 255 255 255 255 255 255 255 255 255 255 255 255 255 255 255 255 255 255 255 255 255 255 255 255 255 255 255 255 255 255 255 255 255 255 255 255 255 255 255 255 255 255 255 255 255 255 255 255 255 255 255 255 255 255 255 255 255 255 255 255 255 255 255 255 255 255 255 255 255 255 255 255 255 255 255 255 255 255 255 255 255 255 255 255 255 255 255 255 255 255 255 255 255 255 255 255 255 255 255 255 255 255 255 255 255 255 255 255 255 255 255 255 255 255 225 0 15 225 0 15 225 0 15 225 0 15 225 0 15 225 0 15 225 0 15 225 0 15 225 0 15 225 0 15 225 0 15 225 0 15 225 0 15 225 0 15 225 0 15 225 0 15 225 0 15 225 0 15 225 0 15 225 0 15 225 0 15 225 0 15 225 0 15 225 0 15 225 0 15 225 0 15 225 0 15 225 0 15 225 0 15 225 0 15 225 0 15 225 0 15 225 0 15 225 0 15 225 0 15 225 0 15 225 0 15 225 0 15 225 0 15 225 0 15 225 0 15 225 0 15 225 0 15 225 0 15 225 0 15 225 0 15 225 0 15 225 0 15 225 0 15 225 0 15 225 0 15 225 0 15 225 0 15 225 0 15 225 0 15 225 0 15 225 0 15 225 0 15 225 0 15 225 0 15 225 0 15 225 0 15 225 0 15 225 0 15 225 0 15 225 0 15 225 0 15 225 0 15 225 0 15 225 0 15 225 0 15 225 0 15 225 0 15 225 0 15 225 0 15 225 0 15 225 0 15 225 0 15 225 0 15 225 0 15 225 0 15 225 0 15 225 0 15 225 0 15 225 0 15 225 0 15 225 0 15 225 0 15 225 0 15 225 0 15 225 0 15 225 0 15 225 0 15 225 0 15 225 0 15 225 0 15 225 0 15 225 0 15 225 0 15 225 0 15 225 0 15 
0 0 145 0 0 145 0 0 145 0 0 145 0 0 145 0 0 145 0 0 145 0 0 145 0 0 145 0 0 145 0 0 145 0 0 145 0 0 145 0 0 145 0 0 145 0 0 145 0 0 145 0 0 145 0 0 145 0 0 145 0 0 145 0 0 145 0 0 145 0 0 145 0 0 145 0 0 145 0 0 145 0 0 145 0 0 145 0 0 145 0 0 145 0 0 145 0 0 145 0 0 145 0 0 145 0 0 145 0 0 145 0 0 145 0 0 145 0 0 145 0 0 145 0 0 145 0 0 145 0 0 145 0 0 145 0 0 145 0 0 145 0 0 145 0 0 145 0 0 145 0 0 145 0 0 145 0 0 145 0 0 145 0 0 145 0 0 145 0 0 145 0 0 145 0 0 145 0 0 145 0 0 145 0 0 145 0 0 145 0 0 145 0 0 145 0 0 145 0 0 145 0 0 145 0 0 145 0 0 145 0 0 145 0 0 145 0 0 145 0 0 145 0 0 145 0 0 145 0 0 145 0 0 145 0 0 145 0 0 145 0 0 145 0 0 145 0 0 145 0 0 145 0 0 145 0 0 145 0 0 145 0 0 145 0 0 145 0 0 145 0 0 145 0 0 145 0 0 145 0 0 145 0 0 145 0 0 145 0 0 145 0 0 145 0 0 145 225 0 15 255 255 255 255 255 255 255 255 255 255 255 255 255 255 255 255 255 255 255 255 255 255 255 255 255 255 255 255 255 255 255 255 255 255 255 255 255 255 255 255 255 255 255 255 255 255 255 255 255 255 255 255 255 255 255 255 255 255 255 255 255 255 255 255 255 255 255 255 255 255 255 255 255 255 255 255 255 255 255 255 255 255 255 255 255 255 255 255 255 255 255 255 255 255 255 255 255 255 255 255 255 255 255 255 255 255 255 255 255 255 255 255 255 255 255 255 255 255 255 255 255 255 255 255 255 255 255 255 255 255 255 255 255 255 255 255 255 255 255 255 255 255 255 255 255 255 255 255 255 255 255 255 255 255 255 255 255 255 255 255 255 255 255 255 255 255 255 255 255 255 255 255 255 255 255 255 255 255 255 255 255 255 255 255 255 255 255 255 255 255 255 255 255 255 255 255 255 255 255 255 255 255 255 255 255 255 255 255 255 255 255 255 255 255 255 255 255 255 255 255 255 255 255 255 255 255 255 255 255 255 255 255 255 255 255 255 255 255 255 255 255 255 255 255 255 255 255 255 255 255 255 255 255 255 255 255 255 255 255 255 255 255 255 255 255 255 255 255 255 255 255 255 255 255 255 255 255 255 255 255 255 255 255 255 255 255 255 255 255 255 255 255 255 255 255 255 255 225 0 15 225 0 15 225 0 15 225 0 15 225 0 15 225 0 15 225 0 15 225 0 15 225 0 15 225 0 15 225 0 15 225 0 15 225 0 15 225 0 15 225 0 15 225 0 15 225 0 15 225 0 15 225 0 15 225 0 15 225 0 15 225 0 15 225 0 15 225 0 15 225 0 15 225 0 15 225 0 15 225 0 15 225 0 15 225 0 15 225 0 15 225 0 15 225 0 15 225 0 15 225 0 15 225 0 15 225 0 15 225 0 15 225 0 15 225 0 15 225 0 15 225 0 15 225 0 15 225 0 15 225 0 15 225 0 15 225 0 15 225 0 15 225 0 15 225 0 15 225 0 15 225 0 15 225 0 15 225 0 15 225 0 15 225 0 15 225 0 15 225 0 15 225 0 15 225 0 15 225 0 15 225 0 15 225 0 15 225 0 15 225 0 15 225 0 15 225 0 15 225 0 15 225 0 15 225 0 15 225 0 15 225 0 15 225 0 15 225 0 15 225 0 15 225 0 15 225 0 15 225 0 15 225 0 15 225 0 15 225 0 15 225 0 15 225 0 15 225 0 15 225 0 15 225 0 15 225 0 15 225 0 15 225 0 15 225 0 15 225 0 15 225 0 15 225 0 15 225 0 15 225 0 15 225 0 15 225 0 15 225 0 15 225 0 15 225 0 15 225 0 15 
0 0 145 0 0 145 0 0 145 0 0 145 0 0 145 0 0 145 0 0 145 0 0 145 0 0 145 0 0 145 0 0 145 0 0 145 0 0 145 0 0 145 0 0 145 0 0 145 0 0 145 0 0 145 0 0 145 0 0 145 0 0 145 0 0 145 0 0 145 0 0 145 0 0 145 0 0 145 0 0 145 0 0 145 0 0 145 0 0 145 0 0 145 0 0 145 0 0 145 0 0 145 0 0 145 0 0 145 0 0 145 0 0 145 0 0 145 0 0 145 0 0 145 0 0 145 0 0 145 0 0 145 0 0 145 0 0 145 0 0 145 0 0 145 0 0 145 0 0 145 0 0 145 0 0 145 0 0 145 0 0 145 0 0 145 0 0 145 0 0 145 0 0 145 0 0 145 0 0 145 0 0 145 0 0 145 0 0 145 0 0 145 0 0 145 0 0 145 0 0 145 0 0 145 0 0 145 0 0 145 0 0 145 0 0 145 0 0 145 0 0 145 0 0 145 0 0 145 0 0 145 0 0 145 0 0 145 0 0 145 0 0 145 0 0 145 0 0 145 0 0 145 0 0 145 0 0 145 0 0 145 0 0 145 0 0 145 0 0 145 0 0 145 0 0 145 0 0 145 0 0 145 0 0 145 0 0 145 0 0 145 0 0 145 0 0 145 225 0 15 255 255 255 255 255 255 255 255 255 255 255 255 255 255 255 255 255 255 255 255 255 255 255 255 255 255 255 255 255 255 255 255 255 255 255 255 255 255 255 255 255 255 255 255 255 255 255 255 255 255 255 255 255 255 255 255 255 255 255 255 255 255 255 255 255 255 255 255 255 255 255 255 255 255 255 255 255 255 255 255 255 255 255 255 255 255 255 255 255 255 255 255 255 255 255 255 255 255 255 255 255 255 255 255 255 255 255 255 255 255 255 255 255 255 255 255 255 255 255 255 255 255 255 255 255 255 255 255 255 255 255 255 255 255 255 255 255 255 255 255 255 255 255 255 255 255 255 255 255 255 255 255 255 255 255 255 255 255 255 255 255 255 255 255 255 255 255 255 255 255 255 255 255 255 255 255 255 255 255 255 255 255 255 255 255 255 255 255 255 255 255 255 255 255 255 255 255 255 255 255 255 255 255 255 255 255 255 255 255 255 255 255 255 255 255 255 255 255 255 255 255 255 255 255 255 255 255 255 255 255 255 255 255 255 255 255 255 255 255 255 255 255 255 255 255 255 255 255 255 255 255 255 255 255 255 255 255 255 255 255 255 255 255 255 255 255 255 255 255 255 255 255 255 255 255 255 255 255 255 255 255 255 255 255 255 255 255 255 255 255 255 255 255 255 255 255 255 225 0 15 225 0 15 225 0 15 225 0 15 225 0 15 225 0 15 225 0 15 225 0 15 225 0 15 225 0 15 225 0 15 225 0 15 225 0 15 225 0 15 225 0 15 225 0 15 225 0 15 225 0 15 225 0 15 225 0 15 225 0 15 225 0 15 225 0 15 225 0 15 225 0 15 225 0 15 225 0 15 225 0 15 225 0 15 225 0 15 225 0 15 225 0 15 225 0 15 225 0 15 225 0 15 225 0 15 225 0 15 225 0 15 225 0 15 225 0 15 225 0 15 225 0 15 225 0 15 225 0 15 225 0 15 225 0 15 225 0 15 225 0 15 225 0 15 225 0 15 225 0 15 225 0 15 225 0 15 225 0 15 225 0 15 225 0 15 225 0 15 225 0 15 225 0 15 225 0 15 225 0 15 225 0 15 225 0 15 225 0 15 225 0 15 225 0 15 225 0 15 225 0 15 225 0 15 225 0 15 225 0 15 225 0 15 225 0 15 225 0 15 225 0 15 225 0 15 225 0 15 225 0 15 225 0 15 225 0 15 225 0 15 225 0 15 225 0 15 225 0 15 225 0 15 225 0 15 225 0 15 225 0 15 225 0 15 225 0 15 225 0 15 225 0 15 225 0 15 225 0 15 225 0 15 225 0 15 225 0 15 225 0 15 225 0 15 225 0 15 225 0 15 
0 0 145 0 0 145 0 0 145 0 0 145 0 0 145 0 0 145 0 0 145 0 0 145 0 0 145 0 0 145 0 0 145 0 0 145 0 0 145 0 0 145 0 0 145 0 0 145 0 0 145 0 0 145 0 0 145 0 0 145 0 0 145 0 0 145 0 0 145 0 0 145 0 0 145 0 0 145 0 0 145 0 0 145 0 0 145 0 0 145 0 0 145 0 0 145 0 0 145 0 0 145 0 0 145 0 0 145 0 0 145 0 0 145 0 0 145 0 0 145 0 0 145 0 0 145 0 0 145 0 0 145 0 0 145 0 0 145 0 0 145 0 0 145 0 0 145 0 0 145 0 0 145 0 0 145 0 0 145 0 0 145 0 0 145 0 0 145 0 0 145 0 0 145 0 0 145 0 0 145 0 0 145 0 0 145 0 0 145 0 0 145 0 0 145 0 0 145 0 0 145 0 0 145 0 0 145 0 0 145 0 0 145 0 0 145 0 0 145 0 0 145 0 0 145 0 0 145 0 0 145 0 0 145 0 0 145 0 0 145 0 0 145 0 0 145 0 0 145 0 0 145 0 0 145 0 0 145 0 0 145 0 0 145 0 0 145 0 0 145 0 0 145 0 0 145 0 0 145 0 0 145 0 0 145 0 0 145 0 0 145 0 0 145 0 0 145 225 0 15 255 255 255 255 255 255 255 255 255 255 255 255 255 255 255 255 255 255 255 255 255 255 255 255 255 255 255 255 255 255 255 255 255 255 255 255 255 255 255 255 255 255 255 255 255 255 255 255 255 255 255 255 255 255 255 255 255 255 255 255 255 255 255 255 255 255 255 255 255 255 255 255 255 255 255 255 255 255 255 255 255 255 255 255 255 255 255 255 255 255 255 255 255 255 255 255 255 255 255 255 255 255 255 255 255 255 255 255 255 255 255 255 255 255 255 255 255 255 255 255 255 255 255 255 255 255 255 255 255 255 255 255 255 255 255 255 255 255 255 255 255 255 255 255 255 255 255 255 255 255 255 255 255 255 255 255 255 255 255 255 255 255 255 255 255 255 255 255 255 255 255 255 255 255 255 255 255 255 255 255 255 255 255 255 255 255 255 255 255 255 255 255 255 255 255 255 255 255 255 255 255 255 255 255 255 255 255 255 255 255 255 255 255 255 255 255 255 255 255 255 255 255 255 255 255 255 255 255 255 255 255 255 255 255 255 255 255 255 255 255 255 255 255 255 255 255 255 255 255 255 255 255 255 255 255 255 255 255 255 255 255 255 255 255 255 255 255 255 255 255 255 255 255 255 255 255 255 255 255 255 255 255 255 255 255 255 255 255 255 255 255 255 255 255 255 255 255 225 0 15 225 0 15 225 0 15 225 0 15 225 0 15 225 0 15 225 0 15 225 0 15 225 0 15 225 0 15 225 0 15 225 0 15 225 0 15 225 0 15 225 0 15 225 0 15 225 0 15 225 0 15 225 0 15 225 0 15 225 0 15 225 0 15 225 0 15 225 0 15 225 0 15 225 0 15 225 0 15 225 0 15 225 0 15 225 0 15 225 0 15 225 0 15 225 0 15 225 0 15 225 0 15 225 0 15 225 0 15 225 0 15 225 0 15 225 0 15 225 0 15 225 0 15 225 0 15 225 0 15 225 0 15 225 0 15 225 0 15 225 0 15 225 0 15 225 0 15 225 0 15 225 0 15 225 0 15 225 0 15 225 0 15 225 0 15 225 0 15 225 0 15 225 0 15 225 0 15 225 0 15 225 0 15 225 0 15 225 0 15 225 0 15 225 0 15 225 0 15 225 0 15 225 0 15 225 0 15 225 0 15 225 0 15 225 0 15 225 0 15 225 0 15 225 0 15 225 0 15 225 0 15 225 0 15 225 0 15 225 0 15 225 0 15 225 0 15 225 0 15 225 0 15 225 0 15 225 0 15 225 0 15 225 0 15 225 0 15 225 0 15 225 0 15 225 0 15 225 0 15 225 0 15 225 0 15 225 0 15 225 0 15 225 0 15 225 0 15 225 0 15 
0 0 145 0 0 145 0 0 145 0 0 145 0 0 145 0 0 145 0 0 145 0 0 145 0 0 145 0 0 145 0 0 145 0 0 145 0 0 145 0 0 145 0 0 145 0 0 145 0 0 145 0 0 145 0 0 145 0 0 145 0 0 145 0 0 145 0 0 145 0 0 145 0 0 145 0 0 145 0 0 145 0 0 145 0 0 145 0 0 145 0 0 145 0 0 145 0 0 145 0 0 145 0 0 145 0 0 145 0 0 145 0 0 145 0 0 145 0 0 145 0 0 145 0 0 145 0 0 145 0 0 145 0 0 145 0 0 145 0 0 145 0 0 145 0 0 145 0 0 145 0 0 145 0 0 145 0 0 145 0 0 145 0 0 145 0 0 145 0 0 145 0 0 145 0 0 145 0 0 145 0 0 145 0 0 145 0 0 145 0 0 145 0 0 145 0 0 145 0 0 145 0 0 145 0 0 145 0 0 145 0 0 145 0 0 145 0 0 145 0 0 145 0 0 145 0 0 145 0 0 145 0 0 145 0 0 145 0 0 145 0 0 145 0 0 145 0 0 145 0 0 145 0 0 145 0 0 145 0 0 145 0 0 145 0 0 145 0 0 145 0 0 145 0 0 145 0 0 145 0 0 145 0 0 145 0 0 145 0 0 145 0 0 145 0 0 145 225 0 15 255 255 255 255 255 255 255 255 255 255 255 255 255 255 255 255 255 255 255 255 255 255 255 255 255 255 255 255 255 255 255 255 255 255 255 255 255 255 255 255 255 255 255 255 255 255 255 255 255 255 255 255 255 255 255 255 255 255 255 255 255 255 255 255 255 255 255 255 255 255 255 255 255 255 255 255 255 255 255 255 255 255 255 255 255 255 255 255 255 255 255 255 255 255 255 255 255 255 255 255 255 255 255 255 255 255 255 255 255 255 255 255 255 255 255 255 255 255 255 255 255 255 255 255 255 255 255 255 255 255 255 255 255 255 255 255 255 255 255 255 255 255 255 255 255 255 255 255 255 255 255 255 255 255 255 255 255 255 255 255 255 255 255 255 255 255 255 255 255 255 255 255 255 255 255 255 255 255 255 255 255 255 255 255 255 255 255 255 255 255 255 255 255 255 255 255 255 255 255 255 255 255 255 255 255 255 255 255 255 255 255 255 255 255 255 255 255 255 255 255 255 255 255 255 255 255 255 255 255 255 255 255 255 255 255 255 255 255 255 255 255 255 255 255 255 255 255 255 255 255 255 255 255 255 255 255 255 255 255 255 255 255 255 255 255 255 255 255 255 255 255 255 255 255 255 255 255 255 255 255 255 255 255 255 255 255 255 255 255 255 255 255 255 255 255 255 255 225 0 15 225 0 15 225 0 15 225 0 15 225 0 15 225 0 15 225 0 15 225 0 15 225 0 15 225 0 15 225 0 15 225 0 15 225 0 15 225 0 15 225 0 15 225 0 15 225 0 15 225 0 15 225 0 15 225 0 15 225 0 15 225 0 15 225 0 15 225 0 15 225 0 15 225 0 15 225 0 15 225 0 15 225 0 15 225 0 15 225 0 15 225 0 15 225 0 15 225 0 15 225 0 15 225 0 15 225 0 15 225 0 15 225 0 15 225 0 15 225 0 15 225 0 15 225 0 15 225 0 15 225 0 15 225 0 15 225 0 15 225 0 15 225 0 15 225 0 15 225 0 15 225 0 15 225 0 15 225 0 15 225 0 15 225 0 15 225 0 15 225 0 15 225 0 15 225 0 15 225 0 15 225 0 15 225 0 15 225 0 15 225 0 15 225 0 15 225 0 15 225 0 15 225 0 15 225 0 15 225 0 15 225 0 15 225 0 15 225 0 15 225 0 15 225 0 15 225 0 15 225 0 15 225 0 15 225 0 15 225 0 15 225 0 15 225 0 15 225 0 15 225 0 15 225 0 15 225 0 15 225 0 15 225 0 15 225 0 15 225 0 15 225 0 15 225 0 15 225 0 15 225 0 15 225 0 15 225 0 15 225 0 15 225 0 15 225 0 15 225 0 15 
0 0 145 0 0 145 0 0 145 0 0 145 0 0 145 0 0 145 0 0 145 0 0 145 0 0 145 0 0 145 0 0 145 0 0 145 0 0 145 0 0 145 0 0 145 0 0 145 0 0 145 0 0 145 0 0 145 0 0 145 0 0 145 0 0 145 0 0 145 0 0 145 0 0 145 0 0 145 0 0 145 0 0 145 0 0 145 0 0 145 0 0 145 0 0 145 0 0 145 0 0 145 0 0 145 0 0 145 0 0 145 0 0 145 0 0 145 0 0 145 0 0 145 0 0 145 0 0 145 0 0 145 0 0 145 0 0 145 0 0 145 0 0 145 0 0 145 0 0 145 0 0 145 0 0 145 0 0 145 0 0 145 0 0 145 0 0 145 0 0 145 0 0 145 0 0 145 0 0 145 0 0 145 0 0 145 0 0 145 0 0 145 0 0 145 0 0 145 0 0 145 0 0 145 0 0 145 0 0 145 0 0 145 0 0 145 0 0 145 0 0 145 0 0 145 0 0 145 0 0 145 0 0 145 0 0 145 0 0 145 0 0 145 0 0 145 0 0 145 0 0 145 0 0 145 0 0 145 0 0 145 0 0 145 0 0 145 0 0 145 0 0 145 0 0 145 0 0 145 0 0 145 0 0 145 0 0 145 0 0 145 0 0 145 0 0 145 225 0 15 255 255 255 255 255 255 255 255 255 255 255 255 255 255 255 255 255 255 255 255 255 255 255 255 255 255 255 255 255 255 255 255 255 255 255 255 255 255 255 255 255 255 255 255 255 255 255 255 255 255 255 255 255 255 255 255 255 255 255 255 255 255 255 255 255 255 255 255 255 255 255 255 255 255 255 255 255 255 255 255 255 255 255 255 255 255 255 255 255 255 255 255 255 255 255 255 255 255 255 255 255 255 255 255 255 255 255 255 255 255 255 255 255 255 255 255 255 255 255 255 255 255 255 255 255 255 255 255 255 255 255 255 255 255 255 255 255 255 255 255 255 255 255 255 255 255 255 255 255 255 255 255 255 255 255 255 255 255 255 255 255 255 255 255 255 255 255 255 255 255 255 255 255 255 255 255 255 255 255 255 255 255 255 255 255 255 255 255 255 255 255 255 255 255 255 255 255 255 255 255 255 255 255 255 255 255 255 255 255 255 255 255 255 255 255 255 255 255 255 255 255 255 255 255 255 255 255 255 255 255 255 255 255 255 255 255 255 255 255 255 255 255 255 255 255 255 255 255 255 255 255 255 255 255 255 255 255 255 255 255 255 255 255 255 255 255 255 255 255 255 255 255 255 255 255 255 255 255 255 255 255 255 255 255 255 255 255 255 255 255 255 255 255 255 255 255 255 225 0 15 225 0 15 225 0 15 225 0 15 225 0 15 225 0 15 225 0 15 225 0 15 225 0 15 225 0 15 225 0 15 225 0 15 225 0 15 225 0 15 225 0 15 225 0 15 225 0 15 225 0 15 225 0 15 225 0 15 225 0 15 225 0 15 225 0 15 225 0 15 225 0 15 225 0 15 225 0 15 225 0 15 225 0 15 225 0 15 225 0 15 225 0 15 225 0 15 225 0 15 225 0 15 225 0 15 225 0 15 225 0 15 225 0 15 225 0 15 225 0 15 225 0 15 225 0 15 225 0 15 225 0 15 225 0 15 225 0 15 225 0 15 225 0 15 225 0 15 225 0 15 225 0 15 225 0 15 225 0 15 225 0 15 225 0 15 225 0 15 225 0 15 225 0 15 225 0 15 225 0 15 225 0 15 225 0 15 225 0 15 225 0 15 225 0 15 225 0 15 225 0 15 225 0 15 225 0 15 225 0 15 225 0 15 225 0 15 225 0 15 225 0 15 225 0 15 225 0 15 225 0 15 225 0 15 225 0 15 225 0 15 225 0 15 225 0 15 225 0 15 225 0 15 225 0 15 225 0 15 225 0 15 225 0 15 225 0 15 225 0 15 225 0 15 225 0 15 225 0 15 225 0 15 225 0 15 225 0 15 225 0 15 225 0 15 225 0 15 225 0 15 
0 0 145 0 0 145 0 0 145 0 0 145 0 0 145 0 0 145 0 0 145 0 0 145 0 0 145 0 0 145 0 0 145 0 0 145 0 0 145 0 0 145 0 0 145 0 0 145 0 0 145 0 0 145 0 0 145 0 0 145 0 0 145 0 0 145 0 0 145 0 0 145 0 0 145 0 0 145 0 0 145 0 0 145 0 0 145 0 0 145 0 0 145 0 0 145 0 0 145 0 0 145 0 0 145 0 0 145 0 0 145 0 0 145 0 0 145 0 0 145 0 0 145 0 0 145 0 0 145 0 0 145 0 0 145 0 0 145 0 0 145 0 0 145 0 0 145 0 0 145 0 0 145 0 0 145 0 0 145 0 0 145 0 0 145 0 0 145 0 0 145 0 0 145 0 0 145 0 0 145 0 0 145 0 0 145 0 0 145 0 0 145 0 0 145 0 0 145 0 0 145 0 0 145 0 0 145 0 0 145 0 0 145 0 0 145 0 0 145 0 0 145 0 0 145 0 0 145 0 0 145 0 0 145 0 0 145 0 0 145 0 0 145 0 0 145 0 0 145 0 0 145 0 0 145 0 0 145 0 0 145 0 0 145 0 0 145 0 0 145 0 0 145 0 0 145 0 0 145 0 0 145 0 0 145 0 0 145 0 0 145 0 0 145 0 0 145 225 0 15 255 255 255 255 255 255 255 255 255 255 255 255 255 255 255 255 255 255 255 255 255 255 255 255 255 255 255 255 255 255 255 255 255 255 255 255 255 255 255 255 255 255 255 255 255 255 255 255 255 255 255 255 255 255 255 255 255 255 255 255 255 255 255 255 255 255 255 255 255 255 255 255 255 255 255 255 255 255 255 255 255 255 255 255 255 255 255 255 255 255 255 255 255 255 255 255 255 255 255 255 255 255 255 255 255 255 255 255 255 255 255 255 255 255 255 255 255 255 255 255 255 255 255 255 255 255 255 255 255 255 255 255 255 255 255 255 255 255 255 255 255 255 255 255 255 255 255 255 255 255 255 255 255 255 255 255 255 255 255 255 255 255 255 255 255 255 255 255 255 255 255 255 255 255 255 255 255 255 255 255 255 255 255 255 255 255 255 255 255 255 255 255 255 255 255 255 255 255 255 255 255 255 255 255 255 255 255 255 255 255 255 255 255 255 255 255 255 255 255 255 255 255 255 255 255 255 255 255 255 255 255 255 255 255 255 255 255 255 255 255 255 255 255 255 255 255 255 255 255 255 255 255 255 255 255 255 255 255 255 255 255 255 255 255 255 255 255 255 255 255 255 255 255 255 255 255 255 255 255 255 255 255 255 255 255 255 255 255 255 255 255 255 255 255 255 255 255 225 0 15 225 0 15 225 0 15 225 0 15 225 0 15 225 0 15 225 0 15 225 0 15 225 0 15 225 0 15 225 0 15 225 0 15 225 0 15 225 0 15 225 0 15 225 0 15 225 0 15 225 0 15 225 0 15 225 0 15 225 0 15 225 0 15 225 0 15 225 0 15 225 0 15 225 0 15 225 0 15 225 0 15 225 0 15 225 0 15 225 0 15 225 0 15 225 0 15 225 0 15 225 0 15 225 0 15 225 0 15 225 0 15 225 0 15 225 0 15 225 0 15 225 0 15 225 0 15 225 0 15 225 0 15 225 0 15 225 0 15 225 0 15 225 0 15 225 0 15 225 0 15 225 0 15 225 0 15 225 0 15 225 0 15 225 0 15 225 0 15 225 0 15 225 0 15 225 0 15 225 0 15 225 0 15 225 0 15 225 0 15 225 0 15 225 0 15 225 0 15 225 0 15 225 0 15 225 0 15 225 0 15 225 0 15 225 0 15 225 0 15 225 0 15 225 0 15 225 0 15 225 0 15 225 0 15 225 0 15 225 0 15 225 0 15 225 0 15 225 0 15 225 0 15 225 0 15 225 0 15 225 0 15 225 0 15 225 0 15 225 0 15 225 0 15 225 0 15 225 0 15 225 0 15 225 0 15 225 0 15 225 0 15 225 0 15 225 0 15 225 0 15 
0 0 145 0 0 145 0 0 145 0 0 145 0 0 145 0 0 145 0 0 145 0 0 145 0 0 145 0 0 145 0 0 145 0 0 145 0 0 145 0 0 145 0 0 145 0 0 145 0 0 145 0 0 145 0 0 145 0 0 145 0 0 145 0 0 145 0 0 145 0 0 145 0 0 145 0 0 145 0 0 145 0 0 145 0 0 145 0 0 145 0 0 145 0 0 145 0 0 145 0 0 145 0 0 145 0 0 145 0 0 145 0 0 145 0 0 145 0 0 145 0 0 145 0 0 145 0 0 145 0 0 145 0 0 145 0 0 145 0 0 145 0 0 145 0 0 145 0 0 145 0 0 145 0 0 145 0 0 145 0 0 145 0 0 145 0 0 145 0 0 145 0 0 145 0 0 145 0 0 145 0 0 145 0 0 145 0 0 145 0 0 145 0 0 145 0 0 145 0 0 145 0 0 145 0 0 145 0 0 145 0 0 145 0 0 145 0 0 145 0 0 145 0 0 145 0 0 145 0 0 145 0 0 145 0 0 145 0 0 145 0 0 145 0 0 145 0 0 145 0 0 145 0 0 145 0 0 145 0 0 145 0 0 145 0 0 145 0 0 145 0 0 145 0 0 145 0 0 145 0 0 145 0 0 145 0 0 145 0 0 145 0 0 145 0 0 145 225 0 15 255 255 255 255 255 255 255 255 255 255 255 255 255 255 255 255 255 255 255 255 255 255 255 255 255 255 255 255 255 255 255 255 255 255 255 255 255 255 255 255 255 255 255 255 255 255 255 255 255 255 255 255 255 255 255 255 255 255 255 255 255 255 255 255 255 255 255 255 255 255 255 255 255 255 255 255 255 255 255 255 255 255 255 255 255 255 255 255 255 255 255 255 255 255 255 255 255 255 255 255 255 255 255 255 255 255 255 255 255 255 255 255 255 255 255 255 255 255 255 255 255 255 255 255 255 255 255 255 255 255 255 255 255 255 255 255 255 255 255 255 255 255 255 255 255 255 255 255 255 255 255 255 255 255 255 255 255 255 255 255 255 255 255 255 255 255 255 255 255 255 255 255 255 255 255 255 255 255 255 255 255 255 255 255 255 255 255 255 255 255 255 255 255 255 255 255 255 255 255 255 255 255 255 255 255 255 255 255 255 255 255 255 255 255 255 255 255 255 255 255 255 255 255 255 255 255 255 255 255 255 255 255 255 255 255 255 255 255 255 255 255 255 255 255 255 255 255 255 255 255 255 255 255 255 255 255 255 255 255 255 255 255 255 255 255 255 255 255 255 255 255 255 255 255 255 255 255 255 255 255 255 255 255 255 255 255 255 255 255 255 255 255 255 255 255 255 255 225 0 15 225 0 15 225 0 15 225 0 15 225 0 15 225 0 15 225 0 15 225 0 15 225 0 15 225 0 15 225 0 15 225 0 15 225 0 15 225 0 15 225 0 15 225 0 15 225 0 15 225 0 15 225 0 15 225 0 15 225 0 15 225 0 15 225 0 15 225 0 15 225 0 15 225 0 15 225 0 15 225 0 15 225 0 15 225 0 15 225 0 15 225 0 15 225 0 15 225 0 15 225 0 15 225 0 15 225 0 15 225 0 15 225 0 15 225 0 15 225 0 15 225 0 15 225 0 15 225 0 15 225 0 15 225 0 15 225 0 15 225 0 15 225 0 15 225 0 15 225 0 15 225 0 15 225 0 15 225 0 15 225 0 15 225 0 15 225 0 15 225 0 15 225 0 15 225 0 15 225 0 15 225 0 15 225 0 15 225 0 15 225 0 15 225 0 15 225 0 15 225 0 15 225 0 15 225 0 15 225 0 15 225 0 15 225 0 15 225 0 15 225 0 15 225 0 15 225 0 15 225 0 15 225 0 15 225 0 15 225 0 15 225 0 15 225 0 15 225 0 15 225 0 15 225 0 15 225 0 15 225 0 15 225 0 15 225 0 15 225 0 15 225 0 15 225 0 15 225 0 15 225 0 15 225 0 15 225 0 15 225 0 15 225 0 15 225 0 15 225 0 15 
0 0 145 0 0 145 0 0 145 0 0 145 0 0 145 0 0 145 0 0 145 0 0 145 0 0 145 0 0 145 0 0 145 0 0 145 0 0 145 0 0 145 0 0 145 0 0 145 0 0 145 0 0 145 0 0 145 0 0 145 0 0 145 0 0 145 0 0 145 0 0 145 0 0 145 0 0 145 0 0 145 0 0 145 0 0 145 0 0 145 0 0 145 0 0 145 0 0 145 0 0 145 0 0 145 0 0 145 0 0 145 0 0 145 0 0 145 0 0 145 0 0 145 0 0 145 0 0 145 0 0 145 0 0 145 0 0 145 0 0 145 0 0 145 0 0 145 0 0 145 0 0 145 0 0 145 0 0 145 0 0 145 0 0 145 0 0 145 0 0 145 0 0 145 0 0 145 0 0 145 0 0 145 0 0 145 0 0 145 0 0 145 0 0 145 0 0 145 0 0 145 0 0 145 0 0 145 0 0 145 0 0 145 0 0 145 0 0 145 0 0 145 0 0 145 0 0 145 0 0 145 0 0 145 0 0 145 0 0 145 0 0 145 0 0 145 0 0 145 0 0 145 0 0 145 0 0 145 0 0 145 0 0 145 0 0 145 0 0 145 0 0 145 0 0 145 0 0 145 0 0 145 0 0 145 0 0 145 0 0 145 0 0 145 0 0 145 225 0 15 255 255 255 255 255 255 255 255 255 255 255 255 255 255 255 255 255 255 255 255 255 255 255 255 255 255 255 255 255 255 255 255 255 255 255 255 255 255 255 255 255 255 255 255 255 255 255 255 255 255 255 255 255 255 255 255 255 255 255 255 255 255 255 255 255 255 255 255 255 255 255 255 255 255 255 255 255 255 255 255 255 255 255 255 255 255 255 255 255 255 255 255 255 255 255 255 255 255 255 255 255 255 255 255 255 255 255 255 255 255 255 255 255 255 255 255 255 255 255 255 255 255 255 255 255 255 255 255 255 255 255 255 255 255 255 255 255 255 255 255 255 255 255 255 255 255 255 255 255 255 255 255 255 255 255 255 255 255 255 255 255 255 255 255 255 255 255 255 255 255 255 255 255 255 255 255 255 255 255 255 255 255 255 255 255 255 255 255 255 255 255 255 255 255 255 255 255 255 255 255 255 255 255 255 255 255 255 255 255 255 255 255 255 255 255 255 255 255 255 255 255 255 255 255 255 255 255 255 255 255 255 255 255 255 255 255 255 255 255 255 255 255 255 255 255 255 255 255 255 255 255 255 255 255 255 255 255 255 255 255 255 255 255 255 255 255 255 255 255 255 255 255 255 255 255 255 255 255 255 255 255 255 255 255 255 255 255 255 255 255 255 255 255 255 255 255 255 225 0 15 225 0 15 225 0 15 225 0 15 225 0 15 225 0 15 225 0 15 225 0 15 225 0 15 225 0 15 225 0 15 225 0 15 225 0 15 225 0 15 225 0 15 225 0 15 225 0 15 225 0 15 225 0 15 225 0 15 225 0 15 225 0 15 225 0 15 225 0 15 225 0 15 225 0 15 225 0 15 225 0 15 225 0 15 225 0 15 225 0 15 225 0 15 225 0 15 225 0 15 225 0 15 225 0 15 225 0 15 225 0 15 225 0 15 225 0 15 225 0 15 225 0 15 225 0 15 225 0 15 225 0 15 225 0 15 225 0 15 225 0 15 225 0 15 225 0 15 225 0 15 225 0 15 225 0 15 225 0 15 225 0 15 225 0 15 225 0 15 225 0 15 225 0 15 225 0 15 225 0 15 225 0 15 225 0 15 225 0 15 225 0 15 225 0 15 225 0 15 225 0 15 225 0 15 225 0 15 225 0 15 225 0 15 225 0 15 225 0 15 225 0 15 225 0 15 225 0 15 225 0 15 225 0 15 225 0 15 225 0 15 225 0 15 225 0 15 225 0 15 225 0 15 225 0 15 225 0 15 225 0 15 225 0 15 225 0 15 225 0 15 225 0 15 225 0 15 225 0 15 225 0 15 225 0 15 225 0 15 225 0 15 225 0 15 225 0 15 225 0 15 
0 0 145 0 0 145 0 0 145 0 0 145 0 0 145 0 0 145 0 0 145 0 0 145 0 0 145 0 0 145 0 0 145 0 0 145 0 0 145 0 0 145 0 0 145 0 0 145 0 0 145 0 0 145 0 0 145 0 0 145 0 0 145 0 0 145 0 0 145 0 0 145 0 0 145 0 0 145 0 0 145 0 0 145 0 0 145 0 0 145 0 0 145 0 0 145 0 0 145 0 0 145 0 0 145 0 0 145 0 0 145 0 0 145 0 0 145 0 0 145 0 0 145 0 0 145 0 0 145 0 0 145 0 0 145 0 0 145 0 0 145 0 0 145 0 0 145 0 0 145 0 0 145 0 0 145 0 0 145 0 0 145 0 0 145 0 0 145 0 0 145 0 0 145 0 0 145 0 0 145 0 0 145 0 0 145 0 0 145 0 0 145 0 0 145 0 0 145 0 0 145 0 0 145 0 0 145 0 0 145 0 0 145 0 0 145 0 0 145 0 0 145 0 0 145 0 0 145 0 0 145 0 0 145 0 0 145 0 0 145 0 0 145 0 0 145 0 0 145 0 0 145 0 0 145 0 0 145 0 0 145 0 0 145 0 0 145 0 0 145 0 0 145 0 0 145 0 0 145 0 0 145 0 0 145 0 0 145 0 0 145 0 0 145 0 0 145 225 0 15 255 255 255 255 255 255 255 255 255 255 255 255 255 255 255 255 255 255 255 255 255 255 255 255 255 255 255 255 255 255 255 255 255 255 255 255 255 255 255 255 255 255 255 255 255 255 255 255 255 255 255 255 255 255 255 255 255 255 255 255 255 255 255 255 255 255 255 255 255 255 255 255 255 255 255 255 255 255 255 255 255 255 255 255 255 255 255 255 255 255 255 255 255 255 255 255 255 255 255 255 255 255 255 255 255 255 255 255 255 255 255 255 255 255 255 255 255 255 255 255 255 255 255 255 255 255 255 255 255 255 255 255 255 255 255 255 255 255 255 255 255 255 255 255 255 255 255 255 255 255 255 255 255 255 255 255 255 255 255 255 255 255 255 255 255 255 255 255 255 255 255 255 255 255 255 255 255 255 255 255 255 255 255 255 255 255 255 255 255 255 255 255 255 255 255 255 255 255 255 255 255 255 255 255 255 255 255 255 255 255 255 255 255 255 255 255 255 255 255 255 255 255 255 255 255 255 255 255 255 255 255 255 255 255 255 255 255 255 255 255 255 255 255 255 255 255 255 255 255 255 255 255 255 255 255 255 255 255 255 255 255 255 255 255 255 255 255 255 255 255 255 255 255 255 255 255 255 255 255 255 255 255 255 255 255 255 255 255 255 255 255 255 255 255 255 255 255 225 0 15 225 0 15 225 0 15 225 0 15 225 0 15 225 0 15 225 0 15 225 0 15 225 0 15 225 0 15 225 0 15 225 0 15 225 0 15 225 0 15 225 0 15 225 0 15 225 0 15 225 0 15 225 0 15 225 0 15 225 0 15 225 0 15 225 0 15 225 0 15 225 0 15 225 0 15 225 0 15 225 0 15 225 0 15 225 0 15 225 0 15 225 0 15 225 0 15 225 0 15 225 0 15 225 0 15 225 0 15 225 0 15 225 0 15 225 0 15 225 0 15 225 0 15 225 0 15 225 0 15 225 0 15 225 0 15 225 0 15 225 0 15 225 0 15 225 0 15 225 0 15 225 0 15 225 0 15 225 0 15 225 0 15 225 0 15 225 0 15 225 0 15 225 0 15 225 0 15 225 0 15 225 0 15 225 0 15 225 0 15 225 0 15 225 0 15 225 0 15 225 0 15 225 0 15 225 0 15 225 0 15 225 0 15 225 0 15 225 0 15 225 0 15 225 0 15 225 0 15 225 0 15 225 0 15 225 0 15 225 0 15 225 0 15 225 0 15 225 0 15 225 0 15 225 0 15 225 0 15 225 0 15 225 0 15 225 0 15 225 0 15 225 0 15 225 0 15 225 0 15 225 0 15 225 0 15 225 0 15 225 0 15 225 0 15 225 0 15 225 0 15 
0 0 145 0 0 145 0 0 145 0 0 145 0 0 145 0 0 145 0 0 145 0 0 145 0 0 145 0 0 145 0 0 145 0 0 145 0 0 145 0 0 145 0 0 145 0 0 145 0 0 145 0 0 145 0 0 145 0 0 145 0 0 145 0 0 145 0 0 145 0 0 145 0 0 145 0 0 145 0 0 145 0 0 145 0 0 145 0 0 145 0 0 145 0 0 145 0 0 145 0 0 145 0 0 145 0 0 145 0 0 145 0 0 145 0 0 145 0 0 145 0 0 145 0 0 145 0 0 145 0 0 145 0 0 145 0 0 145 0 0 145 0 0 145 0 0 145 0 0 145 0 0 145 0 0 145 0 0 145 0 0 145 0 0 145 0 0 145 0 0 145 0 0 145 0 0 145 0 0 145 0 0 145 0 0 145 0 0 145 0 0 145 0 0 145 0 0 145 0 0 145 0 0 145 0 0 145 0 0 145 0 0 145 0 0 145 0 0 145 0 0 145 0 0 145 0 0 145 0 0 145 0 0 145 0 0 145 0 0 145 0 0 145 0 0 145 0 0 145 0 0 145 0 0 145 0 0 145 0 0 145 0 0 145 0 0 145 0 0 145 0 0 145 0 0 145 0 0 145 0 0 145 0 0 145 0 0 145 0 0 145 0 0 145 0 0 145 225 0 15 255 255 255 255 255 255 255 255 255 255 255 255 255 255 255 255 255 255 255 255 255 255 255 255 255 255 255 255 255 255 255 255 255 255 255 255 255 255 255 255 255 255 255 255 255 255 255 255 255 255 255 255 255 255 255 255 255 255 255 255 255 255 255 255 255 255 255 255 255 255 255 255 255 255 255 255 255 255 255 255 255 255 255 255 255 255 255 255 255 255 255 255 255 255 255 255 255 255 255 255 255 255 255 255 255 255 255 255 255 255 255 255 255 255 255 255 255 255 255 255 255 255 255 255 255 255 255 255 255 255 255 255 255 255 255 255 255 255 255 255 255 255 255 255 255 255 255 255 255 255 255 255 255 255 255 255 255 255 255 255 255 255 255 255 255 255 255 255 255 255 255 255 255 255 255 255 255 255 255 255 255 255 255 255 255 255 255 255 255 255 255 255 255 255 255 255 255 255 255 255 255 255 255 255 255 255 255 255 255 255 255 255 255 255 255 255 255 255 255 255 255 255 255 255 255 255 255 255 255 255 255 255 255 255 255 255 255 255 255 255 255 255 255 255 255 255 255 255 255 255 255 255 255 255 255 255 255 255 255 255 255 255 255 255 255 255 255 255 255 255 255 255 255 255 255 255 255 255 255 255 255 255 255 255 255 255 255 255 255 255 255 255 255 255 255 255 255 225 0 15 225 0 15 225 0 15 225 0 15 225 0 15 225 0 15 225 0 15 225 0 15 225 0 15 225 0 15 225 0 15 225 0 15 225 0 15 225 0 15 225 0 15 225 0 15 225 0 15 225 0 15 225 0 15 225 0 15 225 0 15 225 0 15 225 0 15 225 0 15 225 0 15 225 0 15 225 0 15 225 0 15 225 0 15 225 0 15 225 0 15 225 0 15 225 0 15 225 0 15 225 0 15 225 0 15 225 0 15 225 0 15 225 0 15 225 0 15 225 0 15 225 0 15 225 0 15 225 0 15 225 0 15 225 0 15 225 0 15 225 0 15 225 0 15 225 0 15 225 0 15 225 0 15 225 0 15 225 0 15 225 0 15 225 0 15 225 0 15 225 0 15 225 0 15 225 0 15 225 0 15 225 0 15 225 0 15 225 0 15 225 0 15 225 0 15 225 0 15 225 0 15 225 0 15 225 0 15 225 0 15 225 0 15 225 0 15 225 0 15 225 0 15 225 0 15 225 0 15 225 0 15 225 0 15 225 0 15 225 0 15 225 0 15 225 0 15 225 0 15 225 0 15 225 0 15 225 0 15 225 0 15 225 0 15 225 0 15 225 0 15 225 0 15 225 0 15 225 0 15 225 0 15 225 0 15 225 0 15 225 0 15 225 0 15 225 0 15 225 0 15 
0 0 145 0 0 145 0 0 145 0 0 145 0 0 145 0 0 145 0 0 145 0 0 145 0 0 145 0 0 145 0 0 145 0 0 145 0 0 145 0 0 145 0 0 145 0 0 145 0 0 145 0 0 145 0 0 145 0 0 145 0 0 145 0 0 145 0 0 145 0 0 145 0 0 145 0 0 145 0 0 145 0 0 145 0 0 145 0 0 145 0 0 145 0 0 145 0 0 145 0 0 145 0 0 145 0 0 145 0 0 145 0 0 145 0 0 145 0 0 145 0 0 145 0 0 145 0 0 145 0 0 145 0 0 145 0 0 145 0 0 145 0 0 145 0 0 145 0 0 145 0 0 145 0 0 145 0 0 145 0 0 145 0 0 145 0 0 145 0 0 145 0 0 145 0 0 145 0 0 145 0 0 145 0 0 145 0 0 145 0 0 145 0 0 145 0 0 145 0 0 145 0 0 145 0 0 145 0 0 145 0 0 145 0 0 145 0 0 145 0 0 145 0 0 145 0 0 145 0 0 145 0 0 145 0 0 145 0 0 145 0 0 145 0 0 145 0 0 145 0 0 145 0 0 145 0 0 145 0 0 145 0 0 145 0 0 145 0 0 145 0 0 145 0 0 145 0 0 145 0 0 145 0 0 145 0 0 145 0 0 145 0 0 145 0 0 145 225 0 15 255 255 255 255 255 255 255 255 255 255 255 255 255 255 255 255 255 255 255 255 255 255 255 255 255 255 255 255 255 255 255 255 255 255 255 255 255 255 255 255 255 255 255 255 255 255 255 255 255 255 255 255 255 255 255 255 255 255 255 255 255 255 255 255 255 255 255 255 255 255 255 255 255 255 255 255 255 255 255 255 255 255 255 255 255 255 255 255 255 255 255 255 255 255 255 255 255 255 255 255 255 255 255 255 255 255 255 255 255 255 255 255 255 255 255 255 255 255 255 255 255 255 255 255 255 255 255 255 255 255 255 255 255 255 255 255 255 255 255 255 255 255 255 255 255 255 255 255 255 255 255 255 255 255 255 255 255 255 255 255 255 255 255 255 255 255 255 255 255 255 255 255 255 255 255 255 255 255 255 255 255 255 255 255 255 255 255 255 255 255 255 255 255 255 255 255 255 255 255 255 255 255 255 255 255 255 255 255 255 255 255 255 255 255 255 255 255 255 255 255 255 255 255 255 255 255 255 255 255 255 255 255 255 255 255 255 255 255 255 255 255 255 255 255 255 255 255 255 255 255 255 255 255 255 255 255 255 255 255 255 255 255 255 255 255 255 255 255 255 255 255 255 255 255 255 255 255 255 255 255 255 255 255 255 255 255 255 255 255 255 255 255 255 255 255 255 255 225 0 15 225 0 15 225 0 15 225 0 15 225 0 15 225 0 15 225 0 15 225 0 15 225 0 15 225 0 15 225 0 15 225 0 15 225 0 15 225 0 15 225 0 15 225 0 15 225 0 15 225 0 15 225 0 15 225 0 15 225 0 15 225 0 15 225 0 15 225 0 15 225 0 15 225 0 15 225 0 15 225 0 15 225 0 15 225 0 15 225 0 15 225 0 15 225 0 15 225 0 15 225 0 15 225 0 15 225 0 15 225 0 15 225 0 15 225 0 15 225 0 15 225 0 15 225 0 15 225 0 15 225 0 15 225 0 15 225 0 15 225 0 15 225 0 15 225 0 15 225 0 15 225 0 15 225 0 15 225 0 15 225 0 15 225 0 15 225 0 15 225 0 15 225 0 15 225 0 15 225 0 15 225 0 15 225 0 15 225 0 15 225 0 15 225 0 15 225 0 15 225 0 15 225 0 15 225 0 15 225 0 15 225 0 15 225 0 15 225 0 15 225 0 15 225 0 15 225 0 15 225 0 15 225 0 15 225 0 15 225 0 15 225 0 15 225 0 15 225 0 15 225 0 15 225 0 15 225 0 15 225 0 15 225 0 15 225 0 15 225 0 15 225 0 15 225 0 15 225 0 15 225 0 15 225 0 15 225 0 15 225 0 15 225 0 15 225 0 15 225 0 15 
0 0 145 0 0 145 0 0 145 0 0 145 0 0 145 0 0 145 0 0 145 0 0 145 0 0 145 0 0 145 0 0 145 0 0 145 0 0 145 0 0 145 0 0 145 0 0 145 0 0 145 0 0 145 0 0 145 0 0 145 0 0 145 0 0 145 0 0 145 0 0 145 0 0 145 0 0 145 0 0 145 0 0 145 0 0 145 0 0 145 0 0 145 0 0 145 0 0 145 0 0 145 0 0 145 0 0 145 0 0 145 0 0 145 0 0 145 0 0 145 0 0 145 0 0 145 0 0 145 0 0 145 0 0 145 0 0 145 0 0 145 0 0 145 0 0 145 0 0 145 0 0 145 0 0 145 0 0 145 0 0 145 0 0 145 0 0 145 0 0 145 0 0 145 0 0 145 0 0 145 0 0 145 0 0 145 0 0 145 0 0 145 0 0 145 0 0 145 0 0 145 0 0 145 0 0 145 0 0 145 0 0 145 0 0 145 0 0 145 0 0 145 0 0 145 0 0 145 0 0 145 0 0 145 0 0 145 0 0 145 0 0 145 0 0 145 0 0 145 0 0 145 0 0 145 0 0 145 0 0 145 0 0 145 0 0 145 0 0 145 0 0 145 0 0 145 0 0 145 0 0 145 0 0 145 0 0 145 0 0 145 0 0 145 0 0 145 225 0 15 255 255 255 255 255 255 255 255 255 255 255 255 255 255 255 255 255 255 255 255 255 255 255 255 255 255 255 255 255 255 255 255 255 255 255 255 255 255 255 255 255 255 255 255 255 255 255 255 255 255 255 255 255 255 255 255 255 255 255 255 255 255 255 255 255 255 255 255 255 255 255 255 255 255 255 255 255 255 255 255 255 255 255 255 255 255 255 255 255 255 255 255 255 255 255 255 255 255 255 255 255 255 255 255 255 255 255 255 255 255 255 255 255 255 255 255 255 255 255 255 255 255 255 255 255 255 255 255 255 255 255 255 255 255 255 255 255 255 255 255 255 255 255 255 255 255 255 255 255 255 255 255 255 255 255 255 255 255 255 255 255 255 255 255 255 255 255 255 255 255 255 255 255 255 255 255 255 255 255 255 255 255 255 255 255 255 255 255 255 255 255 255 255 255 255 255 255 255 255 255 255 255 255 255 255 255 255 255 255 255 255 255 255 255 255 255 255 255 255 255 255 255 255 255 255 255 255 255 255 255 255 255 255 255 255 255 255 255 255 255 255 255 255 255 255 255 255 255 255 255 255 255 255 255 255 255 255 255 255 255 255 255 255 255 255 255 255 255 255 255 255 255 255 255 255 255 255 255 255 255 255 255 255 255 255 255 255 255 255 255 255 255 255 255 255 255 255 225 0 15 225 0 15 225 0 15 225 0 15 225 0 15 225 0 15 225 0 15 225 0 15 225 0 15 225 0 15 225 0 15 225 0 15 225 0 15 225 0 15 225 0 15 225 0 15 225 0 15 225 0 15 225 0 15 225 0 15 225 0 15 225 0 15 225 0 15 225 0 15 225 0 15 225 0 15 225 0 15 225 0 15 225 0 15 225 0 15 225 0 15 225 0 15 225 0 15 225 0 15 225 0 15 225 0 15 225 0 15 225 0 15 225 0 15 225 0 15 225 0 15 225 0 15 225 0 15 225 0 15 225 0 15 225 0 15 225 0 15 225 0 15 225 0 15 225 0 15 225 0 15 225 0 15 225 0 15 225 0 15 225 0 15 225 0 15 225 0 15 225 0 15 225 0 15 225 0 15 225 0 15 225 0 15 225 0 15 225 0 15 225 0 15 225 0 15 225 0 15 225 0 15 225 0 15 225 0 15 225 0 15 225 0 15 225 0 15 225 0 15 225 0 15 225 0 15 225 0 15 225 0 15 225 0 15 225 0 15 225 0 15 225 0 15 225 0 15 225 0 15 225 0 15 225 0 15 225 0 15 225 0 15 225 0 15 225 0 15 225 0 15 225 0 15 225 0 15 225 0 15 225 0 15 225 0 15 225 0 15 225 0 15 225 0 15 225 0 15 225 0 15 
0 0 145 0 0 145 0 0 145 0 0 145 0 0 145 0 0 145 0 0 145 0 0 145 0 0 145 0 0 145 0 0 145 0 0 145 0 0 145 0 0 145 0 0 145 0 0 145 0 0 145 0 0 145 0 0 145 0 0 145 0 0 145 0 0 145 0 0 145 0 0 145 0 0 145 0 0 145 0 0 145 0 0 145 0 0 145 0 0 145 0 0 145 0 0 145 0 0 145 0 0 145 0 0 145 0 0 145 0 0 145 0 0 145 0 0 145 0 0 145 0 0 145 0 0 145 0 0 145 0 0 145 0 0 145 0 0 145 0 0 145 0 0 145 0 0 145 0 0 145 0 0 145 0 0 145 0 0 145 0 0 145 0 0 145 0 0 145 0 0 145 0 0 145 0 0 145 0 0 145 0 0 145 0 0 145 0 0 145 0 0 145 0 0 145 0 0 145 0 0 145 0 0 145 0 0 145 0 0 145 0 0 145 0 0 145 0 0 145 0 0 145 0 0 145 0 0 145 0 0 145 0 0 145 0 0 145 0 0 145 0 0 145 0 0 145 0 0 145 0 0 145 0 0 145 0 0 145 0 0 145 0 0 145 0 0 145 0 0 145 0 0 145 0 0 145 0 0 145 0 0 145 0 0 145 0 0 145 0 0 145 0 0 145 0 0 145 225 0 15 255 255 255 255 255 255 255 255 255 255 255 255 255 255 255 255 255 255 255 255 255 255 255 255 255 255 255 255 255 255 255 255 255 255 255 255 255 255 255 255 255 255 255 255 255 255 255 255 255 255 255 255 255 255 255 255 255 255 255 255 255 255 255 255 255 255 255 255 255 255 255 255 255 255 255 255 255 255 255 255 255 255 255 255 255 255 255 255 255 255 255 255 255 255 255 255 255 255 255 255 255 255 255 255 255 255 255 255 255 255 255 255 255 255 255 255 255 255 255 255 255 255 255 255 255 255 255 255 255 255 255 255 255 255 255 255 255 255 255 255 255 255 255 255 255 255 255 255 255 255 255 255 255 255 255 255 255 255 255 255 255 255 255 255 255 255 255 255 255 255 255 255 255 255 255 255 255 255 255 255 255 255 255 255 255 255 255 255 255 255 255 255 255 255 255 255 255 255 255 255 255 255 255 255 255 255 255 255 255 255 255 255 255 255 255 255 255 255 255 255 255 255 255 255 255 255 255 255 255 255 255 255 255 255 255 255 255 255 255 255 255 255 255 255 255 255 255 255 255 255 255 255 255 255 255 255 255 255 255 255 255 255 255 255 255 255 255 255 255 255 255 255 255 255 255 255 255 255 255 255 255 255 255 255 255 255 255 255 255 255 255 255 255 255 255 255 255 225 0 15 225 0 15 225 0 15 225 0 15 225 0 15 225 0 15 225 0 15 225 0 15 225 0 15 225 0 15 225 0 15 225 0 15 225 0 15 225 0 15 225 0 15 225 0 15 225 0 15 225 0 15 225 0 15 225 0 15 225 0 15 225 0 15 225 0 15 225 0 15 225 0 15 225 0 15 225 0 15 225 0 15 225 0 15 225 0 15 225 0 15 225 0 15 225 0 15 225 0 15 225 0 15 225 0 15 225 0 15 225 0 15 225 0 15 225 0 15 225 0 15 225 0 15 225 0 15 225 0 15 225 0 15 225 0 15 225 0 15 225 0 15 225 0 15 225 0 15 225 0 15 225 0 15 225 0 15 225 0 15 225 0 15 225 0 15 225 0 15 225 0 15 225 0 15 225 0 15 225 0 15 225 0 15 225 0 15 225 0 15 225 0 15 225 0 15 225 0 15 225 0 15 225 0 15 225 0 15 225 0 15 225 0 15 225 0 15 225 0 15 225 0 15 225 0 15 225 0 15 225 0 15 225 0 15 225 0 15 225 0 15 225 0 15 225 0 15 225 0 15 225 0 15 225 0 15 225 0 15 225 0 15 225 0 15 225 0 15 225 0 15 225 0 15 225 0 15 225 0 15 225 0 15 225 0 15 225 0 15 225 0 15 225 0 15 225 0 15 225 0 15 
0 0 145 0 0 145 0 0 145 0 0 145 0 0 145 0 0 145 0 0 145 0 0 145 0 0 145 0 0 145 0 0 145 0 0 145 0 0 145 0 0 145 0 0 145 0 0 145 0 0 145 0 0 145 0 0 145 0 0 145 0 0 145 0 0 145 0 0 145 0 0 145 0 0 145 0 0 145 0 0 145 0 0 145 0 0 145 0 0 145 0 0 145 0 0 145 0 0 145 0 0 145 0 0 145 0 0 145 0 0 145 0 0 145 0 0 145 0 0 145 0 0 145 0 0 145 0 0 145 0 0 145 0 0 145 0 0 145 0 0 145 0 0 145 0 0 145 0 0 145 0 0 145 0 0 145 0 0 145 0 0 145 0 0 145 0 0 145 0 0 145 0 0 145 0 0 145 0 0 145 0 0 145 0 0 145 0 0 145 0 0 145 0 0 145 0 0 145 0 0 145 0 0 145 0 0 145 0 0 145 0 0 145 0 0 145 0 0 145 0 0 145 0 0 145 0 0 145 0 0 145 0 0 145 0 0 145 0 0 145 0 0 145 0 0 145 0 0 145 0 0 145 0 0 145 0 0 145 0 0 145 0 0 145 0 0 145 0 0 145 0 0 145 0 0 145 0 0 145 0 0 145 0 0 145 0 0 145 0 0 145 0 0 145 0 0 145 225 0 15 255 255 255 255 255 255 255 255 255 255 255 255 255 255 255 255 255 255 255 255 255 255 255 255 255 255 255 255 255 255 255 255 255 255 255 255 255 255 255 255 255 255 255 255 255 255 255 255 255 255 255 255 255 255 255 255 255 255 255 255 255 255 255 255 255 255 255 255 255 255 255 255 255 255 255 255 255 255 255 255 255 255 255 255 255 255 255 255 255 255 255 255 255 255 255 255 255 255 255 255 255 255 255 255 255 255 255 255 255 255 255 255 255 255 255 255 255 255 255 255 255 255 255 255 255 255 255 255 255 255 255 255 255 255 255 255 255 255 255 255 255 255 255 255 255 255 255 255 255 255 255 255 255 255 255 255 255 255 255 255 255 255 255 255 255 255 255 255 255 255 255 255 255 255 255 255 255 255 255 255 255 255 255 255 255 255 255 255 255 255 255 255 255 255 255 255 255 255 255 255 255 255 255 255 255 255 255 255 255 255 255 255 255 255 255 255 255 255 255 255 255 255 255 255 255 255 255 255 255 255 255 255 255 255 255 255 255 255 255 255 255 255 255 255 255 255 255 255 255 255 255 255 255 255 255 255 255 255 255 255 255 255 255 255 255 255 255 255 255 255 255 255 255 255 255 255 255 255 255 255 255 255 255 255 255 255 255 255 255 255 255 255 255 255 255 255 255 225 0 15 225 0 15 225 0 15 225 0 15 225 0 15 225 0 15 225 0 15 225 0 15 225 0 15 225 0 15 225 0 15 225 0 15 225 0 15 225 0 15 225 0 15 225 0 15 225 0 15 225 0 15 225 0 15 225 0 15 225 0 15 225 0 15 225 0 15 225 0 15 225 0 15 225 0 15 225 0 15 225 0 15 225 0 15 225 0 15 225 0 15 225 0 15 225 0 15 225 0 15 225 0 15 225 0 15 225 0 15 225 0 15 225 0 15 225 0 15 225 0 15 225 0 15 225 0 15 225 0 15 225 0 15 225 0 15 225 0 15 225 0 15 225 0 15 225 0 15 225 0 15 225 0 15 225 0 15 225 0 15 225 0 15 225 0 15 225 0 15 225 0 15 225 0 15 225 0 15 225 0 15 225 0 15 225 0 15 225 0 15 225 0 15 225 0 15 225 0 15 225 0 15 225 0 15 225 0 15 225 0 15 225 0 15 225 0 15 225 0 15 225 0 15 225 0 15 225 0 15 225 0 15 225 0 15 225 0 15 225 0 15 225 0 15 225 0 15 225 0 15 225 0 15 225 0 15 225 0 15 225 0 15 225 0 15 225 0 15 225 0 15 225 0 15 225 0 15 225 0 15 225 0 15 225 0 15 225 0 15 225 0 15 225 0 15 225 0 15 225 0 15 
0 0 145 0 0 145 0 0 145 0 0 145 0 0 145 0 0 145 0 0 145 0 0 145 0 0 145 0 0 145 0 0 145 0 0 145 0 0 145 0 0 145 0 0 145 0 0 145 0 0 145 0 0 145 0 0 145 0 0 145 0 0 145 0 0 145 0 0 145 0 0 145 0 0 145 0 0 145 0 0 145 0 0 145 0 0 145 0 0 145 0 0 145 0 0 145 0 0 145 0 0 145 0 0 145 0 0 145 0 0 145 0 0 145 0 0 145 0 0 145 0 0 145 0 0 145 0 0 145 0 0 145 0 0 145 0 0 145 0 0 145 0 0 145 0 0 145 0 0 145 0 0 145 0 0 145 0 0 145 0 0 145 0 0 145 0 0 145 0 0 145 0 0 145 0 0 145 0 0 145 0 0 145 0 0 145 0 0 145 0 0 145 0 0 145 0 0 145 0 0 145 0 0 145 0 0 145 0 0 145 0 0 145 0 0 145 0 0 145 0 0 145 0 0 145 0 0 145 0 0 145 0 0 145 0 0 145 0 0 145 0 0 145 0 0 145 0 0 145 0 0 145 0 0 145 0 0 145 0 0 145 0 0 145 0 0 145 0 0 145 0 0 145 0 0 145 0 0 145 0 0 145 0 0 145 0 0 145 0 0 145 0 0 145 0 0 145 225 0 15 255 255 255 255 255 255 255 255 255 255 255 255 255 255 255 255 255 255 255 255 255 255 255 255 255 255 255 255 255 255 255 255 255 255 255 255 255 255 255 255 255 255 255 255 255 255 255 255 255 255 255 255 255 255 255 255 255 255 255 255 255 255 255 255 255 255 255 255 255 255 255 255 255 255 255 255 255 255 255 255 255 255 255 255 255 255 255 255 255 255 255 255 255 255 255 255 255 255 255 255 255 255 255 255 255 255 255 255 255 255 255 255 255 255 255 255 255 255 255 255 255 255 255 255 255 255 255 255 255 255 255 255 255 255 255 255 255 255 255 255 255 255 255 255 255 255 255 255 255 255 255 255 255 255 255 255 255 255 255 255 255 255 255 255 255 255 255 255 255 255 255 255 255 255 255 255 255 255 255 255 255 255 255 255 255 255 255 255 255 255 255 255 255 255 255 255 255 255 255 255 255 255 255 255 255 255 255 255 255 255 255 255 255 255 255 255 255 255 255 255 255 255 255 255 255 255 255 255 255 255 255 255 255 255 255 255 255 255 255 255 255 255 255 255 255 255 255 255 255 255 255 255 255 255 255 255 255 255 255 255 255 255 255 255 255 255 255 255 255 255 255 255 255 255 255 255 255 255 255 255 255 255 255 255 255 255 255 255 255 255 255 255 255 255 255 255 255 225 0 15 225 0 15 225 0 15 225 0 15 225 0 15 225 0 15 225 0 15 225 0 15 225 0 15 225 0 15 225 0 15 225 0 15 225 0 15 225 0 15 225 0 15 225 0 15 225 0 15 225 0 15 225 0 15 225 0 15 225 0 15 225 0 15 225 0 15 225 0 15 225 0 15 225 0 15 225 0 15 225 0 15 225 0 15 225 0 15 225 0 15 225 0 15 225 0 15 225 0 15 225 0 15 225 0 15 225 0 15 225 0 15 225 0 15 225 0 15 225 0 15 225 0 15 225 0 15 225 0 15 225 0 15 225 0 15 225 0 15 225 0 15 225 0 15 225 0 15 225 0 15 225 0 15 225 0 15 225 0 15 225 0 15 225 0 15 225 0 15 225 0 15 225 0 15 225 0 15 225 0 15 225 0 15 225 0 15 225 0 15 225 0 15 225 0 15 225 0 15 225 0 15 225 0 15 225 0 15 225 0 15 225 0 15 225 0 15 225 0 15 225 0 15 225 0 15 225 0 15 225 0 15 225 0 15 225 0 15 225 0 15 225 0 15 225 0 15 225 0 15 225 0 15 225 0 15 225 0 15 225 0 15 225 0 15 225 0 15 225 0 15 225 0 15 225 0 15 225 0 15 225 0 15 225 0 15 225 0 15 225 0 15 225 0 15 225 0 15 225 0 15 
0 0 145 0 0 145 0 0 145 0 0 145 0 0 145 0 0 145 0 0 145 0 0 145 0 0 145 0 0 145 0 0 145 0 0 145 0 0 145 0 0 145 0 0 145 0 0 145 0 0 145 0 0 145 0 0 145 0 0 145 0 0 145 0 0 145 0 0 145 0 0 145 0 0 145 0 0 145 0 0 145 0 0 145 0 0 145 0 0 145 0 0 145 0 0 145 0 0 145 0 0 145 0 0 145 0 0 145 0 0 145 0 0 145 0 0 145 0 0 145 0 0 145 0 0 145 0 0 145 0 0 145 0 0 145 0 0 145 0 0 145 0 0 145 0 0 145 0 0 145 0 0 145 0 0 145 0 0 145 0 0 145 0 0 145 0 0 145 0 0 145 0 0 145 0 0 145 0 0 145 0 0 145 0 0 145 0 0 145 0 0 145 0 0 145 0 0 145 0 0 145 0 0 145 0 0 145 0 0 145 0 0 145 0 0 145 0 0 145 0 0 145 0 0 145 0 0 145 0 0 145 0 0 145 0 0 145 0 0 145 0 0 145 0 0 145 0 0 145 0 0 145 0 0 145 0 0 145 0 0 145 0 0 145 0 0 145 0 0 145 0 0 145 0 0 145 0 0 145 0 0 145 0 0 145 0 0 145 0 0 145 0 0 145 0 0 145 225 0 15 255 255 255 255 255 255 255 255 255 255 255 255 255 255 255 255 255 255 255 255 255 255 255 255 255 255 255 255 255 255 255 255 255 255 255 255 255 255 255 255 255 255 255 255 255 255 255 255 255 255 255 255 255 255 255 255 255 255 255 255 255 255 255 255 255 255 255 255 255 255 255 255 255 255 255 255 255 255 255 255 255 255 255 255 255 255 255 255 255 255 255 255 255 255 255 255 255 255 255 255 255 255 255 255 255 255 255 255 255 255 255 255 255 255 255 255 255 255 255 255 255 255 255 255 255 255 255 255 255 255 255 255 255 255 255 255 255 255 255 255 255 255 255 255 255 255 255 255 255 255 255 255 255 255 255 255 255 255 255 255 255 255 255 255 255 255 255 255 255 255 255 255 255 255 255 255 255 255 255 255 255 255 255 255 255 255 255 255 255 255 255 255 255 255 255 255 255 255 255 255 255 255 255 255 255 255 255 255 255 255 255 255 255 255 255 255 255 255 255 255 255 255 255 255 255 255 255 255 255 255 255 255 255 255 255 255 255 255 255 255 255 255 255 255 255 255 255 255 255 255 255 255 255 255 255 255 255 255 255 255 255 255 255 255 255 255 255 255 255 255 255 255 255 255 255 255 255 255 255 255 255 255 255 255 255 255 255 255 255 255 255 255 255 255 255 255 255 225 0 15 225 0 15 225 0 15 225 0 15 225 0 15 225 0 15 225 0 15 225 0 15 225 0 15 225 0 15 225 0 15 225 0 15 225 0 15 225 0 15 225 0 15 225 0 15 225 0 15 225 0 15 225 0 15 225 0 15 225 0 15 225 0 15 225 0 15 225 0 15 225 0 15 225 0 15 225 0 15 225 0 15 225 0 15 225 0 15 225 0 15 225 0 15 225 0 15 225 0 15 225 0 15 225 0 15 225 0 15 225 0 15 225 0 15 225 0 15 225 0 15 225 0 15 225 0 15 225 0 15 225 0 15 225 0 15 225 0 15 225 0 15 225 0 15 225 0 15 225 0 15 225 0 15 225 0 15 225 0 15 225 0 15 225 0 15 225 0 15 225 0 15 225 0 15 225 0 15 225 0 15 225 0 15 225 0 15 225 0 15 225 0 15 225 0 15 225 0 15 225 0 15 225 0 15 225 0 15 225 0 15 225 0 15 225 0 15 225 0 15 225 0 15 225 0 15 225 0 15 225 0 15 225 0 15 225 0 15 225 0 15 225 0 15 225 0 15 225 0 15 225 0 15 225 0 15 225 0 15 225 0 15 225 0 15 225 0 15 225 0 15 225 0 15 225 0 15 225 0 15 225 0 15 225 0 15 225 0 15 225 0 15 225 0 15 225 0 15 225 0 15 
0 0 145 0 0 145 0 0 145 0 0 145 0 0 145 0 0 145 0 0 145 0 0 145 0 0 145 0 0 145 0 0 145 0 0 145 0 0 145 0 0 145 0 0 145 0 0 145 0 0 145 0 0 145 0 0 145 0 0 145 0 0 145 0 0 145 0 0 145 0 0 145 0 0 145 0 0 145 0 0 145 0 0 145 0 0 145 0 0 145 0 0 145 0 0 145 0 0 145 0 0 145 0 0 145 0 0 145 0 0 145 0 0 145 0 0 145 0 0 145 0 0 145 0 0 145 0 0 145 0 0 145 0 0 145 0 0 145 0 0 145 0 0 145 0 0 145 0 0 145 0 0 145 0 0 145 0 0 145 0 0 145 0 0 145 0 0 145 0 0 145 0 0 145 0 0 145 0 0 145 0 0 145 0 0 145 0 0 145 0 0 145 0 0 145 0 0 145 0 0 145 0 0 145 0 0 145 0 0 145 0 0 145 0 0 145 0 0 145 0 0 145 0 0 145 0 0 145 0 0 145 0 0 145 0 0 145 0 0 145 0 0 145 0 0 145 0 0 145 0 0 145 0 0 145 0 0 145 0 0 145 0 0 145 0 0 145 0 0 145 0 0 145 0 0 145 0 0 145 0 0 145 0 0 145 0 0 145 0 0 145 0 0 145 0 0 145 225 0 15 255 255 255 255 255 255 255 255 255 255 255 255 255 255 255 255 255 255 255 255 255 255 255 255 255 255 255 255 255 255 255 255 255 255 255 255 255 255 255 255 255 255 255 255 255 255 255 255 255 255 255 255 255 255 255 255 255 255 255 255 255 255 255 255 255 255 255 255 255 255 255 255 255 255 255 255 255 255 255 255 255 255 255 255 255 255 255 255 255 255 255 255 255 255 255 255 255 255 255 255 255 255 255 255 255 255 255 255 255 255 255 255 255 255 255 255 255 255 255 255 255 255 255 255 255 255 255 255 255 255 255 255 255 255 255 255 255 255 255 255 255 255 255 255 255 255 255 255 255 255 255 255 255 255 255 255 255 255 255 255 255 255 255 255 255 255 255 255 255 255 255 255 255 255 255 255 255 255 255 255 255 255 255 255 255 255 255 255 255 255 255 255 255 255 255 255 255 255 255 255 255 255 255 255 255 255 255 255 255 255 255 255 255 255 255 255 255 255 255 255 255 255 255 255 255 255 255 255 255 255 255 255 255 255 255 255 255 255 255 255 255 255 255 255 255 255 255 255 255 255 255 255 255 255 255 255 255 255 255 255 255 255 255 255 255 255 255 255 255 255 255 255 255 255 255 255 255 255 255 255 255 255 255 255 255 255 255 255 255 255 255 255 255 255 255 255 255 225 0 15 225 0 15 225 0 15 225 0 15 225 0 15 225 0 15 225 0 15 225 0 15 225 0 15 225 0 15 225 0 15 225 0 15 225 0 15 225 0 15 225 0 15 225 0 15 225 0 15 225 0 15 225 0 15 225 0 15 225 0 15 225 0 15 225 0 15 225 0 15 225 0 15 225 0 15 225 0 15 225 0 15 225 0 15 225 0 15 225 0 15 225 0 15 225 0 15 225 0 15 225 0 15 225 0 15 225 0 15 225 0 15 225 0 15 225 0 15 225 0 15 225 0 15 225 0 15 225 0 15 225 0 15 225 0 15 225 0 15 225 0 15 225 0 15 225 0 15 225 0 15 225 0 15 225 0 15 225 0 15 225 0 15 225 0 15 225 0 15 225 0 15 225 0 15 225 0 15 225 0 15 225 0 15 225 0 15 225 0 15 225 0 15 225 0 15 225 0 15 225 0 15 225 0 15 225 0 15 225 0 15 225 0 15 225 0 15 225 0 15 225 0 15 225 0 15 225 0 15 225 0 15 225 0 15 225 0 15 225 0 15 225 0 15 225 0 15 225 0 15 225 0 15 225 0 15 225 0 15 225 0 15 225 0 15 225 0 15 225 0 15 225 0 15 225 0 15 225 0 15 225 0 15 225 0 15 225 0 15 225 0 15 225 0 15 225 0 15 225 0 15 
0 0 145 0 0 145 0 0 145 0 0 145 0 0 145 0 0 145 0 0 145 0 0 145 0 0 145 0 0 145 0 0 145 0 0 145 0 0 145 0 0 145 0 0 145 0 0 145 0 0 145 0 0 145 0 0 145 0 0 145 0 0 145 0 0 145 0 0 145 0 0 145 0 0 145 0 0 145 0 0 145 0 0 145 0 0 145 0 0 145 0 0 145 0 0 145 0 0 145 0 0 145 0 0 145 0 0 145 0 0 145 0 0 145 0 0 145 0 0 145 0 0 145 0 0 145 0 0 145 0 0 145 0 0 145 0 0 145 0 0 145 0 0 145 0 0 145 0 0 145 0 0 145 0 0 145 0 0 145 0 0 145 0 0 145 0 0 145 0 0 145 0 0 145 0 0 145 0 0 145 0 0 145 0 0 145 0 0 145 0 0 145 0 0 145 0 0 145 0 0 145 0 0 145 0 0 145 0 0 145 0 0 145 0 0 145 0 0 145 0 0 145 0 0 145 0 0 145 0 0 145 0 0 145 0 0 145 0 0 145 0 0 145 0 0 145 0 0 145 0 0 145 0 0 145 0 0 145 0 0 145 0 0 145 0 0 145 0 0 145 0 0 145 0 0 145 0 0 145 0 0 145 0 0 145 0 0 145 0 0 145 0 0 145 0 0 145 225 0 15 255 255 255 255 255 255 255 255 255 255 255 255 255 255 255 255 255 255 255 255 255 255 255 255 255 255 255 255 255 255 255 255 255 255 255 255 255 255 255 255 255 255 255 255 255 255 255 255 255 255 255 255 255 255 255 255 255 255 255 255 255 255 255 255 255 255 255 255 255 255 255 255 255 255 255 255 255 255 255 255 255 255 255 255 255 255 255 255 255 255 255 255 255 255 255 255 255 255 255 255 255 255 255 255 255 255 255 255 255 255 255 255 255 255 255 255 255 255 255 255 255 255 255 255 255 255 255 255 255 255 255 255 255 255 255 255 255 255 255 255 255 255 255 255 255 255 255 255 255 255 255 255 255 255 255 255 255 255 255 255 255 255 255 255 255 255 255 255 255 255 255 255 255 255 255 255 255 255 255 255 255 255 255 255 255 255 255 255 255 255 255 255 255 255 255 255 255 255 255 255 255 255 255 255 255 255 255 255 255 255 255 255 255 255 255 255 255 255 255 255 255 255 255 255 255 255 255 255 255 255 255 255 255 255 255 255 255 255 255 255 255 255 255 255 255 255 255 255 255 255 255 255 255 255 255 255 255 255 255 255 255 255 255 255 255 255 255 255 255 255 255 255 255 255 255 255 255 255 255 255 255 255 255 255 255 255 255 255 255 255 255 255 255 255 255 255 255 225 0 15 225 0 15 225 0 15 225 0 15 225 0 15 225 0 15 225 0 15 225 0 15 225 0 15 225 0 15 225 0 15 225 0 15 225 0 15 225 0 15 225 0 15 225 0 15 225 0 15 225 0 15 225 0 15 225 0 15 225 0 15 225 0 15 225 0 15 225 0 15 225 0 15 225 0 15 225 0 15 225 0 15 225 0 15 225 0 15 225 0 15 225 0 15 225 0 15 225 0 15 225 0 15 225 0 15 225 0 15 225 0 15 225 0 15 225 0 15 225 0 15 225 0 15 225 0 15 225 0 15 225 0 15 225 0 15 225 0 15 225 0 15 225 0 15 225 0 15 225 0 15 225 0 15 225 0 15 225 0 15 225 0 15 225 0 15 225 0 15 225 0 15 225 0 15 225 0 15 225 0 15 225 0 15 225 0 15 225 0 15 225 0 15 225 0 15 225 0 15 225 0 15 225 0 15 225 0 15 225 0 15 225 0 15 225 0 15 225 0 15 225 0 15 225 0 15 225 0 15 225 0 15 225 0 15 225 0 15 225 0 15 225 0 15 225 0 15 225 0 15 225 0 15 225 0 15 225 0 15 225 0 15 225 0 15 225 0 15 225 0 15 225 0 15 225 0 15 225 0 15 225 0 15 225 0 15 225 0 15 225 0 15 225 0 15 225 0 15 225 0 15 
0 0 145 0 0 145 0 0 145 0 0 145 0 0 145 0 0 145 0 0 145 0 0 145 0 0 145 0 0 145 0 0 145 0 0 145 0 0 145 0 0 145 0 0 145 0 0 145 0 0 145 0 0 145 0 0 145 0 0 145 0 0 145 0 0 145 0 0 145 0 0 145 0 0 145 0 0 145 0 0 145 0 0 145 0 0 145 0 0 145 0 0 145 0 0 145 0 0 145 0 0 145 0 0 145 0 0 145 0 0 145 0 0 145 0 0 145 0 0 145 0 0 145 0 0 145 0 0 145 0 0 145 0 0 145 0 0 145 0 0 145 0 0 145 0 0 145 0 0 145 0 0 145 0 0 145 0 0 145 0 0 145 0 0 145 0 0 145 0 0 145 0 0 145 0 0 145 0 0 145 0 0 145 0 0 145 0 0 145 0 0 145 0 0 145 0 0 145 0 0 145 0 0 145 0 0 145 0 0 145 0 0 145 0 0 145 0 0 145 0 0 145 0 0 145 0 0 145 0 0 145 0 0 145 0 0 145 0 0 145 0 0 145 0 0 145 0 0 145 0 0 145 0 0 145 0 0 145 0 0 145 0 0 145 0 0 145 0 0 145 0 0 145 0 0 145 0 0 145 0 0 145 0 0 145 0 0 145 0 0 145 0 0 145 0 0 145 225 0 15 255 255 255 255 255 255 255 255 255 255 255 255 255 255 255 255 255 255 255 255 255 255 255 255 255 255 255 255 255 255 255 255 255 255 255 255 255 255 255 255 255 255 255 255 255 255 255 255 255 255 255 255 255 255 255 255 255 255 255 255 255 255 255 255 255 255 255 255 255 255 255 255 255 255 255 255 255 255 255 255 255 255 255 255 255 255 255 255 255 255 255 255 255 255 255 255 255 255 255 255 255 255 255 255 255 255 255 255 255 255 255 255 255 255 255 255 255 255 255 255 255 255 255 255 255 255 255 255 255 255 255 255 255 255 255 255 255 255 255 255 255 255 255 255 255 255 255 255 255 255 255 255 255 255 255 255 255 255 255 255 255 255 255 255 255 255 255 255 255 255 255 255 255 255 255 255 255 255 255 255 255 255 255 255 255 255 255 255 255 255 255 255 255 255 255 255 255 255 255 255 255 255 255 255 255 255 255 255 255 255 255 255 255 255 255 255 255 255 255 255 255 255 255 255 255 255 255 255 255 255 255 255 255 255 255 255 255 255 255 255 255 255 255 255 255 255 255 255 255 255 255 255 255 255 255 255 255 255 255 255 255 255 255 255 255 255 255 255 255 255 255 255 255 255 255 255 255 255 255 255 255 255 255 255 255 255 255 255 255 255 255 255 255 255 255 255 255 225 0 15 225 0 15 225 0 15 225 0 15 225 0 15 225 0 15 225 0 15 225 0 15 225 0 15 225 0 15 225 0 15 225 0 15 225 0 15 225 0 15 225 0 15 225 0 15 225 0 15 225 0 15 225 0 15 225 0 15 225 0 15 225 0 15 225 0 15 225 0 15 225 0 15 225 0 15 225 0 15 225 0 15 225 0 15 225 0 15 225 0 15 225 0 15 225 0 15 225 0 15 225 0 15 225 0 15 225 0 15 225 0 15 225 0 15 225 0 15 225 0 15 225 0 15 225 0 15 225 0 15 225 0 15 225 0 15 225 0 15 225 0 15 225 0 15 225 0 15 225 0 15 225 0 15 225 0 15 225 0 15 225 0 15 225 0 15 225 0 15 225 0 15 225 0 15 225 0 15 225 0 15 225 0 15 225 0 15 225 0 15 225 0 15 225 0 15 225 0 15 225 0 15 225 0 15 225 0 15 225 0 15 225 0 15 225 0 15 225 0 15 225 0 15 225 0 15 225 0 15 225 0 15 225 0 15 225 0 15 225 0 15 225 0 15 225 0 15 225 0 15 225 0 15 225 0 15 225 0 15 225 0 15 225 0 15 225 0 15 225 0 15 225 0 15 225 0 15 225 0 15 225 0 15 225 0 15 225 0 15 225 0 15 225 0 15 225 0 15 225 0 15 
0 0 145 0 0 145 0 0 145 0 0 145 0 0 145 0 0 145 0 0 145 0 0 145 0 0 145 0 0 145 0 0 145 0 0 145 0 0 145 0 0 145 0 0 145 0 0 145 0 0 145 0 0 145 0 0 145 0 0 145 0 0 145 0 0 145 0 0 145 0 0 145 0 0 145 0 0 145 0 0 145 0 0 145 0 0 145 0 0 145 0 0 145 0 0 145 0 0 145 0 0 145 0 0 145 0 0 145 0 0 145 0 0 145 0 0 145 0 0 145 0 0 145 0 0 145 0 0 145 0 0 145 0 0 145 0 0 145 0 0 145 0 0 145 0 0 145 0 0 145 0 0 145 0 0 145 0 0 145 0 0 145 0 0 145 0 0 145 0 0 145 0 0 145 0 0 145 0 0 145 0 0 145 0 0 145 0 0 145 0 0 145 0 0 145 0 0 145 0 0 145 0 0 145 0 0 145 0 0 145 0 0 145 0 0 145 0 0 145 0 0 145 0 0 145 0 0 145 0 0 145 0 0 145 0 0 145 0 0 145 0 0 145 0 0 145 0 0 145 0 0 145 0 0 145 0 0 145 0 0 145 0 0 145 0 0 145 0 0 145 0 0 145 0 0 145 0 0 145 0 0 145 0 0 145 0 0 145 0 0 145 0 0 145 0 0 145 225 0 15 255 255 255 255 255 255 255 255 255 255 255 255 255 255 255 255 255 255 255 255 255 255 255 255 255 255 255 255 255 255 255 255 255 255 255 255 255 255 255 255 255 255 255 255 255 255 255 255 255 255 255 255 255 255 255 255 255 255 255 255 255 255 255 255 255 255 255 255 255 255 255 255 255 255 255 255 255 255 255 255 255 255 255 255 255 255 255 255 255 255 255 255 255 255 255 255 255 255 255 255 255 255 255 255 255 255 255 255 255 255 255 255 255 255 255 255 255 255 255 255 255 255 255 255 255 255 255 255 255 255 255 255 255 255 255 255 255 255 255 255 255 255 255 255 255 255 255 255 255 255 255 255 255 255 255 255 255 255 255 255 255 255 255 255 255 255 255 255 255 255 255 255 255 255 255 255 255 255 255 255 255 255 255 255 255 255 255 255 255 255 255 255 255 255 255 255 255 255 255 255 255 255 255 255 255 255 255 255 255 255 255 255 255 255 255 255 255 255 255 255 255 255 255 255 255 255 255 255 255 255 255 255 255 255 255 255 255 255 255 255 255 255 255 255 255 255 255 255 255 255 255 255 255 255 255 255 255 255 255 255 255 255 255 255 255 255 255 255 255 255 255 255 255 255 255 255 255 255 255 255 255 255 255 255 255 255 255 255 255 255 255 255 255 255 255 255 255 225 0 15 225 0 15 225 0 15 225 0 15 225 0 15 225 0 15 225 0 15 225 0 15 225 0 15 225 0 15 225 0 15 225 0 15 225 0 15 225 0 15 225 0 15 225 0 15 225 0 15 225 0 15 225 0 15 225 0 15 225 0 15 225 0 15 225 0 15 225 0 15 225 0 15 225 0 15 225 0 15 225 0 15 225 0 15 225 0 15 225 0 15 225 0 15 225 0 15 225 0 15 225 0 15 225 0 15 225 0 15 225 0 15 225 0 15 225 0 15 225 0 15 225 0 15 225 0 15 225 0 15 225 0 15 225 0 15 225 0 15 225 0 15 225 0 15 225 0 15 225 0 15 225 0 15 225 0 15 225 0 15 225 0 15 225 0 15 225 0 15 225 0 15 225 0 15 225 0 15 225 0 15 225 0 15 225 0 15 225 0 15 225 0 15 225 0 15 225 0 15 225 0 15 225 0 15 225 0 15 225 0 15 225 0 15 225 0 15 225 0 15 225 0 15 225 0 15 225 0 15 225 0 15 225 0 15 225 0 15 225 0 15 225 0 15 225 0 15 225 0 15 225 0 15 225 0 15 225 0 15 225 0 15 225 0 15 225 0 15 225 0 15 225 0 15 225 0 15 225 0 15 225 0 15 225 0 15 225 0 15 225 0 15 225 0 15 225 0 15 225 0 15 
0 0 145 0 0 145 0 0 145 0 0 145 0 0 145 0 0 145 0 0 145 0 0 145 0 0 145 0 0 145 0 0 145 0 0 145 0 0 145 0 0 145 0 0 145 0 0 145 0 0 145 0 0 145 0 0 145 0 0 145 0 0 145 0 0 145 0 0 145 0 0 145 0 0 145 0 0 145 0 0 145 0 0 145 0 0 145 0 0 145 0 0 145 0 0 145 0 0 145 0 0 145 0 0 145 0 0 145 0 0 145 0 0 145 0 0 145 0 0 145 0 0 145 0 0 145 0 0 145 0 0 145 0 0 145 0 0 145 0 0 145 0 0 145 0 0 145 0 0 145 0 0 145 0 0 145 0 0 145 0 0 145 0 0 145 0 0 145 0 0 145 0 0 145 0 0 145 0 0 145 0 0 145 0 0 145 0 0 145 0 0 145 0 0 145 0 0 145 0 0 145 0 0 145 0 0 145 0 0 145 0 0 145 0 0 145 0 0 145 0 0 145 0 0 145 0 0 145 0 0 145 0 0 145 0 0 145 0 0 145 0 0 145 0 0 145 0 0 145 0 0 145 0 0 145 0 0 145 0 0 145 0 0 145 0 0 145 0 0 145 0 0 145 0 0 145 0 0 145 0 0 145 0 0 145 0 0 145 0 0 145 0 0 145 0 0 145 225 0 15 255 255 255 255 255 255 255 255 255 255 255 255 255 255 255 255 255 255 255 255 255 255 255 255 255 255 255 255 255 255 255 255 255 255 255 255 255 255 255 255 255 255 255 255 255 255 255 255 255 255 255 255 255 255 255 255 255 255 255 255 255 255 255 255 255 255 255 255 255 255 255 255 255 255 255 255 255 255 255 255 255 255 255 255 255 255 255 255 255 255 255 255 255 255 255 255 255 255 255 255 255 255 255 255 255 255 255 255 255 255 255 255 255 255 255 255 255 255 255 255 255 255 255 255 255 255 255 255 255 255 255 255 255 255 255 255 255 255 255 255 255 255 255 255 255 255 255 255 255 255 255 255 255 255 255 255 255 255 255 255 255 255 255 255 255 255 255 255 255 255 255 255 255 255 255 255 255 255 255 255 255 255 255 255 255 255 255 255 255 255 255 255 255 255 255 255 255 255 255 255 255 255 255 255 255 255 255 255 255 255 255 255 255 255 255 255 255 255 255 255 255 255 255 255 255 255 255 255 255 255 255 255 255 255 255 255 255 255 255 255 255 255 255 255 255 255 255 255 255 255 255 255 255 255 255 255 255 255 255 255 255 255 255 255 255 255 255 255 255 255 255 255 255 255 255 255 255 255 255 255 255 255 255 255 255 255 255 255 255 255 255 255 255 255 255 255 255 225 0 15 225 0 15 225 0 15 225 0 15 225 0 15 225 0 15 225 0 15 225 0 15 225 0 15 225 0 15 225 0 15 225 0 15 225 0 15 225 0 15 225 0 15 225 0 15 225 0 15 225 0 15 225 0 15 225 0 15 225 0 15 225 0 15 225 0 15 225 0 15 225 0 15 225 0 15 225 0 15 225 0 15 225 0 15 225 0 15 225 0 15 225 0 15 225 0 15 225 0 15 225 0 15 225 0 15 225 0 15 225 0 15 225 0 15 225 0 15 225 0 15 225 0 15 225 0 15 225 0 15 225 0 15 225 0 15 225 0 15 225 0 15 225 0 15 225 0 15 225 0 15 225 0 15 225 0 15 225 0 15 225 0 15 225 0 15 225 0 15 225 0 15 225 0 15 225 0 15 225 0 15 225 0 15 225 0 15 225 0 15 225 0 15 225 0 15 225 0 15 225 0 15 225 0 15 225 0 15 225 0 15 225 0 15 225 0 15 225 0 15 225 0 15 225 0 15 225 0 15 225 0 15 225 0 15 225 0 15 225 0 15 225 0 15 225 0 15 225 0 15 225 0 15 225 0 15 225 0 15 225 0 15 225 0 15 225 0 15 225 0 15 225 0 15 225 0 15 225 0 15 225 0 15 225 0 15 225 0 15 225 0 15 225 0 15 225 0 15 225 0 15 
0 0 145 0 0 145 0 0 145 0 0 145 0 0 145 0 0 145 0 0 145 0 0 145 0 0 145 0 0 145 0 0 145 0 0 145 0 0 145 0 0 145 0 0 145 0 0 145 0 0 145 0 0 145 0 0 145 0 0 145 0 0 145 0 0 145 0 0 145 0 0 145 0 0 145 0 0 145 0 0 145 0 0 145 0 0 145 0 0 145 0 0 145 0 0 145 0 0 145 0 0 145 0 0 145 0 0 145 0 0 145 0 0 145 0 0 145 0 0 145 0 0 145 0 0 145 0 0 145 0 0 145 0 0 145 0 0 145 0 0 145 0 0 145 0 0 145 0 0 145 0 0 145 0 0 145 0 0 145 0 0 145 0 0 145 0 0 145 0 0 145 0 0 145 0 0 145 0 0 145 0 0 145 0 0 145 0 0 145 0 0 145 0 0 145 0 0 145 0 0 145 0 0 145 0 0 145 0 0 145 0 0 145 0 0 145 0 0 145 0 0 145 0 0 145 0 0 145 0 0 145 0 0 145 0 0 145 0 0 145 0 0 145 0 0 145 0 0 145 0 0 145 0 0 145 0 0 145 0 0 145 0 0 145 0 0 145 0 0 145 0 0 145 0 0 145 0 0 145 0 0 145 0 0 145 0 0 145 0 0 145 0 0 145 0 0 145 225 0 15 255 255 255 255 255 255 255 255 255 255 255 255 255 255 255 255 255 255 255 255 255 255 255 255 255 255 255 255 255 255 255 255 255 255 255 255 255 255 255 255 255 255 255 255 255 255 255 255 255 255 255 255 255 255 255 255 255 255 255 255 255 255 255 255 255 255 255 255 255 255 255 255 255 255 255 255 255 255 255 255 255 255 255 255 255 255 255 255 255 255 255 255 255 255 255 255 255 255 255 255 255 255 255 255 255 255 255 255 255 255 255 255 255 255 255 255 255 255 255 255 255 255 255 255 255 255 255 255 255 255 255 255 255 255 255 255 255 255 255 255 255 255 255 255 255 255 255 255 255 255 255 255 255 255 255 255 255 255 255 255 255 255 255 255 255 255 255 255 255 255 255 255 255 255 255 255 255 255 255 255 255 255 255 255 255 255 255 255 255 255 255 255 255 255 255 255 255 255 255 255 255 255 255 255 255 255 255 255 255 255 255 255 255 255 255 255 255 255 255 255 255 255 255 255 255 255 255 255 255 255 255 255 255 255 255 255 255 255 255 255 255 255 255 255 255 255 255 255 255 255 255 255 255 255 255 255 255 255 255 255 255 255 255 255 255 255 255 255 255 255 255 255 255 255 255 255 255 255 255 255 255 255 255 255 255 255 255 255 255 255 255 255 255 255 255 255 255 225 0 15 225 0 15 225 0 15 225 0 15 225 0 15 225 0 15 225 0 15 225 0 15 225 0 15 225 0 15 225 0 15 225 0 15 225 0 15 225 0 15 225 0 15 225 0 15 225 0 15 225 0 15 225 0 15 225 0 15 225 0 15 225 0 15 225 0 15 225 0 15 225 0 15 225 0 15 225 0 15 225 0 15 225 0 15 225 0 15 225 0 15 225 0 15 225 0 15 225 0 15 225 0 15 225 0 15 225 0 15 225 0 15 225 0 15 225 0 15 225 0 15 225 0 15 225 0 15 225 0 15 225 0 15 225 0 15 225 0 15 225 0 15 225 0 15 225 0 15 225 0 15 225 0 15 225 0 15 225 0 15 225 0 15 225 0 15 225 0 15 225 0 15 225 0 15 225 0 15 225 0 15 225 0 15 225 0 15 225 0 15 225 0 15 225 0 15 225 0 15 225 0 15 225 0 15 225 0 15 225 0 15 225 0 15 225 0 15 225 0 15 225 0 15 225 0 15 225 0 15 225 0 15 225 0 15 225 0 15 225 0 15 225 0 15 225 0 15 225 0 15 225 0 15 225 0 15 225 0 15 225 0 15 225 0 15 225 0 15 225 0 15 225 0 15 225 0 15 225 0 15 225 0 15 225 0 15 225 0 15 225 0 15 225 0 15 225 0 15 225 0 15 
0 0 145 0 0 145 0 0 145 0 0 145 0 0 145 0 0 145 0 0 145 0 0 145 0 0 145 0 0 145 0 0 145 0 0 145 0 0 145 0 0 145 0 0 145 0 0 145 0 0 145 0 0 145 0 0 145 0 0 145 0 0 145 0 0 145 0 0 145 0 0 145 0 0 145 0 0 145 0 0 145 0 0 145 0 0 145 0 0 145 0 0 145 0 0 145 0 0 145 0 0 145 0 0 145 0 0 145 0 0 145 0 0 145 0 0 145 0 0 145 0 0 145 0 0 145 0 0 145 0 0 145 0 0 145 0 0 145 0 0 145 0 0 145 0 0 145 0 0 145 0 0 145 0 0 145 0 0 145 0 0 145 0 0 145 0 0 145 0 0 145 0 0 145 0 0 145 0 0 145 0 0 145 0 0 145 0 0 145 0 0 145 0 0 145 0 0 145 0 0 145 0 0 145 0 0 145 0 0 145 0 0 145 0 0 145 0 0 145 0 0 145 0 0 145 0 0 145 0 0 145 0 0 145 0 0 145 0 0 145 0 0 145 0 0 145 0 0 145 0 0 145 0 0 145 0 0 145 0 0 145 0 0 145 0 0 145 0 0 145 0 0 145 0 0 145 0 0 145 0 0 145 0 0 145 0 0 145 0 0 145 0 0 145 0 0 145 225 0 15 255 255 255 255 255 255 255 255 255 255 255 255 255 255 255 255 255 255 255 255 255 255 255 255 255 255 255 255 255 255 255 255 255 255 255 255 255 255 255 255 255 255 255 255 255 255 255 255 255 255 255 255 255 255 255 255 255 255 255 255 255 255 255 255 255 255 255 255 255 255 255 255 255 255 255 255 255 255 255 255 255 255 255 255 255 255 255 255 255 255 255 255 255 255 255 255 255 255 255 255 255 255 255 255 255 255 255 255 255 255 255 255 255 255 255 255 255 255 255 255 255 255 255 255 255 255 255 255 255 255 255 255 255 255 255 255 255 255 255 255 255 255 255 255 255 255 255 255 255 255 255 255 255 255 255 255 255 255 255 255 255 255 255 255 255 255 255 255 255 255 255 255 255 255 255 255 255 255 255 255 255 255 255 255 255 255 255 255 255 255 255 255 255 255 255 255 255 255 255 255 255 255 255 255 255 255 255 255 255 255 255 255 255 255 255 255 255 255 255 255 255 255 255 255 255 255 255 255 255 255 255 255 255 255 255 255 255 255 255 255 255 255 255 255 255 255 255 255 255 255 255 255 255 255 255 255 255 255 255 255 255 255 255 255 255 255 255 255 255 255 255 255 255 255 255 255 255 255 255 255 255 255 255 255 255 255 255 255 255 255 255 255 255 255 255 255 255 225 0 15 225 0 15 225 0 15 225 0 15 225 0 15 225 0 15 225 0 15 225 0 15 225 0 15 225 0 15 225 0 15 225 0 15 225 0 15 225 0 15 225 0 15 225 0 15 225 0 15 225 0 15 225 0 15 225 0 15 225 0 15 225 0 15 225 0 15 225 0 15 225 0 15 225 0 15 225 0 15 225 0 15 225 0 15 225 0 15 225 0 15 225 0 15 225 0 15 225 0 15 225 0 15 225 0 15 225 0 15 225 0 15 225 0 15 225 0 15 225 0 15 225 0 15 225 0 15 225 0 15 225 0 15 225 0 15 225 0 15 225 0 15 225 0 15 225 0 15 225 0 15 225 0 15 225 0 15 225 0 15 225 0 15 225 0 15 225 0 15 225 0 15 225 0 15 225 0 15 225 0 15 225 0 15 225 0 15 225 0 15 225 0 15 225 0 15 225 0 15 225 0 15 225 0 15 225 0 15 225 0 15 225 0 15 225 0 15 225 0 15 225 0 15 225 0 15 225 0 15 225 0 15 225 0 15 225 0 15 225 0 15 225 0 15 225 0 15 225 0 15 225 0 15 225 0 15 225 0 15 225 0 15 225 0 15 225 0 15 225 0 15 225 0 15 225 0 15 225 0 15 225 0 15 225 0 15 225 0 15 225 0 15 225 0 15 225 0 15 225 0 15 
0 0 145 0 0 145 0 0 145 0 0 145 0 0 145 0 0 145 0 0 145 0 0 145 0 0 145 0 0 145 0 0 145 0 0 145 0 0 145 0 0 145 0 0 145 0 0 145 0 0 145 0 0 145 0 0 145 0 0 145 0 0 145 0 0 145 0 0 145 0 0 145 0 0 145 0 0 145 0 0 145 0 0 145 0 0 145 0 0 145 0 0 145 0 0 145 0 0 145 0 0 145 0 0 145 0 0 145 0 0 145 0 0 145 0 0 145 0 0 145 0 0 145 0 0 145 0 0 145 0 0 145 0 0 145 0 0 145 0 0 145 0 0 145 0 0 145 0 0 145 0 0 145 0 0 145 0 0 145 0 0 145 0 0 145 0 0 145 0 0 145 0 0 145 0 0 145 0 0 145 0 0 145 0 0 145 0 0 145 0 0 145 0 0 145 0 0 145 0 0 145 0 0 145 0 0 145 0 0 145 0 0 145 0 0 145 0 0 145 0 0 145 0 0 145 0 0 145 0 0 145 0 0 145 0 0 145 0 0 145 0 0 145 0 0 145 0 0 145 0 0 145 0 0 145 0 0 145 0 0 145 0 0 145 0 0 145 0 0 145 0 0 145 0 0 145 0 0 145 0 0 145 0 0 145 0 0 145 0 0 145 0 0 145 0 0 145 225 0 15 255 255 255 255 255 255 255 255 255 255 255 255 255 255 255 255 255 255 255 255 255 255 255 255 255 255 255 255 255 255 255 255 255 255 255 255 255 255 255 255 255 255 255 255 255 255 255 255 255 255 255 255 255 255 255 255 255 255 255 255 255 255 255 255 255 255 255 255 255 255 255 255 255 255 255 255 255 255 255 255 255 255 255 255 255 255 255 255 255 255 255 255 255 255 255 255 255 255 255 255 255 255 255 255 255 255 255 255 255 255 255 255 255 255 255 255 255 255 255 255 255 255 255 255 255 255 255 255 255 255 255 255 255 255 255 255 255 255 255 255 255 255 255 255 255 255 255 255 255 255 255 255 255 255 255 255 255 255 255 255 255 255 255 255 255 255 255 255 255 255 255 255 255 255 255 255 255 255 255 255 255 255 255 255 255 255 255 255 255 255 255 255 255 255 255 255 255 255 255 255 255 255 255 255 255 255 255 255 255 255 255 255 255 255 255 255 255 255 255 255 255 255 255 255 255 255 255 255 255 255 255 255 255 255 255 255 255 255 255 255 255 255 255 255 255 255 255 255 255 255 255 255 255 255 255 255 255 255 255 255 255 255 255 255 255 255 255 255 255 255 255 255 255 255 255 255 255 255 255 255 255 255 255 255 255 255 255 255 255 255 255 255 255 255 255 255 255 225 0 15 225 0 15 225 0 15 225 0 15 225 0 15 225 0 15 225 0 15 225 0 15 225 0 15 225 0 15 225 0 15 225 0 15 225 0 15 225 0 15 225 0 15 225 0 15 225 0 15 225 0 15 225 0 15 225 0 15 225 0 15 225 0 15 225 0 15 225 0 15 225 0 15 225 0 15 225 0 15 225 0 15 225 0 15 225 0 15 225 0 15 225 0 15 225 0 15 225 0 15 225 0 15 225 0 15 225 0 15 225 0 15 225 0 15 225 0 15 225 0 15 225 0 15 225 0 15 225 0 15 225 0 15 225 0 15 225 0 15 225 0 15 225 0 15 225 0 15 225 0 15 225 0 15 225 0 15 225 0 15 225 0 15 225 0 15 225 0 15 225 0 15 225 0 15 225 0 15 225 0 15 225 0 15 225 0 15 225 0 15 225 0 15 225 0 15 225 0 15 225 0 15 225 0 15 225 0 15 225 0 15 225 0 15 225 0 15 225 0 15 225 0 15 225 0 15 225 0 15 225 0 15 225 0 15 225 0 15 225 0 15 225 0 15 225 0 15 225 0 15 225 0 15 225 0 15 225 0 15 225 0 15 225 0 15 225 0 15 225 0 15 225 0 15 225 0 15 225 0 15 225 0 15 225 0 15 225 0 15 225 0 15 225 0 15 225 0 15 225 0 15 
0 0 145 0 0 145 0 0 145 0 0 145 0 0 145 0 0 145 0 0 145 0 0 145 0 0 145 0 0 145 0 0 145 0 0 145 0 0 145 0 0 145 0 0 145 0 0 145 0 0 145 0 0 145 0 0 145 0 0 145 0 0 145 0 0 145 0 0 145 0 0 145 0 0 145 0 0 145 0 0 145 0 0 145 0 0 145 0 0 145 0 0 145 0 0 145 0 0 145 0 0 145 0 0 145 0 0 145 0 0 145 0 0 145 0 0 145 0 0 145 0 0 145 0 0 145 0 0 145 0 0 145 0 0 145 0 0 145 0 0 145 0 0 145 0 0 145 0 0 145 0 0 145 0 0 145 0 0 145 0 0 145 0 0 145 0 0 145 0 0 145 0 0 145 0 0 145 0 0 145 0 0 145 0 0 145 0 0 145 0 0 145 0 0 145 0 0 145 0 0 145 0 0 145 0 0 145 0 0 145 0 0 145 0 0 145 0 0 145 0 0 145 0 0 145 0 0 145 0 0 145 0 0 145 0 0 145 0 0 145 0 0 145 0 0 145 0 0 145 0 0 145 0 0 145 0 0 145 0 0 145 0 0 145 0 0 145 0 0 145 0 0 145 0 0 145 0 0 145 0 0 145 0 0 145 0 0 145 0 0 145 0 0 145 0 0 145 225 0 15 255 255 255 255 255 255 255 255 255 255 255 255 255 255 255 255 255 255 255 255 255 255 255 255 255 255 255 255 255 255 255 255 255 255 255 255 255 255 255 255 255 255 255 255 255 255 255 255 255 255 255 255 255 255 255 255 255 255 255 255 255 255 255 255 255 255 255 255 255 255 255 255 255 255 255 255 255 255 255 255 255 255 255 255 255 255 255 255 255 255 255 255 255 255 255 255 255 255 255 255 255 255 255 255 255 255 255 255 255 255 255 255 255 255 255 255 255 255 255 255 255 255 255 255 255 255 255 255 255 255 255 255 255 255 255 255 255 255 255 255 255 255 255 255 255 255 255 255 255 255 255 255 255 255 255 255 255 255 255 255 255 255 255 255 255 255 255 255 255 255 255 255 255 255 255 255 255 255 255 255 255 255 255 255 255 255 255 255 255 255 255 255 255 255 255 255 255 255 255 255 255 255 255 255 255 255 255 255 255 255 255 255 255 255 255 255 255 255 255 255 255 255 255 255 255 255 255 255 255 255 255 255 255 255 255 255 255 255 255 255 255 255 255 255 255 255 255 255 255 255 255 255 255 255 255 255 255 255 255 255 255 255 255 255 255 255 255 255 255 255 255 255 255 255 255 255 255 255 255 255 255 255 255 255 255 255 255 255 255 255 255 255 255 255 255 255 255 225 0 15 225 0 15 225 0 15 225 0 15 225 0 15 225 0 15 225 0 15 225 0 15 225 0 15 225 0 15 225 0 15 225 0 15 225 0 15 225 0 15 225 0 15 225 0 15 225 0 15 225 0 15 225 0 15 225 0 15 225 0 15 225 0 15 225 0 15 225 0 15 225 0 15 225 0 15 225 0 15 225 0 15 225 0 15 225 0 15 225 0 15 225 0 15 225 0 15 225 0 15 225 0 15 225 0 15 225 0 15 225 0 15 225 0 15 225 0 15 225 0 15 225 0 15 225 0 15 225 0 15 225 0 15 225 0 15 225 0 15 225 0 15 225 0 15 225 0 15 225 0 15 225 0 15 225 0 15 225 0 15 225 0 15 225 0 15 225 0 15 225 0 15 225 0 15 225 0 15 225 0 15 225 0 15 225 0 15 225 0 15 225 0 15 225 0 15 225 0 15 225 0 15 225 0 15 225 0 15 225 0 15 225 0 15 225 0 15 225 0 15 225 0 15 225 0 15 225 0 15 225 0 15 225 0 15 225 0 15 225 0 15 225 0 15 225 0 15 225 0 15 225 0 15 225 0 15 225 0 15 225 0 15 225 0 15 225 0 15 225 0 15 225 0 15 225 0 15 225 0 15 225 0 15 225 0 15 225 0 15 225 0 15 225 0 15 225 0 15 225 0 15 
0 0 145 0 0 145 0 0 145 0 0 145 0 0 145 0 0 145 0 0 145 0 0 145 0 0 145 0 0 145 0 0 145 0 0 145 0 0 145 0 0 145 0 0 145 0 0 145 0 0 145 0 0 145 0 0 145 0 0 145 0 0 145 0 0 145 0 0 145 0 0 145 0 0 145 0 0 145 0 0 145 0 0 145 0 0 145 0 0 145 0 0 145 0 0 145 0 0 145 0 0 145 0 0 145 0 0 145 0 0 145 0 0 145 0 0 145 0 0 145 0 0 145 0 0 145 0 0 145 0 0 145 0 0 145 0 0 145 0 0 145 0 0 145 0 0 145 0 0 145 0 0 145 0 0 145 0 0 145 0 0 145 0 0 145 0 0 145 0 0 145 0 0 145 0 0 145 0 0 145 0 0 145 0 0 145 0 0 145 0 0 145 0 0 145 0 0 145 0 0 145 0 0 145 0 0 145 0 0 145 0 0 145 0 0 145 0 0 145 0 0 145 0 0 145 0 0 145 0 0 145 0 0 145 0 0 145 0 0 145 0 0 145 0 0 145 0 0 145 0 0 145 0 0 145 0 0 145 0 0 145 0 0 145 0 0 145 0 0 145 0 0 145 0 0 145 0 0 145 0 0 145 0 0 145 0 0 145 0 0 145 0 0 145 0 0 145 225 0 15 255 255 255 255 255 255 255 255 255 255 255 255 255 255 255 255 255 255 255 255 255 255 255 255 255 255 255 255 255 255 255 255 255 255 255 255 255 255 255 255 255 255 255 255 255 255 255 255 255 255 255 255 255 255 255 255 255 255 255 255 255 255 255 255 255 255 255 255 255 255 255 255 255 255 255 255 255 255 255 255 255 255 255 255 255 255 255 255 255 255 255 255 255 255 255 255 255 255 255 255 255 255 255 255 255 255 255 255 255 255 255 255 255 255 255 255 255 255 255 255 255 255 255 255 255 255 255 255 255 255 255 255 255 255 255 255 255 255 255 255 255 255 255 255 255 255 255 255 255 255 255 255 255 255 255 255 255 255 255 255 255 255 255 255 255 255 255 255 255 255 255 255 255 255 255 255 255 255 255 255 255 255 255 255 255 255 255 255 255 255 255 255 255 255 255 255 255 255 255 255 255 255 255 255 255 255 255 255 255 255 255 255 255 255 255 255 255 255 255 255 255 255 255 255 255 255 255 255 255 255 255 255 255 255 255 255 255 255 255 255 255 255 255 255 255 255 255 255 255 255 255 255 255 255 255 255 255 255 255 255 255 255 255 255 255 255 255 255 255 255 255 255 255 255 255 255 255 255 255 255 255 255 255 255 255 255 255 255 255 255 255 255 255 255 255 255 255 225 0 15 225 0 15 225 0 15 225 0 15 225 0 15 225 0 15 225 0 15 225 0 15 225 0 15 225 0 15 225 0 15 225 0 15 225 0 15 225 0 15 225 0 15 225 0 15 225 0 15 225 0 15 225 0 15 225 0 15 225 0 15 225 0 15 225 0 15 225 0 15 225 0 15 225 0 15 225 0 15 225 0 15 225 0 15 225 0 15 225 0 15 225 0 15 225 0 15 225 0 15 225 0 15 225 0 15 225 0 15 225 0 15 225 0 15 225 0 15 225 0 15 225 0 15 225 0 15 225 0 15 225 0 15 225 0 15 225 0 15 225 0 15 225 0 15 225 0 15 225 0 15 225 0 15 225 0 15 225 0 15 225 0 15 225 0 15 225 0 15 225 0 15 225 0 15 225 0 15 225 0 15 225 0 15 225 0 15 225 0 15 225 0 15 225 0 15 225 0 15 225 0 15 225 0 15 225 0 15 225 0 15 225 0 15 225 0 15 225 0 15 225 0 15 225 0 15 225 0 15 225 0 15 225 0 15 225 0 15 225 0 15 225 0 15 225 0 15 225 0 15 225 0 15 225 0 15 225 0 15 225 0 15 225 0 15 225 0 15 225 0 15 225 0 15 225 0 15 225 0 15 225 0 15 225 0 15 225 0 15 225 0 15 225 0 15 225 0 15 225 0 15 
0 0 145 0 0 145 0 0 145 0 0 145 0 0 145 0 0 145 0 0 145 0 0 145 0 0 145 0 0 145 0 0 145 0 0 145 0 0 145 0 0 145 0 0 145 0 0 145 0 0 145 0 0 145 0 0 145 0 0 145 0 0 145 0 0 145 0 0 145 0 0 145 0 0 145 0 0 145 0 0 145 0 0 145 0 0 145 0 0 145 0 0 145 0 0 145 0 0 145 0 0 145 0 0 145 0 0 145 0 0 145 0 0 145 0 0 145 0 0 145 0 0 145 0 0 145 0 0 145 0 0 145 0 0 145 0 0 145 0 0 145 0 0 145 0 0 145 0 0 145 0 0 145 0 0 145 0 0 145 0 0 145 0 0 145 0 0 145 0 0 145 0 0 145 0 0 145 0 0 145 0 0 145 0 0 145 0 0 145 0 0 145 0 0 145 0 0 145 0 0 145 0 0 145 0 0 145 0 0 145 0 0 145 0 0 145 0 0 145 0 0 145 0 0 145 0 0 145 0 0 145 0 0 145 0 0 145 0 0 145 0 0 145 0 0 145 0 0 145 0 0 145 0 0 145 0 0 145 0 0 145 0 0 145 0 0 145 0 0 145 0 0 145 0 0 145 0 0 145 0 0 145 0 0 145 0 0 145 0 0 145 0 0 145 0 0 145 225 0 15 255 255 255 255 255 255 255 255 255 255 255 255 255 255 255 255 255 255 255 255 255 255 255 255 255 255 255 255 255 255 255 255 255 255 255 255 255 255 255 255 255 255 255 255 255 255 255 255 255 255 255 255 255 255 255 255 255 255 255 255 255 255 255 255 255 255 255 255 255 255 255 255 255 255 255 255 255 255 255 255 255 255 255 255 255 255 255 255 255 255 255 255 255 255 255 255 255 255 255 255 255 255 255 255 255 255 255 255 255 255 255 255 255 255 255 255 255 255 255 255 255 255 255 255 255 255 255 255 255 255 255 255 255 255 255 255 255 255 255 255 255 255 255 255 255 255 255 255 255 255 255 255 255 255 255 255 255 255 255 255 255 255 255 255 255 255 255 255 255 255 255 255 255 255 255 255 255 255 255 255 255 255 255 255 255 255 255 255 255 255 255 255 255 255 255 255 255 255 255 255 255 255 255 255 255 255 255 255 255 255 255 255 255 255 255 255 255 255 255 255 255 255 255 255 255 255 255 255 255 255 255 255 255 255 255 255 255 255 255 255 255 255 255 255 255 255 255 255 255 255 255 255 255 255 255 255 255 255 255 255 255 255 255 255 255 255 255 255 255 255 255 255 255 255 255 255 255 255 255 255 255 255 255 255 255 255 255 255 255 255 255 255 255 255 255 255 255 225 0 15 225 0 15 225 0 15 225 0 15 225 0 15 225 0 15 225 0 15 225 0 15 225 0 15 225 0 15 225 0 15 225 0 15 225 0 15 225 0 15 225 0 15 225 0 15 225 0 15 225 0 15 225 0 15 225 0 15 225 0 15 225 0 15 225 0 15 225 0 15 225 0 15 225 0 15 225 0 15 225 0 15 225 0 15 225 0 15 225 0 15 225 0 15 225 0 15 225 0 15 225 0 15 225 0 15 225 0 15 225 0 15 225 0 15 225 0 15 225 0 15 225 0 15 225 0 15 225 0 15 225 0 15 225 0 15 225 0 15 225 0 15 225 0 15 225 0 15 225 0 15 225 0 15 225 0 15 225 0 15 225 0 15 225 0 15 225 0 15 225 0 15 225 0 15 225 0 15 225 0 15 225 0 15 225 0 15 225 0 15 225 0 15 225 0 15 225 0 15 225 0 15 225 0 15 225 0 15 225 0 15 225 0 15 225 0 15 225 0 15 225 0 15 225 0 15 225 0 15 225 0 15 225 0 15 225 0 15 225 0 15 225 0 15 225 0 15 225 0 15 225 0 15 225 0 15 225 0 15 225 0 15 225 0 15 225 0 15 225 0 15 225 0 15 225 0 15 225 0 15 225 0 15 225 0 15 225 0 15 225 0 15 225 0 15 225 0 15 225 0 15 
0 0 145 0 0 145 0 0 145 0 0 145 0 0 145 0 0 145 0 0 145 0 0 145 0 0 145 0 0 145 0 0 145 0 0 145 0 0 145 0 0 145 0 0 145 0 0 145 0 0 145 0 0 145 0 0 145 0 0 145 0 0 145 0 0 145 0 0 145 0 0 145 0 0 145 0 0 145 0 0 145 0 0 145 0 0 145 0 0 145 0 0 145 0 0 145 0 0 145 0 0 145 0 0 145 0 0 145 0 0 145 0 0 145 0 0 145 0 0 145 0 0 145 0 0 145 0 0 145 0 0 145 0 0 145 0 0 145 0 0 145 0 0 145 0 0 145 0 0 145 0 0 145 0 0 145 0 0 145 0 0 145 0 0 145 0 0 145 0 0 145 0 0 145 0 0 145 0 0 145 0 0 145 0 0 145 0 0 145 0 0 145 0 0 145 0 0 145 0 0 145 0 0 145 0 0 145 0 0 145 0 0 145 0 0 145 0 0 145 0 0 145 0 0 145 0 0 145 0 0 145 0 0 145 0 0 145 0 0 145 0 0 145 0 0 145 0 0 145 0 0 145 0 0 145 0 0 145 0 0 145 0 0 145 0 0 145 0 0 145 0 0 145 0 0 145 0 0 145 0 0 145 0 0 145 0 0 145 0 0 145 0 0 145 0 0 145 225 0 15 255 255 255 255 255 255 255 255 255 255 255 255 255 255 255 255 255 255 255 255 255 255 255 255 255 255 255 255 255 255 255 255 255 255 255 255 255 255 255 255 255 255 255 255 255 255 255 255 255 255 255 255 255 255 255 255 255 255 255 255 255 255 255 255 255 255 255 255 255 255 255 255 255 255 255 255 255 255 255 255 255 255 255 255 255 255 255 255 255 255 255 255 255 255 255 255 255 255 255 255 255 255 255 255 255 255 255 255 255 255 255 255 255 255 255 255 255 255 255 255 255 255 255 255 255 255 255 255 255 255 255 255 255 255 255 255 255 255 255 255 255 255 255 255 255 255 255 255 255 255 255 255 255 255 255 255 255 255 255 255 255 255 255 255 255 255 255 255 255 255 255 255 255 255 255 255 255 255 255 255 255 255 255 255 255 255 255 255 255 255 255 255 255 255 255 255 255 255 255 255 255 255 255 255 255 255 255 255 255 255 255 255 255 255 255 255 255 255 255 255 255 255 255 255 255 255 255 255 255 255 255 255 255 255 255 255 255 255 255 255 255 255 255 255 255 255 255 255 255 255 255 255 255 255 255 255 255 255 255 255 255 255 255 255 255 255 255 255 255 255 255 255 255 255 255 255 255 255 255 255 255 255 255 255 255 255 255 255 255 255 255 255 255 255 255 255 255 225 0 15 225 0 15 225 0 15 225 0 15 225 0 15 225 0 15 225 0 15 225 0 15 225 0 15 225 0 15 225 0 15 225 0 15 225 0 15 225 0 15 225 0 15 225 0 15 225 0 15 225 0 15 225 0 15 225 0 15 225 0 15 225 0 15 225 0 15 225 0 15 225 0 15 225 0 15 225 0 15 225 0 15 225 0 15 225 0 15 225 0 15 225 0 15 225 0 15 225 0 15 225 0 15 225 0 15 225 0 15 225 0 15 225 0 15 225 0 15 225 0 15 225 0 15 225 0 15 225 0 15 225 0 15 225 0 15 225 0 15 225 0 15 225 0 15 225 0 15 225 0 15 225 0 15 225 0 15 225 0 15 225 0 15 225 0 15 225 0 15 225 0 15 225 0 15 225 0 15 225 0 15 225 0 15 225 0 15 225 0 15 225 0 15 225 0 15 225 0 15 225 0 15 225 0 15 225 0 15 225 0 15 225 0 15 225 0 15 225 0 15 225 0 15 225 0 15 225 0 15 225 0 15 225 0 15 225 0 15 225 0 15 225 0 15 225 0 15 225 0 15 225 0 15 225 0 15 225 0 15 225 0 15 225 0 15 225 0 15 225 0 15 225 0 15 225 0 15 225 0 15 225 0 15 225 0 15 225 0 15 225 0 15 225 0 15 225 0 15 225 0 15 
0 0 145 0 0 145 0 0 145 0 0 145 0 0 145 0 0 145 0 0 145 0 0 145 0 0 145 0 0 145 0 0 145 0 0 145 0 0 145 0 0 145 0 0 145 0 0 145 0 0 145 0 0 145 0 0 145 0 0 145 0 0 145 0 0 145 0 0 145 0 0 145 0 0 145 0 0 145 0 0 145 0 0 145 0 0 145 0 0 145 0 0 145 0 0 145 0 0 145 0 0 145 0 0 145 0 0 145 0 0 145 0 0 145 0 0 145 0 0 145 0 0 145 0 0 145 0 0 145 0 0 145 0 0 145 0 0 145 0 0 145 0 0 145 0 0 145 0 0 145 0 0 145 0 0 145 0 0 145 0 0 145 0 0 145 0 0 145 0 0 145 0 0 145 0 0 145 0 0 145 0 0 145 0 0 145 0 0 145 0 0 145 0 0 145 0 0 145 0 0 145 0 0 145 0 0 145 0 0 145 0 0 145 0 0 145 0 0 145 0 0 145 0 0 145 0 0 145 0 0 145 0 0 145 0 0 145 0 0 145 0 0 145 0 0 145 0 0 145 0 0 145 0 0 145 0 0 145 0 0 145 0 0 145 0 0 145 0 0 145 0 0 145 0 0 145 0 0 145 0 0 145 0 0 145 0 0 145 0 0 145 0 0 145 0 0 145 225 0 15 255 255 255 255 255 255 255 255 255 255 255 255 255 255 255 255 255 255 255 255 255 255 255 255 255 255 255 255 255 255 255 255 255 255 255 255 255 255 255 255 255 255 255 255 255 255 255 255 255 255 255 255 255 255 255 255 255 255 255 255 255 255 255 255 255 255 255 255 255 255 255 255 255 255 255 255 255 255 255 255 255 255 255 255 255 255 255 255 255 255 255 255 255 255 255 255 255 255 255 255 255 255 255 255 255 255 255 255 255 255 255 255 255 255 255 255 255 255 255 255 255 255 255 255 255 255 255 255 255 255 255 255 255 255 255 255 255 255 255 255 255 255 255 255 255 255 255 255 255 255 255 255 255 255 255 255 255 255 255 255 255 255 255 255 255 255 255 255 255 255 255 255 255 255 255 255 255 255 255 255 255 255 255 255 255 255 255 255 255 255 255 255 255 255 255 255 255 255 255 255 255 255 255 255 255 255 255 255 255 255 255 255 255 255 255 255 255 255 255 255 255 255 255 255 255 255 255 255 255 255 255 255 255 255 255 255 255 255 255 255 255 255 255 255 255 255 255 255 255 255 255 255 255 255 255 255 255 255 255 255 255 255 255 255 255 255 255 255 255 255 255 255 255 255 255 255 255 255 255 255 255 255 255 255 255 255 255 255 255 255 255 255 255 255 255 255 255 225 0 15 225 0 15 225 0 15 225 0 15 225 0 15 225 0 15 225 0 15 225 0 15 225 0 15 225 0 15 225 0 15 225 0 15 225 0 15 225 0 15 225 0 15 225 0 15 225 0 15 225 0 15 225 0 15 225 0 15 225 0 15 225 0 15 225 0 15 225 0 15 225 0 15 225 0 15 225 0 15 225 0 15 225 0 15 225 0 15 225 0 15 225 0 15 225 0 15 225 0 15 225 0 15 225 0 15 225 0 15 225 0 15 225 0 15 225 0 15 225 0 15 225 0 15 225 0 15 225 0 15 225 0 15 225 0 15 225 0 15 225 0 15 225 0 15 225 0 15 225 0 15 225 0 15 225 0 15 225 0 15 225 0 15 225 0 15 225 0 15 225 0 15 225 0 15 225 0 15 225 0 15 225 0 15 225 0 15 225 0 15 225 0 15 225 0 15 225 0 15 225 0 15 225 0 15 225 0 15 225 0 15 225 0 15 225 0 15 225 0 15 225 0 15 225 0 15 225 0 15 225 0 15 225 0 15 225 0 15 225 0 15 225 0 15 225 0 15 225 0 15 225 0 15 225 0 15 225 0 15 225 0 15 225 0 15 225 0 15 225 0 15 225 0 15 225 0 15 225 0 15 225 0 15 225 0 15 225 0 15 225 0 15 225 0 15 225 0 15 225 0 15 
0 0 145 0 0 145 0 0 145 0 0 145 0 0 145 0 0 145 0 0 145 0 0 145 0 0 145 0 0 145 0 0 145 0 0 145 0 0 145 0 0 145 0 0 145 0 0 145 0 0 145 0 0 145 0 0 145 0 0 145 0 0 145 0 0 145 0 0 145 0 0 145 0 0 145 0 0 145 0 0 145 0 0 145 0 0 145 0 0 145 0 0 145 0 0 145 0 0 145 0 0 145 0 0 145 0 0 145 0 0 145 0 0 145 0 0 145 0 0 145 0 0 145 0 0 145 0 0 145 0 0 145 0 0 145 0 0 145 0 0 145 0 0 145 0 0 145 0 0 145 0 0 145 0 0 145 0 0 145 0 0 145 0 0 145 0 0 145 0 0 145 0 0 145 0 0 145 0 0 145 0 0 145 0 0 145 0 0 145 0 0 145 0 0 145 0 0 145 0 0 145 0 0 145 0 0 145 0 0 145 0 0 145 0 0 145 0 0 145 0 0 145 0 0 145 0 0 145 0 0 145 0 0 145 0 0 145 0 0 145 0 0 145 0 0 145 0 0 145 0 0 145 0 0 145 0 0 145 0 0 145 0 0 145 0 0 145 0 0 145 0 0 145 0 0 145 0 0 145 0 0 145 0 0 145 0 0 145 0 0 145 0 0 145 0 0 145 225 0 15 255 255 255 255 255 255 255 255 255 255 255 255 255 255 255 255 255 255 255 255 255 255 255 255 255 255 255 255 255 255 255 255 255 255 255 255 255 255 255 255 255 255 255 255 255 255 255 255 255 255 255 255 255 255 255 255 255 255 255 255 255 255 255 255 255 255 255 255 255 255 255 255 255 255 255 255 255 255 255 255 255 255 255 255 255 255 255 255 255 255 255 255 255 255 255 255 255 255 255 255 255 255 255 255 255 255 255 255 255 255 255 255 255 255 255 255 255 255 255 255 255 255 255 255 255 255 255 255 255 255 255 255 255 255 255 255 255 255 255 255 255 255 255 255 255 255 255 255 255 255 255 255 255 255 255 255 255 255 255 255 255 255 255 255 255 255 255 255 255 255 255 255 255 255 255 255 255 255 255 255 255 255 255 255 255 255 255 255 255 255 255 255 255 255 255 255 255 255 255 255 255 255 255 255 255 255 255 255 255 255 255 255 255 255 255 255 255 255 255 255 255 255 255 255 255 255 255 255 255 255 255 255 255 255 255 255 255 255 255 255 255 255 255 255 255 255 255 255 255 255 255 255 255 255 255 255 255 255 255 255 255 255 255 255 255 255 255 255 255 255 255 255 255 255 255 255 255 255 255 255 255 255 255 255 255 255 255 255 255 255 255 255 255 255 255 255 255 225 0 15 225 0 15 225 0 15 225 0 15 225 0 15 225 0 15 225 0 15 225 0 15 225 0 15 225 0 15 225 0 15 225 0 15 225 0 15 225 0 15 225 0 15 225 0 15 225 0 15 225 0 15 225 0 15 225 0 15 225 0 15 225 0 15 225 0 15 225 0 15 225 0 15 225 0 15 225 0 15 225 0 15 225 0 15 225 0 15 225 0 15 225 0 15 225 0 15 225 0 15 225 0 15 225 0 15 225 0 15 225 0 15 225 0 15 225 0 15 225 0 15 225 0 15 225 0 15 225 0 15 225 0 15 225 0 15 225 0 15 225 0 15 225 0 15 225 0 15 225 0 15 225 0 15 225 0 15 225 0 15 225 0 15 225 0 15 225 0 15 225 0 15 225 0 15 225 0 15 225 0 15 225 0 15 225 0 15 225 0 15 225 0 15 225 0 15 225 0 15 225 0 15 225 0 15 225 0 15 225 0 15 225 0 15 225 0 15 225 0 15 225 0 15 225 0 15 225 0 15 225 0 15 225 0 15 225 0 15 225 0 15 225 0 15 225 0 15 225 0 15 225 0 15 225 0 15 225 0 15 225 0 15 225 0 15 225 0 15 225 0 15 225 0 15 225 0 15 225 0 15 225 0 15 225 0 15 225 0 15 225 0 15 225 0 15 225 0 15 225 0 15 
0 0 145 0 0 145 0 0 145 0 0 145 0 0 145 0 0 145 0 0 145 0 0 145 0 0 145 0 0 145 0 0 145 0 0 145 0 0 145 0 0 145 0 0 145 0 0 145 0 0 145 0 0 145 0 0 145 0 0 145 0 0 145 0 0 145 0 0 145 0 0 145 0 0 145 0 0 145 0 0 145 0 0 145 0 0 145 0 0 145 0 0 145 0 0 145 0 0 145 0 0 145 0 0 145 0 0 145 0 0 145 0 0 145 0 0 145 0 0 145 0 0 145 0 0 145 0 0 145 0 0 145 0 0 145 0 0 145 0 0 145 0 0 145 0 0 145 0 0 145 0 0 145 0 0 145 0 0 145 0 0 145 0 0 145 0 0 145 0 0 145 0 0 145 0 0 145 0 0 145 0 0 145 0 0 145 0 0 145 0 0 145 0 0 145 0 0 145 0 0 145 0 0 145 0 0 145 0 0 145 0 0 145 0 0 145 0 0 145 0 0 145 0 0 145 0 0 145 0 0 145 0 0 145 0 0 145 0 0 145 0 0 145 0 0 145 0 0 145 0 0 145 0 0 145 0 0 145 0 0 145 0 0 145 0 0 145 0 0 145 0 0 145 0 0 145 0 0 145 0 0 145 0 0 145 0 0 145 0 0 145 0 0 145 0 0 145 225 0 15 255 255 255 255 255 255 255 255 255 255 255 255 255 255 255 255 255 255 255 255 255 255 255 255 255 255 255 255 255 255 255 255 255 255 255 255 255 255 255 255 255 255 255 255 255 255 255 255 255 255 255 255 255 255 255 255 255 255 255 255 255 255 255 255 255 255 255 255 255 255 255 255 255 255 255 255 255 255 255 255 255 255 255 255 255 255 255 255 255 255 255 255 255 255 255 255 255 255 255 255 255 255 255 255 255 255 255 255 255 255 255 255 255 255 255 255 255 255 255 255 255 255 255 255 255 255 255 255 255 255 255 255 255 255 255 255 255 255 255 255 255 255 255 255 255 255 255 255 255 255 255 255 255 255 255 255 255 255 255 255 255 255 255 255 255 255 255 255 255 255 255 255 255 255 255 255 255 255 255 255 255 255 255 255 255 255 255 255 255 255 255 255 255 255 255 255 255 255 255 255 255 255 255 255 255 255 255 255 255 255 255 255 255 255 255 255 255 255 255 255 255 255 255 255 255 255 255 255 255 255 255 255 255 255 255 255 255 255 255 255 255 255 255 255 255 255 255 255 255 255 255 255 255 255 255 255 255 255 255 255 255 255 255 255 255 255 255 255 255 255 255 255 255 255 255 255 255 255 255 255 255 255 255 255 255 255 255 255 255 255 255 255 255 255 255 255 255 225 0 15 225 0 15 225 0 15 225 0 15 225 0 15 225 0 15 225 0 15 225 0 15 225 0 15 225 0 15 225 0 15 225 0 15 225 0 15 225 0 15 225 0 15 225 0 15 225 0 15 225 0 15 225 0 15 225 0 15 225 0 15 225 0 15 225 0 15 225 0 15 225 0 15 225 0 15 225 0 15 225 0 15 225 0 15 225 0 15 225 0 15 225 0 15 225 0 15 225 0 15 225 0 15 225 0 15 225 0 15 225 0 15 225 0 15 225 0 15 225 0 15 225 0 15 225 0 15 225 0 15 225 0 15 225 0 15 225 0 15 225 0 15 225 0 15 225 0 15 225 0 15 225 0 15 225 0 15 225 0 15 225 0 15 225 0 15 225 0 15 225 0 15 225 0 15 225 0 15 225 0 15 225 0 15 225 0 15 225 0 15 225 0 15 225 0 15 225 0 15 225 0 15 225 0 15 225 0 15 225 0 15 225 0 15 225 0 15 225 0 15 225 0 15 225 0 15 225 0 15 225 0 15 225 0 15 225 0 15 225 0 15 225 0 15 225 0 15 225 0 15 225 0 15 225 0 15 225 0 15 225 0 15 225 0 15 225 0 15 225 0 15 225 0 15 225 0 15 225 0 15 225 0 15 225 0 15 225 0 15 225 0 15 225 0 15 225 0 15 225 0 15 
0 0 145 0 0 145 0 0 145 0 0 145 0 0 145 0 0 145 0 0 145 0 0 145 0 0 145 0 0 145 0 0 145 0 0 145 0 0 145 0 0 145 0 0 145 0 0 145 0 0 145 0 0 145 0 0 145 0 0 145 0 0 145 0 0 145 0 0 145 0 0 145 0 0 145 0 0 145 0 0 145 0 0 145 0 0 145 0 0 145 0 0 145 0 0 145 0 0 145 0 0 145 0 0 145 0 0 145 0 0 145 0 0 145 0 0 145 0 0 145 0 0 145 0 0 145 0 0 145 0 0 145 0 0 145 0 0 145 0 0 145 0 0 145 0 0 145 0 0 145 0 0 145 0 0 145 0 0 145 0 0 145 0 0 145 0 0 145 0 0 145 0 0 145 0 0 145 0 0 145 0 0 145 0 0 145 0 0 145 0 0 145 0 0 145 0 0 145 0 0 145 0 0 145 0 0 145 0 0 145 0 0 145 0 0 145 0 0 145 0 0 145 0 0 145 0 0 145 0 0 145 0 0 145 0 0 145 0 0 145 0 0 145 0 0 145 0 0 145 0 0 145 0 0 145 0 0 145 0 0 145 0 0 145 0 0 145 0 0 145 0 0 145 0 0 145 0 0 145 0 0 145 0 0 145 0 0 145 0 0 145 0 0 145 0 0 145 225 0 15 255 255 255 255 255 255 255 255 255 255 255 255 255 255 255 255 255 255 255 255 255 255 255 255 255 255 255 255 255 255 255 255 255 255 255 255 255 255 255 255 255 255 255 255 255 255 255 255 255 255 255 255 255 255 255 255 255 255 255 255 255 255 255 255 255 255 255 255 255 255 255 255 255 255 255 255 255 255 255 255 255 255 255 255 255 255 255 255 255 255 255 255 255 255 255 255 255 255 255 255 255 255 255 255 255 255 255 255 255 255 255 255 255 255 255 255 255 255 255 255 255 255 255 255 255 255 255 255 255 255 255 255 255 255 255 255 255 255 255 255 255 255 255 255 255 255 255 255 255 255 255 255 255 255 255 255 255 255 255 255 255 255 255 255 255 255 255 255 255 255 255 255 255 255 255 255 255 255 255 255 255 255 255 255 255 255 255 255 255 255 255 255 255 255 255 255 255 255 255 255 255 255 255 255 255 255 255 255 255 255 255 255 255 255 255 255 255 255 255 255 255 255 255 255 255 255 255 255 255 255 255 255 255 255 255 255 255 255 255 255 255 255 255 255 255 255 255 255 255 255 255 255 255 255 255 255 255 255 255 255 255 255 255 255 255 255 255 255 255 255 255 255 255 255 255 255 255 255 255 255 255 255 255 255 255 255 255 255 255 255 255 255 255 255 255 255 255 225 0 15 225 0 15 225 0 15 225 0 15 225 0 15 225 0 15 225 0 15 225 0 15 225 0 15 225 0 15 225 0 15 225 0 15 225 0 15 225 0 15 225 0 15 225 0 15 225 0 15 225 0 15 225 0 15 225 0 15 225 0 15 225 0 15 225 0 15 225 0 15 225 0 15 225 0 15 225 0 15 225 0 15 225 0 15 225 0 15 225 0 15 225 0 15 225 0 15 225 0 15 225 0 15 225 0 15 225 0 15 225 0 15 225 0 15 225 0 15 225 0 15 225 0 15 225 0 15 225 0 15 225 0 15 225 0 15 225 0 15 225 0 15 225 0 15 225 0 15 225 0 15 225 0 15 225 0 15 225 0 15 225 0 15 225 0 15 225 0 15 225 0 15 225 0 15 225 0 15 225 0 15 225 0 15 225 0 15 225 0 15 225 0 15 225 0 15 225 0 15 225 0 15 225 0 15 225 0 15 225 0 15 225 0 15 225 0 15 225 0 15 225 0 15 225 0 15 225 0 15 225 0 15 225 0 15 225 0 15 225 0 15 225 0 15 225 0 15 225 0 15 225 0 15 225 0 15 225 0 15 225 0 15 225 0 15 225 0 15 225 0 15 225 0 15 225 0 15 225 0 15 225 0 15 225 0 15 225 0 15 225 0 15 225 0 15 225 0 15 225 0 15 
0 0 145 0 0 145 0 0 145 0 0 145 0 0 145 0 0 145 0 0 145 0 0 145 0 0 145 0 0 145 0 0 145 0 0 145 0 0 145 0 0 145 0 0 145 0 0 145 0 0 145 0 0 145 0 0 145 0 0 145 0 0 145 0 0 145 0 0 145 0 0 145 0 0 145 0 0 145 0 0 145 0 0 145 0 0 145 0 0 145 0 0 145 0 0 145 0 0 145 0 0 145 0 0 145 0 0 145 0 0 145 0 0 145 0 0 145 0 0 145 0 0 145 0 0 145 0 0 145 0 0 145 0 0 145 0 0 145 0 0 145 0 0 145 0 0 145 0 0 145 0 0 145 0 0 145 0 0 145 0 0 145 0 0 145 0 0 145 0 0 145 0 0 145 0 0 145 0 0 145 0 0 145 0 0 145 0 0 145 0 0 145 0 0 145 0 0 145 0 0 145 0 0 145 0 0 145 0 0 145 0 0 145 0 0 145 0 0 145 0 0 145 0 0 145 0 0 145 0 0 145 0 0 145 0 0 145 0 0 145 0 0 145 0 0 145 0 0 145 0 0 145 0 0 145 0 0 145 0 0 145 0 0 145 0 0 145 0 0 145 0 0 145 0 0 145 0 0 145 0 0 145 0 0 145 0 0 145 0 0 145 0 0 145 0 0 145 225 0 15 255 255 255 255 255 255 255 255 255 255 255 255 255 255 255 255 255 255 255 255 255 255 255 255 255 255 255 255 255 255 255 255 255 255 255 255 255 255 255 255 255 255 255 255 255 255 255 255 255 255 255 255 255 255 255 255 255 255 255 255 255 255 255 255 255 255 255 255 255 255 255 255 255 255 255 255 255 255 255 255 255 255 255 255 255 255 255 255 255 255 255 255 255 255 255 255 255 255 255 255 255 255 255 255 255 255 255 255 255 255 255 255 255 255 255 255 255 255 255 255 255 255 255 255 255 255 255 255 255 255 255 255 255 255 255 255 255 255 255 255 255 255 255 255 255 255 255 255 255 255 255 255 255 255 255 255 255 255 255 255 255 255 255 255 255 255 255 255 255 255 255 255 255 255 255 255 255 255 255 255 255 255 255 255 255 255 255 255 255 255 255 255 255 255 255 255 255 255 255 255 255 255 255 255 255 255 255 255 255 255 255 255 255 255 255 255 255 255 255 255 255 255 255 255 255 255 255 255 255 255 255 255 255 255 255 255 255 255 255 255 255 255 255 255 255 255 255 255 255 255 255 255 255 255 255 255 255 255 255 255 255 255 255 255 255 255 255 255 255 255 255 255 255 255 255 255 255 255 255 255 255 255 255 255 255 255 255 255 255 255 255 255 255 255 255 255 255 225 0 15 225 0 15 225 0 15 225 0 15 225 0 15 225 0 15 225 0 15 225 0 15 225 0 15 225 0 15 225 0 15 225 0 15 225 0 15 225 0 15 225 0 15 225 0 15 225 0 15 225 0 15 225 0 15 225 0 15 225 0 15 225 0 15 225 0 15 225 0 15 225 0 15 225 0 15 225 0 15 225 0 15 225 0 15 225 0 15 225 0 15 225 0 15 225 0 15 225 0 15 225 0 15 225 0 15 225 0 15 225 0 15 225 0 15 225 0 15 225 0 15 225 0 15 225 0 15 225 0 15 225 0 15 225 0 15 225 0 15 225 0 15 225 0 15 225 0 15 225 0 15 225 0 15 225 0 15 225 0 15 225 0 15 225 0 15 225 0 15 225 0 15 225 0 15 225 0 15 225 0 15 225 0 15 225 0 15 225 0 15 225 0 15 225 0 15 225 0 15 225 0 15 225 0 15 225 0 15 225 0 15 225 0 15 225 0 15 225 0 15 225 0 15 225 0 15 225 0 15 225 0 15 225 0 15 225 0 15 225 0 15 225 0 15 225 0 15 225 0 15 225 0 15 225 0 15 225 0 15 225 0 15 225 0 15 225 0 15 225 0 15 225 0 15 225 0 15 225 0 15 225 0 15 225 0 15 225 0 15 225 0 15 225 0 15 225 0 15 225 0 15 
0 0 145 0 0 145 0 0 145 0 0 145 0 0 145 0 0 145 0 0 145 0 0 145 0 0 145 0 0 145 0 0 145 0 0 145 0 0 145 0 0 145 0 0 145 0 0 145 0 0 145 0 0 145 0 0 145 0 0 145 0 0 145 0 0 145 0 0 145 0 0 145 0 0 145 0 0 145 0 0 145 0 0 145 0 0 145 0 0 145 0 0 145 0 0 145 0 0 145 0 0 145 0 0 145 0 0 145 0 0 145 0 0 145 0 0 145 0 0 145 0 0 145 0 0 145 0 0 145 0 0 145 0 0 145 0 0 145 0 0 145 0 0 145 0 0 145 0 0 145 0 0 145 0 0 145 0 0 145 0 0 145 0 0 145 0 0 145 0 0 145 0 0 145 0 0 145 0 0 145 0 0 145 0 0 145 0 0 145 0 0 145 0 0 145 0 0 145 0 0 145 0 0 145 0 0 145 0 0 145 0 0 145 0 0 145 0 0 145 0 0 145 0 0 145 0 0 145 0 0 145 0 0 145 0 0 145 0 0 145 0 0 145 0 0 145 0 0 145 0 0 145 0 0 145 0 0 145 0 0 145 0 0 145 0 0 145 0 0 145 0 0 145 0 0 145 0 0 145 0 0 145 0 0 145 0 0 145 0 0 145 0 0 145 0 0 145 225 0 15 255 255 255 255 255 255 255 255 255 255 255 255 255 255 255 255 255 255 255 255 255 255 255 255 255 255 255 255 255 255 255 255 255 255 255 255 255 255 255 255 255 255 255 255 255 255 255 255 255 255 255 255 255 255 255 255 255 255 255 255 255 255 255 255 255 255 255 255 255 255 255 255 255 255 255 255 255 255 255 255 255 255 255 255 255 255 255 255 255 255 255 255 255 255 255 255 255 255 255 255 255 255 255 255 255 255 255 255 255 255 255 255 255 255 255 255 255 255 255 255 255 255 255 255 255 255 255 255 255 255 255 255 255 255 255 255 255 255 255 255 255 255 255 255 255 255 255 255 255 255 255 255 255 255 255 255 255 255 255 255 255 255 255 255 255 255 255 255 255 255 255 255 255 255 255 255 255 255 255 255 255 255 255 255 255 255 255 255 255 255 255 255 255 255 255 255 255 255 255 255 255 255 255 255 255 255 255 255 255 255 255 255 255 255 255 255 255 255 255 255 255 255 255 255 255 255 255 255 255 255 255 255 255 255 255 255 255 255 255 255 255 255 255 255 255 255 255 255 255 255 255 255 255 255 255 255 255 255 255 255 255 255 255 255 255 255 255 255 255 255 255 255 255 255 255 255 255 255 255 255 255 255 255 255 255 255 255 255 255 255 255 255 255 255 255 255 255 225 0 15 225 0 15 225 0 15 225 0 15 225 0 15 225 0 15 225 0 15 225 0 15 225 0 15 225 0 15 225 0 15 225 0 15 225 0 15 225 0 15 225 0 15 225 0 15 225 0 15 225 0 15 225 0 15 225 0 15 225 0 15 225 0 15 225 0 15 225 0 15 225 0 15 225 0 15 225 0 15 225 0 15 225 0 15 225 0 15 225 0 15 225 0 15 225 0 15 225 0 15 225 0 15 225 0 15 225 0 15 225 0 15 225 0 15 225 0 15 225 0 15 225 0 15 225 0 15 225 0 15 225 0 15 225 0 15 225 0 15 225 0 15 225 0 15 225 0 15 225 0 15 225 0 15 225 0 15 225 0 15 225 0 15 225 0 15 225 0 15 225 0 15 225 0 15 225 0 15 225 0 15 225 0 15 225 0 15 225 0 15 225 0 15 225 0 15 225 0 15 225 0 15 225 0 15 225 0 15 225 0 15 225 0 15 225 0 15 225 0 15 225 0 15 225 0 15 225 0 15 225 0 15 225 0 15 225 0 15 225 0 15 225 0 15 225 0 15 225 0 15 225 0 15 225 0 15 225 0 15 225 0 15 225 0 15 225 0 15 225 0 15 225 0 15 225 0 15 225 0 15 225 0 15 225 0 15 225 0 15 225 0 15 225 0 15 225 0 15 225 0 15 
0 0 145 0 0 145 0 0 145 0 0 145 0 0 145 0 0 145 0 0 145 0 0 145 0 0 145 0 0 145 0 0 145 0 0 145 0 0 145 0 0 145 0 0 145 0 0 145 0 0 145 0 0 145 0 0 145 0 0 145 0 0 145 0 0 145 0 0 145 0 0 145 0 0 145 0 0 145 0 0 145 0 0 145 0 0 145 0 0 145 0 0 145 0 0 145 0 0 145 0 0 145 0 0 145 0 0 145 0 0 145 0 0 145 0 0 145 0 0 145 0 0 145 0 0 145 0 0 145 0 0 145 0 0 145 0 0 145 0 0 145 0 0 145 0 0 145 0 0 145 0 0 145 0 0 145 0 0 145 0 0 145 0 0 145 0 0 145 0 0 145 0 0 145 0 0 145 0 0 145 0 0 145 0 0 145 0 0 145 0 0 145 0 0 145 0 0 145 0 0 145 0 0 145 0 0 145 0 0 145 0 0 145 0 0 145 0 0 145 0 0 145 0 0 145 0 0 145 0 0 145 0 0 145 0 0 145 0 0 145 0 0 145 0 0 145 0 0 145 0 0 145 0 0 145 0 0 145 0 0 145 0 0 145 0 0 145 0 0 145 0 0 145 0 0 145 0 0 145 0 0 145 0 0 145 0 0 145 0 0 145 0 0 145 0 0 145 225 0 15 255 255 255 255 255 255 255 255 255 255 255 255 255 255 255 255 255 255 255 255 255 255 255 255 255 255 255 255 255 255 255 255 255 255 255 255 255 255 255 255 255 255 255 255 255 255 255 255 255 255 255 255 255 255 255 255 255 255 255 255 255 255 255 255 255 255 255 255 255 255 255 255 255 255 255 255 255 255 255 255 255 255 255 255 255 255 255 255 255 255 255 255 255 255 255 255 255 255 255 255 255 255 255 255 255 255 255 255 255 255 255 255 255 255 255 255 255 255 255 255 255 255 255 255 255 255 255 255 255 255 255 255 255 255 255 255 255 255 255 255 255 255 255 255 255 255 255 255 255 255 255 255 255 255 255 255 255 255 255 255 255 255 255 255 255 255 255 255 255 255 255 255 255 255 255 255 255 255 255 255 255 255 255 255 255 255 255 255 255 255 255 255 255 255 255 255 255 255 255 255 255 255 255 255 255 255 255 255 255 255 255 255 255 255 255 255 255 255 255 255 255 255 255 255 255 255 255 255 255 255 255 255 255 255 255 255 255 255 255 255 255 255 255 255 255 255 255 255 255 255 255 255 255 255 255 255 255 255 255 255 255 255 255 255 255 255 255 255 255 255 255 255 255 255 255 255 255 255 255 255 255 255 255 255 255 255 255 255 255 255 255 255 255 255 255 255 255 225 0 15 225 0 15 225 0 15 225 0 15 225 0 15 225 0 15 225 0 15 225 0 15 225 0 15 225 0 15 225 0 15 225 0 15 225 0 15 225 0 15 225 0 15 225 0 15 225 0 15 225 0 15 225 0 15 225 0 15 225 0 15 225 0 15 225 0 15 225 0 15 225 0 15 225 0 15 225 0 15 225 0 15 225 0 15 225 0 15 225 0 15 225 0 15 225 0 15 225 0 15 225 0 15 225 0 15 225 0 15 225 0 15 225 0 15 225 0 15 225 0 15 225 0 15 225 0 15 225 0 15 225 0 15 225 0 15 225 0 15 225 0 15 225 0 15 225 0 15 225 0 15 225 0 15 225 0 15 225 0 15 225 0 15 225 0 15 225 0 15 225 0 15 225 0 15 225 0 15 225 0 15 225 0 15 225 0 15 225 0 15 225 0 15 225 0 15 225 0 15 225 0 15 225 0 15 225 0 15 225 0 15 225 0 15 225 0 15 225 0 15 225 0 15 225 0 15 225 0 15 225 0 15 225 0 15 225 0 15 225 0 15 225 0 15 225 0 15 225 0 15 225 0 15 225 0 15 225 0 15 225 0 15 225 0 15 225 0 15 225 0 15 225 0 15 225 0 15 225 0 15 225 0 15 225 0 15 225 0 15 225 0 15 225 0 15 225 0 15 225 0 15 
0 0 145 0 0 145 0 0 145 0 0 145 0 0 145 0 0 145 0 0 145 0 0 145 0 0 145 0 0 145 0 0 145 0 0 145 0 0 145 0 0 145 0 0 145 0 0 145 0 0 145 0 0 145 0 0 145 0 0 145 0 0 145 0 0 145 0 0 145 0 0 145 0 0 145 0 0 145 0 0 145 0 0 145 0 0 145 0 0 145 0 0 145 0 0 145 0 0 145 0 0 145 0 0 145 0 0 145 0 0 145 0 0 145 0 0 145 0 0 145 0 0 145 0 0 145 0 0 145 0 0 145 0 0 145 0 0 145 0 0 145 0 0 145 0 0 145 0 0 145 0 0 145 0 0 145 0 0 145 0 0 145 0 0 145 0 0 145 0 0 145 0 0 145 0 0 145 0 0 145 0 0 145 0 0 145 0 0 145 0 0 145 0 0 145 0 0 145 0 0 145 0 0 145 0 0 145 0 0 145 0 0 145 0 0 145 0 0 145 0 0 145 0 0 145 0 0 145 0 0 145 0 0 145 0 0 145 0 0 145 0 0 145 0 0 145 0 0 145 0 0 145 0 0 145 0 0 145 0 0 145 0 0 145 0 0 145 0 0 145 0 0 145 0 0 145 0 0 145 0 0 145 0 0 145 0 0 145 0 0 145 0 0 145 0 0 145 225 0 15 255 255 255 255 255 255 255 255 255 255 255 255 255 255 255 255 255 255 255 255 255 255 255 255 255 255 255 255 255 255 255 255 255 255 255 255 255 255 255 255 255 255 255 255 255 255 255 255 255 255 255 255 255 255 255 255 255 255 255 255 255 255 255 255 255 255 255 255 255 255 255 255 255 255 255 255 255 255 255 255 255 255 255 255 255 255 255 255 255 255 255 255 255 255 255 255 255 255 255 255 255 255 255 255 255 255 255 255 255 255 255 255 255 255 255 255 255 255 255 255 255 255 255 255 255 255 255 255 255 255 255 255 255 255 255 255 255 255 255 255 255 255 255 255 255 255 255 255 255 255 255 255 255 255 255 255 255 255 255 255 255 255 255 255 255 255 255 255 255 255 255 255 255 255 255 255 255 255 255 255 255 255 255 255 255 255 255 255 255 255 255 255 255 255 255 255 255 255 255 255 255 255 255 255 255 255 255 255 255 255 255 255 255 255 255 255 255 255 255 255 255 255 255 255 255 255 255 255 255 255 255 255 255 255 255 255 255 255 255 255 255 255 255 255 255 255 255 255 255 255 255 255 255 255 255 255 255 255 255 255 255 255 255 255 255 255 255 255 255 255 255 255 255 255 255 255 255 255 255 255 255 255 255 255 255 255 255 255 255 255 255 255 255 255 255 255 255 225 0 15 225 0 15 225 0 15 225 0 15 225 0 15 225 0 15 225 0 15 225 0 15 225 0 15 225 0 15 225 0 15 225 0 15 225 0 15 225 0 15 225 0 15 225 0 15 225 0 15 225 0 15 225 0 15 225 0 15 225 0 15 225 0 15 225 0 15 225 0 15 225 0 15 225 0 15 225 0 15 225 0 15 225 0 15 225 0 15 225 0 15 225 0 15 225 0 15 225 0 15 225 0 15 225 0 15 225 0 15 225 0 15 225 0 15 225 0 15 225 0 15 225 0 15 225 0 15 225 0 15 225 0 15 225 0 15 225 0 15 225 0 15 225 0 15 225 0 15 225 0 15 225 0 15 225 0 15 225 0 15 225 0 15 225 0 15 225 0 15 225 0 15 225 0 15 225 0 15 225 0 15 225 0 15 225 0 15 225 0 15 225 0 15 225 0 15 225 0 15 225 0 15 225 0 15 225 0 15 225 0 15 225 0 15 225 0 15 225 0 15 225 0 15 225 0 15 225 0 15 225 0 15 225 0 15 225 0 15 225 0 15 225 0 15 225 0 15 225 0 15 225 0 15 225 0 15 225 0 15 225 0 15 225 0 15 225 0 15 225 0 15 225 0 15 225 0 15 225 0 15 225 0 15 225 0 15 225 0 15 225 0 15 225 0 15 225 0 15 225 0 15 
0 0 145 0 0 145 0 0 145 0 0 145 0 0 145 0 0 145 0 0 145 0 0 145 0 0 145 0 0 145 0 0 145 0 0 145 0 0 145 0 0 145 0 0 145 0 0 145 0 0 145 0 0 145 0 0 145 0 0 145 0 0 145 0 0 145 0 0 145 0 0 145 0 0 145 0 0 145 0 0 145 0 0 145 0 0 145 0 0 145 0 0 145 0 0 145 0 0 145 0 0 145 0 0 145 0 0 145 0 0 145 0 0 145 0 0 145 0 0 145 0 0 145 0 0 145 0 0 145 0 0 145 0 0 145 0 0 145 0 0 145 0 0 145 0 0 145 0 0 145 0 0 145 0 0 145 0 0 145 0 0 145 0 0 145 0 0 145 0 0 145 0 0 145 0 0 145 0 0 145 0 0 145 0 0 145 0 0 145 0 0 145 0 0 145 0 0 145 0 0 145 0 0 145 0 0 145 0 0 145 0 0 145 0 0 145 0 0 145 0 0 145 0 0 145 0 0 145 0 0 145 0 0 145 0 0 145 0 0 145 0 0 145 0 0 145 0 0 145 0 0 145 0 0 145 0 0 145 0 0 145 0 0 145 0 0 145 0 0 145 0 0 145 0 0 145 0 0 145 0 0 145 0 0 145 0 0 145 0 0 145 0 0 145 0 0 145 225 0 15 255 255 255 255 255 255 255 255 255 255 255 255 255 255 255 255 255 255 255 255 255 255 255 255 255 255 255 255 255 255 255 255 255 255 255 255 255 255 255 255 255 255 255 255 255 255 255 255 255 255 255 255 255 255 255 255 255 255 255 255 255 255 255 255 255 255 255 255 255 255 255 255 255 255 255 255 255 255 255 255 255 255 255 255 255 255 255 255 255 255 255 255 255 255 255 255 255 255 255 255 255 255 255 255 255 255 255 255 255 255 255 255 255 255 255 255 255 255 255 255 255 255 255 255 255 255 255 255 255 255 255 255 255 255 255 255 255 255 255 255 255 255 255 255 255 255 255 255 255 255 255 255 255 255 255 255 255 255 255 255 255 255 255 255 255 255 255 255 255 255 255 255 255 255 255 255 255 255 255 255 255 255 255 255 255 255 255 255 255 255 255 255 255 255 255 255 255 255 255 255 255 255 255 255 255 255 255 255 255 255 255 255 255 255 255 255 255 255 255 255 255 255 255 255 255 255 255 255 255 255 255 255 255 255 255 255 255 255 255 255 255 255 255 255 255 255 255 255 255 255 255 255 255 255 255 255 255 255 255 255 255 255 255 255 255 255 255 255 255 255 255 255 255 255 255 255 255 255 255 255 255 255 255 255 255 255 255 255 255 255 255 255 255 255 255 255 255 225 0 15 225 0 15 225 0 15 225 0 15 225 0 15 225 0 15 225 0 15 225 0 15 225 0 15 225 0 15 225 0 15 225 0 15 225 0 15 225 0 15 225 0 15 225 0 15 225 0 15 225 0 15 225 0 15 225 0 15 225 0 15 225 0 15 225 0 15 225 0 15 225 0 15 225 0 15 225 0 15 225 0 15 225 0 15 225 0 15 225 0 15 225 0 15 225 0 15 225 0 15 225 0 15 225 0 15 225 0 15 225 0 15 225 0 15 225 0 15 225 0 15 225 0 15 225 0 15 225 0 15 225 0 15 225 0 15 225 0 15 225 0 15 225 0 15 225 0 15 225 0 15 225 0 15 225 0 15 225 0 15 225 0 15 225 0 15 225 0 15 225 0 15 225 0 15 225 0 15 225 0 15 225 0 15 225 0 15 225 0 15 225 0 15 225 0 15 225 0 15 225 0 15 225 0 15 225 0 15 225 0 15 225 0 15 225 0 15 225 0 15 225 0 15 225 0 15 225 0 15 225 0 15 225 0 15 225 0 15 225 0 15 225 0 15 225 0 15 225 0 15 225 0 15 225 0 15 225 0 15 225 0 15 225 0 15 225 0 15 225 0 15 225 0 15 225 0 15 225 0 15 225 0 15 225 0 15 225 0 15 225 0 15 225 0 15 225 0 15 225 0 15 
0 0 145 0 0 145 0 0 145 0 0 145 0 0 145 0 0 145 0 0 145 0 0 145 0 0 145 0 0 145 0 0 145 0 0 145 0 0 145 0 0 145 0 0 145 0 0 145 0 0 145 0 0 145 0 0 145 0 0 145 0 0 145 0 0 145 0 0 145 0 0 145 0 0 145 0 0 145 0 0 145 0 0 145 0 0 145 0 0 145 0 0 145 0 0 145 0 0 145 0 0 145 0 0 145 0 0 145 0 0 145 0 0 145 0 0 145 0 0 145 0 0 145 0 0 145 0 0 145 0 0 145 0 0 145 0 0 145 0 0 145 0 0 145 0 0 145 0 0 145 0 0 145 0 0 145 0 0 145 0 0 145 0 0 145 0 0 145 0 0 145 0 0 145 0 0 145 0 0 145 0 0 145 0 0 145 0 0 145 0 0 145 0 0 145 0 0 145 0 0 145 0 0 145 0 0 145 0 0 145 0 0 145 0 0 145 0 0 145 0 0 145 0 0 145 0 0 145 0 0 145 0 0 145 0 0 145 0 0 145 0 0 145 0 0 145 0 0 145 0 0 145 0 0 145 0 0 145 0 0 145 0 0 145 0 0 145 0 0 145 0 0 145 0 0 145 0 0 145 0 0 145 0 0 145 0 0 145 0 0 145 0 0 145 0 0 145 225 0 15 255 255 255 255 255 255 255 255 255 255 255 255 255 255 255 255 255 255 255 255 255 255 255 255 255 255 255 255 255 255 255 255 255 255 255 255 255 255 255 255 255 255 255 255 255 255 255 255 255 255 255 255 255 255 255 255 255 255 255 255 255 255 255 255 255 255 255 255 255 255 255 255 255 255 255 255 255 255 255 255 255 255 255 255 255 255 255 255 255 255 255 255 255 255 255 255 255 255 255 255 255 255 255 255 255 255 255 255 255 255 255 255 255 255 255 255 255 255 255 255 255 255 255 255 255 255 255 255 255 255 255 255 255 255 255 255 255 255 255 255 255 255 255 255 255 255 255 255 255 255 255 255 255 255 255 255 255 255 255 255 255 255 255 255 255 255 255 255 255 255 255 255 255 255 255 255 255 255 255 255 255 255 255 255 255 255 255 255 255 255 255 255 255 255 255 255 255 255 255 255 255 255 255 255 255 255 255 255 255 255 255 255 255 255 255 255 255 255 255 255 255 255 255 255 255 255 255 255 255 255 255 255 255 255 255 255 255 255 255 255 255 255 255 255 255 255 255 255 255 255 255 255 255 255 255 255 255 255 255 255 255 255 255 255 255 255 255 255 255 255 255 255 255 255 255 255 255 255 255 255 255 255 255 255 255 255 255 255 255 255 255 255 255 255 255 255 255 225 0 15 225 0 15 225 0 15 225 0 15 225 0 15 225 0 15 225 0 15 225 0 15 225 0 15 225 0 15 225 0 15 225 0 15 225 0 15 225 0 15 225 0 15 225 0 15 225 0 15 225 0 15 225 0 15 225 0 15 225 0 15 225 0 15 225 0 15 225 0 15 225 0 15 225 0 15 225 0 15 225 0 15 225 0 15 225 0 15 225 0 15 225 0 15 225 0 15 225 0 15 225 0 15 225 0 15 225 0 15 225 0 15 225 0 15 225 0 15 225 0 15 225 0 15 225 0 15 225 0 15 225 0 15 225 0 15 225 0 15 225 0 15 225 0 15 225 0 15 225 0 15 225 0 15 225 0 15 225 0 15 225 0 15 225 0 15 225 0 15 225 0 15 225 0 15 225 0 15 225 0 15 225 0 15 225 0 15 225 0 15 225 0 15 225 0 15 225 0 15 225 0 15 225 0 15 225 0 15 225 0 15 225 0 15 225 0 15 225 0 15 225 0 15 225 0 15 225 0 15 225 0 15 225 0 15 225 0 15 225 0 15 225 0 15 225 0 15 225 0 15 225 0 15 225 0 15 225 0 15 225 0 15 225 0 15 225 0 15 225 0 15 225 0 15 225 0 15 225 0 15 225 0 15 225 0 15 225 0 15 225 0 15 225 0 15 225 0 15 225 0 15 
0 0 145 0 0 145 0 0 145 0 0 145 0 0 145 0 0 145 0 0 145 0 0 145 0 0 145 0 0 145 0 0 145 0 0 145 0 0 145 0 0 145 0 0 145 0 0 145 0 0 145 0 0 145 0 0 145 0 0 145 0 0 145 0 0 145 0 0 145 0 0 145 0 0 145 0 0 145 0 0 145 0 0 145 0 0 145 0 0 145 0 0 145 0 0 145 0 0 145 0 0 145 0 0 145 0 0 145 0 0 145 0 0 145 0 0 145 0 0 145 0 0 145 0 0 145 0 0 145 0 0 145 0 0 145 0 0 145 0 0 145 0 0 145 0 0 145 0 0 145 0 0 145 0 0 145 0 0 145 0 0 145 0 0 145 0 0 145 0 0 145 0 0 145 0 0 145 0 0 145 0 0 145 0 0 145 0 0 145 0 0 145 0 0 145 0 0 145 0 0 145 0 0 145 0 0 145 0 0 145 0 0 145 0 0 145 0 0 145 0 0 145 0 0 145 0 0 145 0 0 145 0 0 145 0 0 145 0 0 145 0 0 145 0 0 145 0 0 145 0 0 145 0 0 145 0 0 145 0 0 145 0 0 145 0 0 145 0 0 145 0 0 145 0 0 145 0 0 145 0 0 145 0 0 145 0 0 145 0 0 145 0 0 145 0 0 145 225 0 15 255 255 255 255 255 255 255 255 255 255 255 255 255 255 255 255 255 255 255 255 255 255 255 255 255 255 255 255 255 255 255 255 255 255 255 255 255 255 255 255 255 255 255 255 255 255 255 255 255 255 255 255 255 255 255 255 255 255 255 255 255 255 255 255 255 255 255 255 255 255 255 255 255 255 255 255 255 255 255 255 255 255 255 255 255 255 255 255 255 255 255 255 255 255 255 255 255 255 255 255 255 255 255 255 255 255 255 255 255 255 255 255 255 255 255 255 255 255 255 255 255 255 255 255 255 255 255 255 255 255 255 255 255 255 255 255 255 255 255 255 255 255 255 255 255 255 255 255 255 255 255 255 255 255 255 255 255 255 255 255 255 255 255 255 255 255 255 255 255 255 255 255 255 255 255 255 255 255 255 255 255 255 255 255 255 255 255 255 255 255 255 255 255 255 255 255 255 255 255 255 255 255 255 255 255 255 255 255 255 255 255 255 255 255 255 255 255 255 255 255 255 255 255 255 255 255 255 255 255 255 255 255 255 255 255 255 255 255 255 255 255 255 255 255 255 255 255 255 255 255 255 255 255 255 255 255 255 255 255 255 255 255 255 255 255 255 255 255 255 255 255 255 255 255 255 255 255 255 255 255 255 255 255 255 255 255 255 255 255 255 255 255 255 255 255 255 255 225 0 15 225 0 15 225 0 15 225 0 15 225 0 15 225 0 15 225 0 15 225 0 15 225 0 15 225 0 15 225 0 15 225 0 15 225 0 15 225 0 15 225 0 15 225 0 15 225 0 15 225 0 15 225 0 15 225 0 15 225 0 15 225 0 15 225 0 15 225 0 15 225 0 15 225 0 15 225 0 15 225 0 15 225 0 15 225 0 15 225 0 15 225 0 15 225 0 15 225 0 15 225 0 15 225 0 15 225 0 15 225 0 15 225 0 15 225 0 15 225 0 15 225 0 15 225 0 15 225 0 15 225 0 15 225 0 15 225 0 15 225 0 15 225 0 15 225 0 15 225 0 15 225 0 15 225 0 15 225 0 15 225 0 15 225 0 15 225 0 15 225 0 15 225 0 15 225 0 15 225 0 15 225 0 15 225 0 15 225 0 15 225 0 15 225 0 15 225 0 15 225 0 15 225 0 15 225 0 15 225 0 15 225 0 15 225 0 15 225 0 15 225 0 15 225 0 15 225 0 15 225 0 15 225 0 15 225 0 15 225 0 15 225 0 15 225 0 15 225 0 15 225 0 15 225 0 15 225 0 15 225 0 15 225 0 15 225 0 15 225 0 15 225 0 15 225 0 15 225 0 15 225 0 15 225 0 15 225 0 15 225 0 15 225 0 15 225 0 15 225 0 15 
0 0 145 0 0 145 0 0 145 0 0 145 0 0 145 0 0 145 0 0 145 0 0 145 0 0 145 0 0 145 0 0 145 0 0 145 0 0 145 0 0 145 0 0 145 0 0 145 0 0 145 0 0 145 0 0 145 0 0 145 0 0 145 0 0 145 0 0 145 0 0 145 0 0 145 0 0 145 0 0 145 0 0 145 0 0 145 0 0 145 0 0 145 0 0 145 0 0 145 0 0 145 0 0 145 0 0 145 0 0 145 0 0 145 0 0 145 0 0 145 0 0 145 0 0 145 0 0 145 0 0 145 0 0 145 0 0 145 0 0 145 0 0 145 0 0 145 0 0 145 0 0 145 0 0 145 0 0 145 0 0 145 0 0 145 0 0 145 0 0 145 0 0 145 0 0 145 0 0 145 0 0 145 0 0 145 0 0 145 0 0 145 0 0 145 0 0 145 0 0 145 0 0 145 0 0 145 0 0 145 0 0 145 0 0 145 0 0 145 0 0 145 0 0 145 0 0 145 0 0 145 0 0 145 0 0 145 0 0 145 0 0 145 0 0 145 0 0 145 0 0 145 0 0 145 0 0 145 0 0 145 0 0 145 0 0 145 0 0 145 0 0 145 0 0 145 0 0 145 0 0 145 0 0 145 0 0 145 0 0 145 0 0 145 0 0 145 225 0 15 255 255 255 255 255 255 255 255 255 255 255 255 255 255 255 255 255 255 255 255 255 255 255 255 255 255 255 255 255 255 255 255 255 255 255 255 255 255 255 255 255 255 255 255 255 255 255 255 255 255 255 255 255 255 255 255 255 255 255 255 255 255 255 255 255 255 255 255 255 255 255 255 255 255 255 255 255 255 255 255 255 255 255 255 255 255 255 255 255 255 255 255 255 255 255 255 255 255 255 255 255 255 255 255 255 255 255 255 255 255 255 255 255 255 255 255 255 255 255 255 255 255 255 255 255 255 255 255 255 255 255 255 255 255 255 255 255 255 255 255 255 255 255 255 255 255 255 255 255 255 255 255 255 255 255 255 255 255 255 255 255 255 255 255 255 255 255 255 255 255 255 255 255 255 255 255 255 255 255 255 255 255 255 255 255 255 255 255 255 255 255 255 255 255 255 255 255 255 255 255 255 255 255 255 255 255 255 255 255 255 255 255 255 255 255 255 255 255 255 255 255 255 255 255 255 255 255 255 255 255 255 255 255 255 255 255 255 255 255 255 255 255 255 255 255 255 255 255 255 255 255 255 255 255 255 255 255 255 255 255 255 255 255 255 255 255 255 255 255 255 255 255 255 255 255 255 255 255 255 255 255 255 255 255 255 255 255 255 255 255 255 255 255 255 255 255 255 225 0 15 225 0 15 225 0 15 225 0 15 225 0 15 225 0 15 225 0 15 225 0 15 225 0 15 225 0 15 225 0 15 225 0 15 225 0 15 225 0 15 225 0 15 225 0 15 225 0 15 225 0 15 225 0 15 225 0 15 225 0 15 225 0 15 225 0 15 225 0 15 225 0 15 225 0 15 225 0 15 225 0 15 225 0 15 225 0 15 225 0 15 225 0 15 225 0 15 225 0 15 225 0 15 225 0 15 225 0 15 225 0 15 225 0 15 225 0 15 225 0 15 225 0 15 225 0 15 225 0 15 225 0 15 225 0 15 225 0 15 225 0 15 225 0 15 225 0 15 225 0 15 225 0 15 225 0 15 225 0 15 225 0 15 225 0 15 225 0 15 225 0 15 225 0 15 225 0 15 225 0 15 225 0 15 225 0 15 225 0 15 225 0 15 225 0 15 225 0 15 225 0 15 225 0 15 225 0 15 225 0 15 225 0 15 225 0 15 225 0 15 225 0 15 225 0 15 225 0 15 225 0 15 225 0 15 225 0 15 225 0 15 225 0 15 225 0 15 225 0 15 225 0 15 225 0 15 225 0 15 225 0 15 225 0 15 225 0 15 225 0 15 225 0 15 225 0 15 225 0 15 225 0 15 225 0 15 225 0 15 225 0 15 225 0 15 225 0 15 225 0 15 
0 0 145 0 0 145 0 0 145 0 0 145 0 0 145 0 0 145 0 0 145 0 0 145 0 0 145 0 0 145 0 0 145 0 0 145 0 0 145 0 0 145 0 0 145 0 0 145 0 0 145 0 0 145 0 0 145 0 0 145 0 0 145 0 0 145 0 0 145 0 0 145 0 0 145 0 0 145 0 0 145 0 0 145 0 0 145 0 0 145 0 0 145 0 0 145 0 0 145 0 0 145 0 0 145 0 0 145 0 0 145 0 0 145 0 0 145 0 0 145 0 0 145 0 0 145 0 0 145 0 0 145 0 0 145 0 0 145 0 0 145 0 0 145 0 0 145 0 0 145 0 0 145 0 0 145 0 0 145 0 0 145 0 0 145 0 0 145 0 0 145 0 0 145 0 0 145 0 0 145 0 0 145 0 0 145 0 0 145 0 0 145 0 0 145 0 0 145 0 0 145 0 0 145 0 0 145 0 0 145 0 0 145 0 0 145 0 0 145 0 0 145 0 0 145 0 0 145 0 0 145 0 0 145 0 0 145 0 0 145 0 0 145 0 0 145 0 0 145 0 0 145 0 0 145 0 0 145 0 0 145 0 0 145 0 0 145 0 0 145 0 0 145 0 0 145 0 0 145 0 0 145 0 0 145 0 0 145 0 0 145 0 0 145 0 0 145 225 0 15 255 255 255 255 255 255 255 255 255 255 255 255 255 255 255 255 255 255 255 255 255 255 255 255 255 255 255 255 255 255 255 255 255 255 255 255 255 255 255 255 255 255 255 255 255 255 255 255 255 255 255 255 255 255 255 255 255 255 255 255 255 255 255 255 255 255 255 255 255 255 255 255 255 255 255 255 255 255 255 255 255 255 255 255 255 255 255 255 255 255 255 255 255 255 255 255 255 255 255 255 255 255 255 255 255 255 255 255 255 255 255 255 255 255 255 255 255 255 255 255 255 255 255 255 255 255 255 255 255 255 255 255 255 255 255 255 255 255 255 255 255 255 255 255 255 255 255 255 255 255 255 255 255 255 255 255 255 255 255 255 255 255 255 255 255 255 255 255 255 255 255 255 255 255 255 255 255 255 255 255 255 255 255 255 255 255 255 255 255 255 255 255 255 255 255 255 255 255 255 255 255 255 255 255 255 255 255 255 255 255 255 255 255 255 255 255 255 255 255 255 255 255 255 255 255 255 255 255 255 255 255 255 255 255 255 255 255 255 255 255 255 255 255 255 255 255 255 255 255 255 255 255 255 255 255 255 255 255 255 255 255 255 255 255 255 255 255 255 255 255 255 255 255 255 255 255 255 255 255 255 255 255 255 255 255 255 255 255 255 255 255 255 255 255 255 255 255 225 0 15 225 0 15 225 0 15 225 0 15 225 0 15 225 0 15 225 0 15 225 0 15 225 0 15 225 0 15 225 0 15 225 0 15 225 0 15 225 0 15 225 0 15 225 0 15 225 0 15 225 0 15 225 0 15 225 0 15 225 0 15 225 0 15 225 0 15 225 0 15 225 0 15 225 0 15 225 0 15 225 0 15 225 0 15 225 0 15 225 0 15 225 0 15 225 0 15 225 0 15 225 0 15 225 0 15 225 0 15 225 0 15 225 0 15 225 0 15 225 0 15 225 0 15 225 0 15 225 0 15 225 0 15 225 0 15 225 0 15 225 0 15 225 0 15 225 0 15 225 0 15 225 0 15 225 0 15 225 0 15 225 0 15 225 0 15 225 0 15 225 0 15 225 0 15 225 0 15 225 0 15 225 0 15 225 0 15 225 0 15 225 0 15 225 0 15 225 0 15 225 0 15 225 0 15 225 0 15 225 0 15 225 0 15 225 0 15 225 0 15 225 0 15 225 0 15 225 0 15 225 0 15 225 0 15 225 0 15 225 0 15 225 0 15 225 0 15 225 0 15 225 0 15 225 0 15 225 0 15 225 0 15 225 0 15 225 0 15 225 0 15 225 0 15 225 0 15 225 0 15 225 0 15 225 0 15 225 0 15 225 0 15 225 0 15 225 0 15 225 0 15 
0 0 145 0 0 145 0 0 145 0 0 145 0 0 145 0 0 145 0 0 145 0 0 145 0 0 145 0 0 145 0 0 145 0 0 145 0 0 145 0 0 145 0 0 145 0 0 145 0 0 145 0 0 145 0 0 145 0 0 145 0 0 145 0 0 145 0 0 145 0 0 145 0 0 145 0 0 145 0 0 145 0 0 145 0 0 145 0 0 145 0 0 145 0 0 145 0 0 145 0 0 145 0 0 145 0 0 145 0 0 145 0 0 145 0 0 145 0 0 145 0 0 145 0 0 145 0 0 145 0 0 145 0 0 145 0 0 145 0 0 145 0 0 145 0 0 145 0 0 145 0 0 145 0 0 145 0 0 145 0 0 145 0 0 145 0 0 145 0 0 145 0 0 145 0 0 145 0 0 145 0 0 145 0 0 145 0 0 145 0 0 145 0 0 145 0 0 145 0 0 145 0 0 145 0 0 145 0 0 145 0 0 145 0 0 145 0 0 145 0 0 145 0 0 145 0 0 145 0 0 145 0 0 145 0 0 145 0 0 145 0 0 145 0 0 145 0 0 145 0 0 145 0 0 145 0 0 145 0 0 145 0 0 145 0 0 145 0 0 145 0 0 145 0 0 145 0 0 145 0 0 145 0 0 145 0 0 145 0 0 145 0 0 145 0 0 145 225 0 15 255 255 255 255 255 255 255 255 255 255 255 255 255 255 255 255 255 255 255 255 255 255 255 255 255 255 255 255 255 255 255 255 255 255 255 255 255 255 255 255 255 255 255 255 255 255 255 255 255 255 255 255 255 255 255 255 255 255 255 255 255 255 255 255 255 255 255 255 255 255 255 255 255 255 255 255 255 255 255 255 255 255 255 255 255 255 255 255 255 255 255 255 255 255 255 255 255 255 255 255 255 255 255 255 255 255 255 255 255 255 255 255 255 255 255 255 255 255 255 255 255 255 255 255 255 255 255 255 255 255 255 255 255 255 255 255 255 255 255 255 255 255 255 255 255 255 255 255 255 255 255 255 255 255 255 255 255 255 255 255 255 255 255 255 255 255 255 255 255 255 255 255 255 255 255 255 255 255 255 255 255 255 255 255 255 255 255 255 255 255 255 255 255 255 255 255 255 255 255 255 255 255 255 255 255 255 255 255 255 255 255 255 255 255 255 255 255 255 255 255 255 255 255 255 255 255 255 255 255 255 255 255 255 255 255 255 255 255 255 255 255 255 255 255 255 255 255 255 255 255 255 255 255 255 255 255 255 255 255 255 255 255 255 255 255 255 255 255 255 255 255 255 255 255 255 255 255 255 255 255 255 255 255 255 255 255 255 255 255 255 255 255 255 255 255 255 255 225 0 15 225 0 15 225 0 15 225 0 15 225 0 15 225 0 15 225 0 15 225 0 15 225 0 15 225 0 15 225 0 15 225 0 15 225 0 15 225 0 15 225 0 15 225 0 15 225 0 15 225 0 15 225 0 15 225 0 15 225 0 15 225 0 15 225 0 15 225 0 15 225 0 15 225 0 15 225 0 15 225 0 15 225 0 15 225 0 15 225 0 15 225 0 15 225 0 15 225 0 15 225 0 15 225 0 15 225 0 15 225 0 15 225 0 15 225 0 15 225 0 15 225 0 15 225 0 15 225 0 15 225 0 15 225 0 15 225 0 15 225 0 15 225 0 15 225 0 15 225 0 15 225 0 15 225 0 15 225 0 15 225 0 15 225 0 15 225 0 15 225 0 15 225 0 15 225 0 15 225 0 15 225 0 15 225 0 15 225 0 15 225 0 15 225 0 15 225 0 15 225 0 15 225 0 15 225 0 15 225 0 15 225 0 15 225 0 15 225 0 15 225 0 15 225 0 15 225 0 15 225 0 15 225 0 15 225 0 15 225 0 15 225 0 15 225 0 15 225 0 15 225 0 15 225 0 15 225 0 15 225 0 15 225 0 15 225 0 15 225 0 15 225 0 15 225 0 15 225 0 15 225 0 15 225 0 15 225 0 15 225 0 15 225 0 15 225 0 15 225 0 15 
0 0 145 0 0 145 0 0 145 0 0 145 0 0 145 0 0 145 0 0 145 0 0 145 0 0 145 0 0 145 0 0 145 0 0 145 0 0 145 0 0 145 0 0 145 0 0 145 0 0 145 0 0 145 0 0 145 0 0 145 0 0 145 0 0 145 0 0 145 0 0 145 0 0 145 0 0 145 0 0 145 0 0 145 0 0 145 0 0 145 0 0 145 0 0 145 0 0 145 0 0 145 0 0 145 0 0 145 0 0 145 0 0 145 0 0 145 0 0 145 0 0 145 0 0 145 0 0 145 0 0 145 0 0 145 0 0 145 0 0 145 0 0 145 0 0 145 0 0 145 0 0 145 0 0 145 0 0 145 0 0 145 0 0 145 0 0 145 0 0 145 0 0 145 0 0 145 0 0 145 0 0 145 0 0 145 0 0 145 0 0 145 0 0 145 0 0 145 0 0 145 0 0 145 0 0 145 0 0 145 0 0 145 0 0 145 0 0 145 0 0 145 0 0 145 0 0 145 0 0 145 0 0 145 0 0 145 0 0 145 0 0 145 0 0 145 0 0 145 0 0 145 0 0 145 0 0 145 0 0 145 0 0 145 0 0 145 0 0 145 0 0 145 0 0 145 0 0 145 0 0 145 0 0 145 0 0 145 0 0 145 0 0 145 0 0 145 225 0 15 255 255 255 255 255 255 255 255 255 255 255 255 255 255 255 255 255 255 255 255 255 255 255 255 255 255 255 255 255 255 255 255 255 255 255 255 255 255 255 255 255 255 255 255 255 255 255 255 255 255 255 255 255 255 255 255 255 255 255 255 255 255 255 255 255 255 255 255 255 255 255 255 255 255 255 255 255 255 255 255 255 255 255 255 255 255 255 255 255 255 255 255 255 255 255 255 255 255 255 255 255 255 255 255 255 255 255 255 255 255 255 255 255 255 255 255 255 255 255 255 255 255 255 255 255 255 255 255 255 255 255 255 255 255 255 255 255 255 255 255 255 255 255 255 255 255 255 255 255 255 255 255 255 255 255 255 255 255 255 255 255 255 255 255 255 255 255 255 255 255 255 255 255 255 255 255 255 255 255 255 255 255 255 255 255 255 255 255 255 255 255 255 255 255 255 255 255 255 255 255 255 255 255 255 255 255 255 255 255 255 255 255 255 255 255 255 255 255 255 255 255 255 255 255 255 255 255 255 255 255 255 255 255 255 255 255 255 255 255 255 255 255 255 255 255 255 255 255 255 255 255 255 255 255 255 255 255 255 255 255 255 255 255 255 255 255 255 255 255 255 255 255 255 255 255 255 255 255 255 255 255 255 255 255 255 255 255 255 255 255 255 255 255 255 255 255 255 225 0 15 225 0 15 225 0 15 225 0 15 225 0 15 225 0 15 225 0 15 225 0 15 225 0 15 225 0 15 225 0 15 225 0 15 225 0 15 225 0 15 225 0 15 225 0 15 225 0 15 225 0 15 225 0 15 225 0 15 225 0 15 225 0 15 225 0 15 225 0 15 225 0 15 225 0 15 225 0 15 225 0 15 225 0 15 225 0 15 225 0 15 225 0 15 225 0 15 225 0 15 225 0 15 225 0 15 225 0 15 225 0 15 225 0 15 225 0 15 225 0 15 225 0 15 225 0 15 225 0 15 225 0 15 225 0 15 225 0 15 225 0 15 225 0 15 225 0 15 225 0 15 225 0 15 225 0 15 225 0 15 225 0 15 225 0 15 225 0 15 225 0 15 225 0 15 225 0 15 225 0 15 225 0 15 225 0 15 225 0 15 225 0 15 225 0 15 225 0 15 225 0 15 225 0 15 225 0 15 225 0 15 225 0 15 225 0 15 225 0 15 225 0 15 225 0 15 225 0 15 225 0 15 225 0 15 225 0 15 225 0 15 225 0 15 225 0 15 225 0 15 225 0 15 225 0 15 225 0 15 225 0 15 225 0 15 225 0 15 225 0 15 225 0 15 225 0 15 225 0 15 225 0 15 225 0 15 225 0 15 225 0 15 225 0 15 225 0 15 225 0 15 
0 0 145 0 0 145 0 0 145 0 0 145 0 0 145 0 0 145 0 0 145 0 0 145 0 0 145 0 0 145 0 0 145 0 0 145 0 0 145 0 0 145 0 0 145 0 0 145 0 0 145 0 0 145 0 0 145 0 0 145 0 0 145 0 0 145 0 0 145 0 0 145 0 0 145 0 0 145 0 0 145 0 0 145 0 0 145 0 0 145 0 0 145 0 0 145 0 0 145 0 0 145 0 0 145 0 0 145 0 0 145 0 0 145 0 0 145 0 0 145 0 0 145 0 0 145 0 0 145 0 0 145 0 0 145 0 0 145 0 0 145 0 0 145 0 0 145 0 0 145 0 0 145 0 0 145 0 0 145 0 0 145 0 0 145 0 0 145 0 0 145 0 0 145 0 0 145 0 0 145 0 0 145 0 0 145 0 0 145 0 0 145 0 0 145 0 0 145 0 0 145 0 0 145 0 0 145 0 0 145 0 0 145 0 0 145 0 0 145 0 0 145 0 0 145 0 0 145 0 0 145 0 0 145 0 0 145 0 0 145 0 0 145 0 0 145 0 0 145 0 0 145 0 0 145 0 0 145 0 0 145 0 0 145 0 0 145 0 0 145 0 0 145 0 0 145 0 0 145 0 0 145 0 0 145 0 0 145 0 0 145 0 0 145 0 0 145 225 0 15 255 255 255 255 255 255 255 255 255 255 255 255 255 255 255 255 255 255 255 255 255 255 255 255 255 255 255 255 255 255 255 255 255 255 255 255 255 255 255 255 255 255 255 255 255 255 255 255 255 255 255 255 255 255 255 255 255 255 255 255 255 255 255 255 255 255 255 255 255 255 255 255 255 255 255 255 255 255 255 255 255 255 255 255 255 255 255 255 255 255 255 255 255 255 255 255 255 255 255 255 255 255 255 255 255 255 255 255 255 255 255 255 255 255 255 255 255 255 255 255 255 255 255 255 255 255 255 255 255 255 255 255 255 255 255 255 255 255 255 255 255 255 255 255 255 255 255 255 255 255 255 255 255 255 255 255 255 255 255 255 255 255 255 255 255 255 255 255 255 255 255 255 255 255 255 255 255 255 255 255 255 255 255 255 255 255 255 255 255 255 255 255 255 255 255 255 255 255 255 255 255 255 255 255 255 255 255 255 255 255 255 255 255 255 255 255 255 255 255 255 255 255 255 255 255 255 255 255 255 255 255 255 255 255 255 255 255 255 255 255 255 255 255 255 255 255 255 255 255 255 255 255 255 255 255 255 255 255 255 255 255 255 255 255 255 255 255 255 255 255 255 255 255 255 255 255 255 255 255 255 255 255 255 255 255 255 255 255 255 255 255 255 255 255 255 255 255 225 0 15 225 0 15 225 0 15 225 0 15 225 0 15 225 0 15 225 0 15 225 0 15 225 0 15 225 0 15 225 0 15 225 0 15 225 0 15 225 0 15 225 0 15 225 0 15 225 0 15 225 0 15 225 0 15 225 0 15 225 0 15 225 0 15 225 0 15 225 0 15 225 0 15 225 0 15 225 0 15 225 0 15 225 0 15 225 0 15 225 0 15 225 0 15 225 0 15 225 0 15 225 0 15 225 0 15 225 0 15 225 0 15 225 0 15 225 0 15 225 0 15 225 0 15 225 0 15 225 0 15 225 0 15 225 0 15 225 0 15 225 0 15 225 0 15 225 0 15 225 0 15 225 0 15 225 0 15 225 0 15 225 0 15 225 0 15 225 0 15 225 0 15 225 0 15 225 0 15 225 0 15 225 0 15 225 0 15 225 0 15 225 0 15 225 0 15 225 0 15 225 0 15 225 0 15 225 0 15 225 0 15 225 0 15 225 0 15 225 0 15 225 0 15 225 0 15 225 0 15 225 0 15 225 0 15 225 0 15 225 0 15 225 0 15 225 0 15 225 0 15 225 0 15 225 0 15 225 0 15 225 0 15 225 0 15 225 0 15 225 0 15 225 0 15 225 0 15 225 0 15 225 0 15 225 0 15 225 0 15 225 0 15 225 0 15 225 0 15 225 0 15 
0 0 145 0 0 145 0 0 145 0 0 145 0 0 145 0 0 145 0 0 145 0 0 145 0 0 145 0 0 145 0 0 145 0 0 145 0 0 145 0 0 145 0 0 145 0 0 145 0 0 145 0 0 145 0 0 145 0 0 145 0 0 145 0 0 145 0 0 145 0 0 145 0 0 145 0 0 145 0 0 145 0 0 145 0 0 145 0 0 145 0 0 145 0 0 145 0 0 145 0 0 145 0 0 145 0 0 145 0 0 145 0 0 145 0 0 145 0 0 145 0 0 145 0 0 145 0 0 145 0 0 145 0 0 145 0 0 145 0 0 145 0 0 145 0 0 145 0 0 145 0 0 145 0 0 145 0 0 145 0 0 145 0 0 145 0 0 145 0 0 145 0 0 145 0 0 145 0 0 145 0 0 145 0 0 145 0 0 145 0 0 145 0 0 145 0 0 145 0 0 145 0 0 145 0 0 145 0 0 145 0 0 145 0 0 145 0 0 145 0 0 145 0 0 145 0 0 145 0 0 145 0 0 145 0 0 145 0 0 145 0 0 145 0 0 145 0 0 145 0 0 145 0 0 145 0 0 145 0 0 145 0 0 145 0 0 145 0 0 145 0 0 145 0 0 145 0 0 145 0 0 145 0 0 145 0 0 145 0 0 145 0 0 145 0 0 145 225 0 15 255 255 255 255 255 255 255 255 255 255 255 255 255 255 255 255 255 255 255 255 255 255 255 255 255 255 255 255 255 255 255 255 255 255 255 255 255 255 255 255 255 255 255 255 255 255 255 255 255 255 255 255 255 255 255 255 255 255 255 255 255 255 255 255 255 255 255 255 255 255 255 255 255 255 255 255 255 255 255 255 255 255 255 255 255 255 255 255 255 255 255 255 255 255 255 255 255 255 255 255 255 255 255 255 255 255 255 255 255 255 255 255 255 255 255 255 255 255 255 255 255 255 255 255 255 255 255 255 255 255 255 255 255 255 255 255 255 255 255 255 255 255 255 255 255 255 255 255 255 255 255 255 255 255 255 255 255 255 255 255 255 255 255 255 255 255 255 255 255 255 255 255 255 255 255 255 255 255 255 255 255 255 255 255 255 255 255 255 255 255 255 255 255 255 255 255 255 255 255 255 255 255 255 255 255 255 255 255 255 255 255 255 255 255 255 255 255 255 255 255 255 255 255 255 255 255 255 255 255 255 255 255 255 255 255 255 255 255 255 255 255 255 255 255 255 255 255 255 255 255 255 255 255 255 255 255 255 255 255 255 255 255 255 255 255 255 255 255 255 255 255 255 255 255 255 255 255 255 255 255 255 255 255 255 255 255 255 255 255 255 255 255 255 255 255 255 255 225 0 15 225 0 15 225 0 15 225 0 15 225 0 15 225 0 15 225 0 15 225 0 15 225 0 15 225 0 15 225 0 15 225 0 15 225 0 15 225 0 15 225 0 15 225 0 15 225 0 15 225 0 15 225 0 15 225 0 15 225 0 15 225 0 15 225 0 15 225 0 15 225 0 15 225 0 15 225 0 15 225 0 15 225 0 15 225 0 15 225 0 15 225 0 15 225 0 15 225 0 15 225 0 15 225 0 15 225 0 15 225 0 15 225 0 15 225 0 15 225 0 15 225 0 15 225 0 15 225 0 15 225 0 15 225 0 15 225 0 15 225 0 15 225 0 15 225 0 15 225 0 15 225 0 15 225 0 15 225 0 15 225 0 15 225 0 15 225 0 15 225 0 15 225 0 15 225 0 15 225 0 15 225 0 15 225 0 15 225 0 15 225 0 15 225 0 15 225 0 15 225 0 15 225 0 15 225 0 15 225 0 15 225 0 15 225 0 15 225 0 15 225 0 15 225 0 15 225 0 15 225 0 15 225 0 15 225 0 15 225 0 15 225 0 15 225 0 15 225 0 15 225 0 15 225 0 15 225 0 15 225 0 15 225 0 15 225 0 15 225 0 15 225 0 15 225 0 15 225 0 15 225 0 15 225 0 15 225 0 15 225 0 15 225 0 15 225 0 15 225 0 15 
0 0 145 0 0 145 0 0 145 0 0 145 0 0 145 0 0 145 0 0 145 0 0 145 0 0 145 0 0 145 0 0 145 0 0 145 0 0 145 0 0 145 0 0 145 0 0 145 0 0 145 0 0 145 0 0 145 0 0 145 0 0 145 0 0 145 0 0 145 0 0 145 0 0 145 0 0 145 0 0 145 0 0 145 0 0 145 0 0 145 0 0 145 0 0 145 0 0 145 0 0 145 0 0 145 0 0 145 0 0 145 0 0 145 0 0 145 0 0 145 0 0 145 0 0 145 0 0 145 0 0 145 0 0 145 0 0 145 0 0 145 0 0 145 0 0 145 0 0 145 0 0 145 0 0 145 0 0 145 0 0 145 0 0 145 0 0 145 0 0 145 0 0 145 0 0 145 0 0 145 0 0 145 0 0 145 0 0 145 0 0 145 0 0 145 0 0 145 0 0 145 0 0 145 0 0 145 0 0 145 0 0 145 0 0 145 0 0 145 0 0 145 0 0 145 0 0 145 0 0 145 0 0 145 0 0 145 0 0 145 0 0 145 0 0 145 0 0 145 0 0 145 0 0 145 0 0 145 0 0 145 0 0 145 0 0 145 0 0 145 0 0 145 0 0 145 0 0 145 0 0 145 0 0 145 0 0 145 0 0 145 0 0 145 0 0 145 225 0 15 255 255 255 255 255 255 255 255 255 255 255 255 255 255 255 255 255 255 255 255 255 255 255 255 255 255 255 255 255 255 255 255 255 255 255 255 255 255 255 255 255 255 255 255 255 255 255 255 255 255 255 255 255 255 255 255 255 255 255 255 255 255 255 255 255 255 255 255 255 255 255 255 255 255 255 255 255 255 255 255 255 255 255 255 255 255 255 255 255 255 255 255 255 255 255 255 255 255 255 255 255 255 255 255 255 255 255 255 255 255 255 255 255 255 255 255 255 255 255 255 255 255 255 255 255 255 255 255 255 255 255 255 255 255 255 255 255 255 255 255 255 255 255 255 255 255 255 255 255 255 255 255 255 255 255 255 255 255 255 255 255 255 255 255 255 255 255 255 255 255 255 255 255 255 255 255 255 255 255 255 255 255 255 255 255 255 255 255 255 255 255 255 255 255 255 255 255 255 255 255 255 255 255 255 255 255 255 255 255 255 255 255 255 255 255 255 255 255 255 255 255 255 255 255 255 255 255 255 255 255 255 255 255 255 255 255 255 255 255 255 255 255 255 255 255 255 255 255 255 255 255 255 255 255 255 255 255 255 255 255 255 255 255 255 255 255 255 255 255 255 255 255 255 255 255 255 255 255 255 255 255 255 255 255 255 255 255 255 255 255 255 255 255 255 255 255 255 225 0 15 225 0 15 225 0 15 225 0 15 225 0 15 225 0 15 225 0 15 225 0 15 225 0 15 225 0 15 225 0 15 225 0 15 225 0 15 225 0 15 225 0 15 225 0 15 225 0 15 225 0 15 225 0 15 225 0 15 225 0 15 225 0 15 225 0 15 225 0 15 225 0 15 225 0 15 225 0 15 225 0 15 225 0 15 225 0 15 225 0 15 225 0 15 225 0 15 225 0 15 225 0 15 225 0 15 225 0 15 225 0 15 225 0 15 225 0 15 225 0 15 225 0 15 225 0 15 225 0 15 225 0 15 225 0 15 225 0 15 225 0 15 225 0 15 225 0 15 225 0 15 225 0 15 225 0 15 225 0 15 225 0 15 225 0 15 225 0 15 225 0 15 225 0 15 225 0 15 225 0 15 225 0 15 225 0 15 225 0 15 225 0 15 225 0 15 225 0 15 225 0 15 225 0 15 225 0 15 225 0 15 225 0 15 225 0 15 225 0 15 225 0 15 225 0 15 225 0 15 225 0 15 225 0 15 225 0 15 225 0 15 225 0 15 225 0 15 225 0 15 225 0 15 225 0 15 225 0 15 225 0 15 225 0 15 225 0 15 225 0 15 225 0 15 225 0 15 225 0 15 225 0 15 225 0 15 225 0 15 225 0 15 225 0 15 225 0 15 225 0 15 
0 0 145 0 0 145 0 0 145 0 0 145 0 0 145 0 0 145 0 0 145 0 0 145 0 0 145 0 0 145 0 0 145 0 0 145 0 0 145 0 0 145 0 0 145 0 0 145 0 0 145 0 0 145 0 0 145 0 0 145 0 0 145 0 0 145 0 0 145 0 0 145 0 0 145 0 0 145 0 0 145 0 0 145 0 0 145 0 0 145 0 0 145 0 0 145 0 0 145 0 0 145 0 0 145 0 0 145 0 0 145 0 0 145 0 0 145 0 0 145 0 0 145 0 0 145 0 0 145 0 0 145 0 0 145 0 0 145 0 0 145 0 0 145 0 0 145 0 0 145 0 0 145 0 0 145 0 0 145 0 0 145 0 0 145 0 0 145 0 0 145 0 0 145 0 0 145 0 0 145 0 0 145 0 0 145 0 0 145 0 0 145 0 0 145 0 0 145 0 0 145 0 0 145 0 0 145 0 0 145 0 0 145 0 0 145 0 0 145 0 0 145 0 0 145 0 0 145 0 0 145 0 0 145 0 0 145 0 0 145 0 0 145 0 0 145 0 0 145 0 0 145 0 0 145 0 0 145 0 0 145 0 0 145 0 0 145 0 0 145 0 0 145 0 0 145 0 0 145 0 0 145 0 0 145 0 0 145 0 0 145 0 0 145 0 0 145 225 0 15 255 255 255 255 255 255 255 255 255 255 255 255 255 255 255 255 255 255 255 255 255 255 255 255 255 255 255 255 255 255 255 255 255 255 255 255 255 255 255 255 255 255 255 255 255 255 255 255 255 255 255 255 255 255 255 255 255 255 255 255 255 255 255 255 255 255 255 255 255 255 255 255 255 255 255 255 255 255 255 255 255 255 255 255 255 255 255 255 255 255 255 255 255 255 255 255 255 255 255 255 255 255 255 255 255 255 255 255 255 255 255 255 255 255 255 255 255 255 255 255 255 255 255 255 255 255 255 255 255 255 255 255 255 255 255 255 255 255 255 255 255 255 255 255 255 255 255 255 255 255 255 255 255 255 255 255 255 255 255 255 255 255 255 255 255 255 255 255 255 255 255 255 255 255 255 255 255 255 255 255 255 255 255 255 255 255 255 255 255 255 255 255 255 255 255 255 255 255 255 255 255 255 255 255 255 255 255 255 255 255 255 255 255 255 255 255 255 255 255 255 255 255 255 255 255 255 255 255 255 255 255 255 255 255 255 255 255 255 255 255 255 255 255 255 255 255 255 255 255 255 255 255 255 255 255 255 255 255 255 255 255 255 255 255 255 255 255 255 255 255 255 255 255 255 255 255 255 255 255 255 255 255 255 255 255 255 255 255 255 255 255 255 255 255 255 255 255 225 0 15 225 0 15 225 0 15 225 0 15 225 0 15 225 0 15 225 0 15 225 0 15 225 0 15 225 0 15 225 0 15 225 0 15 225 0 15 225 0 15 225 0 15 225 0 15 225 0 15 225 0 15 225 0 15 225 0 15 225 0 15 225 0 15 225 0 15 225 0 15 225 0 15 225 0 15 225 0 15 225 0 15 225 0 15 225 0 15 225 0 15 225 0 15 225 0 15 225 0 15 225 0 15 225 0 15 225 0 15 225 0 15 225 0 15 225 0 15 225 0 15 225 0 15 225 0 15 225 0 15 225 0 15 225 0 15 225 0 15 225 0 15 225 0 15 225 0 15 225 0 15 225 0 15 225 0 15 225 0 15 225 0 15 225 0 15 225 0 15 225 0 15 225 0 15 225 0 15 225 0 15 225 0 15 225 0 15 225 0 15 225 0 15 225 0 15 225 0 15 225 0 15 225 0 15 225 0 15 225 0 15 225 0 15 225 0 15 225 0 15 225 0 15 225 0 15 225 0 15 225 0 15 225 0 15 225 0 15 225 0 15 225 0 15 225 0 15 225 0 15 225 0 15 225 0 15 225 0 15 225 0 15 225 0 15 225 0 15 225 0 15 225 0 15 225 0 15 225 0 15 225 0 15 225 0 15 225 0 15 225 0 15 225 0 15 225 0 15 225 0 15 
0 0 145 0 0 145 0 0 145 0 0 145 0 0 145 0 0 145 0 0 145 0 0 145 0 0 145 0 0 145 0 0 145 0 0 145 0 0 145 0 0 145 0 0 145 0 0 145 0 0 145 0 0 145 0 0 145 0 0 145 0 0 145 0 0 145 0 0 145 0 0 145 0 0 145 0 0 145 0 0 145 0 0 145 0 0 145 0 0 145 0 0 145 0 0 145 0 0 145 0 0 145 0 0 145 0 0 145 0 0 145 0 0 145 0 0 145 0 0 145 0 0 145 0 0 145 0 0 145 0 0 145 0 0 145 0 0 145 0 0 145 0 0 145 0 0 145 0 0 145 0 0 145 0 0 145 0 0 145 0 0 145 0 0 145 0 0 145 0 0 145 0 0 145 0 0 145 0 0 145 0 0 145 0 0 145 0 0 145 0 0 145 0 0 145 0 0 145 0 0 145 0 0 145 0 0 145 0 0 145 0 0 145 0 0 145 0 0 145 0 0 145 0 0 145 0 0 145 0 0 145 0 0 145 0 0 145 0 0 145 0 0 145 0 0 145 0 0 145 0 0 145 0 0 145 0 0 145 0 0 145 0 0 145 0 0 145 0 0 145 0 0 145 0 0 145 0 0 145 0 0 145 0 0 145 0 0 145 0 0 145 0 0 145 0 0 145 225 0 15 255 255 255 255 255 255 255 255 255 255 255 255 255 255 255 255 255 255 255 255 255 255 255 255 255 255 255 255 255 255 255 255 255 255 255 255 255 255 255 255 255 255 255 255 255 255 255 255 255 255 255 255 255 255 255 255 255 255 255 255 255 255 255 255 255 255 255 255 255 255 255 255 255 255 255 255 255 255 255 255 255 255 255 255 255 255 255 255 255 255 255 255 255 255 255 255 255 255 255 255 255 255 255 255 255 255 255 255 255 255 255 255 255 255 255 255 255 255 255 255 255 255 255 255 255 255 255 255 255 255 255 255 255 255 255 255 255 255 255 255 255 255 255 255 255 255 255 255 255 255 255 255 255 255 255 255 255 255 255 255 255 255 255 255 255 255 255 255 255 255 255 255 255 255 255 255 255 255 255 255 255 255 255 255 255 255 255 255 255 255 255 255 255 255 255 255 255 255 255 255 255 255 255 255 255 255 255 255 255 255 255 255 255 255 255 255 255 255 255 255 255 255 255 255 255 255 255 255 255 255 255 255 255 255 255 255 255 255 255 255 255 255 255 255 255 255 255 255 255 255 255 255 255 255 255 255 255 255 255 255 255 255 255 255 255 255 255 255 255 255 255 255 255 255 255 255 255 255 255 255 255 255 255 255 255 255 255 255 255 255 255 255 255 255 255 255 255 225 0 15 225 0 15 225 0 15 225 0 15 225 0 15 225 0 15 225 0 15 225 0 15 225 0 15 225 0 15 225 0 15 225 0 15 225 0 15 225 0 15 225 0 15 225 0 15 225 0 15 225 0 15 225 0 15 225 0 15 225 0 15 225 0 15 225 0 15 225 0 15 225 0 15 225 0 15 225 0 15 225 0 15 225 0 15 225 0 15 225 0 15 225 0 15 225 0 15 225 0 15 225 0 15 225 0 15 225 0 15 225 0 15 225 0 15 225 0 15 225 0 15 225 0 15 225 0 15 225 0 15 225 0 15 225 0 15 225 0 15 225 0 15 225 0 15 225 0 15 225 0 15 225 0 15 225 0 15 225 0 15 225 0 15 225 0 15 225 0 15 225 0 15 225 0 15 225 0 15 225 0 15 225 0 15 225 0 15 225 0 15 225 0 15 225 0 15 225 0 15 225 0 15 225 0 15 225 0 15 225 0 15 225 0 15 225 0 15 225 0 15 225 0 15 225 0 15 225 0 15 225 0 15 225 0 15 225 0 15 225 0 15 225 0 15 225 0 15 225 0 15 225 0 15 225 0 15 225 0 15 225 0 15 225 0 15 225 0 15 225 0 15 225 0 15 225 0 15 225 0 15 225 0 15 225 0 15 225 0 15 225 0 15 225 0 15 225 0 15 225 0 15 
0 0 145 0 0 145 0 0 145 0 0 145 0 0 145 0 0 145 0 0 145 0 0 145 0 0 145 0 0 145 0 0 145 0 0 145 0 0 145 0 0 145 0 0 145 0 0 145 0 0 145 0 0 145 0 0 145 0 0 145 0 0 145 0 0 145 0 0 145 0 0 145 0 0 145 0 0 145 0 0 145 0 0 145 0 0 145 0 0 145 0 0 145 0 0 145 0 0 145 0 0 145 0 0 145 0 0 145 0 0 145 0 0 145 0 0 145 0 0 145 0 0 145 0 0 145 0 0 145 0 0 145 0 0 145 0 0 145 0 0 145 0 0 145 0 0 145 0 0 145 0 0 145 0 0 145 0 0 145 0 0 145 0 0 145 0 0 145 0 0 145 0 0 145 0 0 145 0 0 145 0 0 145 0 0 145 0 0 145 0 0 145 0 0 145 0 0 145 0 0 145 0 0 145 0 0 145 0 0 145 0 0 145 0 0 145 0 0 145 0 0 145 0 0 145 0 0 145 0 0 145 0 0 145 0 0 145 0 0 145 0 0 145 0 0 145 0 0 145 0 0 145 0 0 145 0 0 145 0 0 145 0 0 145 0 0 145 0 0 145 0 0 145 0 0 145 0 0 145 0 0 145 0 0 145 0 0 145 0 0 145 0 0 145 0 0 145 225 0 15 255 255 255 255 255 255 255 255 255 255 255 255 255 255 255 255 255 255 255 255 255 255 255 255 255 255 255 255 255 255 255 255 255 255 255 255 255 255 255 255 255 255 255 255 255 255 255 255 255 255 255 255 255 255 255 255 255 255 255 255 255 255 255 255 255 255 255 255 255 255 255 255 255 255 255 255 255 255 255 255 255 255 255 255 255 255 255 255 255 255 255 255 255 255 255 255 255 255 255 255 255 255 255 255 255 255 255 255 255 255 255 255 255 255 255 255 255 255 255 255 255 255 255 255 255 255 255 255 255 255 255 255 255 255 255 255 255 255 255 255 255 255 255 255 255 255 255 255 255 255 255 255 255 255 255 255 255 255 255 255 255 255 255 255 255 255 255 255 255 255 255 255 255 255 255 255 255 255 255 255 255 255 255 255 255 255 255 255 255 255 255 255 255 255 255 255 255 255 255 255 255 255 255 255 255 255 255 255 255 255 255 255 255 255 255 255 255 255 255 255 255 255 255 255 255 255 255 255 255 255 255 255 255 255 255 255 255 255 255 255 255 255 255 255 255 255 255 255 255 255 255 255 255 255 255 255 255 255 255 255 255 255 255 255 255 255 255 255 255 255 255 255 255 255 255 255 255 255 255 255 255 255 255 255 255 255 255 255 255 255 255 255 255 255 255 255 255 225 0 15 225 0 15 225 0 15 225 0 15 225 0 15 225 0 15 225 0 15 225 0 15 225 0 15 225 0 15 225 0 15 225 0 15 225 0 15 225 0 15 225 0 15 225 0 15 225 0 15 225 0 15 225 0 15 225 0 15 225 0 15 225 0 15 225 0 15 225 0 15 225 0 15 225 0 15 225 0 15 225 0 15 225 0 15 225 0 15 225 0 15 225 0 15 225 0 15 225 0 15 225 0 15 225 0 15 225 0 15 225 0 15 225 0 15 225 0 15 225 0 15 225 0 15 225 0 15 225 0 15 225 0 15 225 0 15 225 0 15 225 0 15 225 0 15 225 0 15 225 0 15 225 0 15 225 0 15 225 0 15 225 0 15 225 0 15 225 0 15 225 0 15 225 0 15 225 0 15 225 0 15 225 0 15 225 0 15 225 0 15 225 0 15 225 0 15 225 0 15 225 0 15 225 0 15 225 0 15 225 0 15 225 0 15 225 0 15 225 0 15 225 0 15 225 0 15 225 0 15 225 0 15 225 0 15 225 0 15 225 0 15 225 0 15 225 0 15 225 0 15 225 0 15 225 0 15 225 0 15 225 0 15 225 0 15 225 0 15 225 0 15 225 0 15 225 0 15 225 0 15 225 0 15 225 0 15 225 0 15 225 0 15 225 0 15 225 0 15 225 0 15 
0 0 145 0 0 145 0 0 145 0 0 145 0 0 145 0 0 145 0 0 145 0 0 145 0 0 145 0 0 145 0 0 145 0 0 145 0 0 145 0 0 145 0 0 145 0 0 145 0 0 145 0 0 145 0 0 145 0 0 145 0 0 145 0 0 145 0 0 145 0 0 145 0 0 145 0 0 145 0 0 145 0 0 145 0 0 145 0 0 145 0 0 145 0 0 145 0 0 145 0 0 145 0 0 145 0 0 145 0 0 145 0 0 145 0 0 145 0 0 145 0 0 145 0 0 145 0 0 145 0 0 145 0 0 145 0 0 145 0 0 145 0 0 145 0 0 145 0 0 145 0 0 145 0 0 145 0 0 145 0 0 145 0 0 145 0 0 145 0 0 145 0 0 145 0 0 145 0 0 145 0 0 145 0 0 145 0 0 145 0 0 145 0 0 145 0 0 145 0 0 145 0 0 145 0 0 145 0 0 145 0 0 145 0 0 145 0 0 145 0 0 145 0 0 145 0 0 145 0 0 145 0 0 145 0 0 145 0 0 145 0 0 145 0 0 145 0 0 145 0 0 145 0 0 145 0 0 145 0 0 145 0 0 145 0 0 145 0 0 145 0 0 145 0 0 145 0 0 145 0 0 145 0 0 145 0 0 145 0 0 145 0 0 145 0 0 145 225 0 15 255 255 255 255 255 255 255 255 255 255 255 255 255 255 255 255 255 255 255 255 255 255 255 255 255 255 255 255 255 255 255 255 255 255 255 255 255 255 255 255 255 255 255 255 255 255 255 255 255 255 255 255 255 255 255 255 255 255 255 255 255 255 255 255 255 255 255 255 255 255 255 255 255 255 255 255 255 255 255 255 255 255 255 255 255 255 255 255 255 255 255 255 255 255 255 255 255 255 255 255 255 255 255 255 255 255 255 255 255 255 255 255 255 255 255 255 255 255 255 255 255 255 255 255 255 255 255 255 255 255 255 255 255 255 255 255 255 255 255 255 255 255 255 255 255 255 255 255 255 255 255 255 255 255 255 255 255 255 255 255 255 255 255 255 255 255 255 255 255 255 255 255 255 255 255 255 255 255 255 255 255 255 255 255 255 255 255 255 255 255 255 255 255 255 255 255 255 255 255 255 255 255 255 255 255 255 255 255 255 255 255 255 255 255 255 255 255 255 255 255 255 255 255 255 255 255 255 255 255 255 255 255 255 255 255 255 255 255 255 255 255 255 255 255 255 255 255 255 255 255 255 255 255 255 255 255 255 255 255 255 255 255 255 255 255 255 255 255 255 255 255 255 255 255 255 255 255 255 255 255 255 255 255 255 255 255 255 255 255 255 255 255 255 255 255 255 255 225 0 15 225 0 15 225 0 15 225 0 15 225 0 15 225 0 15 225 0 15 225 0 15 225 0 15 225 0 15 225 0 15 225 0 15 225 0 15 225 0 15 225 0 15 225 0 15 225 0 15 225 0 15 225 0 15 225 0 15 225 0 15 225 0 15 225 0 15 225 0 15 225 0 15 225 0 15 225 0 15 225 0 15 225 0 15 225 0 15 225 0 15 225 0 15 225 0 15 225 0 15 225 0 15 225 0 15 225 0 15 225 0 15 225 0 15 225 0 15 225 0 15 225 0 15 225 0 15 225 0 15 225 0 15 225 0 15 225 0 15 225 0 15 225 0 15 225 0 15 225 0 15 225 0 15 225 0 15 225 0 15 225 0 15 225 0 15 225 0 15 225 0 15 225 0 15 225 0 15 225 0 15 225 0 15 225 0 15 225 0 15 225 0 15 225 0 15 225 0 15 225 0 15 225 0 15 225 0 15 225 0 15 225 0 15 225 0 15 225 0 15 225 0 15 225 0 15 225 0 15 225 0 15 225 0 15 225 0 15 225 0 15 225 0 15 225 0 15 225 0 15 225 0 15 225 0 15 225 0 15 225 0 15 225 0 15 225 0 15 225 0 15 225 0 15 225 0 15 225 0 15 225 0 15 225 0 15 225 0 15 225 0 15 225 0 15 225 0 15 225 0 15 
0 0 145 0 0 145 0 0 145 0 0 145 0 0 145 0 0 145 0 0 145 0 0 145 0 0 145 0 0 145 0 0 145 0 0 145 0 0 145 0 0 145 0 0 145 0 0 145 0 0 145 0 0 145 0 0 145 0 0 145 0 0 145 0 0 145 0 0 145 0 0 145 0 0 145 0 0 145 0 0 145 0 0 145 0 0 145 0 0 145 0 0 145 0 0 145 0 0 145 0 0 145 0 0 145 0 0 145 0 0 145 0 0 145 0 0 145 0 0 145 0 0 145 0 0 145 0 0 145 0 0 145 0 0 145 0 0 145 0 0 145 0 0 145 0 0 145 0 0 145 0 0 145 0 0 145 0 0 145 0 0 145 0 0 145 0 0 145 0 0 145 0 0 145 0 0 145 0 0 145 0 0 145 0 0 145 0 0 145 0 0 145 0 0 145 0 0 145 0 0 145 0 0 145 0 0 145 0 0 145 0 0 145 0 0 145 0 0 145 0 0 145 0 0 145 0 0 145 0 0 145 0 0 145 0 0 145 0 0 145 0 0 145 0 0 145 0 0 145 0 0 145 0 0 145 0 0 145 0 0 145 0 0 145 0 0 145 0 0 145 0 0 145 0 0 145 0 0 145 0 0 145 0 0 145 0 0 145 0 0 145 0 0 145 0 0 145 225 0 15 255 255 255 255 255 255 255 255 255 255 255 255 255 255 255 255 255 255 255 255 255 255 255 255 255 255 255 255 255 255 255 255 255 255 255 255 255 255 255 255 255 255 255 255 255 255 255 255 255 255 255 255 255 255 255 255 255 255 255 255 255 255 255 255 255 255 255 255 255 255 255 255 255 255 255 255 255 255 255 255 255 255 255 255 255 255 255 255 255 255 255 255 255 255 255 255 255 255 255 255 255 255 255 255 255 255 255 255 255 255 255 255 255 255 255 255 255 255 255 255 255 255 255 255 255 255 255 255 255 255 255 255 255 255 255 255 255 255 255 255 255 255 255 255 255 255 255 255 255 255 255 255 255 255 255 255 255 255 255 255 255 255 255 255 255 255 255 255 255 255 255 255 255 255 255 255 255 255 255 255 255 255 255 255 255 255 255 255 255 255 255 255 255 255 255 255 255 255 255 255 255 255 255 255 255 255 255 255 255 255 255 255 255 255 255 255 255 255 255 255 255 255 255 255 255 255 255 255 255 255 255 255 255 255 255 255 255 255 255 255 255 255 255 255 255 255 255 255 255 255 255 255 255 255 255 255 255 255 255 255 255 255 255 255 255 255 255 255 255 255 255 255 255 255 255 255 255 255 255 255 255 255 255 255 255 255 255 255 255 255 255 255 255 255 255 255 255 225 0 15 225 0 15 225 0 15 225 0 15 225 0 15 225 0 15 225 0 15 225 0 15 225 0 15 225 0 15 225 0 15 225 0 15 225 0 15 225 0 15 225 0 15 225 0 15 225 0 15 225 0 15 225 0 15 225 0 15 225 0 15 225 0 15 225 0 15 225 0 15 225 0 15 225 0 15 225 0 15 225 0 15 225 0 15 225 0 15 225 0 15 225 0 15 225 0 15 225 0 15 225 0 15 225 0 15 225 0 15 225 0 15 225 0 15 225 0 15 225 0 15 225 0 15 225 0 15 225 0 15 225 0 15 225 0 15 225 0 15 225 0 15 225 0 15 225 0 15 225 0 15 225 0 15 225 0 15 225 0 15 225 0 15 225 0 15 225 0 15 225 0 15 225 0 15 225 0 15 225 0 15 225 0 15 225 0 15 225 0 15 225 0 15 225 0 15 225 0 15 225 0 15 225 0 15 225 0 15 225 0 15 225 0 15 225 0 15 225 0 15 225 0 15 225 0 15 225 0 15 225 0 15 225 0 15 225 0 15 225 0 15 225 0 15 225 0 15 225 0 15 225 0 15 225 0 15 225 0 15 225 0 15 225 0 15 225 0 15 225 0 15 225 0 15 225 0 15 225 0 15 225 0 15 225 0 15 225 0 15 225 0 15 225 0 15 225 0 15 225 0 15 
0 0 145 0 0 145 0 0 145 0 0 145 0 0 145 0 0 145 0 0 145 0 0 145 0 0 145 0 0 145 0 0 145 0 0 145 0 0 145 0 0 145 0 0 145 0 0 145 0 0 145 0 0 145 0 0 145 0 0 145 0 0 145 0 0 145 0 0 145 0 0 145 0 0 145 0 0 145 0 0 145 0 0 145 0 0 145 0 0 145 0 0 145 0 0 145 0 0 145 0 0 145 0 0 145 0 0 145 0 0 145 0 0 145 0 0 145 0 0 145 0 0 145 0 0 145 0 0 145 0 0 145 0 0 145 0 0 145 0 0 145 0 0 145 0 0 145 0 0 145 0 0 145 0 0 145 0 0 145 0 0 145 0 0 145 0 0 145 0 0 145 0 0 145 0 0 145 0 0 145 0 0 145 0 0 145 0 0 145 0 0 145 0 0 145 0 0 145 0 0 145 0 0 145 0 0 145 0 0 145 0 0 145 0 0 145 0 0 145 0 0 145 0 0 145 0 0 145 0 0 145 0 0 145 0 0 145 0 0 145 0 0 145 0 0 145 0 0 145 0 0 145 0 0 145 0 0 145 0 0 145 0 0 145 0 0 145 0 0 145 0 0 145 0 0 145 0 0 145 0 0 145 0 0 145 0 0 145 0 0 145 0 0 145 0 0 145 225 0 15 255 255 255 255 255 255 255 255 255 255 255 255 255 255 255 255 255 255 255 255 255 255 255 255 255 255 255 255 255 255 255 255 255 255 255 255 255 255 255 255 255 255 255 255 255 255 255 255 255 255 255 255 255 255 255 255 255 255 255 255 255 255 255 255 255 255 255 255 255 255 255 255 255 255 255 255 255 255 255 255 255 255 255 255 255 255 255 255 255 255 255 255 255 255 255 255 255 255 255 255 255 255 255 255 255 255 255 255 255 255 255 255 255 255 255 255 255 255 255 255 255 255 255 255 255 255 255 255 255 255 255 255 255 255 255 255 255 255 255 255 255 255 255 255 255 255 255 255 255 255 255 255 255 255 255 255 255 255 255 255 255 255 255 255 255 255 255 255 255 255 255 255 255 255 255 255 255 255 255 255 255 255 255 255 255 255 255 255 255 255 255 255 255 255 255 255 255 255 255 255 255 255 255 255 255 255 255 255 255 255 255 255 255 255 255 255 255 255 255 255 255 255 255 255 255 255 255 255 255 255 255 255 255 255 255 255 255 255 255 255 255 255 255 255 255 255 255 255 255 255 255 255 255 255 255 255 255 255 255 255 255 255 255 255 255 255 255 255 255 255 255 255 255 255 255 255 255 255 255 255 255 255 255 255 255 255 255 255 255 255 255 255 255 255 255 255 255 225 0 15 225 0 15 225 0 15 225 0 15 225 0 15 225 0 15 225 0 15 225 0 15 225 0 15 225 0 15 225 0 15 225 0 15 225 0 15 225 0 15 225 0 15 225 0 15 225 0 15 225 0 15 225 0 15 225 0 15 225 0 15 225 0 15 225 0 15 225 0 15 225 0 15 225 0 15 225 0 15 225 0 15 225 0 15 225 0 15 225 0 15 225 0 15 225 0 15 225 0 15 225 0 15 225 0 15 225 0 15 225 0 15 225 0 15 225 0 15 225 0 15 225 0 15 225 0 15 225 0 15 225 0 15 225 0 15 225 0 15 225 0 15 225 0 15 225 0 15 225 0 15 225 0 15 225 0 15 225 0 15 225 0 15 225 0 15 225 0 15 225 0 15 225 0 15 225 0 15 225 0 15 225 0 15 225 0 15 225 0 15 225 0 15 225 0 15 225 0 15 225 0 15 225 0 15 225 0 15 225 0 15 225 0 15 225 0 15 225 0 15 225 0 15 225 0 15 225 0 15 225 0 15 225 0 15 225 0 15 225 0 15 225 0 15 225 0 15 225 0 15 225 0 15 225 0 15 225 0 15 225 0 15 225 0 15 225 0 15 225 0 15 225 0 15 225 0 15 225 0 15 225 0 15 225 0 15 225 0 15 225 0 15 225 0 15 225 0 15 225 0 15 
0 0 145 0 0 145 0 0 145 0 0 145 0 0 145 0 0 145 0 0 145 0 0 145 0 0 145 0 0 145 0 0 145 0 0 145 0 0 145 0 0 145 0 0 145 0 0 145 0 0 145 0 0 145 0 0 145 0 0 145 0 0 145 0 0 145 0 0 145 0 0 145 0 0 145 0 0 145 0 0 145 0 0 145 0 0 145 0 0 145 0 0 145 0 0 145 0 0 145 0 0 145 0 0 145 0 0 145 0 0 145 0 0 145 0 0 145 0 0 145 0 0 145 0 0 145 0 0 145 0 0 145 0 0 145 0 0 145 0 0 145 0 0 145 0 0 145 0 0 145 0 0 145 0 0 145 0 0 145 0 0 145 0 0 145 0 0 145 0 0 145 0 0 145 0 0 145 0 0 145 0 0 145 0 0 145 0 0 145 0 0 145 0 0 145 0 0 145 0 0 145 0 0 145 0 0 145 0 0 145 0 0 145 0 0 145 0 0 145 0 0 145 0 0 145 0 0 145 0 0 145 0 0 145 0 0 145 0 0 145 0 0 145 0 0 145 0 0 145 0 0 145 0 0 145 0 0 145 0 0 145 0 0 145 0 0 145 0 0 145 0 0 145 0 0 145 0 0 145 0 0 145 0 0 145 0 0 145 0 0 145 0 0 145 0 0 145 225 0 15 255 255 255 255 255 255 255 255 255 255 255 255 255 255 255 255 255 255 255 255 255 255 255 255 255 255 255 255 255 255 255 255 255 255 255 255 255 255 255 255 255 255 255 255 255 255 255 255 255 255 255 255 255 255 255 255 255 255 255 255 255 255 255 255 255 255 255 255 255 255 255 255 255 255 255 255 255 255 255 255 255 255 255 255 255 255 255 255 255 255 255 255 255 255 255 255 255 255 255 255 255 255 255 255 255 255 255 255 255 255 255 255 255 255 255 255 255 255 255 255 255 255 255 255 255 255 255 255 255 255 255 255 255 255 255 255 255 255 255 255 255 255 255 255 255 255 255 255 255 255 255 255 255 255 255 255 255 255 255 255 255 255 255 255 255 255 255 255 255 255 255 255 255 255 255 255 255 255 255 255 255 255 255 255 255 255 255 255 255 255 255 255 255 255 255 255 255 255 255 255 255 255 255 255 255 255 255 255 255 255 255 255 255 255 255 255 255 255 255 255 255 255 255 255 255 255 255 255 255 255 255 255 255 255 255 255 255 255 255 255 255 255 255 255 255 255 255 255 255 255 255 255 255 255 255 255 255 255 255 255 255 255 255 255 255 255 255 255 255 255 255 255 255 255 255 255 255 255 255 255 255 255 255 255 255 255 255 255 255 255 255 255 255 255 255 255 255 225 0 15 225 0 15 225 0 15 225 0 15 225 0 15 225 0 15 225 0 15 225 0 15 225 0 15 225 0 15 225 0 15 225 0 15 225 0 15 225 0 15 225 0 15 225 0 15 225 0 15 225 0 15 225 0 15 225 0 15 225 0 15 225 0 15 225 0 15 225 0 15 225 0 15 225 0 15 225 0 15 225 0 15 225 0 15 225 0 15 225 0 15 225 0 15 225 0 15 225 0 15 225 0 15 225 0 15 225 0 15 225 0 15 225 0 15 225 0 15 225 0 15 225 0 15 225 0 15 225 0 15 225 0 15 225 0 15 225 0 15 225 0 15 225 0 15 225 0 15 225 0 15 225 0 15 225 0 15 225 0 15 225 0 15 225 0 15 225 0 15 225 0 15 225 0 15 225 0 15 225 0 15 225 0 15 225 0 15 225 0 15 225 0 15 225 0 15 225 0 15 225 0 15 225 0 15 225 0 15 225 0 15 225 0 15 225 0 15 225 0 15 225 0 15 225 0 15 225 0 15 225 0 15 225 0 15 225 0 15 225 0 15 225 0 15 225 0 15 225 0 15 225 0 15 225 0 15 225 0 15 225 0 15 225 0 15 225 0 15 225 0 15 225 0 15 225 0 15 225 0 15 225 0 15 225 0 15 225 0 15 225 0 15 225 0 15 225 0 15 225 0 15 
0 0 145 0 0 145 0 0 145 0 0 145 0 0 145 0 0 145 0 0 145 0 0 145 0 0 145 0 0 145 0 0 145 0 0 145 0 0 145 0 0 145 0 0 145 0 0 145 0 0 145 0 0 145 0 0 145 0 0 145 0 0 145 0 0 145 0 0 145 0 0 145 0 0 145 0 0 145 0 0 145 0 0 145 0 0 145 0 0 145 0 0 145 0 0 145 0 0 145 0 0 145 0 0 145 0 0 145 0 0 145 0 0 145 0 0 145 0 0 145 0 0 145 0 0 145 0 0 145 0 0 145 0 0 145 0 0 145 0 0 145 0 0 145 0 0 145 0 0 145 0 0 145 0 0 145 0 0 145 0 0 145 0 0 145 0 0 145 0 0 145 0 0 145 0 0 145 0 0 145 0 0 145 0 0 145 0 0 145 0 0 145 0 0 145 0 0 145 0 0 145 0 0 145 0 0 145 0 0 145 0 0 145 0 0 145 0 0 145 0 0 145 0 0 145 0 0 145 0 0 145 0 0 145 0 0 145 0 0 145 0 0 145 0 0 145 0 0 145 0 0 145 0 0 145 0 0 145 0 0 145 0 0 145 0 0 145 0 0 145 0 0 145 0 0 145 0 0 145 0 0 145 0 0 145 0 0 145 0 0 145 0 0 145 0 0 145 225 0 15 255 255 255 255 255 255 255 255 255 255 255 255 255 255 255 255 255 255 255 255 255 255 255 255 255 255 255 255 255 255 255 255 255 255 255 255 255 255 255 255 255 255 255 255 255 255 255 255 255 255 255 255 255 255 255 255 255 255 255 255 255 255 255 255 255 255 255 255 255 255 255 255 255 255 255 255 255 255 255 255 255 255 255 255 255 255 255 255 255 255 255 255 255 255 255 255 255 255 255 255 255 255 255 255 255 255 255 255 255 255 255 255 255 255 255 255 255 255 255 255 255 255 255 255 255 255 255 255 255 255 255 255 255 255 255 255 255 255 255 255 255 255 255 255 255 255 255 255 255 255 255 255 255 255 255 255 255 255 255 255 255 255 255 255 255 255 255 255 255 255 255 255 255 255 255 255 255 255 255 255 255 255 255 255 255 255 255 255 255 255 255 255 255 255 255 255 255 255 255 255 255 255 255 255 255 255 255 255 255 255 255 255 255 255 255 255 255 255 255 255 255 255 255 255 255 255 255 255 255 255 255 255 255 255 255 255 255 255 255 255 255 255 255 255 255 255 255 255 255 255 255 255 255 255 255 255 255 255 255 255 255 255 255 255 255 255 255 255 255 255 255 255 255 255 255 255 255 255 255 255 255 255 255 255 255 255 255 255 255 255 255 255 255 255 255 255 255 225 0 15 225 0 15 225 0 15 225 0 15 225 0 15 225 0 15 225 0 15 225 0 15 225 0 15 225 0 15 225 0 15 225 0 15 225 0 15 225 0 15 225 0 15 225 0 15 225 0 15 225 0 15 225 0 15 225 0 15 225 0 15 225 0 15 225 0 15 225 0 15 225 0 15 225 0 15 225 0 15 225 0 15 225 0 15 225 0 15 225 0 15 225 0 15 225 0 15 225 0 15 225 0 15 225 0 15 225 0 15 225 0 15 225 0 15 225 0 15 225 0 15 225 0 15 225 0 15 225 0 15 225 0 15 225 0 15 225 0 15 225 0 15 225 0 15 225 0 15 225 0 15 225 0 15 225 0 15 225 0 15 225 0 15 225 0 15 225 0 15 225 0 15 225 0 15 225 0 15 225 0 15 225 0 15 225 0 15 225 0 15 225 0 15 225 0 15 225 0 15 225 0 15 225 0 15 225 0 15 225 0 15 225 0 15 225 0 15 225 0 15 225 0 15 225 0 15 225 0 15 225 0 15 225 0 15 225 0 15 225 0 15 225 0 15 225 0 15 225 0 15 225 0 15 225 0 15 225 0 15 225 0 15 225 0 15 225 0 15 225 0 15 225 0 15 225 0 15 225 0 15 225 0 15 225 0 15 225 0 15 225 0 15 225 0 15 225 0 15 225 0 15 
0 0 145 0 0 145 0 0 145 0 0 145 0 0 145 0 0 145 0 0 145 0 0 145 0 0 145 0 0 145 0 0 145 0 0 145 0 0 145 0 0 145 0 0 145 0 0 145 0 0 145 0 0 145 0 0 145 0 0 145 0 0 145 0 0 145 0 0 145 0 0 145 0 0 145 0 0 145 0 0 145 0 0 145 0 0 145 0 0 145 0 0 145 0 0 145 0 0 145 0 0 145 0 0 145 0 0 145 0 0 145 0 0 145 0 0 145 0 0 145 0 0 145 0 0 145 0 0 145 0 0 145 0 0 145 0 0 145 0 0 145 0 0 145 0 0 145 0 0 145 0 0 145 0 0 145 0 0 145 0 0 145 0 0 145 0 0 145 0 0 145 0 0 145 0 0 145 0 0 145 0 0 145 0 0 145 0 0 145 0 0 145 0 0 145 0 0 145 0 0 145 0 0 145 0 0 145 0 0 145 0 0 145 0 0 145 0 0 145 0 0 145 0 0 145 0 0 145 0 0 145 0 0 145 0 0 145 0 0 145 0 0 145 0 0 145 0 0 145 0 0 145 0 0 145 0 0 145 0 0 145 0 0 145 0 0 145 0 0 145 0 0 145 0 0 145 0 0 145 0 0 145 0 0 145 0 0 145 0 0 145 0 0 145 0 0 145 225 0 15 255 255 255 255 255 255 255 255 255 255 255 255 255 255 255 255 255 255 255 255 255 255 255 255 255 255 255 255 255 255 255 255 255 255 255 255 255 255 255 255 255 255 255 255 255 255 255 255 255 255 255 255 255 255 255 255 255 255 255 255 255 255 255 255 255 255 255 255 255 255 255 255 255 255 255 255 255 255 255 255 255 255 255 255 255 255 255 255 255 255 255 255 255 255 255 255 255 255 255 255 255 255 255 255 255 255 255 255 255 255 255 255 255 255 255 255 255 255 255 255 255 255 255 255 255 255 255 255 255 255 255 255 255 255 255 255 255 255 255 255 255 255 255 255 255 255 255 255 255 255 255 255 255 255 255 255 255 255 255 255 255 255 255 255 255 255 255 255 255 255 255 255 255 255 255 255 255 255 255 255 255 255 255 255 255 255 255 255 255 255 255 255 255 255 255 255 255 255 255 255 255 255 255 255 255 255 255 255 255 255 255 255 255 255 255 255 255 255 255 255 255 255 255 255 255 255 255 255 255 255 255 255 255 255 255 255 255 255 255 255 255 255 255 255 255 255 255 255 255 255 255 255 255 255 255 255 255 255 255 255 255 255 255 255 255 255 255 255 255 255 255 255 255 255 255 255 255 255 255 255 255 255 255 255 255 255 255 255 255 255 255 255 255 255 255 255 255 225 0 15 225 0 15 225 0 15 225 0 15 225 0 15 225 0 15 225 0 15 225 0 15 225 0 15 225 0 15 225 0 15 225 0 15 225 0 15 225 0 15 225 0 15 225 0 15 225 0 15 225 0 15 225 0 15 225 0 15 225 0 15 225 0 15 225 0 15 225 0 15 225 0 15 225 0 15 225 0 15 225 0 15 225 0 15 225 0 15 225 0 15 225 0 15 225 0 15 225 0 15 225 0 15 225 0 15 225 0 15 225 0 15 225 0 15 225 0 15 225 0 15 225 0 15 225 0 15 225 0 15 225 0 15 225 0 15 225 0 15 225 0 15 225 0 15 225 0 15 225 0 15 225 0 15 225 0 15 225 0 15 225 0 15 225 0 15 225 0 15 225 0 15 225 0 15 225 0 15 225 0 15 225 0 15 225 0 15 225 0 15 225 0 15 225 0 15 225 0 15 225 0 15 225 0 15 225 0 15 225 0 15 225 0 15 225 0 15 225 0 15 225 0 15 225 0 15 225 0 15 225 0 15 225 0 15 225 0 15 225 0 15 225 0 15 225 0 15 225 0 15 225 0 15 225 0 15 225 0 15 225 0 15 225 0 15 225 0 15 225 0 15 225 0 15 225 0 15 225 0 15 225 0 15 225 0 15 225 0 15 225 0 15 225 0 15 225 0 15 225 0 15 
0 0 145 0 0 145 0 0 145 0 0 145 0 0 145 0 0 145 0 0 145 0 0 145 0 0 145 0 0 145 0 0 145 0 0 145 0 0 145 0 0 145 0 0 145 0 0 145 0 0 145 0 0 145 0 0 145 0 0 145 0 0 145 0 0 145 0 0 145 0 0 145 0 0 145 0 0 145 0 0 145 0 0 145 0 0 145 0 0 145 0 0 145 0 0 145 0 0 145 0 0 145 0 0 145 0 0 145 0 0 145 0 0 145 0 0 145 0 0 145 0 0 145 0 0 145 0 0 145 0 0 145 0 0 145 0 0 145 0 0 145 0 0 145 0 0 145 0 0 145 0 0 145 0 0 145 0 0 145 0 0 145 0 0 145 0 0 145 0 0 145 0 0 145 0 0 145 0 0 145 0 0 145 0 0 145 0 0 145 0 0 145 0 0 145 0 0 145 0 0 145 0 0 145 0 0 145 0 0 145 0 0 145 0 0 145 0 0 145 0 0 145 0 0 145 0 0 145 0 0 145 0 0 145 0 0 145 0 0 145 0 0 145 0 0 145 0 0 145 0 0 145 0 0 145 0 0 145 0 0 145 0 0 145 0 0 145 0 0 145 0 0 145 0 0 145 0 0 145 0 0 145 0 0 145 0 0 145 0 0 145 0 0 145 0 0 145 225 0 15 255 255 255 255 255 255 255 255 255 255 255 255 255 255 255 255 255 255 255 255 255 255 255 255 255 255 255 255 255 255 255 255 255 255 255 255 255 255 255 255 255 255 255 255 255 255 255 255 255 255 255 255 255 255 255 255 255 255 255 255 255 255 255 255 255 255 255 255 255 255 255 255 255 255 255 255 255 255 255 255 255 255 255 255 255 255 255 255 255 255 255 255 255 255 255 255 255 255 255 255 255 255 255 255 255 255 255 255 255 255 255 255 255 255 255 255 255 255 255 255 255 255 255 255 255 255 255 255 255 255 255 255 255 255 255 255 255 255 255 255 255 255 255 255 255 255 255 255 255 255 255 255 255 255 255 255 255 255 255 255 255 255 255 255 255 255 255 255 255 255 255 255 255 255 255 255 255 255 255 255 255 255 255 255 255 255 255 255 255 255 255 255 255 255 255 255 255 255 255 255 255 255 255 255 255 255 255 255 255 255 255 255 255 255 255 255 255 255 255 255 255 255 255 255 255 255 255 255 255 255 255 255 255 255 255 255 255 255 255 255 255 255 255 255 255 255 255 255 255 255 255 255 255 255 255 255 255 255 255 255 255 255 255 255 255 255 255 255 255 255 255 255 255 255 255 255 255 255 255 255 255 255 255 255 255 255 255 255 255 255 255 255 255 255 255 255 255 225 0 15 225 0 15 225 0 15 225 0 15 225 0 15 225 0 15 225 0 15 225 0 15 225 0 15 225 0 15 225 0 15 225 0 15 225 0 15 225 0 15 225 0 15 225 0 15 225 0 15 225 0 15 225 0 15 225 0 15 225 0 15 225 0 15 225 0 15 225 0 15 225 0 15 225 0 15 225 0 15 225 0 15 225 0 15 225 0 15 225 0 15 225 0 15 225 0 15 225 0 15 225 0 15 225 0 15 225 0 15 225 0 15 225 0 15 225 0 15 225 0 15 225 0 15 225 0 15 225 0 15 225 0 15 225 0 15 225 0 15 225 0 15 225 0 15 225 0 15 225 0 15 225 0 15 225 0 15 225 0 15 225 0 15 225 0 15 225 0 15 225 0 15 225 0 15 225 0 15 225 0 15 225 0 15 225 0 15 225 0 15 225 0 15 225 0 15 225 0 15 225 0 15 225 0 15 225 0 15 225 0 15 225 0 15 225 0 15 225 0 15 225 0 15 225 0 15 225 0 15 225 0 15 225 0 15 225 0 15 225 0 15 225 0 15 225 0 15 225 0 15 225 0 15 225 0 15 225 0 15 225 0 15 225 0 15 225 0 15 225 0 15 225 0 15 225 0 15 225 0 15 225 0 15 225 0 15 225 0 15 225 0 15 225 0 15 225 0 15 225 0 15 
0 0 145 0 0 145 0 0 145 0 0 145 0 0 145 0 0 145 0 0 145 0 0 145 0 0 145 0 0 145 0 0 145 0 0 145 0 0 145 0 0 145 0 0 145 0 0 145 0 0 145 0 0 145 0 0 145 0 0 145 0 0 145 0 0 145 0 0 145 0 0 145 0 0 145 0 0 145 0 0 145 0 0 145 0 0 145 0 0 145 0 0 145 0 0 145 0 0 145 0 0 145 0 0 145 0 0 145 0 0 145 0 0 145 0 0 145 0 0 145 0 0 145 0 0 145 0 0 145 0 0 145 0 0 145 0 0 145 0 0 145 0 0 145 0 0 145 0 0 145 0 0 145 0 0 145 0 0 145 0 0 145 0 0 145 0 0 145 0 0 145 0 0 145 0 0 145 0 0 145 0 0 145 0 0 145 0 0 145 0 0 145 0 0 145 0 0 145 0 0 145 0 0 145 0 0 145 0 0 145 0 0 145 0 0 145 0 0 145 0 0 145 0 0 145 0 0 145 0 0 145 0 0 145 0 0 145 0 0 145 0 0 145 0 0 145 0 0 145 0 0 145 0 0 145 0 0 145 0 0 145 0 0 145 0 0 145 0 0 145 0 0 145 0 0 145 0 0 145 0 0 145 0 0 145 0 0 145 0 0 145 0 0 145 0 0 145 225 0 15 255 255 255 255 255 255 255 255 255 255 255 255 255 255 255 255 255 255 255 255 255 255 255 255 255 255 255 255 255 255 255 255 255 255 255 255 255 255 255 255 255 255 255 255 255 255 255 255 255 255 255 255 255 255 255 255 255 255 255 255 255 255 255 255 255 255 255 255 255 255 255 255 255 255 255 255 255 255 255 255 255 255 255 255 255 255 255 255 255 255 255 255 255 255 255 255 255 255 255 255 255 255 255 255 255 255 255 255 255 255 255 255 255 255 255 255 255 255 255 255 255 255 255 255 255 255 255 255 255 255 255 255 255 255 255 255 255 255 255 255 255 255 255 255 255 255 255 255 255 255 255 255 255 255 255 255 255 255 255 255 255 255 255 255 255 255 255 255 255 255 255 255 255 255 255 255 255 255 255 255 255 255 255 255 255 255 255 255 255 255 255 255 255 255 255 255 255 255 255 255 255 255 255 255 255 255 255 255 255 255 255 255 255 255 255 255 255 255 255 255 255 255 255 255 255 255 255 255 255 255 255 255 255 255 255 255 255 255 255 255 255 255 255 255 255 255 255 255 255 255 255 255 255 255 255 255 255 255 255 255 255 255 255 255 255 255 255 255 255 255 255 255 255 255 255 255 255 255 255 255 255 255 255 255 255 255 255 255 255 255 255 255 255 255 255 255 255 225 0 15 225 0 15 225 0 15 225 0 15 225 0 15 225 0 15 225 0 15 225 0 15 225 0 15 225 0 15 225 0 15 225 0 15 225 0 15 225 0 15 225 0 15 225 0 15 225 0 15 225 0 15 225 0 15 225 0 15 225 0 15 225 0 15 225 0 15 225 0 15 225 0 15 225 0 15 225 0 15 225 0 15 225 0 15 225 0 15 225 0 15 225 0 15 225 0 15 225 0 15 225 0 15 225 0 15 225 0 15 225 0 15 225 0 15 225 0 15 225 0 15 225 0 15 225 0 15 225 0 15 225 0 15 225 0 15 225 0 15 225 0 15 225 0 15 225 0 15 225 0 15 225 0 15 225 0 15 225 0 15 225 0 15 225 0 15 225 0 15 225 0 15 225 0 15 225 0 15 225 0 15 225 0 15 225 0 15 225 0 15 225 0 15 225 0 15 225 0 15 225 0 15 225 0 15 225 0 15 225 0 15 225 0 15 225 0 15 225 0 15 225 0 15 225 0 15 225 0 15 225 0 15 225 0 15 225 0 15 225 0 15 225 0 15 225 0 15 225 0 15 225 0 15 225 0 15 225 0 15 225 0 15 225 0 15 225 0 15 225 0 15 225 0 15 225 0 15 225 0 15 225 0 15 225 0 15 225 0 15 225 0 15 225 0 15 225 0 15 225 0 15 
0 0 145 0 0 145 0 0 145 0 0 145 0 0 145 0 0 145 0 0 145 0 0 145 0 0 145 0 0 145 0 0 145 0 0 145 0 0 145 0 0 145 0 0 145 0 0 145 0 0 145 0 0 145 0 0 145 0 0 145 0 0 145 0 0 145 0 0 145 0 0 145 0 0 145 0 0 145 0 0 145 0 0 145 0 0 145 0 0 145 0 0 145 0 0 145 0 0 145 0 0 145 0 0 145 0 0 145 0 0 145 0 0 145 0 0 145 0 0 145 0 0 145 0 0 145 0 0 145 0 0 145 0 0 145 0 0 145 0 0 145 0 0 145 0 0 145 0 0 145 0 0 145 0 0 145 0 0 145 0 0 145 0 0 145 0 0 145 0 0 145 0 0 145 0 0 145 0 0 145 0 0 145 0 0 145 0 0 145 0 0 145 0 0 145 0 0 145 0 0 145 0 0 145 0 0 145 0 0 145 0 0 145 0 0 145 0 0 145 0 0 145 0 0 145 0 0 145 0 0 145 0 0 145 0 0 145 0 0 145 0 0 145 0 0 145 0 0 145 0 0 145 0 0 145 0 0 145 0 0 145 0 0 145 0 0 145 0 0 145 0 0 145 0 0 145 0 0 145 0 0 145 0 0 145 0 0 145 0 0 145 0 0 145 0 0 145 225 0 15 255 255 255 255 255 255 255 255 255 255 255 255 255 255 255 255 255 255 255 255 255 255 255 255 255 255 255 255 255 255 255 255 255 255 255 255 255 255 255 255 255 255 255 255 255 255 255 255 255 255 255 255 255 255 255 255 255 255 255 255 255 255 255 255 255 255 255 255 255 255 255 255 255 255 255 255 255 255 255 255 255 255 255 255 255 255 255 255 255 255 255 255 255 255 255 255 255 255 255 255 255 255 255 255 255 255 255 255 255 255 255 255 255 255 255 255 255 255 255 255 255 255 255 255 255 255 255 255 255 255 255 255 255 255 255 255 255 255 255 255 255 255 255 255 255 255 255 255 255 255 255 255 255 255 255 255 255 255 255 255 255 255 255 255 255 255 255 255 255 255 255 255 255 255 255 255 255 255 255 255 255 255 255 255 255 255 255 255 255 255 255 255 255 255 255 255 255 255 255 255 255 255 255 255 255 255 255 255 255 255 255 255 255 255 255 255 255 255 255 255 255 255 255 255 255 255 255 255 255 255 255 255 255 255 255 255 255 255 255 255 255 255 255 255 255 255 255 255 255 255 255 255 255 255 255 255 255 255 255 255 255 255 255 255 255 255 255 255 255 255 255 255 255 255 255 255 255 255 255 255 255 255 255 255 255 255 255 255 255 255 255 255 255 255 255 255 255 225 0 15 225 0 15 225 0 15 225 0 15 225 0 15 225 0 15 225 0 15 225 0 15 225 0 15 225 0 15 225 0 15 225 0 15 225 0 15 225 0 15 225 0 15 225 0 15 225 0 15 225 0 15 225 0 15 225 0 15 225 0 15 225 0 15 225 0 15 225 0 15 225 0 15 225 0 15 225 0 15 225 0 15 225 0 15 225 0 15 225 0 15 225 0 15 225 0 15 225 0 15 225 0 15 225 0 15 225 0 15 225 0 15 225 0 15 225 0 15 225 0 15 225 0 15 225 0 15 225 0 15 225 0 15 225 0 15 225 0 15 225 0 15 225 0 15 225 0 15 225 0 15 225 0 15 225 0 15 225 0 15 225 0 15 225 0 15 225 0 15 225 0 15 225 0 15 225 0 15 225 0 15 225 0 15 225 0 15 225 0 15 225 0 15 225 0 15 225 0 15 225 0 15 225 0 15 225 0 15 225 0 15 225 0 15 225 0 15 225 0 15 225 0 15 225 0 15 225 0 15 225 0 15 225 0 15 225 0 15 225 0 15 225 0 15 225 0 15 225 0 15 225 0 15 225 0 15 225 0 15 225 0 15 225 0 15 225 0 15 225 0 15 225 0 15 225 0 15 225 0 15 225 0 15 225 0 15 225 0 15 225 0 15 225 0 15 225 0 15 225 0 15 
0 0 145 0 0 145 0 0 145 0 0 145 0 0 145 0 0 145 0 0 145 0 0 145 0 0 145 0 0 145 0 0 145 0 0 145 0 0 145 0 0 145 0 0 145 0 0 145 0 0 145 0 0 145 0 0 145 0 0 145 0 0 145 0 0 145 0 0 145 0 0 145 0 0 145 0 0 145 0 0 145 0 0 145 0 0 145 0 0 145 0 0 145 0 0 145 0 0 145 0 0 145 0 0 145 0 0 145 0 0 145 0 0 145 0 0 145 0 0 145 0 0 145 0 0 145 0 0 145 0 0 145 0 0 145 0 0 145 0 0 145 0 0 145 0 0 145 0 0 145 0 0 145 0 0 145 0 0 145 0 0 145 0 0 145 0 0 145 0 0 145 0 0 145 0 0 145 0 0 145 0 0 145 0 0 145 0 0 145 0 0 145 0 0 145 0 0 145 0 0 145 0 0 145 0 0 145 0 0 145 0 0 145 0 0 145 0 0 145 0 0 145 0 0 145 0 0 145 0 0 145 0 0 145 0 0 145 0 0 145 0 0 145 0 0 145 0 0 145 0 0 145 0 0 145 0 0 145 0 0 145 0 0 145 0 0 145 0 0 145 0 0 145 0 0 145 0 0 145 0 0 145 0 0 145 0 0 145 0 0 145 0 0 145 0 0 145 225 0 15 255 255 255 255 255 255 255 255 255 255 255 255 255 255 255 255 255 255 255 255 255 255 255 255 255 255 255 255 255 255 255 255 255 255 255 255 255 255 255 255 255 255 255 255 255 255 255 255 255 255 255 255 255 255 255 255 255 255 255 255 255 255 255 255 255 255 255 255 255 255 255 255 255 255 255 255 255 255 255 255 255 255 255 255 255 255 255 255 255 255 255 255 255 255 255 255 255 255 255 255 255 255 255 255 255 255 255 255 255 255 255 255 255 255 255 255 255 255 255 255 255 255 255 255 255 255 255 255 255 255 255 255 255 255 255 255 255 255 255 255 255 255 255 255 255 255 255 255 255 255 255 255 255 255 255 255 255 255 255 255 255 255 255 255 255 255 255 255 255 255 255 255 255 255 255 255 255 255 255 255 255 255 255 255 255 255 255 255 255 255 255 255 255 255 255 255 255 255 255 255 255 255 255 255 255 255 255 255 255 255 255 255 255 255 255 255 255 255 255 255 255 255 255 255 255 255 255 255 255 255 255 255 255 255 255 255 255 255 255 255 255 255 255 255 255 255 255 255 255 255 255 255 255 255 255 255 255 255 255 255 255 255 255 255 255 255 255 255 255 255 255 255 255 255 255 255 255 255 255 255 255 255 255 255 255 255 255 255 255 255 255 255 255 255 255 255 255 225 0 15 225 0 15 225 0 15 225 0 15 225 0 15 225 0 15 225 0 15 225 0 15 225 0 15 225 0 15 225 0 15 225 0 15 225 0 15 225 0 15 225 0 15 225 0 15 225 0 15 225 0 15 225 0 15 225 0 15 225 0 15 225 0 15 225 0 15 225 0 15 225 0 15 225 0 15 225 0 15 225 0 15 225 0 15 225 0 15 225 0 15 225 0 15 225 0 15 225 0 15 225 0 15 225 0 15 225 0 15 225 0 15 225 0 15 225 0 15 225 0 15 225 0 15 225 0 15 225 0 15 225 0 15 225 0 15 225 0 15 225 0 15 225 0 15 225 0 15 225 0 15 225 0 15 225 0 15 225 0 15 225 0 15 225 0 15 225 0 15 225 0 15 225 0 15 225 0 15 225 0 15 225 0 15 225 0 15 225 0 15 225 0 15 225 0 15 225 0 15 225 0 15 225 0 15 225 0 15 225 0 15 225 0 15 225 0 15 225 0 15 225 0 15 225 0 15 225 0 15 225 0 15 225 0 15 225 0 15 225 0 15 225 0 15 225 0 15 225 0 15 225 0 15 225 0 15 225 0 15 225 0 15 225 0 15 225 0 15 225 0 15 225 0 15 225 0 15 225 0 15 225 0 15 225 0 15 225 0 15 225 0 15 225 0 15 225 0 15 225 0 15 
0 0 145 0 0 145 0 0 145 0 0 145 0 0 145 0 0 145 0 0 145 0 0 145 0 0 145 0 0 145 0 0 145 0 0 145 0 0 145 0 0 145 0 0 145 0 0 145 0 0 145 0 0 145 0 0 145 0 0 145 0 0 145 0 0 145 0 0 145 0 0 145 0 0 145 0 0 145 0 0 145 0 0 145 0 0 145 0 0 145 0 0 145 0 0 145 0 0 145 0 0 145 0 0 145 0 0 145 0 0 145 0 0 145 0 0 145 0 0 145 0 0 145 0 0 145 0 0 145 0 0 145 0 0 145 0 0 145 0 0 145 0 0 145 0 0 145 0 0 145 0 0 145 0 0 145 0 0 145 0 0 145 0 0 145 0 0 145 0 0 145 0 0 145 0 0 145 0 0 145 0 0 145 0 0 145 0 0 145 0 0 145 0 0 145 0 0 145 0 0 145 0 0 145 0 0 145 0 0 145 0 0 145 0 0 145 0 0 145 0 0 145 0 0 145 0 0 145 0 0 145 0 0 145 0 0 145 0 0 145 0 0 145 0 0 145 0 0 145 0 0 145 0 0 145 0 0 145 0 0 145 0 0 145 0 0 145 0 0 145 0 0 145 0 0 145 0 0 145 0 0 145 0 0 145 0 0 145 0 0 145 0 0 145 0 0 145 225 0 15 255 255 255 255 255 255 255 255 255 255 255 255 255 255 255 255 255 255 255 255 255 255 255 255 255 255 255 255 255 255 255 255 255 255 255 255 255 255 255 255 255 255 255 255 255 255 255 255 255 255 255 255 255 255 255 255 255 255 255 255 255 255 255 255 255 255 255 255 255 255 255 255 255 255 255 255 255 255 255 255 255 255 255 255 255 255 255 255 255 255 255 255 255 255 255 255 255 255 255 255 255 255 255 255 255 255 255 255 255 255 255 255 255 255 255 255 255 255 255 255 255 255 255 255 255 255 255 255 255 255 255 255 255 255 255 255 255 255 255 255 255 255 255 255 255 255 255 255 255 255 255 255 255 255 255 255 255 255 255 255 255 255 255 255 255 255 255 255 255 255 255 255 255 255 255 255 255 255 255 255 255 255 255 255 255 255 255 255 255 255 255 255 255 255 255 255 255 255 255 255 255 255 255 255 255 255 255 255 255 255 255 255 255 255 255 255 255 255 255 255 255 255 255 255 255 255 255 255 255 255 255 255 255 255 255 255 255 255 255 255 255 255 255 255 255 255 255 255 255 255 255 255 255 255 255 255 255 255 255 255 255 255 255 255 255 255 255 255 255 255 255 255 255 255 255 255 255 255 255 255 255 255 255 255 255 255 255 255 255 255 255 255 255 255 255 255 255 225 0 15 225 0 15 225 0 15 225 0 15 225 0 15 225 0 15 225 0 15 225 0 15 225 0 15 225 0 15 225 0 15 225 0 15 225 0 15 225 0 15 225 0 15 225 0 15 225 0 15 225 0 15 225 0 15 225 0 15 225 0 15 225 0 15 225 0 15 225 0 15 225 0 15 225 0 15 225 0 15 225 0 15 225 0 15 225 0 15 225 0 15 225 0 15 225 0 15 225 0 15 225 0 15 225 0 15 225 0 15 225 0 15 225 0 15 225 0 15 225 0 15 225 0 15 225 0 15 225 0 15 225 0 15 225 0 15 225 0 15 225 0 15 225 0 15 225 0 15 225 0 15 225 0 15 225 0 15 225 0 15 225 0 15 225 0 15 225 0 15 225 0 15 225 0 15 225 0 15 225 0 15 225 0 15 225 0 15 225 0 15 225 0 15 225 0 15 225 0 15 225 0 15 225 0 15 225 0 15 225 0 15 225 0 15 225 0 15 225 0 15 225 0 15 225 0 15 225 0 15 225 0 15 225 0 15 225 0 15 225 0 15 225 0 15 225 0 15 225 0 15 225 0 15 225 0 15 225 0 15 225 0 15 225 0 15 225 0 15 225 0 15 225 0 15 225 0 15 225 0 15 225 0 15 225 0 15 225 0 15 225 0 15 225 0 15 225 0 15 225 0 15 
0 0 145 0 0 145 0 0 145 0 0 145 0 0 145 0 0 145 0 0 145 0 0 145 0 0 145 0 0 145 0 0 145 0 0 145 0 0 145 0 0 145 0 0 145 0 0 145 0 0 145 0 0 145 0 0 145 0 0 145 0 0 145 0 0 145 0 0 145 0 0 145 0 0 145 0 0 145 0 0 145 0 0 145 0 0 145 0 0 145 0 0 145 0 0 145 0 0 145 0 0 145 0 0 145 0 0 145 0 0 145 0 0 145 0 0 145 0 0 145 0 0 145 0 0 145 0 0 145 0 0 145 0 0 145 0 0 145 0 0 145 0 0 145 0 0 145 0 0 145 0 0 145 0 0 145 0 0 145 0 0 145 0 0 145 0 0 145 0 0 145 0 0 145 0 0 145 0 0 145 0 0 145 0 0 145 0 0 145 0 0 145 0 0 145 0 0 145 0 0 145 0 0 145 0 0 145 0 0 145 0 0 145 0 0 145 0 0 145 0 0 145 0 0 145 0 0 145 0 0 145 0 0 145 0 0 145 0 0 145 0 0 145 0 0 145 0 0 145 0 0 145 0 0 145 0 0 145 0 0 145 0 0 145 0 0 145 0 0 145 0 0 145 0 0 145 0 0 145 0 0 145 0 0 145 0 0 145 0 0 145 0 0 145 0 0 145 225 0 15 255 255 255 255 255 255 255 255 255 255 255 255 255 255 255 255 255 255 255 255 255 255 255 255 255 255 255 255 255 255 255 255 255 255 255 255 255 255 255 255 255 255 255 255 255 255 255 255 255 255 255 255 255 255 255 255 255 255 255 255 255 255 255 255 255 255 255 255 255 255 255 255 255 255 255 255 255 255 255 255 255 255 255 255 255 255 255 255 255 255 255 255 255 255 255 255 255 255 255 255 255 255 255 255 255 255 255 255 255 255 255 255 255 255 255 255 255 255 255 255 255 255 255 255 255 255 255 255 255 255 255 255 255 255 255 255 255 255 255 255 255 255 255 255 255 255 255 255 255 255 255 255 255 255 255 255 255 255 255 255 255 255 255 255 255 255 255 255 255 255 255 255 255 255 255 255 255 255 255 255 255 255 255 255 255 255 255 255 255 255 255 255 255 255 255 255 255 255 255 255 255 255 255 255 255 255 255 255 255 255 255 255 255 255 255 255 255 255 255 255 255 255 255 255 255 255 255 255 255 255 255 255 255 255 255 255 255 255 255 255 255 255 255 255 255 255 255 255 255 255 255 255 255 255 255 255 255 255 255 255 255 255 255 255 255 255 255 255 255 255 255 255 255 255 255 255 255 255 255 255 255 255 255 255 255 255 255 255 255 255 255 255 255 255 255 255 255 225 0 15 225 0 15 225 0 15 225 0 15 225 0 15 225 0 15 225 0 15 225 0 15 225 0 15 225 0 15 225 0 15 225 0 15 225 0 15 225 0 15 225 0 15 225 0 15 225 0 15 225 0 15 225 0 15 225 0 15 225 0 15 225 0 15 225 0 15 225 0 15 225 0 15 225 0 15 225 0 15 225 0 15 225 0 15 225 0 15 225 0 15 225 0 15 225 0 15 225 0 15 225 0 15 225 0 15 225 0 15 225 0 15 225 0 15 225 0 15 225 0 15 225 0 15 225 0 15 225 0 15 225 0 15 225 0 15 225 0 15 225 0 15 225 0 15 225 0 15 225 0 15 225 0 15 225 0 15 225 0 15 225 0 15 225 0 15 225 0 15 225 0 15 225 0 15 225 0 15 225 0 15 225 0 15 225 0 15 225 0 15 225 0 15 225 0 15 225 0 15 225 0 15 225 0 15 225 0 15 225 0 15 225 0 15 225 0 15 225 0 15 225 0 15 225 0 15 225 0 15 225 0 15 225 0 15 225 0 15 225 0 15 225 0 15 225 0 15 225 0 15 225 0 15 225 0 15 225 0 15 225 0 15 225 0 15 225 0 15 225 0 15 225 0 15 225 0 15 225 0 15 225 0 15 225 0 15 225 0 15 225 0 15 225 0 15 225 0 15 225 0 15 
0 0 145 0 0 145 0 0 145 0 0 145 0 0 145 0 0 145 0 0 145 0 0 145 0 0 145 0 0 145 0 0 145 0 0 145 0 0 145 0 0 145 0 0 145 0 0 145 0 0 145 0 0 145 0 0 145 0 0 145 0 0 145 0 0 145 0 0 145 0 0 145 0 0 145 0 0 145 0 0 145 0 0 145 0 0 145 0 0 145 0 0 145 0 0 145 0 0 145 0 0 145 0 0 145 0 0 145 0 0 145 0 0 145 0 0 145 0 0 145 0 0 145 0 0 145 0 0 145 0 0 145 0 0 145 0 0 145 0 0 145 0 0 145 0 0 145 0 0 145 0 0 145 0 0 145 0 0 145 0 0 145 0 0 145 0 0 145 0 0 145 0 0 145 0 0 145 0 0 145 0 0 145 0 0 145 0 0 145 0 0 145 0 0 145 0 0 145 0 0 145 0 0 145 0 0 145 0 0 145 0 0 145 0 0 145 0 0 145 0 0 145 0 0 145 0 0 145 0 0 145 0 0 145 0 0 145 0 0 145 0 0 145 0 0 145 0 0 145 0 0 145 0 0 145 0 0 145 0 0 145 0 0 145 0 0 145 0 0 145 0 0 145 0 0 145 0 0 145 0 0 145 0 0 145 0 0 145 0 0 145 0 0 145 0 0 145 225 0 15 255 255 255 255 255 255 255 255 255 255 255 255 255 255 255 255 255 255 255 255 255 255 255 255 255 255 255 255 255 255 255 255 255 255 255 255 255 255 255 255 255 255 255 255 255 255 255 255 255 255 255 255 255 255 255 255 255 255 255 255 255 255 255 255 255 255 255 255 255 255 255 255 255 255 255 255 255 255 255 255 255 255 255 255 255 255 255 255 255 255 255 255 255 255 255 255 255 255 255 255 255 255 255 255 255 255 255 255 255 255 255 255 255 255 255 255 255 255 255 255 255 255 255 255 255 255 255 255 255 255 255 255 255 255 255 255 255 255 255 255 255 255 255 255 255 255 255 255 255 255 255 255 255 255 255 255 255 255 255 255 255 255 255 255 255 255 255 255 255 255 255 255 255 255 255 255 255 255 255 255 255 255 255 255 255 255 255 255 255 255 255 255 255 255 255 255 255 255 255 255 255 255 255 255 255 255 255 255 255 255 255 255 255 255 255 255 255 255 255 255 255 255 255 255 255 255 255 255 255 255 255 255 255 255 255 255 255 255 255 255 255 255 255 255 255 255 255 255 255 255 255 255 255 255 255 255 255 255 255 255 255 255 255 255 255 255 255 255 255 255 255 255 255 255 255 255 255 255 255 255 255 255 255 255 255 255 255 255 255 255 255 255 255 255 255 255 255 225 0 15 225 0 15 225 0 15 225 0 15 225 0 15 225 0 15 225 0 15 225 0 15 225 0 15 225 0 15 225 0 15 225 0 15 225 0 15 225 0 15 225 0 15 225 0 15 225 0 15 225 0 15 225 0 15 225 0 15 225 0 15 225 0 15 225 0 15 225 0 15 225 0 15 225 0 15 225 0 15 225 0 15 225 0 15 225 0 15 225 0 15 225 0 15 225 0 15 225 0 15 225 0 15 225 0 15 225 0 15 225 0 15 225 0 15 225 0 15 225 0 15 225 0 15 225 0 15 225 0 15 225 0 15 225 0 15 225 0 15 225 0 15 225 0 15 225 0 15 225 0 15 225 0 15 225 0 15 225 0 15 225 0 15 225 0 15 225 0 15 225 0 15 225 0 15 225 0 15 225 0 15 225 0 15 225 0 15 225 0 15 225 0 15 225 0 15 225 0 15 225 0 15 225 0 15 225 0 15 225 0 15 225 0 15 225 0 15 225 0 15 225 0 15 225 0 15 225 0 15 225 0 15 225 0 15 225 0 15 225 0 15 225 0 15 225 0 15 225 0 15 225 0 15 225 0 15 225 0 15 225 0 15 225 0 15 225 0 15 225 0 15 225 0 15 225 0 15 225 0 15 225 0 15 225 0 15 225 0 15 225 0 15 225 0 15 225 0 15 225 0 15 
0 0 145 0 0 145 0 0 145 0 0 145 0 0 145 0 0 145 0 0 145 0 0 145 0 0 145 0 0 145 0 0 145 0 0 145 0 0 145 0 0 145 0 0 145 0 0 145 0 0 145 0 0 145 0 0 145 0 0 145 0 0 145 0 0 145 0 0 145 0 0 145 0 0 145 0 0 145 0 0 145 0 0 145 0 0 145 0 0 145 0 0 145 0 0 145 0 0 145 0 0 145 0 0 145 0 0 145 0 0 145 0 0 145 0 0 145 0 0 145 0 0 145 0 0 145 0 0 145 0 0 145 0 0 145 0 0 145 0 0 145 0 0 145 0 0 145 0 0 145 0 0 145 0 0 145 0 0 145 0 0 145 0 0 145 0 0 145 0 0 145 0 0 145 0 0 145 0 0 145 0 0 145 0 0 145 0 0 145 0 0 145 0 0 145 0 0 145 0 0 145 0 0 145 0 0 145 0 0 145 0 0 145 0 0 145 0 0 145 0 0 145 0 0 145 0 0 145 0 0 145 0 0 145 0 0 145 0 0 145 0 0 145 0 0 145 0 0 145 0 0 145 0 0 145 0 0 145 0 0 145 0 0 145 0 0 145 0 0 145 0 0 145 0 0 145 0 0 145 0 0 145 0 0 145 0 0 145 0 0 145 0 0 145 0 0 145 225 0 15 255 255 255 255 255 255 255 255 255 255 255 255 255 255 255 255 255 255 255 255 255 255 255 255 255 255 255 255 255 255 255 255 255 255 255 255 255 255 255 255 255 255 255 255 255 255 255 255 255 255 255 255 255 255 255 255 255 255 255 255 255 255 255 255 255 255 255 255 255 255 255 255 255 255 255 255 255 255 255 255 255 255 255 255 255 255 255 255 255 255 255 255 255 255 255 255 255 255 255 255 255 255 255 255 255 255 255 255 255 255 255 255 255 255 255 255 255 255 255 255 255 255 255 255 255 255 255 255 255 255 255 255 255 255 255 255 255 255 255 255 255 255 255 255 255 255 255 255 255 255 255 255 255 255 255 255 255 255 255 255 255 255 255 255 255 255 255 255 255 255 255 255 255 255 255 255 255 255 255 255 255 255 255 255 255 255 255 255 255 255 255 255 255 255 255 255 255 255 255 255 255 255 255 255 255 255 255 255 255 255 255 255 255 255 255 255 255 255 255 255 255 255 255 255 255 255 255 255 255 255 255 255 255 255 255 255 255 255 255 255 255 255 255 255 255 255 255 255 255 255 255 255 255 255 255 255 255 255 255 255 255 255 255 255 255 255 255 255 255 255 255 255 255 255 255 255 255 255 255 255 255 255 255 255 255 255 255 255 255 255 255 255 255 255 255 255 255 225 0 15 225 0 15 225 0 15 225 0 15 225 0 15 225 0 15 225 0 15 225 0 15 225 0 15 225 0 15 225 0 15 225 0 15 225 0 15 225 0 15 225 0 15 225 0 15 225 0 15 225 0 15 225 0 15 225 0 15 225 0 15 225 0 15 225 0 15 225 0 15 225 0 15 225 0 15 225 0 15 225 0 15 225 0 15 225 0 15 225 0 15 225 0 15 225 0 15 225 0 15 225 0 15 225 0 15 225 0 15 225 0 15 225 0 15 225 0 15 225 0 15 225 0 15 225 0 15 225 0 15 225 0 15 225 0 15 225 0 15 225 0 15 225 0 15 225 0 15 225 0 15 225 0 15 225 0 15 225 0 15 225 0 15 225 0 15 225 0 15 225 0 15 225 0 15 225 0 15 225 0 15 225 0 15 225 0 15 225 0 15 225 0 15 225 0 15 225 0 15 225 0 15 225 0 15 225 0 15 225 0 15 225 0 15 225 0 15 225 0 15 225 0 15 225 0 15 225 0 15 225 0 15 225 0 15 225 0 15 225 0 15 225 0 15 225 0 15 225 0 15 225 0 15 225 0 15 225 0 15 225 0 15 225 0 15 225 0 15 225 0 15 225 0 15 225 0 15 225 0 15 225 0 15 225 0 15 225 0 15 225 0 15 225 0 15 225 0 15 225 0 15 
0 0 145 0 0 145 0 0 145 0 0 145 0 0 145 0 0 145 0 0 145 0 0 145 0 0 145 0 0 145 0 0 145 0 0 145 0 0 145 0 0 145 0 0 145 0 0 145 0 0 145 0 0 145 0 0 145 0 0 145 0 0 145 0 0 145 0 0 145 0 0 145 0 0 145 0 0 145 0 0 145 0 0 145 0 0 145 0 0 145 0 0 145 0 0 145 0 0 145 0 0 145 0 0 145 0 0 145 0 0 145 0 0 145 0 0 145 0 0 145 0 0 145 0 0 145 0 0 145 0 0 145 0 0 145 0 0 145 0 0 145 0 0 145 0 0 145 0 0 145 0 0 145 0 0 145 0 0 145 0 0 145 0 0 145 0 0 145 0 0 145 0 0 145 0 0 145 0 0 145 0 0 145 0 0 145 0 0 145 0 0 145 0 0 145 0 0 145 0 0 145 0 0 145 0 0 145 0 0 145 0 0 145 0 0 145 0 0 145 0 0 145 0 0 145 0 0 145 0 0 145 0 0 145 0 0 145 0 0 145 0 0 145 0 0 145 0 0 145 0 0 145 0 0 145 0 0 145 0 0 145 0 0 145 0 0 145 0 0 145 0 0 145 0 0 145 0 0 145 0 0 145 0 0 145 0 0 145 0 0 145 0 0 145 0 0 145 225 0 15 255 255 255 255 255 255 255 255 255 255 255 255 255 255 255 255 255 255 255 255 255 255 255 255 255 255 255 255 255 255 255 255 255 255 255 255 255 255 255 255 255 255 255 255 255 255 255 255 255 255 255 255 255 255 255 255 255 255 255 255 255 255 255 255 255 255 255 255 255 255 255 255 255 255 255 255 255 255 255 255 255 255 255 255 255 255 255 255 255 255 255 255 255 255 255 255 255 255 255 255 255 255 255 255 255 255 255 255 255 255 255 255 255 255 255 255 255 255 255 255 255 255 255 255 255 255 255 255 255 255 255 255 255 255 255 255 255 255 255 255 255 255 255 255 255 255 255 255 255 255 255 255 255 255 255 255 255 255 255 255 255 255 255 255 255 255 255 255 255 255 255 255 255 255 255 255 255 255 255 255 255 255 255 255 255 255 255 255 255 255 255 255 255 255 255 255 255 255 255 255 255 255 255 255 255 255 255 255 255 255 255 255 255 255 255 255 255 255 255 255 255 255 255 255 255 255 255 255 255 255 255 255 255 255 255 255 255 255 255 255 255 255 255 255 255 255 255 255 255 255 255 255 255 255 255 255 255 255 255 255 255 255 255 255 255 255 255 255 255 255 255 255 255 255 255 255 255 255 255 255 255 255 255 255 255 255 255 255 255 255 255 255 255 255 255 255 255 225 0 15 225 0 15 225 0 15 225 0 15 225 0 15 225 0 15 225 0 15 225 0 15 225 0 15 225 0 15 225 0 15 225 0 15 225 0 15 225 0 15 225 0 15 225 0 15 225 0 15 225 0 15 225 0 15 225 0 15 225 0 15 225 0 15 225 0 15 225 0 15 225 0 15 225 0 15 225 0 15 225 0 15 225 0 15 225 0 15 225 0 15 225 0 15 225 0 15 225 0 15 225 0 15 225 0 15 225 0 15 225 0 15 225 0 15 225 0 15 225 0 15 225 0 15 225 0 15 225 0 15 225 0 15 225 0 15 225 0 15 225 0 15 225 0 15 225 0 15 225 0 15 225 0 15 225 0 15 225 0 15 225 0 15 225 0 15 225 0 15 225 0 15 225 0 15 225 0 15 225 0 15 225 0 15 225 0 15 225 0 15 225 0 15 225 0 15 225 0 15 225 0 15 225 0 15 225 0 15 225 0 15 225 0 15 225 0 15 225 0 15 225 0 15 225 0 15 225 0 15 225 0 15 225 0 15 225 0 15 225 0 15 225 0 15 225 0 15 225 0 15 225 0 15 225 0 15 225 0 15 225 0 15 225 0 15 225 0 15 225 0 15 225 0 15 225 0 15 225 0 15 225 0 15 225 0 15 225 0 15 225 0 15 225 0 15 225 0 15 225 0 15 
0 0 145 0 0 145 0 0 145 0 0 145 0 0 145 0 0 145 0 0 145 0 0 145 0 0 145 0 0 145 0 0 145 0 0 145 0 0 145 0 0 145 0 0 145 0 0 145 0 0 145 0 0 145 0 0 145 0 0 145 0 0 145 0 0 145 0 0 145 0 0 145 0 0 145 0 0 145 0 0 145 0 0 145 0 0 145 0 0 145 0 0 145 0 0 145 0 0 145 0 0 145 0 0 145 0 0 145 0 0 145 0 0 145 0 0 145 0 0 145 0 0 145 0 0 145 0 0 145 0 0 145 0 0 145 0 0 145 0 0 145 0 0 145 0 0 145 0 0 145 0 0 145 0 0 145 0 0 145 0 0 145 0 0 145 0 0 145 0 0 145 0 0 145 0 0 145 0 0 145 0 0 145 0 0 145 0 0 145 0 0 145 0 0 145 0 0 145 0 0 145 0 0 145 0 0 145 0 0 145 0 0 145 0 0 145 0 0 145 0 0 145 0 0 145 0 0 145 0 0 145 0 0 145 0 0 145 0 0 145 0 0 145 0 0 145 0 0 145 0 0 145 0 0 145 0 0 145 0 0 145 0 0 145 0 0 145 0 0 145 0 0 145 0 0 145 0 0 145 0 0 145 0 0 145 0 0 145 0 0 145 0 0 145 0 0 145 225 0 15 255 255 255 255 255 255 255 255 255 255 255 255 255 255 255 255 255 255 255 255 255 255 255 255 255 255 255 255 255 255 255 255 255 255 255 255 255 255 255 255 255 255 255 255 255 255 255 255 255 255 255 255 255 255 255 255 255 255 255 255 255 255 255 255 255 255 255 255 255 255 255 255 255 255 255 255 255 255 255 255 255 255 255 255 255 255 255 255 255 255 255 255 255 255 255 255 255 255 255 255 255 255 255 255 255 255 255 255 255 255 255 255 255 255 255 255 255 255 255 255 255 255 255 255 255 255 255 255 255 255 255 255 255 255 255 255 255 255 255 255 255 255 255 255 255 255 255 255 255 255 255 255 255 255 255 255 255 255 255 255 255 255 255 255 255 255 255 255 255 255 255 255 255 255 255 255 255 255 255 255 255 255 255 255 255 255 255 255 255 255 255 255 255 255 255 255 255 255 255 255 255 255 255 255 255 255 255 255 255 255 255 255 255 255 255 255 255 255 255 255 255 255 255 255 255 255 255 255 255 255 255 255 255 255 255 255 255 255 255 255 255 255 255 255 255 255 255 255 255 255 255 255 255 255 255 255 255 255 255 255 255 255 255 255 255 255 255 255 255 255 255 255 255 255 255 255 255 255 255 255 255 255 255 255 255 255 255 255 255 255 255 255 255 255 255 255 255 225 0 15 225 0 15 225 0 15 225 0 15 225 0 15 225 0 15 225 0 15 225 0 15 225 0 15 225 0 15 225 0 15 225 0 15 225 0 15 225 0 15 225 0 15 225 0 15 225 0 15 225 0 15 225 0 15 225 0 15 225 0 15 225 0 15 225 0 15 225 0 15 225 0 15 225 0 15 225 0 15 225 0 15 225 0 15 225 0 15 225 0 15 225 0 15 225 0 15 225 0 15 225 0 15 225 0 15 225 0 15 225 0 15 225 0 15 225 0 15 225 0 15 225 0 15 225 0 15 225 0 15 225 0 15 225 0 15 225 0 15 225 0 15 225 0 15 225 0 15 225 0 15 225 0 15 225 0 15 225 0 15 225 0 15 225 0 15 225 0 15 225 0 15 225 0 15 225 0 15 225 0 15 225 0 15 225 0 15 225 0 15 225 0 15 225 0 15 225 0 15 225 0 15 225 0 15 225 0 15 225 0 15 225 0 15 225 0 15 225 0 15 225 0 15 225 0 15 225 0 15 225 0 15 225 0 15 225 0 15 225 0 15 225 0 15 225 0 15 225 0 15 225 0 15 225 0 15 225 0 15 225 0 15 225 0 15 225 0 15 225 0 15 225 0 15 225 0 15 225 0 15 225 0 15 225 0 15 225 0 15 225 0 15 225 0 15 225 0 15 225 0 15 
0 0 145 0 0 145 0 0 145 0 0 145 0 0 145 0 0 145 0 0 145 0 0 145 0 0 145 0 0 145 0 0 145 0 0 145 0 0 145 0 0 145 0 0 145 0 0 145 0 0 145 0 0 145 0 0 145 0 0 145 0 0 145 0 0 145 0 0 145 0 0 145 0 0 145 0 0 145 0 0 145 0 0 145 0 0 145 0 0 145 0 0 145 0 0 145 0 0 145 0 0 145 0 0 145 0 0 145 0 0 145 0 0 145 0 0 145 0 0 145 0 0 145 0 0 145 0 0 145 0 0 145 0 0 145 0 0 145 0 0 145 0 0 145 0 0 145 0 0 145 0 0 145 0 0 145 0 0 145 0 0 145 0 0 145 0 0 145 0 0 145 0 0 145 0 0 145 0 0 145 0 0 145 0 0 145 0 0 145 0 0 145 0 0 145 0 0 145 0 0 145 0 0 145 0 0 145 0 0 145 0 0 145 0 0 145 0 0 145 0 0 145 0 0 145 0 0 145 0 0 145 0 0 145 0 0 145 0 0 145 0 0 145 0 0 145 0 0 145 0 0 145 0 0 145 0 0 145 0 0 145 0 0 145 0 0 145 0 0 145 0 0 145 0 0 145 0 0 145 0 0 145 0 0 145 0 0 145 0 0 145 0 0 145 0 0 145 225 0 15 255 255 255 255 255 255 255 255 255 255 255 255 255 255 255 255 255 255 255 255 255 255 255 255 255 255 255 255 255 255 255 255 255 255 255 255 255 255 255 255 255 255 255 255 255 255 255 255 255 255 255 255 255 255 255 255 255 255 255 255 255 255 255 255 255 255 255 255 255 255 255 255 255 255 255 255 255 255 255 255 255 255 255 255 255 255 255 255 255 255 255 255 255 255 255 255 255 255 255 255 255 255 255 255 255 255 255 255 255 255 255 255 255 255 255 255 255 255 255 255 255 255 255 255 255 255 255 255 255 255 255 255 255 255 255 255 255 255 255 255 255 255 255 255 255 255 255 255 255 255 255 255 255 255 255 255 255 255 255 255 255 255 255 255 255 255 255 255 255 255 255 255 255 255 255 255 255 255 255 255 255 255 255 255 255 255 255 255 255 255 255 255 255 255 255 255 255 255 255 255 255 255 255 255 255 255 255 255 255 255 255 255 255 255 255 255 255 255 255 255 255 255 255 255 255 255 255 255 255 255 255 255 255 255 255 255 255 255 255 255 255 255 255 255 255 255 255 255 255 255 255 255 255 255 255 255 255 255 255 255 255 255 255 255 255 255 255 255 255 255 255 255 255 255 255 255 255 255 255 255 255 255 255 255 255 255 255 255 255 255 255 255 255 255 255 255 255 225 0 15 225 0 15 225 0 15 225 0 15 225 0 15 225 0 15 225 0 15 225 0 15 225 0 15 225 0 15 225 0 15 225 0 15 225 0 15 225 0 15 225 0 15 225 0 15 225 0 15 225 0 15 225 0 15 225 0 15 225 0 15 225 0 15 225 0 15 225 0 15 225 0 15 225 0 15 225 0 15 225 0 15 225 0 15 225 0 15 225 0 15 225 0 15 225 0 15 225 0 15 225 0 15 225 0 15 225 0 15 225 0 15 225 0 15 225 0 15 225 0 15 225 0 15 225 0 15 225 0 15 225 0 15 225 0 15 225 0 15 225 0 15 225 0 15 225 0 15 225 0 15 225 0 15 225 0 15 225 0 15 225 0 15 225 0 15 225 0 15 225 0 15 225 0 15 225 0 15 225 0 15 225 0 15 225 0 15 225 0 15 225 0 15 225 0 15 225 0 15 225 0 15 225 0 15 225 0 15 225 0 15 225 0 15 225 0 15 225 0 15 225 0 15 225 0 15 225 0 15 225 0 15 225 0 15 225 0 15 225 0 15 225 0 15 225 0 15 225 0 15 225 0 15 225 0 15 225 0 15 225 0 15 225 0 15 225 0 15 225 0 15 225 0 15 225 0 15 225 0 15 225 0 15 225 0 15 225 0 15 225 0 15 225 0 15 225 0 15 225 0 15 
0 0 145 0 0 145 0 0 145 0 0 145 0 0 145 0 0 145 0 0 145 0 0 145 0 0 145 0 0 145 0 0 145 0 0 145 0 0 145 0 0 145 0 0 145 0 0 145 0 0 145 0 0 145 0 0 145 0 0 145 0 0 145 0 0 145 0 0 145 0 0 145 0 0 145 0 0 145 0 0 145 0 0 145 0 0 145 0 0 145 0 0 145 0 0 145 0 0 145 0 0 145 0 0 145 0 0 145 0 0 145 0 0 145 0 0 145 0 0 145 0 0 145 0 0 145 0 0 145 0 0 145 0 0 145 0 0 145 0 0 145 0 0 145 0 0 145 0 0 145 0 0 145 0 0 145 0 0 145 0 0 145 0 0 145 0 0 145 0 0 145 0 0 145 0 0 145 0 0 145 0 0 145 0 0 145 0 0 145 0 0 145 0 0 145 0 0 145 0 0 145 0 0 145 0 0 145 0 0 145 0 0 145 0 0 145 0 0 145 0 0 145 0 0 145 0 0 145 0 0 145 0 0 145 0 0 145 0 0 145 0 0 145 0 0 145 0 0 145 0 0 145 0 0 145 0 0 145 0 0 145 0 0 145 0 0 145 0 0 145 0 0 145 0 0 145 0 0 145 0 0 145 0 0 145 0 0 145 0 0 145 0 0 145 0 0 145 225 0 15 255 255 255 255 255 255 255 255 255 255 255 255 255 255 255 255 255 255 255 255 255 255 255 255 255 255 255 255 255 255 255 255 255 255 255 255 255 255 255 255 255 255 255 255 255 255 255 255 255 255 255 255 255 255 255 255 255 255 255 255 255 255 255 255 255 255 255 255 255 255 255 255 255 255 255 255 255 255 255 255 255 255 255 255 255 255 255 255 255 255 255 255 255 255 255 255 255 255 255 255 255 255 255 255 255 255 255 255 255 255 255 255 255 255 255 255 255 255 255 255 255 255 255 255 255 255 255 255 255 255 255 255 255 255 255 255 255 255 255 255 255 255 255 255 255 255 255 255 255 255 255 255 255 255 255 255 255 255 255 255 255 255 255 255 255 255 255 255 255 255 255 255 255 255 255 255 255 255 255 255 255 255 255 255 255 255 255 255 255 255 255 255 255 255 255 255 255 255 255 255 255 255 255 255 255 255 255 255 255 255 255 255 255 255 255 255 255 255 255 255 255 255 255 255 255 255 255 255 255 255 255 255 255 255 255 255 255 255 255 255 255 255 255 255 255 255 255 255 255 255 255 255 255 255 255 255 255 255 255 255 255 255 255 255 255 255 255 255 255 255 255 255 255 255 255 255 255 255 255 255 255 255 255 255 255 255 255 255 255 255 255 255 255 255 255 255 255 225 0 15 225 0 15 225 0 15 225 0 15 225 0 15 225 0 15 225 0 15 225 0 15 225 0 15 225 0 15 225 0 15 225 0 15 225 0 15 225 0 15 225 0 15 225 0 15 225 0 15 225 0 15 225 0 15 225 0 15 225 0 15 225 0 15 225 0 15 225 0 15 225 0 15 225 0 15 225 0 15 225 0 15 225 0 15 225 0 15 225 0 15 225 0 15 225 0 15 225 0 15 225 0 15 225 0 15 225 0 15 225 0 15 225 0 15 225 0 15 225 0 15 225 0 15 225 0 15 225 0 15 225 0 15 225 0 15 225 0 15 225 0 15 225 0 15 225 0 15 225 0 15 225 0 15 225 0 15 225 0 15 225 0 15 225 0 15 225 0 15 225 0 15 225 0 15 225 0 15 225 0 15 225 0 15 225 0 15 225 0 15 225 0 15 225 0 15 225 0 15 225 0 15 225 0 15 225 0 15 225 0 15 225 0 15 225 0 15 225 0 15 225 0 15 225 0 15 225 0 15 225 0 15 225 0 15 225 0 15 225 0 15 225 0 15 225 0 15 225 0 15 225 0 15 225 0 15 225 0 15 225 0 15 225 0 15 225 0 15 225 0 15 225 0 15 225 0 15 225 0 15 225 0 15 225 0 15 225 0 15 225 0 15 225 0 15 225 0 15 225 0 15 
0 0 145 0 0 145 0 0 145 0 0 145 0 0 145 0 0 145 0 0 145 0 0 145 0 0 145 0 0 145 0 0 145 0 0 145 0 0 145 0 0 145 0 0 145 0 0 145 0 0 145 0 0 145 0 0 145 0 0 145 0 0 145 0 0 145 0 0 145 0 0 145 0 0 145 0 0 145 0 0 145 0 0 145 0 0 145 0 0 145 0 0 145 0 0 145 0 0 145 0 0 145 0 0 145 0 0 145 0 0 145 0 0 145 0 0 145 0 0 145 0 0 145 0 0 145 0 0 145 0 0 145 0 0 145 0 0 145 0 0 145 0 0 145 0 0 145 0 0 145 0 0 145 0 0 145 0 0 145 0 0 145 0 0 145 0 0 145 0 0 145 0 0 145 0 0 145 0 0 145 0 0 145 0 0 145 0 0 145 0 0 145 0 0 145 0 0 145 0 0 145 0 0 145 0 0 145 0 0 145 0 0 145 0 0 145 0 0 145 0 0 145 0 0 145 0 0 145 0 0 145 0 0 145 0 0 145 0 0 145 0 0 145 0 0 145 0 0 145 0 0 145 0 0 145 0 0 145 0 0 145 0 0 145 0 0 145 0 0 145 0 0 145 0 0 145 0 0 145 0 0 145 0 0 145 0 0 145 0 0 145 0 0 145 0 0 145 225 0 15 255 255 255 255 255 255 255 255 255 255 255 255 255 255 255 255 255 255 255 255 255 255 255 255 255 255 255 255 255 255 255 255 255 255 255 255 255 255 255 255 255 255 255 255 255 255 255 255 255 255 255 255 255 255 255 255 255 255 255 255 255 255 255 255 255 255 255 255 255 255 255 255 255 255 255 255 255 255 255 255 255 255 255 255 255 255 255 255 255 255 255 255 255 255 255 255 255 255 255 255 255 255 255 255 255 255 255 255 255 255 255 255 255 255 255 255 255 255 255 255 255 255 255 255 255 255 255 255 255 255 255 255 255 255 255 255 255 255 255 255 255 255 255 255 255 255 255 255 255 255 255 255 255 255 255 255 255 255 255 255 255 255 255 255 255 255 255 255 255 255 255 255 255 255 255 255 255 255 255 255 255 255 255 255 255 255 255 255 255 255 255 255 255 255 255 255 255 255 255 255 255 255 255 255 255 255 255 255 255 255 255 255 255 255 255 255 255 255 255 255 255 255 255 255 255 255 255 255 255 255 255 255 255 255 255 255 255 255 255 255 255 255 255 255 255 255 255 255 255 255 255 255 255 255 255 255 255 255 255 255 255 255 255 255 255 255 255 255 255 255 255 255 255 255 255 255 255 255 255 255 255 255 255 255 255 255 255 255 255 255 255 255 255 255 255 255 255 225 0 15 225 0 15 225 0 15 225 0 15 225 0 15 225 0 15 225 0 15 225 0 15 225 0 15 225 0 15 225 0 15 225 0 15 225 0 15 225 0 15 225 0 15 225 0 15 225 0 15 225 0 15 225 0 15 225 0 15 225 0 15 225 0 15 225 0 15 225 0 15 225 0 15 225 0 15 225 0 15 225 0 15 225 0 15 225 0 15 225 0 15 225 0 15 225 0 15 225 0 15 225 0 15 225 0 15 225 0 15 225 0 15 225 0 15 225 0 15 225 0 15 225 0 15 225 0 15 225 0 15 225 0 15 225 0 15 225 0 15 225 0 15 225 0 15 225 0 15 225 0 15 225 0 15 225 0 15 225 0 15 225 0 15 225 0 15 225 0 15 225 0 15 225 0 15 225 0 15 225 0 15 225 0 15 225 0 15 225 0 15 225 0 15 225 0 15 225 0 15 225 0 15 225 0 15 225 0 15 225 0 15 225 0 15 225 0 15 225 0 15 225 0 15 225 0 15 225 0 15 225 0 15 225 0 15 225 0 15 225 0 15 225 0 15 225 0 15 225 0 15 225 0 15 225 0 15 225 0 15 225 0 15 225 0 15 225 0 15 225 0 15 225 0 15 225 0 15 225 0 15 225 0 15 225 0 15 225 0 15 225 0 15 225 0 15 225 0 15 225 0 15 
0 0 145 0 0 145 0 0 145 0 0 145 0 0 145 0 0 145 0 0 145 0 0 145 0 0 145 0 0 145 0 0 145 0 0 145 0 0 145 0 0 145 0 0 145 0 0 145 0 0 145 0 0 145 0 0 145 0 0 145 0 0 145 0 0 145 0 0 145 0 0 145 0 0 145 0 0 145 0 0 145 0 0 145 0 0 145 0 0 145 0 0 145 0 0 145 0 0 145 0 0 145 0 0 145 0 0 145 0 0 145 0 0 145 0 0 145 0 0 145 0 0 145 0 0 145 0 0 145 0 0 145 0 0 145 0 0 145 0 0 145 0 0 145 0 0 145 0 0 145 0 0 145 0 0 145 0 0 145 0 0 145 0 0 145 0 0 145 0 0 145 0 0 145 0 0 145 0 0 145 0 0 145 0 0 145 0 0 145 0 0 145 0 0 145 0 0 145 0 0 145 0 0 145 0 0 145 0 0 145 0 0 145 0 0 145 0 0 145 0 0 145 0 0 145 0 0 145 0 0 145 0 0 145 0 0 145 0 0 145 0 0 145 0 0 145 0 0 145 0 0 145 0 0 145 0 0 145 0 0 145 0 0 145 0 0 145 0 0 145 0 0 145 0 0 145 0 0 145 0 0 145 0 0 145 0 0 145 0 0 145 0 0 145 0 0 145 225 0 15 255 255 255 255 255 255 255 255 255 255 255 255 255 255 255 255 255 255 255 255 255 255 255 255 255 255 255 255 255 255 255 255 255 255 255 255 255 255 255 255 255 255 255 255 255 255 255 255 255 255 255 255 255 255 255 255 255 255 255 255 255 255 255 255 255 255 255 255 255 255 255 255 255 255 255 255 255 255 255 255 255 255 255 255 255 255 255 255 255 255 255 255 255 255 255 255 255 255 255 255 255 255 255 255 255 255 255 255 255 255 255 255 255 255 255 255 255 255 255 255 255 255 255 255 255 255 255 255 255 255 255 255 255 255 255 255 255 255 255 255 255 255 255 255 255 255 255 255 255 255 255 255 255 255 255 255 255 255 255 255 255 255 255 255 255 255 255 255 255 255 255 255 255 255 255 255 255 255 255 255 255 255 255 255 255 255 255 255 255 255 255 255 255 255 255 255 255 255 255 255 255 255 255 255 255 255 255 255 255 255 255 255 255 255 255 255 255 255 255 255 255 255 255 255 255 255 255 255 255 255 255 255 255 255 255 255 255 255 255 255 255 255 255 255 255 255 255 255 255 255 255 255 255 255 255 255 255 255 255 255 255 255 255 255 255 255 255 255 255 255 255 255 255 255 255 255 255 255 255 255 255 255 255 255 255 255 255 255 255 255 255 255 255 255 255 255 255 225 0 15 225 0 15 225 0 15 225 0 15 225 0 15 225 0 15 225 0 15 225 0 15 225 0 15 225 0 15 225 0 15 225 0 15 225 0 15 225 0 15 225 0 15 225 0 15 225 0 15 225 0 15 225 0 15 225 0 15 225 0 15 225 0 15 225 0 15 225 0 15 225 0 15 225 0 15 225 0 15 225 0 15 225 0 15 225 0 15 225 0 15 225 0 15 225 0 15 225 0 15 225 0 15 225 0 15 225 0 15 225 0 15 225 0 15 225 0 15 225 0 15 225 0 15 225 0 15 225 0 15 225 0 15 225 0 15 225 0 15 225 0 15 225 0 15 225 0 15 225 0 15 225 0 15 225 0 15 225 0 15 225 0 15 225 0 15 225 0 15 225 0 15 225 0 15 225 0 15 225 0 15 225 0 15 225 0 15 225 0 15 225 0 15 225 0 15 225 0 15 225 0 15 225 0 15 225 0 15 225 0 15 225 0 15 225 0 15 225 0 15 225 0 15 225 0 15 225 0 15 225 0 15 225 0 15 225 0 15 225 0 15 225 0 15 225 0 15 225 0 15 225 0 15 225 0 15 225 0 15 225 0 15 225 0 15 225 0 15 225 0 15 225 0 15 225 0 15 225 0 15 225 0 15 225 0 15 225 0 15 225 0 15 225 0 15 225 0 15 225 0 15 
0 0 145 0 0 145 0 0 145 0 0 145 0 0 145 0 0 145 0 0 145 0 0 145 0 0 145 0 0 145 0 0 145 0 0 145 0 0 145 0 0 145 0 0 145 0 0 145 0 0 145 0 0 145 0 0 145 0 0 145 0 0 145 0 0 145 0 0 145 0 0 145 0 0 145 0 0 145 0 0 145 0 0 145 0 0 145 0 0 145 0 0 145 0 0 145 0 0 145 0 0 145 0 0 145 0 0 145 0 0 145 0 0 145 0 0 145 0 0 145 0 0 145 0 0 145 0 0 145 0 0 145 0 0 145 0 0 145 0 0 145 0 0 145 0 0 145 0 0 145 0 0 145 0 0 145 0 0 145 0 0 145 0 0 145 0 0 145 0 0 145 0 0 145 0 0 145 0 0 145 0 0 145 0 0 145 0 0 145 0 0 145 0 0 145 0 0 145 0 0 145 0 0 145 0 0 145 0 0 145 0 0 145 0 0 145 0 0 145 0 0 145 0 0 145 0 0 145 0 0 145 0 0 145 0 0 145 0 0 145 0 0 145 0 0 145 0 0 145 0 0 145 0 0 145 0 0 145 0 0 145 0 0 145 0 0 145 0 0 145 0 0 145 0 0 145 0 0 145 0 0 145 0 0 145 0 0 145 0 0 145 0 0 145 0 0 145 225 0 15 255 255 255 255 255 255 255 255 255 255 255 255 255 255 255 255 255 255 255 255 255 255 255 255 255 255 255 255 255 255 255 255 255 255 255 255 255 255 255 255 255 255 255 255 255 255 255 255 255 255 255 255 255 255 255 255 255 255 255 255 255 255 255 255 255 255 255 255 255 255 255 255 255 255 255 255 255 255 255 255 255 255 255 255 255 255 255 255 255 255 255 255 255 255 255 255 255 255 255 255 255 255 255 255 255 255 255 255 255 255 255 255 255 255 255 255 255 255 255 255 255 255 255 255 255 255 255 255 255 255 255 255 255 255 255 255 255 255 255 255 255 255 255 255 255 255 255 255 255 255 255 255 255 255 255 255 255 255 255 255 255 255 255 255 255 255 255 255 255 255 255 255 255 255 255 255 255 255 255 255 255 255 255 255 255 255 255 255 255 255 255 255 255 255 255 255 255 255 255 255 255 255 255 255 255 255 255 255 255 255 255 255 255 255 255 255 255 255 255 255 255 255 255 255 255 255 255 255 255 255 255 255 255 255 255 255 255 255 255 255 255 255 255 255 255 255 255 255 255 255 255 255 255 255 255 255 255 255 255 255 255 255 255 255 255 255 255 255 255 255 255 255 255 255 255 255 255 255 255 255 255 255 255 255 255 255 255 255 255 255 255 255 255 255 255 255 255 225 0 15 225 0 15 225 0 15 225 0 15 225 0 15 225 0 15 225 0 15 225 0 15 225 0 15 225 0 15 225 0 15 225 0 15 225 0 15 225 0 15 225 0 15 225 0 15 225 0 15 225 0 15 225 0 15 225 0 15 225 0 15 225 0 15 225 0 15 225 0 15 225 0 15 225 0 15 225 0 15 225 0 15 225 0 15 225 0 15 225 0 15 225 0 15 225 0 15 225 0 15 225 0 15 225 0 15 225 0 15 225 0 15 225 0 15 225 0 15 225 0 15 225 0 15 225 0 15 225 0 15 225 0 15 225 0 15 225 0 15 225 0 15 225 0 15 225 0 15 225 0 15 225 0 15 225 0 15 225 0 15 225 0 15 225 0 15 225 0 15 225 0 15 225 0 15 225 0 15 225 0 15 225 0 15 225 0 15 225 0 15 225 0 15 225 0 15 225 0 15 225 0 15 225 0 15 225 0 15 225 0 15 225 0 15 225 0 15 225 0 15 225 0 15 225 0 15 225 0 15 225 0 15 225 0 15 225 0 15 225 0 15 225 0 15 225 0 15 225 0 15 225 0 15 225 0 15 225 0 15 225 0 15 225 0 15 225 0 15 225 0 15 225 0 15 225 0 15 225 0 15 225 0 15 225 0 15 225 0 15 225 0 15 225 0 15 225 0 15 225 0 15 
0 0 145 0 0 145 0 0 145 0 0 145 0 0 145 0 0 145 0 0 145 0 0 145 0 0 145 0 0 145 0 0 145 0 0 145 0 0 145 0 0 145 0 0 145 0 0 145 0 0 145 0 0 145 0 0 145 0 0 145 0 0 145 0 0 145 0 0 145 0 0 145 0 0 145 0 0 145 0 0 145 0 0 145 0 0 145 0 0 145 0 0 145 0 0 145 0 0 145 0 0 145 0 0 145 0 0 145 0 0 145 0 0 145 0 0 145 0 0 145 0 0 145 0 0 145 0 0 145 0 0 145 0 0 145 0 0 145 0 0 145 0 0 145 0 0 145 0 0 145 0 0 145 0 0 145 0 0 145 0 0 145 0 0 145 0 0 145 0 0 145 0 0 145 0 0 145 0 0 145 0 0 145 0 0 145 0 0 145 0 0 145 0 0 145 0 0 145 0 0 145 0 0 145 0 0 145 0 0 145 0 0 145 0 0 145 0 0 145 0 0 145 0 0 145 0 0 145 0 0 145 0 0 145 0 0 145 0 0 145 0 0 145 0 0 145 0 0 145 0 0 145 0 0 145 0 0 145 0 0 145 0 0 145 0 0 145 0 0 145 0 0 145 0 0 145 0 0 145 0 0 145 0 0 145 0 0 145 0 0 145 0 0 145 0 0 145 225 0 15 255 255 255 255 255 255 255 255 255 255 255 255 255 255 255 255 255 255 255 255 255 255 255 255 255 255 255 255 255 255 255 255 255 255 255 255 255 255 255 255 255 255 255 255 255 255 255 255 255 255 255 255 255 255 255 255 255 255 255 255 255 255 255 255 255 255 255 255 255 255 255 255 255 255 255 255 255 255 255 255 255 255 255 255 255 255 255 255 255 255 255 255 255 255 255 255 255 255 255 255 255 255 255 255 255 255 255 255 255 255 255 255 255 255 255 255 255 255 255 255 255 255 255 255 255 255 255 255 255 255 255 255 255 255 255 255 255 255 255 255 255 255 255 255 255 255 255 255 255 255 255 255 255 255 255 255 255 255 255 255 255 255 255 255 255 255 255 255 255 255 255 255 255 255 255 255 255 255 255 255 255 255 255 255 255 255 255 255 255 255 255 255 255 255 255 255 255 255 255 255 255 255 255 255 255 255 255 255 255 255 255 255 255 255 255 255 255 255 255 255 255 255 255 255 255 255 255 255 255 255 255 255 255 255 255 255 255 255 255 255 255 255 255 255 255 255 255 255 255 255 255 255 255 255 255 255 255 255 255 255 255 255 255 255 255 255 255 255 255 255 255 255 255 255 255 255 255 255 255 255 255 255 255 255 255 255 255 255 255 255 255 255 255 255 255 255 255 225 0 15 225 0 15 225 0 15 225 0 15 225 0 15 225 0 15 225 0 15 225 0 15 225 0 15 225 0 15 225 0 15 225 0 15 225 0 15 225 0 15 225 0 15 225 0 15 225 0 15 225 0 15 225 0 15 225 0 15 225 0 15 225 0 15 225 0 15 225 0 15 225 0 15 225 0 15 225 0 15 225 0 15 225 0 15 225 0 15 225 0 15 225 0 15 225 0 15 225 0 15 225 0 15 225 0 15 225 0 15 225 0 15 225 0 15 225 0 15 225 0 15 225 0 15 225 0 15 225 0 15 225 0 15 225 0 15 225 0 15 225 0 15 225 0 15 225 0 15 225 0 15 225 0 15 225 0 15 225 0 15 225 0 15 225 0 15 225 0 15 225 0 15 225 0 15 225 0 15 225 0 15 225 0 15 225 0 15 225 0 15 225 0 15 225 0 15 225 0 15 225 0 15 225 0 15 225 0 15 225 0 15 225 0 15 225 0 15 225 0 15 225 0 15 225 0 15 225 0 15 225 0 15 225 0 15 225 0 15 225 0 15 225 0 15 225 0 15 225 0 15 225 0 15 225 0 15 225 0 15 225 0 15 225 0 15 225 0 15 225 0 15 225 0 15 225 0 15 225 0 15 225 0 15 225 0 15 225 0 15 225 0 15 225 0 15 225 0 15 225 0 15 
0 0 145 0 0 145 0 0 145 0 0 145 0 0 145 0 0 145 0 0 145 0 0 145 0 0 145 0 0 145 0 0 145 0 0 145 0 0 145 0 0 145 0 0 145 0 0 145 0 0 145 0 0 145 0 0 145 0 0 145 0 0 145 0 0 145 0 0 145 0 0 145 0 0 145 0 0 145 0 0 145 0 0 145 0 0 145 0 0 145 0 0 145 0 0 145 0 0 145 0 0 145 0 0 145 0 0 145 0 0 145 0 0 145 0 0 145 0 0 145 0 0 145 0 0 145 0 0 145 0 0 145 0 0 145 0 0 145 0 0 145 0 0 145 0 0 145 0 0 145 0 0 145 0 0 145 0 0 145 0 0 145 0 0 145 0 0 145 0 0 145 0 0 145 0 0 145 0 0 145 0 0 145 0 0 145 0 0 145 0 0 145 0 0 145 0 0 145 0 0 145 0 0 145 0 0 145 0 0 145 0 0 145 0 0 145 0 0 145 0 0 145 0 0 145 0 0 145 0 0 145 0 0 145 0 0 145 0 0 145 0 0 145 0 0 145 0 0 145 0 0 145 0 0 145 0 0 145 0 0 145 0 0 145 0 0 145 0 0 145 0 0 145 0 0 145 0 0 145 0 0 145 0 0 145 0 0 145 0 0 145 0 0 145 0 0 145 225 0 15 255 255 255 255 255 255 255 255 255 255 255 255 255 255 255 255 255 255 255 255 255 255 255 255 255 255 255 255 255 255 255 255 255 255 255 255 255 255 255 255 255 255 255 255 255 255 255 255 255 255 255 255 255 255 255 255 255 255 255 255 255 255 255 255 255 255 255 255 255 255 255 255 255 255 255 255 255 255 255 255 255 255 255 255 255 255 255 255 255 255 255 255 255 255 255 255 255 255 255 255 255 255 255 255 255 255 255 255 255 255 255 255 255 255 255 255 255 255 255 255 255 255 255 255 255 255 255 255 255 255 255 255 255 255 255 255 255 255 255 255 255 255 255 255 255 255 255 255 255 255 255 255 255 255 255 255 255 255 255 255 255 255 255 255 255 255 255 255 255 255 255 255 255 255 255 255 255 255 255 255 255 255 255 255 255 255 255 255 255 255 255 255 255 255 255 255 255 255 255 255 255 255 255 255 255 255 255 255 255 255 255 255 255 255 255 255 255 255 255 255 255 255 255 255 255 255 255 255 255 255 255 255 255 255 255 255 255 255 255 255 255 255 255 255 255 255 255 255 255 255 255 255 255 255 255 255 255 255 255 255 255 255 255 255 255 255 255 255 255 255 255 255 255 255 255 255 255 255 255 255 255 255 255 255 255 255 255 255 255 255 255 255 255 255 255 255 255 225 0 15 225 0 15 225 0 15 225 0 15 225 0 15 225 0 15 225 0 15 225 0 15 225 0 15 225 0 15 225 0 15 225 0 15 225 0 15 225 0 15 225 0 15 225 0 15 225 0 15 225 0 15 225 0 15 225 0 15 225 0 15 225 0 15 225 0 15 225 0 15 225 0 15 225 0 15 225 0 15 225 0 15 225 0 15 225 0 15 225 0 15 225 0 15 225 0 15 225 0 15 225 0 15 225 0 15 225 0 15 225 0 15 225 0 15 225 0 15 225 0 15 225 0 15 225 0 15 225 0 15 225 0 15 225 0 15 225 0 15 225 0 15 225 0 15 225 0 15 225 0 15 225 0 15 225 0 15 225 0 15 225 0 15 225 0 15 225 0 15 225 0 15 225 0 15 225 0 15 225 0 15 225 0 15 225 0 15 225 0 15 225 0 15 225 0 15 225 0 15 225 0 15 225 0 15 225 0 15 225 0 15 225 0 15 225 0 15 225 0 15 225 0 15 225 0 15 225 0 15 225 0 15 225 0 15 225 0 15 225 0 15 225 0 15 225 0 15 225 0 15 225 0 15 225 0 15 225 0 15 225 0 15 225 0 15 225 0 15 225 0 15 225 0 15 225 0 15 225 0 15 225 0 15 225 0 15 225 0 15 225 0 15 225 0 15 225 0 15 225 0 15 
0 0 145 0 0 145 0 0 145 0 0 145 0 0 145 0 0 145 0 0 145 0 0 145 0 0 145 0 0 145 0 0 145 0 0 145 0 0 145 0 0 145 0 0 145 0 0 145 0 0 145 0 0 145 0 0 145 0 0 145 0 0 145 0 0 145 0 0 145 0 0 145 0 0 145 0 0 145 0 0 145 0 0 145 0 0 145 0 0 145 0 0 145 0 0 145 0 0 145 0 0 145 0 0 145 0 0 145 0 0 145 0 0 145 0 0 145 0 0 145 0 0 145 0 0 145 0 0 145 0 0 145 0 0 145 0 0 145 0 0 145 0 0 145 0 0 145 0 0 145 0 0 145 0 0 145 0 0 145 0 0 145 0 0 145 0 0 145 0 0 145 0 0 145 0 0 145 0 0 145 0 0 145 0 0 145 0 0 145 0 0 145 0 0 145 0 0 145 0 0 145 0 0 145 0 0 145 0 0 145 0 0 145 0 0 145 0 0 145 0 0 145 0 0 145 0 0 145 0 0 145 0 0 145 0 0 145 0 0 145 0 0 145 0 0 145 0 0 145 0 0 145 0 0 145 0 0 145 0 0 145 0 0 145 0 0 145 0 0 145 0 0 145 0 0 145 0 0 145 0 0 145 0 0 145 0 0 145 0 0 145 0 0 145 0 0 145 225 0 15 255 255 255 255 255 255 255 255 255 255 255 255 255 255 255 255 255 255 255 255 255 255 255 255 255 255 255 255 255 255 255 255 255 255 255 255 255 255 255 255 255 255 255 255 255 255 255 255 255 255 255 255 255 255 255 255 255 255 255 255 255 255 255 255 255 255 255 255 255 255 255 255 255 255 255 255 255 255 255 255 255 255 255 255 255 255 255 255 255 255 255 255 255 255 255 255 255 255 255 255 255 255 255 255 255 255 255 255 255 255 255 255 255 255 255 255 255 255 255 255 255 255 255 255 255 255 255 255 255 255 255 255 255 255 255 255 255 255 255 255 255 255 255 255 255 255 255 255 255 255 255 255 255 255 255 255 255 255 255 255 255 255 255 255 255 255 255 255 255 255 255 255 255 255 255 255 255 255 255 255 255 255 255 255 255 255 255 255 255 255 255 255 255 255 255 255 255 255 255 255 255 255 255 255 255 255 255 255 255 255 255 255 255 255 255 255 255 255 255 255 255 255 255 255 255 255 255 255 255 255 255 255 255 255 255 255 255 255 255 255 255 255 255 255 255 255 255 255 255 255 255 255 255 255 255 255 255 255 255 255 255 255 255 255 255 255 255 255 255 255 255 255 255 255 255 255 255 255 255 255 255 255 255 255 255 255 255 255 255 255 255 255 255 255 255 255 255 225 0 15 225 0 15 225 0 15 225 0 15 225 0 15 225 0 15 225 0 15 225 0 15 225 0 15 225 0 15 225 0 15 225 0 15 225 0 15 225 0 15 225 0 15 225 0 15 225 0 15 225 0 15 225 0 15 225 0 15 225 0 15 225 0 15 225 0 15 225 0 15 225 0 15 225 0 15 225 0 15 225 0 15 225 0 15 225 0 15 225 0 15 225 0 15 225 0 15 225 0 15 225 0 15 225 0 15 225 0 15 225 0 15 225 0 15 225 0 15 225 0 15 225 0 15 225 0 15 225 0 15 225 0 15 225 0 15 225 0 15 225 0 15 225 0 15 225 0 15 225 0 15 225 0 15 225 0 15 225 0 15 225 0 15 225 0 15 225 0 15 225 0 15 225 0 15 225 0 15 225 0 15 225 0 15 225 0 15 225 0 15 225 0 15 225 0 15 225 0 15 225 0 15 225 0 15 225 0 15 225 0 15 225 0 15 225 0 15 225 0 15 225 0 15 225 0 15 225 0 15 225 0 15 225 0 15 225 0 15 225 0 15 225 0 15 225 0 15 225 0 15 225 0 15 225 0 15 225 0 15 225 0 15 225 0 15 225 0 15 225 0 15 225 0 15 225 0 15 225 0 15 225 0 15 225 0 15 225 0 15 225 0 15 225 0 15 225 0 15 225 0 15 
0 0 145 0 0 145 0 0 145 0 0 145 0 0 145 0 0 145 0 0 145 0 0 145 0 0 145 0 0 145 0 0 145 0 0 145 0 0 145 0 0 145 0 0 145 0 0 145 0 0 145 0 0 145 0 0 145 0 0 145 0 0 145 0 0 145 0 0 145 0 0 145 0 0 145 0 0 145 0 0 145 0 0 145 0 0 145 0 0 145 0 0 145 0 0 145 0 0 145 0 0 145 0 0 145 0 0 145 0 0 145 0 0 145 0 0 145 0 0 145 0 0 145 0 0 145 0 0 145 0 0 145 0 0 145 0 0 145 0 0 145 0 0 145 0 0 145 0 0 145 0 0 145 0 0 145 0 0 145 0 0 145 0 0 145 0 0 145 0 0 145 0 0 145 0 0 145 0 0 145 0 0 145 0 0 145 0 0 145 0 0 145 0 0 145 0 0 145 0 0 145 0 0 145 0 0 145 0 0 145 0 0 145 0 0 145 0 0 145 0 0 145 0 0 145 0 0 145 0 0 145 0 0 145 0 0 145 0 0 145 0 0 145 0 0 145 0 0 145 0 0 145 0 0 145 0 0 145 0 0 145 0 0 145 0 0 145 0 0 145 0 0 145 0 0 145 0 0 145 0 0 145 0 0 145 0 0 145 0 0 145 0 0 145 0 0 145 225 0 15 255 255 255 255 255 255 255 255 255 255 255 255 255 255 255 255 255 255 255 255 255 255 255 255 255 255 255 255 255 255 255 255 255 255 255 255 255 255 255 255 255 255 255 255 255 255 255 255 255 255 255 255 255 255 255 255 255 255 255 255 255 255 255 255 255 255 255 255 255 255 255 255 255 255 255 255 255 255 255 255 255 255 255 255 255 255 255 255 255 255 255 255 255 255 255 255 255 255 255 255 255 255 255 255 255 255 255 255 255 255 255 255 255 255 255 255 255 255 255 255 255 255 255 255 255 255 255 255 255 255 255 255 255 255 255 255 255 255 255 255 255 255 255 255 255 255 255 255 255 255 255 255 255 255 255 255 255 255 255 255 255 255 255 255 255 255 255 255 255 255 255 255 255 255 255 255 255 255 255 255 255 255 255 255 255 255 255 255 255 255 255 255 255 255 255 255 255 255 255 255 255 255 255 255 255 255 255 255 255 255 255 255 255 255 255 255 255 255 255 255 255 255 255 255 255 255 255 255 255 255 255 255 255 255 255 255 255 255 255 255 255 255 255 255 255 255 255 255 255 255 255 255 255 255 255 255 255 255 255 255 255 255 255 255 255 255 255 255 255 255 255 255 255 255 255 255 255 255 255 255 255 255 255 255 255 255 255 255 255 255 255 255 255 255 255 255 255 225 0 15 225 0 15 225 0 15 225 0 15 225 0 15 225 0 15 225 0 15 225 0 15 225 0 15 225 0 15 225 0 15 225 0 15 225 0 15 225 0 15 225 0 15 225 0 15 225 0 15 225 0 15 225 0 15 225 0 15 225 0 15 225 0 15 225 0 15 225 0 15 225 0 15 225 0 15 225 0 15 225 0 15 225 0 15 225 0 15 225 0 15 225 0 15 225 0 15 225 0 15 225 0 15 225 0 15 225 0 15 225 0 15 225 0 15 225 0 15 225 0 15 225 0 15 225 0 15 225 0 15 225 0 15 225 0 15 225 0 15 225 0 15 225 0 15 225 0 15 225 0 15 225 0 15 225 0 15 225 0 15 225 0 15 225 0 15 225 0 15 225 0 15 225 0 15 225 0 15 225 0 15 225 0 15 225 0 15 225 0 15 225 0 15 225 0 15 225 0 15 225 0 15 225 0 15 225 0 15 225 0 15 225 0 15 225 0 15 225 0 15 225 0 15 225 0 15 225 0 15 225 0 15 225 0 15 225 0 15 225 0 15 225 0 15 225 0 15 225 0 15 225 0 15 225 0 15 225 0 15 225 0 15 225 0 15 225 0 15 225 0 15 225 0 15 225 0 15 225 0 15 225 0 15 225 0 15 225 0 15 225 0 15 225 0 15 225 0 15 225 0 15 
0 0 145 0 0 145 0 0 145 0 0 145 0 0 145 0 0 145 0 0 145 0 0 145 0 0 145 0 0 145 0 0 145 0 0 145 0 0 145 0 0 145 0 0 145 0 0 145 0 0 145 0 0 145 0 0 145 0 0 145 0 0 145 0 0 145 0 0 145 0 0 145 0 0 145 0 0 145 0 0 145 0 0 145 0 0 145 0 0 145 0 0 145 0 0 145 0 0 145 0 0 145 0 0 145 0 0 145 0 0 145 0 0 145 0 0 145 0 0 145 0 0 145 0 0 145 0 0 145 0 0 145 0 0 145 0 0 145 0 0 145 0 0 145 0 0 145 0 0 145 0 0 145 0 0 145 0 0 145 0 0 145 0 0 145 0 0 145 0 0 145 0 0 145 0 0 145 0 0 145 0 0 145 0 0 145 0 0 145 0 0 145 0 0 145 0 0 145 0 0 145 0 0 145 0 0 145 0 0 145 0 0 145 0 0 145 0 0 145 0 0 145 0 0 145 0 0 145 0 0 145 0 0 145 0 0 145 0 0 145 0 0 145 0 0 145 0 0 145 0 0 145 0 0 145 0 0 145 0 0 145 0 0 145 0 0 145 0 0 145 0 0 145 0 0 145 0 0 145 0 0 145 0 0 145 0 0 145 0 0 145 0 0 145 0 0 145 225 0 15 255 255 255 255 255 255 255 255 255 255 255 255 255 255 255 255 255 255 255 255 255 255 255 255 255 255 255 255 255 255 255 255 255 255 255 255 255 255 255 255 255 255 255 255 255 255 255 255 255 255 255 255 255 255 255 255 255 255 255 255 255 255 255 255 255 255 255 255 255 255 255 255 255 255 255 255 255 255 255 255 255 255 255 255 255 255 255 255 255 255 255 255 255 255 255 255 255 255 255 255 255 255 255 255 255 255 255 255 255 255 255 255 255 255 255 255 255 255 255 255 255 255 255 255 255 255 255 255 255 255 255 255 255 255 255 255 255 255 255 255 255 255 255 255 255 255 255 255 255 255 255 255 255 255 255 255 255 255 255 255 255 255 255 255 255 255 255 255 255 255 255 255 255 255 255 255 255 255 255 255 255 255 255 255 255 255 255 255 255 255 255 255 255 255 255 255 255 255 255 255 255 255 255 255 255 255 255 255 255 255 255 255 255 255 255 255 255 255 255 255 255 255 255 255 255 255 255 255 255 255 255 255 255 255 255 255 255 255 255 255 255 255 255 255 255 255 255 255 255 255 255 255 255 255 255 255 255 255 255 255 255 255 255 255 255 255 255 255 255 255 255 255 255 255 255 255 255 255 255 255 255 255 255 255 255 255 255 255 255 255 255 255 255 255 255 255 255 225 0 15 225 0 15 225 0 15 225 0 15 225 0 15 225 0 15 225 0 15 225 0 15 225 0 15 225 0 15 225 0 15 225 0 15 225 0 15 225 0 15 225 0 15 225 0 15 225 0 15 225 0 15 225 0 15 225 0 15 225 0 15 225 0 15 225 0 15 225 0 15 225 0 15 225 0 15 225 0 15 225 0 15 225 0 15 225 0 15 225 0 15 225 0 15 225 0 15 225 0 15 225 0 15 225 0 15 225 0 15 225 0 15 225 0 15 225 0 15 225 0 15 225 0 15 225 0 15 225 0 15 225 0 15 225 0 15 225 0 15 225 0 15 225 0 15 225 0 15 225 0 15 225 0 15 225 0 15 225 0 15 225 0 15 225 0 15 225 0 15 225 0 15 225 0 15 225 0 15 225 0 15 225 0 15 225 0 15 225 0 15 225 0 15 225 0 15 225 0 15 225 0 15 225 0 15 225 0 15 225 0 15 225 0 15 225 0 15 225 0 15 225 0 15 225 0 15 225 0 15 225 0 15 225 0 15 225 0 15 225 0 15 225 0 15 225 0 15 225 0 15 225 0 15 225 0 15 225 0 15 225 0 15 225 0 15 225 0 15 225 0 15 225 0 15 225 0 15 225 0 15 225 0 15 225 0 15 225 0 15 225 0 15 225 0 15 225 0 15 225 0 15 
0 0 145 0 0 145 0 0 145 0 0 145 0 0 145 0 0 145 0 0 145 0 0 145 0 0 145 0 0 145 0 0 145 0 0 145 0 0 145 0 0 145 0 0 145 0 0 145 0 0 145 0 0 145 0 0 145 0 0 145 0 0 145 0 0 145 0 0 145 0 0 145 0 0 145 0 0 145 0 0 145 0 0 145 0 0 145 0 0 145 0 0 145 0 0 145 0 0 145 0 0 145 0 0 145 0 0 145 0 0 145 0 0 145 0 0 145 0 0 145 0 0 145 0 0 145 0 0 145 0 0 145 0 0 145 0 0 145 0 0 145 0 0 145 0 0 145 0 0 145 0 0 145 0 0 145 0 0 145 0 0 145 0 0 145 0 0 145 0 0 145 0 0 145 0 0 145 0 0 145 0 0 145 0 0 145 0 0 145 0 0 145 0 0 145 0 0 145 0 0 145 0 0 145 0 0 145 0 0 145 0 0 145 0 0 145 0 0 145 0 0 145 0 0 145 0 0 145 0 0 145 0 0 145 0 0 145 0 0 145 0 0 145 0 0 145 0 0 145 0 0 145 0 0 145 0 0 145 0 0 145 0 0 145 0 0 145 0 0 145 0 0 145 0 0 145 0 0 145 0 0 145 0 0 145 0 0 145 0 0 145 0 0 145 0 0 145 225 0 15 255 255 255 255 255 255 255 255 255 255 255 255 255 255 255 255 255 255 255 255 255 255 255 255 255 255 255 255 255 255 255 255 255 255 255 255 255 255 255 255 255 255 255 255 255 255 255 255 255 255 255 255 255 255 255 255 255 255 255 255 255 255 255 255 255 255 255 255 255 255 255 255 255 255 255 255 255 255 255 255 255 255 255 255 255 255 255 255 255 255 255 255 255 255 255 255 255 255 255 255 255 255 255 255 255 255 255 255 255 255 255 255 255 255 255 255 255 255 255 255 255 255 255 255 255 255 255 255 255 255 255 255 255 255 255 255 255 255 255 255 255 255 255 255 255 255 255 255 255 255 255 255 255 255 255 255 255 255 255 255 255 255 255 255 255 255 255 255 255 255 255 255 255 255 255 255 255 255 255 255 255 255 255 255 255 255 255 255 255 255 255 255 255 255 255 255 255 255 255 255 255 255 255 255 255 255 255 255 255 255 255 255 255 255 255 255 255 255 255 255 255 255 255 255 255 255 255 255 255 255 255 255 255 255 255 255 255 255 255 255 255 255 255 255 255 255 255 255 255 255 255 255 255 255 255 255 255 255 255 255 255 255 255 255 255 255 255 255 255 255 255 255 255 255 255 255 255 255 255 255 255 255 255 255 255 255 255 255 255 255 255 255 255 255 255 255 255 225 0 15 225 0 15 225 0 15 225 0 15 225 0 15 225 0 15 225 0 15 225 0 15 225 0 15 225 0 15 225 0 15 225 0 15 225 0 15 225 0 15 225 0 15 225 0 15 225 0 15 225 0 15 225 0 15 225 0 15 225 0 15 225 0 15 225 0 15 225 0 15 225 0 15 225 0 15 225 0 15 225 0 15 225 0 15 225 0 15 225 0 15 225 0 15 225 0 15 225 0 15 225 0 15 225 0 15 225 0 15 225 0 15 225 0 15 225 0 15 225 0 15 225 0 15 225 0 15 225 0 15 225 0 15 225 0 15 225 0 15 225 0 15 225 0 15 225 0 15 225 0 15 225 0 15 225 0 15 225 0 15 225 0 15 225 0 15 225 0 15 225 0 15 225 0 15 225 0 15 225 0 15 225 0 15 225 0 15 225 0 15 225 0 15 225 0 15 225 0 15 225 0 15 225 0 15 225 0 15 225 0 15 225 0 15 225 0 15 225 0 15 225 0 15 225 0 15 225 0 15 225 0 15 225 0 15 225 0 15 225 0 15 225 0 15 225 0 15 225 0 15 225 0 15 225 0 15 225 0 15 225 0 15 225 0 15 225 0 15 225 0 15 225 0 15 225 0 15 225 0 15 225 0 15 225 0 15 225 0 15 225 0 15 225 0 15 225 0 15 225 0 15 
0 0 145 0 0 145 0 0 145 0 0 145 0 0 145 0 0 145 0 0 145 0 0 145 0 0 145 0 0 145 0 0 145 0 0 145 0 0 145 0 0 145 0 0 145 0 0 145 0 0 145 0 0 145 0 0 145 0 0 145 0 0 145 0 0 145 0 0 145 0 0 145 0 0 145 0 0 145 0 0 145 0 0 145 0 0 145 0 0 145 0 0 145 0 0 145 0 0 145 0 0 145 0 0 145 0 0 145 0 0 145 0 0 145 0 0 145 0 0 145 0 0 145 0 0 145 0 0 145 0 0 145 0 0 145 0 0 145 0 0 145 0 0 145 0 0 145 0 0 145 0 0 145 0 0 145 0 0 145 0 0 145 0 0 145 0 0 145 0 0 145 0 0 145 0 0 145 0 0 145 0 0 145 0 0 145 0 0 145 0 0 145 0 0 145 0 0 145 0 0 145 0 0 145 0 0 145 0 0 145 0 0 145 0 0 145 0 0 145 0 0 145 0 0 145 0 0 145 0 0 145 0 0 145 0 0 145 0 0 145 0 0 145 0 0 145 0 0 145 0 0 145 0 0 145 0 0 145 0 0 145 0 0 145 0 0 145 0 0 145 0 0 145 0 0 145 0 0 145 0 0 145 0 0 145 0 0 145 0 0 145 0 0 145 0 0 145 225 0 15 255 255 255 255 255 255 255 255 255 255 255 255 255 255 255 255 255 255 255 255 255 255 255 255 255 255 255 255 255 255 255 255 255 255 255 255 255 255 255 255 255 255 255 255 255 255 255 255 255 255 255 255 255 255 255 255 255 255 255 255 255 255 255 255 255 255 255 255 255 255 255 255 255 255 255 255 255 255 255 255 255 255 255 255 255 255 255 255 255 255 255 255 255 255 255 255 255 255 255 255 255 255 255 255 255 255 255 255 255 255 255 255 255 255 255 255 255 255 255 255 255 255 255 255 255 255 255 255 255 255 255 255 255 255 255 255 255 255 255 255 255 255 255 255 255 255 255 255 255 255 255 255 255 255 255 255 255 255 255 255 255 255 255 255 255 255 255 255 255 255 255 255 255 255 255 255 255 255 255 255 255 255 255 255 255 255 255 255 255 255 255 255 255 255 255 255 255 255 255 255 255 255 255 255 255 255 255 255 255 255 255 255 255 255 255 255 255 255 255 255 255 255 255 255 255 255 255 255 255 255 255 255 255 255 255 255 255 255 255 255 255 255 255 255 255 255 255 255 255 255 255 255 255 255 255 255 255 255 255 255 255 255 255 255 255 255 255 255 255 255 255 255 255 255 255 255 255 255 255 255 255 255 255 255 255 255 255 255 255 255 255 255 255 255 255 255 255 225 0 15 225 0 15 225 0 15 225 0 15 225 0 15 225 0 15 225 0 15 225 0 15 225 0 15 225 0 15 225 0 15 225 0 15 225 0 15 225 0 15 225 0 15 225 0 15 225 0 15 225 0 15 225 0 15 225 0 15 225 0 15 225 0 15 225 0 15 225 0 15 225 0 15 225 0 15 225 0 15 225 0 15 225 0 15 225 0 15 225 0 15 225 0 15 225 0 15 225 0 15 225 0 15 225 0 15 225 0 15 225 0 15 225 0 15 225 0 15 225 0 15 225 0 15 225 0 15 225 0 15 225 0 15 225 0 15 225 0 15 225 0 15 225 0 15 225 0 15 225 0 15 225 0 15 225 0 15 225 0 15 225 0 15 225 0 15 225 0 15 225 0 15 225 0 15 225 0 15 225 0 15 225 0 15 225 0 15 225 0 15 225 0 15 225 0 15 225 0 15 225 0 15 225 0 15 225 0 15 225 0 15 225 0 15 225 0 15 225 0 15 225 0 15 225 0 15 225 0 15 225 0 15 225 0 15 225 0 15 225 0 15 225 0 15 225 0 15 225 0 15 225 0 15 225 0 15 225 0 15 225 0 15 225 0 15 225 0 15 225 0 15 225 0 15 225 0 15 225 0 15 225 0 15 225 0 15 225 0 15 225 0 15 225 0 15 225 0 15 225 0 15 
0 0 145 0 0 145 0 0 145 0 0 145 0 0 145 0 0 145 0 0 145 0 0 145 0 0 145 0 0 145 0 0 145 0 0 145 0 0 145 0 0 145 0 0 145 0 0 145 0 0 145 0 0 145 0 0 145 0 0 145 0 0 145 0 0 145 0 0 145 0 0 145 0 0 145 0 0 145 0 0 145 0 0 145 0 0 145 0 0 145 0 0 145 0 0 145 0 0 145 0 0 145 0 0 145 0 0 145 0 0 145 0 0 145 0 0 145 0 0 145 0 0 145 0 0 145 0 0 145 0 0 145 0 0 145 0 0 145 0 0 145 0 0 145 0 0 145 0 0 145 0 0 145 0 0 145 0 0 145 0 0 145 0 0 145 0 0 145 0 0 145 0 0 145 0 0 145 0 0 145 0 0 145 0 0 145 0 0 145 0 0 145 0 0 145 0 0 145 0 0 145 0 0 145 0 0 145 0 0 145 0 0 145 0 0 145 0 0 145 0 0 145 0 0 145 0 0 145 0 0 145 0 0 145 0 0 145 0 0 145 0 0 145 0 0 145 0 0 145 0 0 145 0 0 145 0 0 145 0 0 145 0 0 145 0 0 145 0 0 145 0 0 145 0 0 145 0 0 145 0 0 145 0 0 145 0 0 145 0 0 145 0 0 145 0 0 145 225 0 15 255 255 255 255 255 255 255 255 255 255 255 255 255 255 255 255 255 255 255 255 255 255 255 255 255 255 255 255 255 255 255 255 255 255 255 255 255 255 255 255 255 255 255 255 255 255 255 255 255 255 255 255 255 255 255 255 255 255 255 255 255 255 255 255 255 255 255 255 255 255 255 255 255 255 255 255 255 255 255 255 255 255 255 255 255 255 255 255 255 255 255 255 255 255 255 255 255 255 255 255 255 255 255 255 255 255 255 255 255 255 255 255 255 255 255 255 255 255 255 255 255 255 255 255 255 255 255 255 255 255 255 255 255 255 255 255 255 255 255 255 255 255 255 255 255 255 255 255 255 255 255 255 255 255 255 255 255 255 255 255 255 255 255 255 255 255 255 255 255 255 255 255 255 255 255 255 255 255 255 255 255 255 255 255 255 255 255 255 255 255 255 255 255 255 255 255 255 255 255 255 255 255 255 255 255 255 255 255 255 255 255 255 255 255 255 255 255 255 255 255 255 255 255 255 255 255 255 255 255 255 255 255 255 255 255 255 255 255 255 255 255 255 255 255 255 255 255 255 255 255 255 255 255 255 255 255 255 255 255 255 255 255 255 255 255 255 255 255 255 255 255 255 255 255 255 255 255 255 255 255 255 255 255 255 255 255 255 255 255 255 255 255 255 255 255 255 255 225 0 15 225 0 15 225 0 15 225 0 15 225 0 15 225 0 15 225 0 15 225 0 15 225 0 15 225 0 15 225 0 15 225 0 15 225 0 15 225 0 15 225 0 15 225 0 15 225 0 15 225 0 15 225 0 15 225 0 15 225 0 15 225 0 15 225 0 15 225 0 15 225 0 15 225 0 15 225 0 15 225 0 15 225 0 15 225 0 15 225 0 15 225 0 15 225 0 15 225 0 15 225 0 15 225 0 15 225 0 15 225 0 15 225 0 15 225 0 15 225 0 15 225 0 15 225 0 15 225 0 15 225 0 15 225 0 15 225 0 15 225 0 15 225 0 15 225 0 15 225 0 15 225 0 15 225 0 15 225 0 15 225 0 15 225 0 15 225 0 15 225 0 15 225 0 15 225 0 15 225 0 15 225 0 15 225 0 15 225 0 15 225 0 15 225 0 15 225 0 15 225 0 15 225 0 15 225 0 15 225 0 15 225 0 15 225 0 15 225 0 15 225 0 15 225 0 15 225 0 15 225 0 15 225 0 15 225 0 15 225 0 15 225 0 15 225 0 15 225 0 15 225 0 15 225 0 15 225 0 15 225 0 15 225 0 15 225 0 15 225 0 15 225 0 15 225 0 15 225 0 15 225 0 15 225 0 15 225 0 15 225 0 15 225 0 15 225 0 15 225 0 15 
0 0 145 0 0 145 0 0 145 0 0 145 0 0 145 0 0 145 0 0 145 0 0 145 0 0 145 0 0 145 0 0 145 0 0 145 0 0 145 0 0 145 0 0 145 0 0 145 0 0 145 0 0 145 0 0 145 0 0 145 0 0 145 0 0 145 0 0 145 0 0 145 0 0 145 0 0 145 0 0 145 0 0 145 0 0 145 0 0 145 0 0 145 0 0 145 0 0 145 0 0 145 0 0 145 0 0 145 0 0 145 0 0 145 0 0 145 0 0 145 0 0 145 0 0 145 0 0 145 0 0 145 0 0 145 0 0 145 0 0 145 0 0 145 0 0 145 0 0 145 0 0 145 0 0 145 0 0 145 0 0 145 0 0 145 0 0 145 0 0 145 0 0 145 0 0 145 0 0 145 0 0 145 0 0 145 0 0 145 0 0 145 0 0 145 0 0 145 0 0 145 0 0 145 0 0 145 0 0 145 0 0 145 0 0 145 0 0 145 0 0 145 0 0 145 0 0 145 0 0 145 0 0 145 0 0 145 0 0 145 0 0 145 0 0 145 0 0 145 0 0 145 0 0 145 0 0 145 0 0 145 0 0 145 0 0 145 0 0 145 0 0 145 0 0 145 0 0 145 0 0 145 0 0 145 0 0 145 0 0 145 0 0 145 0 0 145 225 0 15 255 255 255 255 255 255 255 255 255 255 255 255 255 255 255 255 255 255 255 255 255 255 255 255 255 255 255 255 255 255 255 255 255 255 255 255 255 255 255 255 255 255 255 255 255 255 255 255 255 255 255 255 255 255 255 255 255 255 255 255 255 255 255 255 255 255 255 255 255 255 255 255 255 255 255 255 255 255 255 255 255 255 255 255 255 255 255 255 255 255 255 255 255 255 255 255 255 255 255 255 255 255 255 255 255 255 255 255 255 255 255 255 255 255 255 255 255 255 255 255 255 255 255 255 255 255 255 255 255 255 255 255 255 255 255 255 255 255 255 255 255 255 255 255 255 255 255 255 255 255 255 255 255 255 255 255 255 255 255 255 255 255 255 255 255 255 255 255 255 255 255 255 255 255 255 255 255 255 255 255 255 255 255 255 255 255 255 255 255 255 255 255 255 255 255 255 255 255 255 255 255 255 255 255 255 255 255 255 255 255 255 255 255 255 255 255 255 255 255 255 255 255 255 255 255 255 255 255 255 255 255 255 255 255 255 255 255 255 255 255 255 255 255 255 255 255 255 255 255 255 255 255 255 255 255 255 255 255 255 255 255 255 255 255 255 255 255 255 255 255 255 255 255 255 255 255 255 255 255 255 255 255 255 255 255 255 255 255 255 255 255 255 255 255 255 255 255 225 0 15 225 0 15 225 0 15 225 0 15 225 0 15 225 0 15 225 0 15 225 0 15 225 0 15 225 0 15 225 0 15 225 0 15 225 0 15 225 0 15 225 0 15 225 0 15 225 0 15 225 0 15 225 0 15 225 0 15 225 0 15 225 0 15 225 0 15 225 0 15 225 0 15 225 0 15 225 0 15 225 0 15 225 0 15 225 0 15 225 0 15 225 0 15 225 0 15 225 0 15 225 0 15 225 0 15 225 0 15 225 0 15 225 0 15 225 0 15 225 0 15 225 0 15 225 0 15 225 0 15 225 0 15 225 0 15 225 0 15 225 0 15 225 0 15 225 0 15 225 0 15 225 0 15 225 0 15 225 0 15 225 0 15 225 0 15 225 0 15 225 0 15 225 0 15 225 0 15 225 0 15 225 0 15 225 0 15 225 0 15 225 0 15 225 0 15 225 0 15 225 0 15 225 0 15 225 0 15 225 0 15 225 0 15 225 0 15 225 0 15 225 0 15 225 0 15 225 0 15 225 0 15 225 0 15 225 0 15 225 0 15 225 0 15 225 0 15 225 0 15 225 0 15 225 0 15 225 0 15 225 0 15 225 0 15 225 0 15 225 0 15 225 0 15 225 0 15 225 0 15 225 0 15 225 0 15 225 0 15 225 0 15 225 0 15 225 0 15 225 0 15 
0 0 145 0 0 145 0 0 145 0 0 145 0 0 145 0 0 145 0 0 145 0 0 145 0 0 145 0 0 145 0 0 145 0 0 145 0 0 145 0 0 145 0 0 145 0 0 145 0 0 145 0 0 145 0 0 145 0 0 145 0 0 145 0 0 145 0 0 145 0 0 145 0 0 145 0 0 145 0 0 145 0 0 145 0 0 145 0 0 145 0 0 145 0 0 145 0 0 145 0 0 145 0 0 145 0 0 145 0 0 145 0 0 145 0 0 145 0 0 145 0 0 145 0 0 145 0 0 145 0 0 145 0 0 145 0 0 145 0 0 145 0 0 145 0 0 145 0 0 145 0 0 145 0 0 145 0 0 145 0 0 145 0 0 145 0 0 145 0 0 145 0 0 145 0 0 145 0 0 145 0 0 145 0 0 145 0 0 145 0 0 145 0 0 145 0 0 145 0 0 145 0 0 145 0 0 145 0 0 145 0 0 145 0 0 145 0 0 145 0 0 145 0 0 145 0 0 145 0 0 145 0 0 145 0 0 145 0 0 145 0 0 145 0 0 145 0 0 145 0 0 145 0 0 145 0 0 145 0 0 145 0 0 145 0 0 145 0 0 145 0 0 145 0 0 145 0 0 145 0 0 145 0 0 145 0 0 145 0 0 145 0 0 145 0 0 145 225 0 15 255 255 255 255 255 255 255 255 255 255 255 255 255 255 255 255 255 255 255 255 255 255 255 255 255 255 255 255 255 255 255 255 255 255 255 255 255 255 255 255 255 255 255 255 255 255 255 255 255 255 255 255 255 255 255 255 255 255 255 255 255 255 255 255 255 255 255 255 255 255 255 255 255 255 255 255 255 255 255 255 255 255 255 255 255 255 255 255 255 255 255 255 255 255 255 255 255 255 255 255 255 255 255 255 255 255 255 255 255 255 255 255 255 255 255 255 255 255 255 255 255 255 255 255 255 255 255 255 255 255 255 255 255 255 255 255 255 255 255 255 255 255 255 255 255 255 255 255 255 255 255 255 255 255 255 255 255 255 255 255 255 255 255 255 255 255 255 255 255 255 255 255 255 255 255 255 255 255 255 255 255 255 255 255 255 255 255 255 255 255 255 255 255 255 255 255 255 255 255 255 255 255 255 255 255 255 255 255 255 255 255 255 255 255 255 255 255 255 255 255 255 255 255 255 255 255 255 255 255 255 255 255 255 255 255 255 255 255 255 255 255 255 255 255 255 255 255 255 255 255 255 255 255 255 255 255 255 255 255 255 255 255 255 255 255 255 255 255 255 255 255 255 255 255 255 255 255 255 255 255 255 255 255 255 255 255 255 255 255 255 255 255 255 255 255 255 255 225 0 15 225 0 15 225 0 15 225 0 15 225 0 15 225 0 15 225 0 15 225 0 15 225 0 15 225 0 15 225 0 15 225 0 15 225 0 15 225 0 15 225 0 15 225 0 15 225 0 15 225 0 15 225 0 15 225 0 15 225 0 15 225 0 15 225 0 15 225 0 15 225 0 15 225 0 15 225 0 15 225 0 15 225 0 15 225 0 15 225 0 15 225 0 15 225 0 15 225 0 15 225 0 15 225 0 15 225 0 15 225 0 15 225 0 15 225 0 15 225 0 15 225 0 15 225 0 15 225 0 15 225 0 15 225 0 15 225 0 15 225 0 15 225 0 15 225 0 15 225 0 15 225 0 15 225 0 15 225 0 15 225 0 15 225 0 15 225 0 15 225 0 15 225 0 15 225 0 15 225 0 15 225 0 15 225 0 15 225 0 15 225 0 15 225 0 15 225 0 15 225 0 15 225 0 15 225 0 15 225 0 15 225 0 15 225 0 15 225 0 15 225 0 15 225 0 15 225 0 15 225 0 15 225 0 15 225 0 15 225 0 15 225 0 15 225 0 15 225 0 15 225 0 15 225 0 15 225 0 15 225 0 15 225 0 15 225 0 15 225 0 15 225 0 15 225 0 15 225 0 15 225 0 15 225 0 15 225 0 15 225 0 15 225 0 15 225 0 15 225 0 15 
0 0 145 0 0 145 0 0 145 0 0 145 0 0 145 0 0 145 0 0 145 0 0 145 0 0 145 0 0 145 0 0 145 0 0 145 0 0 145 0 0 145 0 0 145 0 0 145 0 0 145 0 0 145 0 0 145 0 0 145 0 0 145 0 0 145 0 0 145 0 0 145 0 0 145 0 0 145 0 0 145 0 0 145 0 0 145 0 0 145 0 0 145 0 0 145 0 0 145 0 0 145 0 0 145 0 0 145 0 0 145 0 0 145 0 0 145 0 0 145 0 0 145 0 0 145 0 0 145 0 0 145 0 0 145 0 0 145 0 0 145 0 0 145 0 0 145 0 0 145 0 0 145 0 0 145 0 0 145 0 0 145 0 0 145 0 0 145 0 0 145 0 0 145 0 0 145 0 0 145 0 0 145 0 0 145 0 0 145 0 0 145 0 0 145 0 0 145 0 0 145 0 0 145 0 0 145 0 0 145 0 0 145 0 0 145 0 0 145 0 0 145 0 0 145 0 0 145 0 0 145 0 0 145 0 0 145 0 0 145 0 0 145 0 0 145 0 0 145 0 0 145 0 0 145 0 0 145 0 0 145 0 0 145 0 0 145 0 0 145 0 0 145 0 0 145 0 0 145 0 0 145 0 0 145 0 0 145 0 0 145 0 0 145 0 0 145 225 0 15 255 255 255 255 255 255 255 255 255 255 255 255 255 255 255 255 255 255 255 255 255 255 255 255 255 255 255 255 255 255 255 255 255 255 255 255 255 255 255 255 255 255 255 255 255 255 255 255 255 255 255 255 255 255 255 255 255 255 255 255 255 255 255 255 255 255 255 255 255 255 255 255 255 255 255 255 255 255 255 255 255 255 255 255 255 255 255 255 255 255 255 255 255 255 255 255 255 255 255 255 255 255 255 255 255 255 255 255 255 255 255 255 255 255 255 255 255 255 255 255 255 255 255 255 255 255 255 255 255 255 255 255 255 255 255 255 255 255 255 255 255 255 255 255 255 255 255 255 255 255 255 255 255 255 255 255 255 255 255 255 255 255 255 255 255 255 255 255 255 255 255 255 255 255 255 255 255 255 255 255 255 255 255 255 255 255 255 255 255 255 255 255 255 255 255 255 255 255 255 255 255 255 255 255 255 255 255 255 255 255 255 255 255 255 255 255 255 255 255 255 255 255 255 255 255 255 255 255 255 255 255 255 255 255 255 255 255 255 255 255 255 255 255 255 255 255 255 255 255 255 255 255 255 255 255 255 255 255 255 255 255 255 255 255 255 255 255 255 255 255 255 255 255 255 255 255 255 255 255 255 255 255 255 255 255 255 255 255 255 255 255 255 255 255 255 255 255 225 0 15 225 0 15 225 0 15 225 0 15 225 0 15 225 0 15 225 0 15 225 0 15 225 0 15 225 0 15 225 0 15 225 0 15 225 0 15 225 0 15 225 0 15 225 0 15 225 0 15 225 0 15 225 0 15 225 0 15 225 0 15 225 0 15 225 0 15 225 0 15 225 0 15 225 0 15 225 0 15 225 0 15 225 0 15 225 0 15 225 0 15 225 0 15 225 0 15 225 0 15 225 0 15 225 0 15 225 0 15 225 0 15 225 0 15 225 0 15 225 0 15 225 0 15 225 0 15 225 0 15 225 0 15 225 0 15 225 0 15 225 0 15 225 0 15 225 0 15 225 0 15 225 0 15 225 0 15 225 0 15 225 0 15 225 0 15 225 0 15 225 0 15 225 0 15 225 0 15 225 0 15 225 0 15 225 0 15 225 0 15 225 0 15 225 0 15 225 0 15 225 0 15 225 0 15 225 0 15 225 0 15 225 0 15 225 0 15 225 0 15 225 0 15 225 0 15 225 0 15 225 0 15 225 0 15 225 0 15 225 0 15 225 0 15 225 0 15 225 0 15 225 0 15 225 0 15 225 0 15 225 0 15 225 0 15 225 0 15 225 0 15 225 0 15 225 0 15 225 0 15 225 0 15 225 0 15 225 0 15 225 0 15 225 0 15 225 0 15 225 0 15 
0 0 145 0 0 145 0 0 145 0 0 145 0 0 145 0 0 145 0 0 145 0 0 145 0 0 145 0 0 145 0 0 145 0 0 145 0 0 145 0 0 145 0 0 145 0 0 145 0 0 145 0 0 145 0 0 145 0 0 145 0 0 145 0 0 145 0 0 145 0 0 145 0 0 145 0 0 145 0 0 145 0 0 145 0 0 145 0 0 145 0 0 145 0 0 145 0 0 145 0 0 145 0 0 145 0 0 145 0 0 145 0 0 145 0 0 145 0 0 145 0 0 145 0 0 145 0 0 145 0 0 145 0 0 145 0 0 145 0 0 145 0 0 145 0 0 145 0 0 145 0 0 145 0 0 145 0 0 145 0 0 145 0 0 145 0 0 145 0 0 145 0 0 145 0 0 145 0 0 145 0 0 145 0 0 145 0 0 145 0 0 145 0 0 145 0 0 145 0 0 145 0 0 145 0 0 145 0 0 145 0 0 145 0 0 145 0 0 145 0 0 145 0 0 145 0 0 145 0 0 145 0 0 145 0 0 145 0 0 145 0 0 145 0 0 145 0 0 145 0 0 145 0 0 145 0 0 145 0 0 145 0 0 145 0 0 145 0 0 145 0 0 145 0 0 145 0 0 145 0 0 145 0 0 145 0 0 145 0 0 145 0 0 145 0 0 145 225 0 15 255 255 255 255 255 255 255 255 255 255 255 255 255 255 255 255 255 255 255 255 255 255 255 255 255 255 255 255 255 255 255 255 255 255 255 255 255 255 255 255 255 255 255 255 255 255 255 255 255 255 255 255 255 255 255 255 255 255 255 255 255 255 255 255 255 255 255 255 255 255 255 255 255 255 255 255 255 255 255 255 255 255 255 255 255 255 255 255 255 255 255 255 255 255 255 255 255 255 255 255 255 255 255 255 255 255 255 255 255 255 255 255 255 255 255 255 255 255 255 255 255 255 255 255 255 255 255 255 255 255 255 255 255 255 255 255 255 255 255 255 255 255 255 255 255 255 255 255 255 255 255 255 255 255 255 255 255 255 255 255 255 255 255 255 255 255 255 255 255 255 255 255 255 255 255 255 255 255 255 255 255 255 255 255 255 255 255 255 255 255 255 255 255 255 255 255 255 255 255 255 255 255 255 255 255 255 255 255 255 255 255 255 255 255 255 255 255 255 255 255 255 255 255 255 255 255 255 255 255 255 255 255 255 255 255 255 255 255 255 255 255 255 255 255 255 255 255 255 255 255 255 255 255 255 255 255 255 255 255 255 255 255 255 255 255 255 255 255 255 255 255 255 255 255 255 255 255 255 255 255 255 255 255 255 255 255 255 255 255 255 255 255 255 255 255 255 255 225 0 15 225 0 15 225 0 15 225 0 15 225 0 15 225 0 15 225 0 15 225 0 15 225 0 15 225 0 15 225 0 15 225 0 15 225 0 15 225 0 15 225 0 15 225 0 15 225 0 15 225 0 15 225 0 15 225 0 15 225 0 15 225 0 15 225 0 15 225 0 15 225 0 15 225 0 15 225 0 15 225 0 15 225 0 15 225 0 15 225 0 15 225 0 15 225 0 15 225 0 15 225 0 15 225 0 15 225 0 15 225 0 15 225 0 15 225 0 15 225 0 15 225 0 15 225 0 15 225 0 15 225 0 15 225 0 15 225 0 15 225 0 15 225 0 15 225 0 15 225 0 15 225 0 15 225 0 15 225 0 15 225 0 15 225 0 15 225 0 15 225 0 15 225 0 15 225 0 15 225 0 15 225 0 15 225 0 15 225 0 15 225 0 15 225 0 15 225 0 15 225 0 15 225 0 15 225 0 15 225 0 15 225 0 15 225 0 15 225 0 15 225 0 15 225 0 15 225 0 15 225 0 15 225 0 15 225 0 15 225 0 15 225 0 15 225 0 15 225 0 15 225 0 15 225 0 15 225 0 15 225 0 15 225 0 15 225 0 15 225 0 15 225 0 15 225 0 15 225 0 15 225 0 15 225 0 15 225 0 15 225 0 15 225 0 15 225 0 15 225 0 15 
0 0 145 0 0 145 0 0 145 0 0 145 0 0 145 0 0 145 0 0 145 0 0 145 0 0 145 0 0 145 0 0 145 0 0 145 0 0 145 0 0 145 0 0 145 0 0 145 0 0 145 0 0 145 0 0 145 0 0 145 0 0 145 0 0 145 0 0 145 0 0 145 0 0 145 0 0 145 0 0 145 0 0 145 0 0 145 0 0 145 0 0 145 0 0 145 0 0 145 0 0 145 0 0 145 0 0 145 0 0 145 0 0 145 0 0 145 0 0 145 0 0 145 0 0 145 0 0 145 0 0 145 0 0 145 0 0 145 0 0 145 0 0 145 0 0 145 0 0 145 0 0 145 0 0 145 0 0 145 0 0 145 0 0 145 0 0 145 0 0 145 0 0 145 0 0 145 0 0 145 0 0 145 0 0 145 0 0 145 0 0 145 0 0 145 0 0 145 0 0 145 0 0 145 0 0 145 0 0 145 0 0 145 0 0 145 0 0 145 0 0 145 0 0 145 0 0 145 0 0 145 0 0 145 0 0 145 0 0 145 0 0 145 0 0 145 0 0 145 0 0 145 0 0 145 0 0 145 0 0 145 0 0 145 0 0 145 0 0 145 0 0 145 0 0 145 0 0 145 0 0 145 0 0 145 0 0 145 0 0 145 0 0 145 0 0 145 225 0 15 255 255 255 255 255 255 255 255 255 255 255 255 255 255 255 255 255 255 255 255 255 255 255 255 255 255 255 255 255 255 255 255 255 255 255 255 255 255 255 255 255 255 255 255 255 255 255 255 255 255 255 255 255 255 255 255 255 255 255 255 255 255 255 255 255 255 255 255 255 255 255 255 255 255 255 255 255 255 255 255 255 255 255 255 255 255 255 255 255 255 255 255 255 255 255 255 255 255 255 255 255 255 255 255 255 255 255 255 255 255 255 255 255 255 255 255 255 255 255 255 255 255 255 255 255 255 255 255 255 255 255 255 255 255 255 255 255 255 255 255 255 255 255 255 255 255 255 255 255 255 255 255 255 255 255 255 255 255 255 255 255 255 255 255 255 255 255 255 255 255 255 255 255 255 255 255 255 255 255 255 255 255 255 255 255 255 255 255 255 255 255 255 255 255 255 255 255 255 255 255 255 255 255 255 255 255 255 255 255 255 255 255 255 255 255 255 255 255 255 255 255 255 255 255 255 255 255 255 255 255 255 255 255 255 255 255 255 255 255 255 255 255 255 255 255 255 255 255 255 255 255 255 255 255 255 255 255 255 255 255 255 255 255 255 255 255 255 255 255 255 255 255 255 255 255 255 255 255 255 255 255 255 255 255 255 255 255 255 255 255 255 255 255 255 255 255 255 225 0 15 225 0 15 225 0 15 225 0 15 225 0 15 225 0 15 225 0 15 225 0 15 225 0 15 225 0 15 225 0 15 225 0 15 225 0 15 225 0 15 225 0 15 225 0 15 225 0 15 225 0 15 225 0 15 225 0 15 225 0 15 225 0 15 225 0 15 225 0 15 225 0 15 225 0 15 225 0 15 225 0 15 225 0 15 225 0 15 225 0 15 225 0 15 225 0 15 225 0 15 225 0 15 225 0 15 225 0 15 225 0 15 225 0 15 225 0 15 225 0 15 225 0 15 225 0 15 225 0 15 225 0 15 225 0 15 225 0 15 225 0 15 225 0 15 225 0 15 225 0 15 225 0 15 225 0 15 225 0 15 225 0 15 225 0 15 225 0 15 225 0 15 225 0 15 225 0 15 225 0 15 225 0 15 225 0 15 225 0 15 225 0 15 225 0 15 225 0 15 225 0 15 225 0 15 225 0 15 225 0 15 225 0 15 225 0 15 225 0 15 225 0 15 225 0 15 225 0 15 225 0 15 225 0 15 225 0 15 225 0 15 225 0 15 225 0 15 225 0 15 225 0 15 225 0 15 225 0 15 225 0 15 225 0 15 225 0 15 225 0 15 225 0 15 225 0 15 225 0 15 225 0 15 225 0 15 225 0 15 225 0 15 225 0 15 225 0 15 225 0 15 
0 0 145 0 0 145 0 0 145 0 0 145 0 0 145 0 0 145 0 0 145 0 0 145 0 0 145 0 0 145 0 0 145 0 0 145 0 0 145 0 0 145 0 0 145 0 0 145 0 0 145 0 0 145 0 0 145 0 0 145 0 0 145 0 0 145 0 0 145 0 0 145 0 0 145 0 0 145 0 0 145 0 0 145 0 0 145 0 0 145 0 0 145 0 0 145 0 0 145 0 0 145 0 0 145 0 0 145 0 0 145 0 0 145 0 0 145 0 0 145 0 0 145 0 0 145 0 0 145 0 0 145 0 0 145 0 0 145 0 0 145 0 0 145 0 0 145 0 0 145 0 0 145 0 0 145 0 0 145 0 0 145 0 0 145 0 0 145 0 0 145 0 0 145 0 0 145 0 0 145 0 0 145 0 0 145 0 0 145 0 0 145 0 0 145 0 0 145 0 0 145 0 0 145 0 0 145 0 0 145 0 0 145 0 0 145 0 0 145 0 0 145 0 0 145 0 0 145 0 0 145 0 0 145 0 0 145 0 0 145 0 0 145 0 0 145 0 0 145 0 0 145 0 0 145 0 0 145 0 0 145 0 0 145 0 0 145 0 0 145 0 0 145 0 0 145 0 0 145 0 0 145 0 0 145 0 0 145 0 0 145 0 0 145 0 0 145 225 0 15 255 255 255 255 255 255 255 255 255 255 255 255 255 255 255 255 255 255 255 255 255 255 255 255 255 255 255 255 255 255 255 255 255 255 255 255 255 255 255 255 255 255 255 255 255 255 255 255 255 255 255 255 255 255 255 255 255 255 255 255 255 255 255 255 255 255 255 255 255 255 255 255 255 255 255 255 255 255 255 255 255 255 255 255 255 255 255 255 255 255 255 255 255 255 255 255 255 255 255 255 255 255 255 255 255 255 255 255 255 255 255 255 255 255 255 255 255 255 255 255 255 255 255 255 255 255 255 255 255 255 255 255 255 255 255 255 255 255 255 255 255 255 255 255 255 255 255 255 255 255 255 255 255 255 255 255 255 255 255 255 255 255 255 255 255 255 255 255 255 255 255 255 255 255 255 255 255 255 255 255 255 255 255 255 255 255 255 255 255 255 255 255 255 255 255 255 255 255 255 255 255 255 255 255 255 255 255 255 255 255 255 255 255 255 255 255 255 255 255 255 255 255 255 255 255 255 255 255 255 255 255 255 255 255 255 255 255 255 255 255 255 255 255 255 255 255 255 255 255 255 255 255 255 255 255 255 255 255 255 255 255 255 255 255 255 255 255 255 255 255 255 255 255 255 255 255 255 255 255 255 255 255 255 255 255 255 255 255 255 255 255 255 255 255 255 255 255 225 0 15 225 0 15 225 0 15 225 0 15 225 0 15 225 0 15 225 0 15 225 0 15 225 0 15 225 0 15 225 0 15 225 0 15 225 0 15 225 0 15 225 0 15 225 0 15 225 0 15 225 0 15 225 0 15 225 0 15 225 0 15 225 0 15 225 0 15 225 0 15 225 0 15 225 0 15 225 0 15 225 0 15 225 0 15 225 0 15 225 0 15 225 0 15 225 0 15 225 0 15 225 0 15 225 0 15 225 0 15 225 0 15 225 0 15 225 0 15 225 0 15 225 0 15 225 0 15 225 0 15 225 0 15 225 0 15 225 0 15 225 0 15 225 0 15 225 0 15 225 0 15 225 0 15 225 0 15 225 0 15 225 0 15 225 0 15 225 0 15 225 0 15 225 0 15 225 0 15 225 0 15 225 0 15 225 0 15 225 0 15 225 0 15 225 0 15 225 0 15 225 0 15 225 0 15 225 0 15 225 0 15 225 0 15 225 0 15 225 0 15 225 0 15 225 0 15 225 0 15 225 0 15 225 0 15 225 0 15 225 0 15 225 0 15 225 0 15 225 0 15 225 0 15 225 0 15 225 0 15 225 0 15 225 0 15 225 0 15 225 0 15 225 0 15 225 0 15 225 0 15 225 0 15 225 0 15 225 0 15 225 0 15 225 0 15 225 0 15 225 0 15 
0 0 145 0 0 145 0 0 145 0 0 145 0 0 145 0 0 145 0 0 145 0 0 145 0 0 145 0 0 145 0 0 145 0 0 145 0 0 145 0 0 145 0 0 145 0 0 145 0 0 145 0 0 145 0 0 145 0 0 145 0 0 145 0 0 145 0 0 145 0 0 145 0 0 145 0 0 145 0 0 145 0 0 145 0 0 145 0 0 145 0 0 145 0 0 145 0 0 145 0 0 145 0 0 145 0 0 145 0 0 145 0 0 145 0 0 145 0 0 145 0 0 145 0 0 145 0 0 145 0 0 145 0 0 145 0 0 145 0 0 145 0 0 145 0 0 145 0 0 145 0 0 145 0 0 145 0 0 145 0 0 145 0 0 145 0 0 145 0 0 145 0 0 145 0 0 145 0 0 145 0 0 145 0 0 145 0 0 145 0 0 145 0 0 145 0 0 145 0 0 145 0 0 145 0 0 145 0 0 145 0 0 145 0 0 145 0 0 145 0 0 145 0 0 145 0 0 145 0 0 145 0 0 145 0 0 145 0 0 145 0 0 145 0 0 145 0 0 145 0 0 145 0 0 145 0 0 145 0 0 145 0 0 145 0 0 145 0 0 145 0 0 145 0 0 145 0 0 145 0 0 145 0 0 145 0 0 145 0 0 145 0 0 145 0 0 145 225 0 15 255 255 255 255 255 255 255 255 255 255 255 255 255 255 255 255 255 255 255 255 255 255 255 255 255 255 255 255 255 255 255 255 255 255 255 255 255 255 255 255 255 255 255 255 255 255 255 255 255 255 255 255 255 255 255 255 255 255 255 255 255 255 255 255 255 255 255 255 255 255 255 255 255 255 255 255 255 255 255 255 255 255 255 255 255 255 255 255 255 255 255 255 255 255 255 255 255 255 255 255 255 255 255 255 255 255 255 255 255 255 255 255 255 255 255 255 255 255 255 255 255 255 255 255 255 255 255 255 255 255 255 255 255 255 255 255 255 255 255 255 255 255 255 255 255 255 255 255 255 255 255 255 255 255 255 255 255 255 255 255 255 255 255 255 255 255 255 255 255 255 255 255 255 255 255 255 255 255 255 255 255 255 255 255 255 255 255 255 255 255 255 255 255 255 255 255 255 255 255 255 255 255 255 255 255 255 255 255 255 255 255 255 255 255 255 255 255 255 255 255 255 255 255 255 255 255 255 255 255 255 255 255 255 255 255 255 255 255 255 255 255 255 255 255 255 255 255 255 255 255 255 255 255 255 255 255 255 255 255 255 255 255 255 255 255 255 255 255 255 255 255 255 255 255 255 255 255 255 255 255 255 255 255 255 255 255 255 255 255 255 255 255 255 255 255 255 255 225 0 15 225 0 15 225 0 15 225 0 15 225 0 15 225 0 15 225 0 15 225 0 15 225 0 15 225 0 15 225 0 15 225 0 15 225 0 15 225 0 15 225 0 15 225 0 15 225 0 15 225 0 15 225 0 15 225 0 15 225 0 15 225 0 15 225 0 15 225 0 15 225 0 15 225 0 15 225 0 15 225 0 15 225 0 15 225 0 15 225 0 15 225 0 15 225 0 15 225 0 15 225 0 15 225 0 15 225 0 15 225 0 15 225 0 15 225 0 15 225 0 15 225 0 15 225 0 15 225 0 15 225 0 15 225 0 15 225 0 15 225 0 15 225 0 15 225 0 15 225 0 15 225 0 15 225 0 15 225 0 15 225 0 15 225 0 15 225 0 15 225 0 15 225 0 15 225 0 15 225 0 15 225 0 15 225 0 15 225 0 15 225 0 15 225 0 15 225 0 15 225 0 15 225 0 15 225 0 15 225 0 15 225 0 15 225 0 15 225 0 15 225 0 15 225 0 15 225 0 15 225 0 15 225 0 15 225 0 15 225 0 15 225 0 15 225 0 15 225 0 15 225 0 15 225 0 15 225 0 15 225 0 15 225 0 15 225 0 15 225 0 15 225 0 15 225 0 15 225 0 15 225 0 15 225 0 15 225 0 15 225 0 15 225 0 15 225 0 15 225 0 15 
0 0 145 0 0 145 0 0 145 0 0 145 0 0 145 0 0 145 0 0 145 0 0 145 0 0 145 0 0 145 0 0 145 0 0 145 0 0 145 0 0 145 0 0 145 0 0 145 0 0 145 0 0 145 0 0 145 0 0 145 0 0 145 0 0 145 0 0 145 0 0 145 0 0 145 0 0 145 0 0 145 0 0 145 0 0 145 0 0 145 0 0 145 0 0 145 0 0 145 0 0 145 0 0 145 0 0 145 0 0 145 0 0 145 0 0 145 0 0 145 0 0 145 0 0 145 0 0 145 0 0 145 0 0 145 0 0 145 0 0 145 0 0 145 0 0 145 0 0 145 0 0 145 0 0 145 0 0 145 0 0 145 0 0 145 0 0 145 0 0 145 0 0 145 0 0 145 0 0 145 0 0 145 0 0 145 0 0 145 0 0 145 0 0 145 0 0 145 0 0 145 0 0 145 0 0 145 0 0 145 0 0 145 0 0 145 0 0 145 0 0 145 0 0 145 0 0 145 0 0 145 0 0 145 0 0 145 0 0 145 0 0 145 0 0 145 0 0 145 0 0 145 0 0 145 0 0 145 0 0 145 0 0 145 0 0 145 0 0 145 0 0 145 0 0 145 0 0 145 0 0 145 0 0 145 0 0 145 0 0 145 0 0 145 0 0 145 225 0 15 255 255 255 255 255 255 255 255 255 255 255 255 255 255 255 255 255 255 255 255 255 255 255 255 255 255 255 255 255 255 255 255 255 255 255 255 255 255 255 255 255 255 255 255 255 255 255 255 255 255 255 255 255 255 255 255 255 255 255 255 255 255 255 255 255 255 255 255 255 255 255 255 255 255 255 255 255 255 255 255 255 255 255 255 255 255 255 255 255 255 255 255 255 255 255 255 255 255 255 255 255 255 255 255 255 255 255 255 255 255 255 255 255 255 255 255 255 255 255 255 255 255 255 255 255 255 255 255 255 255 255 255 255 255 255 255 255 255 255 255 255 255 255 255 255 255 255 255 255 255 255 255 255 255 255 255 255 255 255 255 255 255 255 255 255 255 255 255 255 255 255 255 255 255 255 255 255 255 255 255 255 255 255 255 255 255 255 255 255 255 255 255 255 255 255 255 255 255 255 255 255 255 255 255 255 255 255 255 255 255 255 255 255 255 255 255 255 255 255 255 255 255 255 255 255 255 255 255 255 255 255 255 255 255 255 255 255 255 255 255 255 255 255 255 255 255 255 255 255 255 255 255 255 255 255 255 255 255 255 255 255 255 255 255 255 255 255 255 255 255 255 255 255 255 255 255 255 255 255 255 255 255 255 255 255 255 255 255 255 255 255 255 255 255 255 255 255 225 0 15 225 0 15 225 0 15 225 0 15 225 0 15 225 0 15 225 0 15 225 0 15 225 0 15 225 0 15 225 0 15 225 0 15 225 0 15 225 0 15 225 0 15 225 0 15 225 0 15 225 0 15 225 0 15 225 0 15 225 0 15 225 0 15 225 0 15 225 0 15 225 0 15 225 0 15 225 0 15 225 0 15 225 0 15 225 0 15 225 0 15 225 0 15 225 0 15 225 0 15 225 0 15 225 0 15 225 0 15 225 0 15 225 0 15 225 0 15 225 0 15 225 0 15 225 0 15 225 0 15 225 0 15 225 0 15 225 0 15 225 0 15 225 0 15 225 0 15 225 0 15 225 0 15 225 0 15 225 0 15 225 0 15 225 0 15 225 0 15 225 0 15 225 0 15 225 0 15 225 0 15 225 0 15 225 0 15 225 0 15 225 0 15 225 0 15 225 0 15 225 0 15 225 0 15 225 0 15 225 0 15 225 0 15 225 0 15 225 0 15 225 0 15 225 0 15 225 0 15 225 0 15 225 0 15 225 0 15 225 0 15 225 0 15 225 0 15 225 0 15 225 0 15 225 0 15 225 0 15 225 0 15 225 0 15 225 0 15 225 0 15 225 0 15 225 0 15 225 0 15 225 0 15 225 0 15 225 0 15 225 0 15 225 0 15 225 0 15 225 0 15 
0 0 145 0 0 145 0 0 145 0 0 145 0 0 145 0 0 145 0 0 145 0 0 145 0 0 145 0 0 145 0 0 145 0 0 145 0 0 145 0 0 145 0 0 145 0 0 145 0 0 145 0 0 145 0 0 145 0 0 145 0 0 145 0 0 145 0 0 145 0 0 145 0 0 145 0 0 145 0 0 145 0 0 145 0 0 145 0 0 145 0 0 145 0 0 145 0 0 145 0 0 145 0 0 145 0 0 145 0 0 145 0 0 145 0 0 145 0 0 145 0 0 145 0 0 145 0 0 145 0 0 145 0 0 145 0 0 145 0 0 145 0 0 145 0 0 145 0 0 145 0 0 145 0 0 145 0 0 145 0 0 145 0 0 145 0 0 145 0 0 145 0 0 145 0 0 145 0 0 145 0 0 145 0 0 145 0 0 145 0 0 145 0 0 145 0 0 145 0 0 145 0 0 145 0 0 145 0 0 145 0 0 145 0 0 145 0 0 145 0 0 145 0 0 145 0 0 145 0 0 145 0 0 145 0 0 145 0 0 145 0 0 145 0 0 145 0 0 145 0 0 145 0 0 145 0 0 145 0 0 145 0 0 145 0 0 145 0 0 145 0 0 145 0 0 145 0 0 145 0 0 145 0 0 145 0 0 145 0 0 145 0 0 145 0 0 145 225 0 15 255 255 255 255 255 255 255 255 255 255 255 255 255 255 255 255 255 255 255 255 255 255 255 255 255 255 255 255 255 255 255 255 255 255 255 255 255 255 255 255 255 255 255 255 255 255 255 255 255 255 255 255 255 255 255 255 255 255 255 255 255 255 255 255 255 255 255 255 255 255 255 255 255 255 255 255 255 255 255 255 255 255 255 255 255 255 255 255 255 255 255 255 255 255 255 255 255 255 255 255 255 255 255 255 255 255 255 255 255 255 255 255 255 255 255 255 255 255 255 255 255 255 255 255 255 255 255 255 255 255 255 255 255 255 255 255 255 255 255 255 255 255 255 255 255 255 255 255 255 255 255 255 255 255 255 255 255 255 255 255 255 255 255 255 255 255 255 255 255 255 255 255 255 255 255 255 255 255 255 255 255 255 255 255 255 255 255 255 255 255 255 255 255 255 255 255 255 255 255 255 255 255 255 255 255 255 255 255 255 255 255 255 255 255 255 255 255 255 255 255 255 255 255 255 255 255 255 255 255 255 255 255 255 255 255 255 255 255 255 255 255 255 255 255 255 255 255 255 255 255 255 255 255 255 255 255 255 255 255 255 255 255 255 255 255 255 255 255 255 255 255 255 255 255 255 255 255 255 255 255 255 255 255 255 255 255 255 255 255 255 255 255 255 255 255 255 255 225 0 15 225 0 15 225 0 15 225 0 15 225 0 15 225 0 15 225 0 15 225 0 15 225 0 15 225 0 15 225 0 15 225 0 15 225 0 15 225 0 15 225 0 15 225 0 15 225 0 15 225 0 15 225 0 15 225 0 15 225 0 15 225 0 15 225 0 15 225 0 15 225 0 15 225 0 15 225 0 15 225 0 15 225 0 15 225 0 15 225 0 15 225 0 15 225 0 15 225 0 15 225 0 15 225 0 15 225 0 15 225 0 15 225 0 15 225 0 15 225 0 15 225 0 15 225 0 15 225 0 15 225 0 15 225 0 15 225 0 15 225 0 15 225 0 15 225 0 15 225 0 15 225 0 15 225 0 15 225 0 15 225 0 15 225 0 15 225 0 15 225 0 15 225 0 15 225 0 15 225 0 15 225 0 15 225 0 15 225 0 15 225 0 15 225 0 15 225 0 15 225 0 15 225 0 15 225 0 15 225 0 15 225 0 15 225 0 15 225 0 15 225 0 15 225 0 15 225 0 15 225 0 15 225 0 15 225 0 15 225 0 15 225 0 15 225 0 15 225 0 15 225 0 15 225 0 15 225 0 15 225 0 15 225 0 15 225 0 15 225 0 15 225 0 15 225 0 15 225 0 15 225 0 15 225 0 15 225 0 15 225 0 15 225 0 15 225 0 15 225 0 15 
0 0 145 0 0 145 0 0 145 0 0 145 0 0 145 0 0 145 0 0 145 0 0 145 0 0 145 0 0 145 0 0 145 0 0 145 0 0 145 0 0 145 0 0 145 0 0 145 0 0 145 0 0 145 0 0 145 0 0 145 0 0 145 0 0 145 0 0 145 0 0 145 0 0 145 0 0 145 0 0 145 0 0 145 0 0 145 0 0 145 0 0 145 0 0 145 0 0 145 0 0 145 0 0 145 0 0 145 0 0 145 0 0 145 0 0 145 0 0 145 0 0 145 0 0 145 0 0 145 0 0 145 0 0 145 0 0 145 0 0 145 0 0 145 0 0 145 0 0 145 0 0 145 0 0 145 0 0 145 0 0 145 0 0 145 0 0 145 0 0 145 0 0 145 0 0 145 0 0 145 0 0 145 0 0 145 0 0 145 0 0 145 0 0 145 0 0 145 0 0 145 0 0 145 0 0 145 0 0 145 0 0 145 0 0 145 0 0 145 0 0 145 0 0 145 0 0 145 0 0 145 0 0 145 0 0 145 0 0 145 0 0 145 0 0 145 0 0 145 0 0 145 0 0 145 0 0 145 0 0 145 0 0 145 0 0 145 0 0 145 0 0 145 0 0 145 0 0 145 0 0 145 0 0 145 0 0 145 0 0 145 0 0 145 0 0 145 225 0 15 255 255 255 255 255 255 255 255 255 255 255 255 255 255 255 255 255 255 255 255 255 255 255 255 255 255 255 255 255 255 255 255 255 255 255 255 255 255 255 255 255 255 255 255 255 255 255 255 255 255 255 255 255 255 255 255 255 255 255 255 255 255 255 255 255 255 255 255 255 255 255 255 255 255 255 255 255 255 255 255 255 255 255 255 255 255 255 255 255 255 255 255 255 255 255 255 255 255 255 255 255 255 255 255 255 255 255 255 255 255 255 255 255 255 255 255 255 255 255 255 255 255 255 255 255 255 255 255 255 255 255 255 255 255 255 255 255 255 255 255 255 255 255 255 255 255 255 255 255 255 255 255 255 255 255 255 255 255 255 255 255 255 255 255 255 255 255 255 255 255 255 255 255 255 255 255 255 255 255 255 255 255 255 255 255 255 255 255 255 255 255 255 255 255 255 255 255 255 255 255 255 255 255 255 255 255 255 255 255 255 255 255 255 255 255 255 255 255 255 255 255 255 255 255 255 255 255 255 255 255 255 255 255 255 255 255 255 255 255 255 255 255 255 255 255 255 255 255 255 255 255 255 255 255 255 255 255 255 255 255 255 255 255 255 255 255 255 255 255 255 255 255 255 255 255 255 255 255 255 255 255 255 255 255 255 255 255 255 255 255 255 255 255 255 255 255 255 225 0 15 225 0 15 225 0 15 225 0 15 225 0 15 225 0 15 225 0 15 225 0 15 225 0 15 225 0 15 225 0 15 225 0 15 225 0 15 225 0 15 225 0 15 225 0 15 225 0 15 225 0 15 225 0 15 225 0 15 225 0 15 225 0 15 225 0 15 225 0 15 225 0 15 225 0 15 225 0 15 225 0 15 225 0 15 225 0 15 225 0 15 225 0 15 225 0 15 225 0 15 225 0 15 225 0 15 225 0 15 225 0 15 225 0 15 225 0 15 225 0 15 225 0 15 225 0 15 225 0 15 225 0 15 225 0 15 225 0 15 225 0 15 225 0 15 225 0 15 225 0 15 225 0 15 225 0 15 225 0 15 225 0 15 225 0 15 225 0 15 225 0 15 225 0 15 225 0 15 225 0 15 225 0 15 225 0 15 225 0 15 225 0 15 225 0 15 225 0 15 225 0 15 225 0 15 225 0 15 225 0 15 225 0 15 225 0 15 225 0 15 225 0 15 225 0 15 225 0 15 225 0 15 225 0 15 225 0 15 225 0 15 225 0 15 225 0 15 225 0 15 225 0 15 225 0 15 225 0 15 225 0 15 225 0 15 225 0 15 225 0 15 225 0 15 225 0 15 225 0 15 225 0 15 225 0 15 225 0 15 225 0 15 225 0 15 225 0 15 225 0 15 
0 0 145 0 0 145 0 0 145 0 0 145 0 0 145 0 0 145 0 0 145 0 0 145 0 0 145 0 0 145 0 0 145 0 0 145 0 0 145 0 0 145 0 0 145 0 0 145 0 0 145 0 0 145 0 0 145 0 0 145 0 0 145 0 0 145 0 0 145 0 0 145 0 0 145 0 0 145 0 0 145 0 0 145 0 0 145 0 0 145 0 0 145 0 0 145 0 0 145 0 0 145 0 0 145 0 0 145 0 0 145 0 0 145 0 0 145 0 0 145 0 0 145 0 0 145 0 0 145 0 0 145 0 0 145 0 0 145 0 0 145 0 0 145 0 0 145 0 0 145 0 0 145 0 0 145 0 0 145 0 0 145 0 0 145 0 0 145 0 0 145 0 0 145 0 0 145 0 0 145 0 0 145 0 0 145 0 0 145 0 0 145 0 0 145 0 0 145 0 0 145 0 0 145 0 0 145 0 0 145 0 0 145 0 0 145 0 0 145 0 0 145 0 0 145 0 0 145 0 0 145 0 0 145 0 0 145 0 0 145 0 0 145 0 0 145 0 0 145 0 0 145 0 0 145 0 0 145 0 0 145 0 0 145 0 0 145 0 0 145 0 0 145 0 0 145 0 0 145 0 0 145 0 0 145 0 0 145 0 0 145 0 0 145 0 0 145 225 0 15 255 255 255 255 255 255 255 255 255 255 255 255 255 255 255 255 255 255 255 255 255 255 255 255 255 255 255 255 255 255 255 255 255 255 255 255 255 255 255 255 255 255 255 255 255 255 255 255 255 255 255 255 255 255 255 255 255 255 255 255 255 255 255 255 255 255 255 255 255 255 255 255 255 255 255 255 255 255 255 255 255 255 255 255 255 255 255 255 255 255 255 255 255 255 255 255 255 255 255 255 255 255 255 255 255 255 255 255 255 255 255 255 255 255 255 255 255 255 255 255 255 255 255 255 255 255 255 255 255 255 255 255 255 255 255 255 255 255 255 255 255 255 255 255 255 255 255 255 255 255 255 255 255 255 255 255 255 255 255 255 255 255 255 255 255 255 255 255 255 255 255 255 255 255 255 255 255 255 255 255 255 255 255 255 255 255 255 255 255 255 255 255 255 255 255 255 255 255 255 255 255 255 255 255 255 255 255 255 255 255 255 255 255 255 255 255 255 255 255 255 255 255 255 255 255 255 255 255 255 255 255 255 255 255 255 255 255 255 255 255 255 255 255 255 255 255 255 255 255 255 255 255 255 255 255 255 255 255 255 255 255 255 255 255 255 255 255 255 255 255 255 255 255 255 255 255 255 255 255 255 255 255 255 255 255 255 255 255 255 255 255 255 255 255 255 255 255 225 0 15 225 0 15 225 0 15 225 0 15 225 0 15 225 0 15 225 0 15 225 0 15 225 0 15 225 0 15 225 0 15 225 0 15 225 0 15 225 0 15 225 0 15 225 0 15 225 0 15 225 0 15 225 0 15 225 0 15 225 0 15 225 0 15 225 0 15 225 0 15 225 0 15 225 0 15 225 0 15 225 0 15 225 0 15 225 0 15 225 0 15 225 0 15 225 0 15 225 0 15 225 0 15 225 0 15 225 0 15 225 0 15 225 0 15 225 0 15 225 0 15 225 0 15 225 0 15 225 0 15 225 0 15 225 0 15 225 0 15 225 0 15 225 0 15 225 0 15 225 0 15 225 0 15 225 0 15 225 0 15 225 0 15 225 0 15 225 0 15 225 0 15 225 0 15 225 0 15 225 0 15 225 0 15 225 0 15 225 0 15 225 0 15 225 0 15 225 0 15 225 0 15 225 0 15 225 0 15 225 0 15 225 0 15 225 0 15 225 0 15 225 0 15 225 0 15 225 0 15 225 0 15 225 0 15 225 0 15 225 0 15 225 0 15 225 0 15 225 0 15 225 0 15 225 0 15 225 0 15 225 0 15 225 0 15 225 0 15 225 0 15 225 0 15 225 0 15 225 0 15 225 0 15 225 0 15 225 0 15 225 0 15 225 0 15 225 0 15 225 0 15 
0 0 145 0 0 145 0 0 145 0 0 145 0 0 145 0 0 145 0 0 145 0 0 145 0 0 145 0 0 145 0 0 145 0 0 145 0 0 145 0 0 145 0 0 145 0 0 145 0 0 145 0 0 145 0 0 145 0 0 145 0 0 145 0 0 145 0 0 145 0 0 145 0 0 145 0 0 145 0 0 145 0 0 145 0 0 145 0 0 145 0 0 145 0 0 145 0 0 145 0 0 145 0 0 145 0 0 145 0 0 145 0 0 145 0 0 145 0 0 145 0 0 145 0 0 145 0 0 145 0 0 145 0 0 145 0 0 145 0 0 145 0 0 145 0 0 145 0 0 145 0 0 145 0 0 145 0 0 145 0 0 145 0 0 145 0 0 145 0 0 145 0 0 145 0 0 145 0 0 145 0 0 145 0 0 145 0 0 145 0 0 145 0 0 145 0 0 145 0 0 145 0 0 145 0 0 145 0 0 145 0 0 145 0 0 145 0 0 145 0 0 145 0 0 145 0 0 145 0 0 145 0 0 145 0 0 145 0 0 145 0 0 145 0 0 145 0 0 145 0 0 145 0 0 145 0 0 145 0 0 145 0 0 145 0 0 145 0 0 145 0 0 145 0 0 145 0 0 145 0 0 145 0 0 145 0 0 145 0 0 145 0 0 145 0 0 145 225 0 15 255 255 255 255 255 255 255 255 255 255 255 255 255 255 255 255 255 255 255 255 255 255 255 255 255 255 255 255 255 255 255 255 255 255 255 255 255 255 255 255 255 255 255 255 255 255 255 255 255 255 255 255 255 255 255 255 255 255 255 255 255 255 255 255 255 255 255 255 255 255 255 255 255 255 255 255 255 255 255 255 255 255 255 255 255 255 255 255 255 255 255 255 255 255 255 255 255 255 255 255 255 255 255 255 255 255 255 255 255 255 255 255 255 255 255 255 255 255 255 255 255 255 255 255 255 255 255 255 255 255 255 255 255 255 255 255 255 255 255 255 255 255 255 255 255 255 255 255 255 255 255 255 255 255 255 255 255 255 255 255 255 255 255 255 255 255 255 255 255 255 255 255 255 255 255 255 255 255 255 255 255 255 255 255 255 255 255 255 255 255 255 255 255 255 255 255 255 255 255 255 255 255 255 255 255 255 255 255 255 255 255 255 255 255 255 255 255 255 255 255 255 255 255 255 255 255 255 255 255 255 255 255 255 255 255 255 255 255 255 255 255 255 255 255 255 255 255 255 255 255 255 255 255 255 255 255 255 255 255 255 255 255 255 255 255 255 255 255 255 255 255 255 255 255 255 255 255 255 255 255 255 255 255 255 255 255 255 255 255 255 255 255 255 255 255 255 255 225 0 15 225 0 15 225 0 15 225 0 15 225 0 15 225 0 15 225 0 15 225 0 15 225 0 15 225 0 15 225 0 15 225 0 15 225 0 15 225 0 15 225 0 15 225 0 15 225 0 15 225 0 15 225 0 15 225 0 15 225 0 15 225 0 15 225 0 15 225 0 15 225 0 15 225 0 15 225 0 15 225 0 15 225 0 15 225 0 15 225 0 15 225 0 15 225 0 15 225 0 15 225 0 15 225 0 15 225 0 15 225 0 15 225 0 15 225 0 15 225 0 15 225 0 15 225 0 15 225 0 15 225 0 15 225 0 15 225 0 15 225 0 15 225 0 15 225 0 15 225 0 15 225 0 15 225 0 15 225 0 15 225 0 15 225 0 15 225 0 15 225 0 15 225 0 15 225 0 15 225 0 15 225 0 15 225 0 15 225 0 15 225 0 15 225 0 15 225 0 15 225 0 15 225 0 15 225 0 15 225 0 15 225 0 15 225 0 15 225 0 15 225 0 15 225 0 15 225 0 15 225 0 15 225 0 15 225 0 15 225 0 15 225 0 15 225 0 15 225 0 15 225 0 15 225 0 15 225 0 15 225 0 15 225 0 15 225 0 15 225 0 15 225 0 15 225 0 15 225 0 15 225 0 15 225 0 15 225 0 15 225 0 15 225 0 15 225 0 15 225 0 15 
0 0 145 0 0 145 0 0 145 0 0 145 0 0 145 0 0 145 0 0 145 0 0 145 0 0 145 0 0 145 0 0 145 0 0 145 0 0 145 0 0 145 0 0 145 0 0 145 0 0 145 0 0 145 0 0 145 0 0 145 0 0 145 0 0 145 0 0 145 0 0 145 0 0 145 0 0 145 0 0 145 0 0 145 0 0 145 0 0 145 0 0 145 0 0 145 0 0 145 0 0 145 0 0 145 0 0 145 0 0 145 0 0 145 0 0 145 0 0 145 0 0 145 0 0 145 0 0 145 0 0 145 0 0 145 0 0 145 0 0 145 0 0 145 0 0 145 0 0 145 0 0 145 0 0 145 0 0 145 0 0 145 0 0 145 0 0 145 0 0 145 0 0 145 0 0 145 0 0 145 0 0 145 0 0 145 0 0 145 0 0 145 0 0 145 0 0 145 0 0 145 0 0 145 0 0 145 0 0 145 0 0 145 0 0 145 0 0 145 0 0 145 0 0 145 0 0 145 0 0 145 0 0 145 0 0 145 0 0 145 0 0 145 0 0 145 0 0 145 0 0 145 0 0 145 0 0 145 0 0 145 0 0 145 0 0 145 0 0 145 0 0 145 0 0 145 0 0 145 0 0 145 0 0 145 0 0 145 0 0 145 0 0 145 0 0 145 225 0 15 255 255 255 255 255 255 255 255 255 255 255 255 255 255 255 255 255 255 255 255 255 255 255 255 255 255 255 255 255 255 255 255 255 255 255 255 255 255 255 255 255 255 255 255 255 255 255 255 255 255 255 255 255 255 255 255 255 255 255 255 255 255 255 255 255 255 255 255 255 255 255 255 255 255 255 255 255 255 255 255 255 255 255 255 255 255 255 255 255 255 255 255 255 255 255 255 255 255 255 255 255 255 255 255 255 255 255 255 255 255 255 255 255 255 255 255 255 255 255 255 255 255 255 255 255 255 255 255 255 255 255 255 255 255 255 255 255 255 255 255 255 255 255 255 255 255 255 255 255 255 255 255 255 255 255 255 255 255 255 255 255 255 255 255 255 255 255 255 255 255 255 255 255 255 255 255 255 255 255 255 255 255 255 255 255 255 255 255 255 255 255 255 255 255 255 255 255 255 255 255 255 255 255 255 255 255 255 255 255 255 255 255 255 255 255 255 255 255 255 255 255 255 255 255 255 255 255 255 255 255 255 255 255 255 255 255 255 255 255 255 255 255 255 255 255 255 255 255 255 255 255 255 255 255 255 255 255 255 255 255 255 255 255 255 255 255 255 255 255 255 255 255 255 255 255 255 255 255 255 255 255 255 255 255 255 255 255 255 255 255 255 255 255 255 255 255 255 225 0 15 225 0 15 225 0 15 225 0 15 225 0 15 225 0 15 225 0 15 225 0 15 225 0 15 225 0 15 225 0 15 225 0 15 225 0 15 225 0 15 225 0 15 225 0 15 225 0 15 225 0 15 225 0 15 225 0 15 225 0 15 225 0 15 225 0 15 225 0 15 225 0 15 225 0 15 225 0 15 225 0 15 225 0 15 225 0 15 225 0 15 225 0 15 225 0 15 225 0 15 225 0 15 225 0 15 225 0 15 225 0 15 225 0 15 225 0 15 225 0 15 225 0 15 225 0 15 225 0 15 225 0 15 225 0 15 225 0 15 225 0 15 225 0 15 225 0 15 225 0 15 225 0 15 225 0 15 225 0 15 225 0 15 225 0 15 225 0 15 225 0 15 225 0 15 225 0 15 225 0 15 225 0 15 225 0 15 225 0 15 225 0 15 225 0 15 225 0 15 225 0 15 225 0 15 225 0 15 225 0 15 225 0 15 225 0 15 225 0 15 225 0 15 225 0 15 225 0 15 225 0 15 225 0 15 225 0 15 225 0 15 225 0 15 225 0 15 225 0 15 225 0 15 225 0 15 225 0 15 225 0 15 225 0 15 225 0 15 225 0 15 225 0 15 225 0 15 225 0 15 225 0 15 225 0 15 225 0 15 225 0 15 225 0 15 225 0 15 225 0 15 
0 0 145 0 0 145 0 0 145 0 0 145 0 0 145 0 0 145 0 0 145 0 0 145 0 0 145 0 0 145 0 0 145 0 0 145 0 0 145 0 0 145 0 0 145 0 0 145 0 0 145 0 0 145 0 0 145 0 0 145 0 0 145 0 0 145 0 0 145 0 0 145 0 0 145 0 0 145 0 0 145 0 0 145 0 0 145 0 0 145 0 0 145 0 0 145 0 0 145 0 0 145 0 0 145 0 0 145 0 0 145 0 0 145 0 0 145 0 0 145 0 0 145 0 0 145 0 0 145 0 0 145 0 0 145 0 0 145 0 0 145 0 0 145 0 0 145 0 0 145 0 0 145 0 0 145 0 0 145 0 0 145 0 0 145 0 0 145 0 0 145 0 0 145 0 0 145 0 0 145 0 0 145 0 0 145 0 0 145 0 0 145 0 0 145 0 0 145 0 0 145 0 0 145 0 0 145 0 0 145 0 0 145 0 0 145 0 0 145 0 0 145 0 0 145 0 0 145 0 0 145 0 0 145 0 0 145 0 0 145 0 0 145 0 0 145 0 0 145 0 0 145 0 0 145 0 0 145 0 0 145 0 0 145 0 0 145 0 0 145 0 0 145 0 0 145 0 0 145 0 0 145 0 0 145 0 0 145 0 0 145 0 0 145 0 0 145 225 0 15 255 255 255 255 255 255 255 255 255 255 255 255 255 255 255 255 255 255 255 255 255 255 255 255 255 255 255 255 255 255 255 255 255 255 255 255 255 255 255 255 255 255 255 255 255 255 255 255 255 255 255 255 255 255 255 255 255 255 255 255 255 255 255 255 255 255 255 255 255 255 255 255 255 255 255 255 255 255 255 255 255 255 255 255 255 255 255 255 255 255 255 255 255 255 255 255 255 255 255 255 255 255 255 255 255 255 255 255 255 255 255 255 255 255 255 255 255 255 255 255 255 255 255 255 255 255 255 255 255 255 255 255 255 255 255 255 255 255 255 255 255 255 255 255 255 255 255 255 255 255 255 255 255 255 255 255 255 255 255 255 255 255 255 255 255 255 255 255 255 255 255 255 255 255 255 255 255 255 255 255 255 255 255 255 255 255 255 255 255 255 255 255 255 255 255 255 255 255 255 255 255 255 255 255 255 255 255 255 255 255 255 255 255 255 255 255 255 255 255 255 255 255 255 255 255 255 255 255 255 255 255 255 255 255 255 255 255 255 255 255 255 255 255 255 255 255 255 255 255 255 255 255 255 255 255 255 255 255 255 255 255 255 255 255 255 255 255 255 255 255 255 255 255 255 255 255 255 255 255 255 255 255 255 255 255 255 255 255 255 255 255 255 255 255 255 255 255 225 0 15 225 0 15 225 0 15 225 0 15 225 0 15 225 0 15 225 0 15 225 0 15 225 0 15 225 0 15 225 0 15 225 0 15 225 0 15 225 0 15 225 0 15 225 0 15 225 0 15 225 0 15 225 0 15 225 0 15 225 0 15 225 0 15 225 0 15 225 0 15 225 0 15 225 0 15 225 0 15 225 0 15 225 0 15 225 0 15 225 0 15 225 0 15 225 0 15 225 0 15 225 0 15 225 0 15 225 0 15 225 0 15 225 0 15 225 0 15 225 0 15 225 0 15 225 0 15 225 0 15 225 0 15 225 0 15 225 0 15 225 0 15 225 0 15 225 0 15 225 0 15 225 0 15 225 0 15 225 0 15 225 0 15 225 0 15 225 0 15 225 0 15 225 0 15 225 0 15 225 0 15 225 0 15 225 0 15 225 0 15 225 0 15 225 0 15 225 0 15 225 0 15 225 0 15 225 0 15 225 0 15 225 0 15 225 0 15 225 0 15 225 0 15 225 0 15 225 0 15 225 0 15 225 0 15 225 0 15 225 0 15 225 0 15 225 0 15 225 0 15 225 0 15 225 0 15 225 0 15 225 0 15 225 0 15 225 0 15 225 0 15 225 0 15 225 0 15 225 0 15 225 0 15 225 0 15 225 0 15 225 0 15 225 0 15 225 0 15 225 0 15 
0 0 145 0 0 145 0 0 145 0 0 145 0 0 145 0 0 145 0 0 145 0 0 145 0 0 145 0 0 145 0 0 145 0 0 145 0 0 145 0 0 145 0 0 145 0 0 145 0 0 145 0 0 145 0 0 145 0 0 145 0 0 145 0 0 145 0 0 145 0 0 145 0 0 145 0 0 145 0 0 145 0 0 145 0 0 145 0 0 145 0 0 145 0 0 145 0 0 145 0 0 145 0 0 145 0 0 145 0 0 145 0 0 145 0 0 145 0 0 145 0 0 145 0 0 145 0 0 145 0 0 145 0 0 145 0 0 145 0 0 145 0 0 145 0 0 145 0 0 145 0 0 145 0 0 145 0 0 145 0 0 145 0 0 145 0 0 145 0 0 145 0 0 145 0 0 145 0 0 145 0 0 145 0 0 145 0 0 145 0 0 145 0 0 145 0 0 145 0 0 145 0 0 145 0 0 145 0 0 145 0 0 145 0 0 145 0 0 145 0 0 145 0 0 145 0 0 145 0 0 145 0 0 145 0 0 145 0 0 145 0 0 145 0 0 145 0 0 145 0 0 145 0 0 145 0 0 145 0 0 145 0 0 145 0 0 145 0 0 145 0 0 145 0 0 145 0 0 145 0 0 145 0 0 145 0 0 145 0 0 145 0 0 145 0 0 145 225 0 15 255 255 255 255 255 255 255 255 255 255 255 255 255 255 255 255 255 255 255 255 255 255 255 255 255 255 255 255 255 255 255 255 255 255 255 255 255 255 255 255 255 255 255 255 255 255 255 255 255 255 255 255 255 255 255 255 255 255 255 255 255 255 255 255 255 255 255 255 255 255 255 255 255 255 255 255 255 255 255 255 255 255 255 255 255 255 255 255 255 255 255 255 255 255 255 255 255 255 255 255 255 255 255 255 255 255 255 255 255 255 255 255 255 255 255 255 255 255 255 255 255 255 255 255 255 255 255 255 255 255 255 255 255 255 255 255 255 255 255 255 255 255 255 255 255 255 255 255 255 255 255 255 255 255 255 255 255 255 255 255 255 255 255 255 255 255 255 255 255 255 255 255 255 255 255 255 255 255 255 255 255 255 255 255 255 255 255 255 255 255 255 255 255 255 255 255 255 255 255 255 255 255 255 255 255 255 255 255 255 255 255 255 255 255 255 255 255 255 255 255 255 255 255 255 255 255 255 255 255 255 255 255 255 255 255 255 255 255 255 255 255 255 255 255 255 255 255 255 255 255 255 255 255 255 255 255 255 255 255 255 255 255 255 255 255 255 255 255 255 255 255 255 255 255 255 255 255 255 255 255 255 255 255 255 255 255 255 255 255 255 255 255 255 255 255 255 255 225 0 15 225 0 15 225 0 15 225 0 15 225 0 15 225 0 15 225 0 15 225 0 15 225 0 15 225 0 15 225 0 15 225 0 15 225 0 15 225 0 15 225 0 15 225 0 15 225 0 15 225 0 15 225 0 15 225 0 15 225 0 15 225 0 15 225 0 15 225 0 15 225 0 15 225 0 15 225 0 15 225 0 15 225 0 15 225 0 15 225 0 15 225 0 15 225 0 15 225 0 15 225 0 15 225 0 15 225 0 15 225 0 15 225 0 15 225 0 15 225 0 15 225 0 15 225 0 15 225 0 15 225 0 15 225 0 15 225 0 15 225 0 15 225 0 15 225 0 15 225 0 15 225 0 15 225 0 15 225 0 15 225 0 15 225 0 15 225 0 15 225 0 15 225 0 15 225 0 15 225 0 15 225 0 15 225 0 15 225 0 15 225 0 15 225 0 15 225 0 15 225 0 15 225 0 15 225 0 15 225 0 15 225 0 15 225 0 15 225 0 15 225 0 15 225 0 15 225 0 15 225 0 15 225 0 15 225 0 15 225 0 15 225 0 15 225 0 15 225 0 15 225 0 15 225 0 15 225 0 15 225 0 15 225 0 15 225 0 15 225 0 15 225 0 15 225 0 15 225 0 15 225 0 15 225 0 15 225 0 15 225 0 15 225 0 15 225 0 15 225 0 15 
0 0 145 0 0 145 0 0 145 0 0 145 0 0 145 0 0 145 0 0 145 0 0 145 0 0 145 0 0 145 0 0 145 0 0 145 0 0 145 0 0 145 0 0 145 0 0 145 0 0 145 0 0 145 0 0 145 0 0 145 0 0 145 0 0 145 0 0 145 0 0 145 0 0 145 0 0 145 0 0 145 0 0 145 0 0 145 0 0 145 0 0 145 0 0 145 0 0 145 0 0 145 0 0 145 0 0 145 0 0 145 0 0 145 0 0 145 0 0 145 0 0 145 0 0 145 0 0 145 0 0 145 0 0 145 0 0 145 0 0 145 0 0 145 0 0 145 0 0 145 0 0 145 0 0 145 0 0 145 0 0 145 0 0 145 0 0 145 0 0 145 0 0 145 0 0 145 0 0 145 0 0 145 0 0 145 0 0 145 0 0 145 0 0 145 0 0 145 0 0 145 0 0 145 0 0 145 0 0 145 0 0 145 0 0 145 0 0 145 0 0 145 0 0 145 0 0 145 0 0 145 0 0 145 0 0 145 0 0 145 0 0 145 0 0 145 0 0 145 0 0 145 0 0 145 0 0 145 0 0 145 0 0 145 0 0 145 0 0 145 0 0 145 0 0 145 0 0 145 0 0 145 0 0 145 0 0 145 0 0 145 0 0 145 0 0 145 225 0 15 255 255 255 255 255 255 255 255 255 255 255 255 255 255 255 255 255 255 255 255 255 255 255 255 255 255 255 255 255 255 255 255 255 255 255 255 255 255 255 255 255 255 255 255 255 255 255 255 255 255 255 255 255 255 255 255 255 255 255 255 255 255 255 255 255 255 255 255 255 255 255 255 255 255 255 255 255 255 255 255 255 255 255 255 255 255 255 255 255 255 255 255 255 255 255 255 255 255 255 255 255 255 255 255 255 255 255 255 255 255 255 255 255 255 255 255 255 255 255 255 255 255 255 255 255 255 255 255 255 255 255 255 255 255 255 255 255 255 255 255 255 255 255 255 255 255 255 255 255 255 255 255 255 255 255 255 255 255 255 255 255 255 255 255 255 255 255 255 255 255 255 255 255 255 255 255 255 255 255 255 255 255 255 255 255 255 255 255 255 255 255 255 255 255 255 255 255 255 255 255 255 255 255 255 255 255 255 255 255 255 255 255 255 255 255 255 255 255 255 255 255 255 255 255 255 255 255 255 255 255 255 255 255 255 255 255 255 255 255 255 255 255 255 255 255 255 255 255 255 255 255 255 255 255 255 255 255 255 255 255 255 255 255 255 255 255 255 255 255 255 255 255 255 255 255 255 255 255 255 255 255 255 255 255 255 255 255 255 255 255 255 255 255 255 255 255 255 225 0 15 225 0 15 225 0 15 225 0 15 225 0 15 225 0 15 225 0 15 225 0 15 225 0 15 225 0 15 225 0 15 225 0 15 225 0 15 225 0 15 225 0 15 225 0 15 225 0 15 225 0 15 225 0 15 225 0 15 225 0 15 225 0 15 225 0 15 225 0 15 225 0 15 225 0 15 225 0 15 225 0 15 225 0 15 225 0 15 225 0 15 225 0 15 225 0 15 225 0 15 225 0 15 225 0 15 225 0 15 225 0 15 225 0 15 225 0 15 225 0 15 225 0 15 225 0 15 225 0 15 225 0 15 225 0 15 225 0 15 225 0 15 225 0 15 225 0 15 225 0 15 225 0 15 225 0 15 225 0 15 225 0 15 225 0 15 225 0 15 225 0 15 225 0 15 225 0 15 225 0 15 225 0 15 225 0 15 225 0 15 225 0 15 225 0 15 225 0 15 225 0 15 225 0 15 225 0 15 225 0 15 225 0 15 225 0 15 225 0 15 225 0 15 225 0 15 225 0 15 225 0 15 225 0 15 225 0 15 225 0 15 225 0 15 225 0 15 225 0 15 225 0 15 225 0 15 225 0 15 225 0 15 225 0 15 225 0 15 225 0 15 225 0 15 225 0 15 225 0 15 225 0 15 225 0 15 225 0 15 225 0 15 225 0 15 225 0 15 225 0 15 
0 0 145 0 0 145 0 0 145 0 0 145 0 0 145 0 0 145 0 0 145 0 0 145 0 0 145 0 0 145 0 0 145 0 0 145 0 0 145 0 0 145 0 0 145 0 0 145 0 0 145 0 0 145 0 0 145 0 0 145 0 0 145 0 0 145 0 0 145 0 0 145 0 0 145 0 0 145 0 0 145 0 0 145 0 0 145 0 0 145 0 0 145 0 0 145 0 0 145 0 0 145 0 0 145 0 0 145 0 0 145 0 0 145 0 0 145 0 0 145 0 0 145 0 0 145 0 0 145 0 0 145 0 0 145 0 0 145 0 0 145 0 0 145 0 0 145 0 0 145 0 0 145 0 0 145 0 0 145 0 0 145 0 0 145 0 0 145 0 0 145 0 0 145 0 0 145 0 0 145 0 0 145 0 0 145 0 0 145 0 0 145 0 0 145 0 0 145 0 0 145 0 0 145 0 0 145 0 0 145 0 0 145 0 0 145 0 0 145 0 0 145 0 0 145 0 0 145 0 0 145 0 0 145 0 0 145 0 0 145 0 0 145 0 0 145 0 0 145 0 0 145 0 0 145 0 0 145 0 0 145 0 0 145 0 0 145 0 0 145 0 0 145 0 0 145 0 0 145 0 0 145 0 0 145 0 0 145 0 0 145 0 0 145 0 0 145 225 0 15 255 255 255 255 255 255 255 255 255 255 255 255 255 255 255 255 255 255 255 255 255 255 255 255 255 255 255 255 255 255 255 255 255 255 255 255 255 255 255 255 255 255 255 255 255 255 255 255 255 255 255 255 255 255 255 255 255 255 255 255 255 255 255 255 255 255 255 255 255 255 255 255 255 255 255 255 255 255 255 255 255 255 255 255 255 255 255 255 255 255 255 255 255 255 255 255 255 255 255 255 255 255 255 255 255 255 255 255 255 255 255 255 255 255 255 255 255 255 255 255 255 255 255 255 255 255 255 255 255 255 255 255 255 255 255 255 255 255 255 255 255 255 255 255 255 255 255 255 255 255 255 255 255 255 255 255 255 255 255 255 255 255 255 255 255 255 255 255 255 255 255 255 255 255 255 255 255 255 255 255 255 255 255 255 255 255 255 255 255 255 255 255 255 255 255 255 255 255 255 255 255 255 255 255 255 255 255 255 255 255 255 255 255 255 255 255 255 255 255 255 255 255 255 255 255 255 255 255 255 255 255 255 255 255 255 255 255 255 255 255 255 255 255 255 255 255 255 255 255 255 255 255 255 255 255 255 255 255 255 255 255 255 255 255 255 255 255 255 255 255 255 255 255 255 255 255 255 255 255 255 255 255 255 255 255 255 255 255 255 255 255 255 255 255 255 255 255 225 0 15 225 0 15 225 0 15 225 0 15 225 0 15 225 0 15 225 0 15 225 0 15 225 0 15 225 0 15 225 0 15 225 0 15 225 0 15 225 0 15 225 0 15 225 0 15 225 0 15 225 0 15 225 0 15 225 0 15 225 0 15 225 0 15 225 0 15 225 0 15 225 0 15 225 0 15 225 0 15 225 0 15 225 0 15 225 0 15 225 0 15 225 0 15 225 0 15 225 0 15 225 0 15 225 0 15 225 0 15 225 0 15 225 0 15 225 0 15 225 0 15 225 0 15 225 0 15 225 0 15 225 0 15 225 0 15 225 0 15 225 0 15 225 0 15 225 0 15 225 0 15 225 0 15 225 0 15 225 0 15 225 0 15 225 0 15 225 0 15 225 0 15 225 0 15 225 0 15 225 0 15 225 0 15 225 0 15 225 0 15 225 0 15 225 0 15 225 0 15 225 0 15 225 0 15 225 0 15 225 0 15 225 0 15 225 0 15 225 0 15 225 0 15 225 0 15 225 0 15 225 0 15 225 0 15 225 0 15 225 0 15 225 0 15 225 0 15 225 0 15 225 0 15 225 0 15 225 0 15 225 0 15 225 0 15 225 0 15 225 0 15 225 0 15 225 0 15 225 0 15 225 0 15 225 0 15 225 0 15 225 0 15 225 0 15 225 0 15 225 0 15 
0 0 145 0 0 145 0 0 145 0 0 145 0 0 145 0 0 145 0 0 145 0 0 145 0 0 145 0 0 145 0 0 145 0 0 145 0 0 145 0 0 145 0 0 145 0 0 145 0 0 145 0 0 145 0 0 145 0 0 145 0 0 145 0 0 145 0 0 145 0 0 145 0 0 145 0 0 145 0 0 145 0 0 145 0 0 145 0 0 145 0 0 145 0 0 145 0 0 145 0 0 145 0 0 145 0 0 145 0 0 145 0 0 145 0 0 145 0 0 145 0 0 145 0 0 145 0 0 145 0 0 145 0 0 145 0 0 145 0 0 145 0 0 145 0 0 145 0 0 145 0 0 145 0 0 145 0 0 145 0 0 145 0 0 145 0 0 145 0 0 145 0 0 145 0 0 145 0 0 145 0 0 145 0 0 145 0 0 145 0 0 145 0 0 145 0 0 145 0 0 145 0 0 145 0 0 145 0 0 145 0 0 145 0 0 145 0 0 145 0 0 145 0 0 145 0 0 145 0 0 145 0 0 145 0 0 145 0 0 145 0 0 145 0 0 145 0 0 145 0 0 145 0 0 145 0 0 145 0 0 145 0 0 145 0 0 145 0 0 145 0 0 145 0 0 145 0 0 145 0 0 145 0 0 145 0 0 145 0 0 145 0 0 145 0 0 145 225 0 15 255 255 255 255 255 255 255 255 255 255 255 255 255 255 255 255 255 255 255 255 255 255 255 255 255 255 255 255 255 255 255 255 255 255 255 255 255 255 255 255 255 255 255 255 255 255 255 255 255 255 255 255 255 255 255 255 255 255 255 255 255 255 255 255 255 255 255 255 255 255 255 255 255 255 255 255 255 255 255 255 255 255 255 255 255 255 255 255 255 255 255 255 255 255 255 255 255 255 255 255 255 255 255 255 255 255 255 255 255 255 255 255 255 255 255 255 255 255 255 255 255 255 255 255 255 255 255 255 255 255 255 255 255 255 255 255 255 255 255 255 255 255 255 255 255 255 255 255 255 255 255 255 255 255 255 255 255 255 255 255 255 255 255 255 255 255 255 255 255 255 255 255 255 255 255 255 255 255 255 255 255 255 255 255 255 255 255 255 255 255 255 255 255 255 255 255 255 255 255 255 255 255 255 255 255 255 255 255 255 255 255 255 255 255 255 255 255 255 255 255 255 255 255 255 255 255 255 255 255 255 255 255 255 255 255 255 255 255 255 255 255 255 255 255 255 255 255 255 255 255 255 255 255 255 255 255 255 255 255 255 255 255 255 255 255 255 255 255 255 255 255 255 255 255 255 255 255 255 255 255 255 255 255 255 255 255 255 255 255 255 255 255 255 255 255 255 255 225 0 15 225 0 15 225 0 15 225 0 15 225 0 15 225 0 15 225 0 15 225 0 15 225 0 15 225 0 15 225 0 15 225 0 15 225 0 15 225 0 15 225 0 15 225 0 15 225 0 15 225 0 15 225 0 15 225 0 15 225 0 15 225 0 15 225 0 15 225 0 15 225 0 15 225 0 15 225 0 15 225 0 15 225 0 15 225 0 15 225 0 15 225 0 15 225 0 15 225 0 15 225 0 15 225 0 15 225 0 15 225 0 15 225 0 15 225 0 15 225 0 15 225 0 15 225 0 15 225 0 15 225 0 15 225 0 15 225 0 15 225 0 15 225 0 15 225 0 15 225 0 15 225 0 15 225 0 15 225 0 15 225 0 15 225 0 15 225 0 15 225 0 15 225 0 15 225 0 15 225 0 15 225 0 15 225 0 15 225 0 15 225 0 15 225 0 15 225 0 15 225 0 15 225 0 15 225 0 15 225 0 15 225 0 15 225 0 15 225 0 15 225 0 15 225 0 15 225 0 15 225 0 15 225 0 15 225 0 15 225 0 15 225 0 15 225 0 15 225 0 15 225 0 15 225 0 15 225 0 15 225 0 15 225 0 15 225 0 15 225 0 15 225 0 15 225 0 15 225 0 15 225 0 15 225 0 15 225 0 15 225 0 15 225 0 15 225 0 15 225 0 15 
0 0 145 0 0 145 0 0 145 0 0 145 0 0 145 0 0 145 0 0 145 0 0 145 0 0 145 0 0 145 0 0 145 0 0 145 0 0 145 0 0 145 0 0 145 0 0 145 0 0 145 0 0 145 0 0 145 0 0 145 0 0 145 0 0 145 0 0 145 0 0 145 0 0 145 0 0 145 0 0 145 0 0 145 0 0 145 0 0 145 0 0 145 0 0 145 0 0 145 0 0 145 0 0 145 0 0 145 0 0 145 0 0 145 0 0 145 0 0 145 0 0 145 0 0 145 0 0 145 0 0 145 0 0 145 0 0 145 0 0 145 0 0 145 0 0 145 0 0 145 0 0 145 0 0 145 0 0 145 0 0 145 0 0 145 0 0 145 0 0 145 0 0 145 0 0 145 0 0 145 0 0 145 0 0 145 0 0 145 0 0 145 0 0 145 0 0 145 0 0 145 0 0 145 0 0 145 0 0 145 0 0 145 0 0 145 0 0 145 0 0 145 0 0 145 0 0 145 0 0 145 0 0 145 0 0 145 0 0 145 0 0 145 0 0 145 0 0 145 0 0 145 0 0 145 0 0 145 0 0 145 0 0 145 0 0 145 0 0 145 0 0 145 0 0 145 0 0 145 0 0 145 0 0 145 0 0 145 0 0 145 0 0 145 0 0 145 225 0 15 255 255 255 255 255 255 255 255 255 255 255 255 255 255 255 255 255 255 255 255 255 255 255 255 255 255 255 255 255 255 255 255 255 255 255 255 255 255 255 255 255 255 255 255 255 255 255 255 255 255 255 255 255 255 255 255 255 255 255 255 255 255 255 255 255 255 255 255 255 255 255 255 255 255 255 255 255 255 255 255 255 255 255 255 255 255 255 255 255 255 255 255 255 255 255 255 255 255 255 255 255 255 255 255 255 255 255 255 255 255 255 255 255 255 255 255 255 255 255 255 255 255 255 255 255 255 255 255 255 255 255 255 255 255 255 255 255 255 255 255 255 255 255 255 255 255 255 255 255 255 255 255 255 255 255 255 255 255 255 255 255 255 255 255 255 255 255 255 255 255 255 255 255 255 255 255 255 255 255 255 255 255 255 255 255 255 255 255 255 255 255 255 255 255 255 255 255 255 255 255 255 255 255 255 255 255 255 255 255 255 255 255 255 255 255 255 255 255 255 255 255 255 255 255 255 255 255 255 255 255 255 255 255 255 255 255 255 255 255 255 255 255 255 255 255 255 255 255 255 255 255 255 255 255 255 255 255 255 255 255 255 255 255 255 255 255 255 255 255 255 255 255 255 255 255 255 255 255 255 255 255 255 255 255 255 255 255 255 255 255 255 255 255 255 255 255 255 225 0 15 225 0 15 225 0 15 225 0 15 225 0 15 225 0 15 225 0 15 225 0 15 225 0 15 225 0 15 225 0 15 225 0 15 225 0 15 225 0 15 225 0 15 225 0 15 225 0 15 225 0 15 225 0 15 225 0 15 225 0 15 225 0 15 225 0 15 225 0 15 225 0 15 225 0 15 225 0 15 225 0 15 225 0 15 225 0 15 225 0 15 225 0 15 225 0 15 225 0 15 225 0 15 225 0 15 225 0 15 225 0 15 225 0 15 225 0 15 225 0 15 225 0 15 225 0 15 225 0 15 225 0 15 225 0 15 225 0 15 225 0 15 225 0 15 225 0 15 225 0 15 225 0 15 225 0 15 225 0 15 225 0 15 225 0 15 225 0 15 225 0 15 225 0 15 225 0 15 225 0 15 225 0 15 225 0 15 225 0 15 225 0 15 225 0 15 225 0 15 225 0 15 225 0 15 225 0 15 225 0 15 225 0 15 225 0 15 225 0 15 225 0 15 225 0 15 225 0 15 225 0 15 225 0 15 225 0 15 225 0 15 225 0 15 225 0 15 225 0 15 225 0 15 225 0 15 225 0 15 225 0 15 225 0 15 225 0 15 225 0 15 225 0 15 225 0 15 225 0 15 225 0 15 225 0 15 225 0 15 225 0 15 225 0 15 225 0 15 225 0 15 
0 0 145 0 0 145 0 0 145 0 0 145 0 0 145 0 0 145 0 0 145 0 0 145 0 0 145 0 0 145 0 0 145 0 0 145 0 0 145 0 0 145 0 0 145 0 0 145 0 0 145 0 0 145 0 0 145 0 0 145 0 0 145 0 0 145 0 0 145 0 0 145 0 0 145 0 0 145 0 0 145 0 0 145 0 0 145 0 0 145 0 0 145 0 0 145 0 0 145 0 0 145 0 0 145 0 0 145 0 0 145 0 0 145 0 0 145 0 0 145 0 0 145 0 0 145 0 0 145 0 0 145 0 0 145 0 0 145 0 0 145 0 0 145 0 0 145 0 0 145 0 0 145 0 0 145 0 0 145 0 0 145 0 0 145 0 0 145 0 0 145 0 0 145 0 0 145 0 0 145 0 0 145 0 0 145 0 0 145 0 0 145 0 0 145 0 0 145 0 0 145 0 0 145 0 0 145 0 0 145 0 0 145 0 0 145 0 0 145 0 0 145 0 0 145 0 0 145 0 0 145 0 0 145 0 0 145 0 0 145 0 0 145 0 0 145 0 0 145 0 0 145 0 0 145 0 0 145 0 0 145 0 0 145 0 0 145 0 0 145 0 0 145 0 0 145 0 0 145 0 0 145 0 0 145 0 0 145 0 0 145 0 0 145 0 0 145 225 0 15 255 255 255 255 255 255 255 255 255 255 255 255 255 255 255 255 255 255 255 255 255 255 255 255 255 255 255 255 255 255 255 255 255 255 255 255 255 255 255 255 255 255 255 255 255 255 255 255 255 255 255 255 255 255 255 255 255 255 255 255 255 255 255 255 255 255 255 255 255 255 255 255 255 255 255 255 255 255 255 255 255 255 255 255 255 255 255 255 255 255 255 255 255 255 255 255 255 255 255 255 255 255 255 255 255 255 255 255 255 255 255 255 255 255 255 255 255 255 255 255 255 255 255 255 255 255 255 255 255 255 255 255 255 255 255 255 255 255 255 255 255 255 255 255 255 255 255 255 255 255 255 255 255 255 255 255 255 255 255 255 255 255 255 255 255 255 255 255 255 255 255 255 255 255 255 255 255 255 255 255 255 255 255 255 255 255 255 255 255 255 255 255 255 255 255 255 255 255 255 255 255 255 255 255 255 255 255 255 255 255 255 255 255 255 255 255 255 255 255 255 255 255 255 255 255 255 255 255 255 255 255 255 255 255 255 255 255 255 255 255 255 255 255 255 255 255 255 255 255 255 255 255 255 255 255 255 255 255 255 255 255 255 255 255 255 255 255 255 255 255 255 255 255 255 255 255 255 255 255 255 255 255 255 255 255 255 255 255 255 255 255 255 255 255 255 255 255 225 0 15 225 0 15 225 0 15 225 0 15 225 0 15 225 0 15 225 0 15 225 0 15 225 0 15 225 0 15 225 0 15 225 0 15 225 0 15 225 0 15 225 0 15 225 0 15 225 0 15 225 0 15 225 0 15 225 0 15 225 0 15 225 0 15 225 0 15 225 0 15 225 0 15 225 0 15 225 0 15 225 0 15 225 0 15 225 0 15 225 0 15 225 0 15 225 0 15 225 0 15 225 0 15 225 0 15 225 0 15 225 0 15 225 0 15 225 0 15 225 0 15 225 0 15 225 0 15 225 0 15 225 0 15 225 0 15 225 0 15 225 0 15 225 0 15 225 0 15 225 0 15 225 0 15 225 0 15 225 0 15 225 0 15 225 0 15 225 0 15 225 0 15 225 0 15 225 0 15 225 0 15 225 0 15 225 0 15 225 0 15 225 0 15 225 0 15 225 0 15 225 0 15 225 0 15 225 0 15 225 0 15 225 0 15 225 0 15 225 0 15 225 0 15 225 0 15 225 0 15 225 0 15 225 0 15 225 0 15 225 0 15 225 0 15 225 0 15 225 0 15 225 0 15 225 0 15 225 0 15 225 0 15 225 0 15 225 0 15 225 0 15 225 0 15 225 0 15 225 0 15 225 0 15 225 0 15 225 0 15 225 0 15 225 0 15 225 0 15 225 0 15 
0 0 145 0 0 145 0 0 145 0 0 145 0 0 145 0 0 145 0 0 145 0 0 145 0 0 145 0 0 145 0 0 145 0 0 145 0 0 145 0 0 145 0 0 145 0 0 145 0 0 145 0 0 145 0 0 145 0 0 145 0 0 145 0 0 145 0 0 145 0 0 145 0 0 145 0 0 145 0 0 145 0 0 145 0 0 145 0 0 145 0 0 145 0 0 145 0 0 145 0 0 145 0 0 145 0 0 145 0 0 145 0 0 145 0 0 145 0 0 145 0 0 145 0 0 145 0 0 145 0 0 145 0 0 145 0 0 145 0 0 145 0 0 145 0 0 145 0 0 145 0 0 145 0 0 145 0 0 145 0 0 145 0 0 145 0 0 145 0 0 145 0 0 145 0 0 145 0 0 145 0 0 145 0 0 145 0 0 145 0 0 145 0 0 145 0 0 145 0 0 145 0 0 145 0 0 145 0 0 145 0 0 145 0 0 145 0 0 145 0 0 145 0 0 145 0 0 145 0 0 145 0 0 145 0 0 145 0 0 145 0 0 145 0 0 145 0 0 145 0 0 145 0 0 145 0 0 145 0 0 145 0 0 145 0 0 145 0 0 145 0 0 145 0 0 145 0 0 145 0 0 145 0 0 145 0 0 145 0 0 145 0 0 145 0 0 145 225 0 15 255 255 255 255 255 255 255 255 255 255 255 255 255 255 255 255 255 255 255 255 255 255 255 255 255 255 255 255 255 255 255 255 255 255 255 255 255 255 255 255 255 255 255 255 255 255 255 255 255 255 255 255 255 255 255 255 255 255 255 255 255 255 255 255 255 255 255 255 255 255 255 255 255 255 255 255 255 255 255 255 255 255 255 255 255 255 255 255 255 255 255 255 255 255 255 255 255 255 255 255 255 255 255 255 255 255 255 255 255 255 255 255 255 255 255 255 255 255 255 255 255 255 255 255 255 255 255 255 255 255 255 255 255 255 255 255 255 255 255 255 255 255 255 255 255 255 255 255 255 255 255 255 255 255 255 255 255 255 255 255 255 255 255 255 255 255 255 255 255 255 255 255 255 255 255 255 255 255 255 255 255 255 255 255 255 255 255 255 255 255 255 255 255 255 255 255 255 255 255 255 255 255 255 255 255 255 255 255 255 255 255 255 255 255 255 255 255 255 255 255 255 255 255 255 255 255 255 255 255 255 255 255 255 255 255 255 255 255 255 255 255 255 255 255 255 255 255 255 255 255 255 255 255 255 255 255 255 255 255 255 255 255 255 255 255 255 255 255 255 255 255 255 255 255 255 255 255 255 255 255 255 255 255 255 255 255 255 255 255 255 255 255 255 255 255 255 255 225 0 15 225 0 15 225 0 15 225 0 15 225 0 15 225 0 15 225 0 15 225 0 15 225 0 15 225 0 15 225 0 15 225 0 15 225 0 15 225 0 15 225 0 15 225 0 15 225 0 15 225 0 15 225 0 15 225 0 15 225 0 15 225 0 15 225 0 15 225 0 15 225 0 15 225 0 15 225 0 15 225 0 15 225 0 15 225 0 15 225 0 15 225 0 15 225 0 15 225 0 15 225 0 15 225 0 15 225 0 15 225 0 15 225 0 15 225 0 15 225 0 15 225 0 15 225 0 15 225 0 15 225 0 15 225 0 15 225 0 15 225 0 15 225 0 15 225 0 15 225 0 15 225 0 15 225 0 15 225 0 15 225 0 15 225 0 15 225 0 15 225 0 15 225 0 15 225 0 15 225 0 15 225 0 15 225 0 15 225 0 15 225 0 15 225 0 15 225 0 15 225 0 15 225 0 15 225 0 15 225 0 15 225 0 15 225 0 15 225 0 15 225 0 15 225 0 15 225 0 15 225 0 15 225 0 15 225 0 15 225 0 15 225 0 15 225 0 15 225 0 15 225 0 15 225 0 15 225 0 15 225 0 15 225 0 15 225 0 15 225 0 15 225 0 15 225 0 15 225 0 15 225 0 15 225 0 15 225 0 15 225 0 15 225 0 15 225 0 15 225 0 15 
0 0 145 0 0 145 0 0 145 0 0 145 0 0 145 0 0 145 0 0 145 0 0 145 0 0 145 0 0 145 0 0 145 0 0 145 0 0 145 0 0 145 0 0 145 0 0 145 0 0 145 0 0 145 0 0 145 0 0 145 0 0 145 0 0 145 0 0 145 0 0 145 0 0 145 0 0 145 0 0 145 0 0 145 0 0 145 0 0 145 0 0 145 0 0 145 0 0 145 0 0 145 0 0 145 0 0 145 0 0 145 0 0 145 0 0 145 0 0 145 0 0 145 0 0 145 0 0 145 0 0 145 0 0 145 0 0 145 0 0 145 0 0 145 0 0 145 0 0 145 0 0 145 0 0 145 0 0 145 0 0 145 0 0 145 0 0 145 0 0 145 0 0 145 0 0 145 0 0 145 0 0 145 0 0 145 0 0 145 0 0 145 0 0 145 0 0 145 0 0 145 0 0 145 0 0 145 0 0 145 0 0 145 0 0 145 0 0 145 0 0 145 0 0 145 0 0 145 0 0 145 0 0 145 0 0 145 0 0 145 0 0 145 0 0 145 0 0 145 0 0 145 0 0 145 0 0 145 0 0 145 0 0 145 0 0 145 0 0 145 0 0 145 0 0 145 0 0 145 0 0 145 0 0 145 0 0 145 0 0 145 0 0 145 0 0 145 225 0 15 255 255 255 255 255 255 255 255 255 255 255 255 255 255 255 255 255 255 255 255 255 255 255 255 255 255 255 255 255 255 255 255 255 255 255 255 255 255 255 255 255 255 255 255 255 255 255 255 255 255 255 255 255 255 255 255 255 255 255 255 255 255 255 255 255 255 255 255 255 255 255 255 255 255 255 255 255 255 255 255 255 255 255 255 255 255 255 255 255 255 255 255 255 255 255 255 255 255 255 255 255 255 255 255 255 255 255 255 255 255 255 255 255 255 255 255 255 255 255 255 255 255 255 255 255 255 255 255 255 255 255 255 255 255 255 255 255 255 255 255 255 255 255 255 255 255 255 255 255 255 255 255 255 255 255 255 255 255 255 255 255 255 255 255 255 255 255 255 255 255 255 255 255 255 255 255 255 255 255 255 255 255 255 255 255 255 255 255 255 255 255 255 255 255 255 255 255 255 255 255 255 255 255 255 255 255 255 255 255 255 255 255 255 255 255 255 255 255 255 255 255 255 255 255 255 255 255 255 255 255 255 255 255 255 255 255 255 255 255 255 255 255 255 255 255 255 255 255 255 255 255 255 255 255 255 255 255 255 255 255 255 255 255 255 255 255 255 255 255 255 255 255 255 255 255 255 255 255 255 255 255 255 255 255 255 255 255 255 255 255 255 255 255 255 255 255 255 225 0 15 225 0 15 225 0 15 225 0 15 225 0 15 225 0 15 225 0 15 225 0 15 225 0 15 225 0 15 225 0 15 225 0 15 225 0 15 225 0 15 225 0 15 225 0 15 225 0 15 225 0 15 225 0 15 225 0 15 225 0 15 225 0 15 225 0 15 225 0 15 225 0 15 225 0 15 225 0 15 225 0 15 225 0 15 225 0 15 225 0 15 225 0 15 225 0 15 225 0 15 225 0 15 225 0 15 225 0 15 225 0 15 225 0 15 225 0 15 225 0 15 225 0 15 225 0 15 225 0 15 225 0 15 225 0 15 225 0 15 225 0 15 225 0 15 225 0 15 225 0 15 225 0 15 225 0 15 225 0 15 225 0 15 225 0 15 225 0 15 225 0 15 225 0 15 225 0 15 225 0 15 225 0 15 225 0 15 225 0 15 225 0 15 225 0 15 225 0 15 225 0 15 225 0 15 225 0 15 225 0 15 225 0 15 225 0 15 225 0 15 225 0 15 225 0 15 225 0 15 225 0 15 225 0 15 225 0 15 225 0 15 225 0 15 225 0 15 225 0 15 225 0 15 225 0 15 225 0 15 225 0 15 225 0 15 225 0 15 225 0 15 225 0 15 225 0 15 225 0 15 225 0 15 225 0 15 225 0 15 225 0 15 225 0 15 225 0 15 225 0 15 
0 0 145 0 0 145 0 0 145 0 0 145 0 0 145 0 0 145 0 0 145 0 0 145 0 0 145 0 0 145 0 0 145 0 0 145 0 0 145 0 0 145 0 0 145 0 0 145 0 0 145 0 0 145 0 0 145 0 0 145 0 0 145 0 0 145 0 0 145 0 0 145 0 0 145 0 0 145 0 0 145 0 0 145 0 0 145 0 0 145 0 0 145 0 0 145 0 0 145 0 0 145 0 0 145 0 0 145 0 0 145 0 0 145 0 0 145 0 0 145 0 0 145 0 0 145 0 0 145 0 0 145 0 0 145 0 0 145 0 0 145 0 0 145 0 0 145 0 0 145 0 0 145 0 0 145 0 0 145 0 0 145 0 0 145 0 0 145 0 0 145 0 0 145 0 0 145 0 0 145 0 0 145 0 0 145 0 0 145 0 0 145 0 0 145 0 0 145 0 0 145 0 0 145 0 0 145 0 0 145 0 0 145 0 0 145 0 0 145 0 0 145 0 0 145 0 0 145 0 0 145 0 0 145 0 0 145 0 0 145 0 0 145 0 0 145 0 0 145 0 0 145 0 0 145 0 0 145 0 0 145 0 0 145 0 0 145 0 0 145 0 0 145 0 0 145 0 0 145 0 0 145 0 0 145 0 0 145 0 0 145 0 0 145 0 0 145 225 0 15 255 255 255 255 255 255 255 255 255 255 255 255 255 255 255 255 255 255 255 255 255 255 255 255 255 255 255 255 255 255 255 255 255 255 255 255 255 255 255 255 255 255 255 255 255 255 255 255 255 255 255 255 255 255 255 255 255 255 255 255 255 255 255 255 255 255 255 255 255 255 255 255 255 255 255 255 255 255 255 255 255 255 255 255 255 255 255 255 255 255 255 255 255 255 255 255 255 255 255 255 255 255 255 255 255 255 255 255 255 255 255 255 255 255 255 255 255 255 255 255 255 255 255 255 255 255 255 255 255 255 255 255 255 255 255 255 255 255 255 255 255 255 255 255 255 255 255 255 255 255 255 255 255 255 255 255 255 255 255 255 255 255 255 255 255 255 255 255 255 255 255 255 255 255 255 255 255 255 255 255 255 255 255 255 255 255 255 255 255 255 255 255 255 255 255 255 255 255 255 255 255 255 255 255 255 255 255 255 255 255 255 255 255 255 255 255 255 255 255 255 255 255 255 255 255 255 255 255 255 255 255 255 255 255 255 255 255 255 255 255 255 255 255 255 255 255 255 255 255 255 255 255 255 255 255 255 255 255 255 255 255 255 255 255 255 255 255 255 255 255 255 255 255 255 255 255 255 255 255 255 255 255 255 255 255 255 255 255 255 255 255 255 255 255 255 255 255 225 0 15 225 0 15 225 0 15 225 0 15 225 0 15 225 0 15 225 0 15 225 0 15 225 0 15 225 0 15 225 0 15 225 0 15 225 0 15 225 0 15 225 0 15 225 0 15 225 0 15 225 0 15 225 0 15 225 0 15 225 0 15 225 0 15 225 0 15 225 0 15 225 0 15 225 0 15 225 0 15 225 0 15 225 0 15 225 0 15 225 0 15 225 0 15 225 0 15 225 0 15 225 0 15 225 0 15 225 0 15 225 0 15 225 0 15 225 0 15 225 0 15 225 0 15 225 0 15 225 0 15 225 0 15 225 0 15 225 0 15 225 0 15 225 0 15 225 0 15 225 0 15 225 0 15 225 0 15 225 0 15 225 0 15 225 0 15 225 0 15 225 0 15 225 0 15 225 0 15 225 0 15 225 0 15 225 0 15 225 0 15 225 0 15 225 0 15 225 0 15 225 0 15 225 0 15 225 0 15 225 0 15 225 0 15 225 0 15 225 0 15 225 0 15 225 0 15 225 0 15 225 0 15 225 0 15 225 0 15 225 0 15 225 0 15 225 0 15 225 0 15 225 0 15 225 0 15 225 0 15 225 0 15 225 0 15 225 0 15 225 0 15 225 0 15 225 0 15 225 0 15 225 0 15 225 0 15 225 0 15 225 0 15 225 0 15 225 0 15 225 0 15 
0 0 145 0 0 145 0 0 145 0 0 145 0 0 145 0 0 145 0 0 145 0 0 145 0 0 145 0 0 145 0 0 145 0 0 145 0 0 145 0 0 145 0 0 145 0 0 145 0 0 145 0 0 145 0 0 145 0 0 145 0 0 145 0 0 145 0 0 145 0 0 145 0 0 145 0 0 145 0 0 145 0 0 145 0 0 145 0 0 145 0 0 145 0 0 145 0 0 145 0 0 145 0 0 145 0 0 145 0 0 145 0 0 145 0 0 145 0 0 145 0 0 145 0 0 145 0 0 145 0 0 145 0 0 145 0 0 145 0 0 145 0 0 145 0 0 145 0 0 145 0 0 145 0 0 145 0 0 145 0 0 145 0 0 145 0 0 145 0 0 145 0 0 145 0 0 145 0 0 145 0 0 145 0 0 145 0 0 145 0 0 145 0 0 145 0 0 145 0 0 145 0 0 145 0 0 145 0 0 145 0 0 145 0 0 145 0 0 145 0 0 145 0 0 145 0 0 145 0 0 145 0 0 145 0 0 145 0 0 145 0 0 145 0 0 145 0 0 145 0 0 145 0 0 145 0 0 145 0 0 145 0 0 145 0 0 145 0 0 145 0 0 145 0 0 145 0 0 145 0 0 145 0 0 145 0 0 145 0 0 145 0 0 145 0 0 145 225 0 15 255 255 255 255 255 255 255 255 255 255 255 255 255 255 255 255 255 255 255 255 255 255 255 255 255 255 255 255 255 255 255 255 255 255 255 255 255 255 255 255 255 255 255 255 255 255 255 255 255 255 255 255 255 255 255 255 255 255 255 255 255 255 255 255 255 255 255 255 255 255 255 255 255 255 255 255 255 255 255 255 255 255 255 255 255 255 255 255 255 255 255 255 255 255 255 255 255 255 255 255 255 255 255 255 255 255 255 255 255 255 255 255 255 255 255 255 255 255 255 255 255 255 255 255 255 255 255 255 255 255 255 255 255 255 255 255 255 255 255 255 255 255 255 255 255 255 255 255 255 255 255 255 255 255 255 255 255 255 255 255 255 255 255 255 255 255 255 255 255 255 255 255 255 255 255 255 255 255 255 255 255 255 255 255 255 255 255 255 255 255 255 255 255 255 255 255 255 255 255 255 255 255 255 255 255 255 255 255 255 255 255 255 255 255 255 255 255 255 255 255 255 255 255 255 255 255 255 255 255 255 255 255 255 255 255 255 255 255 255 255 255 255 255 255 255 255 255 255 255 255 255 255 255 255 255 255 255 255 255 255 255 255 255 255 255 255 255 255 255 255 255 255 255 255 255 255 255 255 255 255 255 255 255 255 255 255 255 255 255 255 255 255 255 255 255 255 255 225 0 15 225 0 15 225 0 15 225 0 15 225 0 15 225 0 15 225 0 15 225 0 15 225 0 15 225 0 15 225 0 15 225 0 15 225 0 15 225 0 15 225 0 15 225 0 15 225 0 15 225 0 15 225 0 15 225 0 15 225 0 15 225 0 15 225 0 15 225 0 15 225 0 15 225 0 15 225 0 15 225 0 15 225 0 15 225 0 15 225 0 15 225 0 15 225 0 15 225 0 15 225 0 15 225 0 15 225 0 15 225 0 15 225 0 15 225 0 15 225 0 15 225 0 15 225 0 15 225 0 15 225 0 15 225 0 15 225 0 15 225 0 15 225 0 15 225 0 15 225 0 15 225 0 15 225 0 15 225 0 15 225 0 15 225 0 15 225 0 15 225 0 15 225 0 15 225 0 15 225 0 15 225 0 15 225 0 15 225 0 15 225 0 15 225 0 15 225 0 15 225 0 15 225 0 15 225 0 15 225 0 15 225 0 15 225 0 15 225 0 15 225 0 15 225 0 15 225 0 15 225 0 15 225 0 15 225 0 15 225 0 15 225 0 15 225 0 15 225 0 15 225 0 15 225 0 15 225 0 15 225 0 15 225 0 15 225 0 15 225 0 15 225 0 15 225 0 15 225 0 15 225 0 15 225 0 15 225 0 15 225 0 15 225 0 15 225 0 15 225 0 15 
0 0 145 0 0 145 0 0 145 0 0 145 0 0 145 0 0 145 0 0 145 0 0 145 0 0 145 0 0 145 0 0 145 0 0 145 0 0 145 0 0 145 0 0 145 0 0 145 0 0 145 0 0 145 0 0 145 0 0 145 0 0 145 0 0 145 0 0 145 0 0 145 0 0 145 0 0 145 0 0 145 0 0 145 0 0 145 0 0 145 0 0 145 0 0 145 0 0 145 0 0 145 0 0 145 0 0 145 0 0 145 0 0 145 0 0 145 0 0 145 0 0 145 0 0 145 0 0 145 0 0 145 0 0 145 0 0 145 0 0 145 0 0 145 0 0 145 0 0 145 0 0 145 0 0 145 0 0 145 0 0 145 0 0 145 0 0 145 0 0 145 0 0 145 0 0 145 0 0 145 0 0 145 0 0 145 0 0 145 0 0 145 0 0 145 0 0 145 0 0 145 0 0 145 0 0 145 0 0 145 0 0 145 0 0 145 0 0 145 0 0 145 0 0 145 0 0 145 0 0 145 0 0 145 0 0 145 0 0 145 0 0 145 0 0 145 0 0 145 0 0 145 0 0 145 0 0 145 0 0 145 0 0 145 0 0 145 0 0 145 0 0 145 0 0 145 0 0 145 0 0 145 0 0 145 0 0 145 0 0 145 0 0 145 0 0 145 225 0 15 255 255 255 255 255 255 255 255 255 255 255 255 255 255 255 255 255 255 255 255 255 255 255 255 255 255 255 255 255 255 255 255 255 255 255 255 255 255 255 255 255 255 255 255 255 255 255 255 255 255 255 255 255 255 255 255 255 255 255 255 255 255 255 255 255 255 255 255 255 255 255 255 255 255 255 255 255 255 255 255 255 255 255 255 255 255 255 255 255 255 255 255 255 255 255 255 255 255 255 255 255 255 255 255 255 255 255 255 255 255 255 255 255 255 255 255 255 255 255 255 255 255 255 255 255 255 255 255 255 255 255 255 255 255 255 255 255 255 255 255 255 255 255 255 255 255 255 255 255 255 255 255 255 255 255 255 255 255 255 255 255 255 255 255 255 255 255 255 255 255 255 255 255 255 255 255 255 255 255 255 255 255 255 255 255 255 255 255 255 255 255 255 255 255 255 255 255 255 255 255 255 255 255 255 255 255 255 255 255 255 255 255 255 255 255 255 255 255 255 255 255 255 255 255 255 255 255 255 255 255 255 255 255 255 255 255 255 255 255 255 255 255 255 255 255 255 255 255 255 255 255 255 255 255 255 255 255 255 255 255 255 255 255 255 255 255 255 255 255 255 255 255 255 255 255 255 255 255 255 255 255 255 255 255 255 255 255 255 255 255 255 255 255 255 255 255 255 225 0 15 225 0 15 225 0 15 225 0 15 225 0 15 225 0 15 225 0 15 225 0 15 225 0 15 225 0 15 225 0 15 225 0 15 225 0 15 225 0 15 225 0 15 225 0 15 225 0 15 225 0 15 225 0 15 225 0 15 225 0 15 225 0 15 225 0 15 225 0 15 225 0 15 225 0 15 225 0 15 225 0 15 225 0 15 225 0 15 225 0 15 225 0 15 225 0 15 225 0 15 225 0 15 225 0 15 225 0 15 225 0 15 225 0 15 225 0 15 225 0 15 225 0 15 225 0 15 225 0 15 225 0 15 225 0 15 225 0 15 225 0 15 225 0 15 225 0 15 225 0 15 225 0 15 225 0 15 225 0 15 225 0 15 225 0 15 225 0 15 225 0 15 225 0 15 225 0 15 225 0 15 225 0 15 225 0 15 225 0 15 225 0 15 225 0 15 225 0 15 225 0 15 225 0 15 225 0 15 225 0 15 225 0 15 225 0 15 225 0 15 225 0 15 225 0 15 225 0 15 225 0 15 225 0 15 225 0 15 225 0 15 225 0 15 225 0 15 225 0 15 225 0 15 225 0 15 225 0 15 225 0 15 225 0 15 225 0 15 225 0 15 225 0 15 225 0 15 225 0 15 225 0 15 225 0 15 225 0 15 225 0 15 225 0 15 225 0 15 225 0 15 
0 0 145 0 0 145 0 0 145 0 0 145 0 0 145 0 0 145 0 0 145 0 0 145 0 0 145 0 0 145 0 0 145 0 0 145 0 0 145 0 0 145 0 0 145 0 0 145 0 0 145 0 0 145 0 0 145 0 0 145 0 0 145 0 0 145 0 0 145 0 0 145 0 0 145 0 0 145 0 0 145 0 0 145 0 0 145 0 0 145 0 0 145 0 0 145 0 0 145 0 0 145 0 0 145 0 0 145 0 0 145 0 0 145 0 0 145 0 0 145 0 0 145 0 0 145 0 0 145 0 0 145 0 0 145 0 0 145 0 0 145 0 0 145 0 0 145 0 0 145 0 0 145 0 0 145 0 0 145 0 0 145 0 0 145 0 0 145 0 0 145 0 0 145 0 0 145 0 0 145 0 0 145 0 0 145 0 0 145 0 0 145 0 0 145 0 0 145 0 0 145 0 0 145 0 0 145 0 0 145 0 0 145 0 0 145 0 0 145 0 0 145 0 0 145 0 0 145 0 0 145 0 0 145 0 0 145 0 0 145 0 0 145 0 0 145 0 0 145 0 0 145 0 0 145 0 0 145 0 0 145 0 0 145 0 0 145 0 0 145 0 0 145 0 0 145 0 0 145 0 0 145 0 0 145 0 0 145 0 0 145 0 0 145 0 0 145 225 0 15 255 255 255 255 255 255 255 255 255 255 255 255 255 255 255 255 255 255 255 255 255 255 255 255 255 255 255 255 255 255 255 255 255 255 255 255 255 255 255 255 255 255 255 255 255 255 255 255 255 255 255 255 255 255 255 255 255 255 255 255 255 255 255 255 255 255 255 255 255 255 255 255 255 255 255 255 255 255 255 255 255 255 255 255 255 255 255 255 255 255 255 255 255 255 255 255 255 255 255 255 255 255 255 255 255 255 255 255 255 255 255 255 255 255 255 255 255 255 255 255 255 255 255 255 255 255 255 255 255 255 255 255 255 255 255 255 255 255 255 255 255 255 255 255 255 255 255 255 255 255 255 255 255 255 255 255 255 255 255 255 255 255 255 255 255 255 255 255 255 255 255 255 255 255 255 255 255 255 255 255 255 255 255 255 255 255 255 255 255 255 255 255 255 255 255 255 255 255 255 255 255 255 255 255 255 255 255 255 255 255 255 255 255 255 255 255 255 255 255 255 255 255 255 255 255 255 255 255 255 255 255 255 255 255 255 255 255 255 255 255 255 255 255 255 255 255 255 255 255 255 255 255 255 255 255 255 255 255 255 255 255 255 255 255 255 255 255 255 255 255 255 255 255 255 255 255 255 255 255 255 255 255 255 255 255 255 255 255 255 255 255 255 255 255 255 255 255 225 0 15 225 0 15 225 0 15 225 0 15 225 0 15 225 0 15 225 0 15 225 0 15 225 0 15 225 0 15 225 0 15 225 0 15 225 0 15 225 0 15 225 0 15 225 0 15 225 0 15 225 0 15 225 0 15 225 0 15 225 0 15 225 0 15 225 0 15 225 0 15 225 0 15 225 0 15 225 0 15 225 0 15 225 0 15 225 0 15 225 0 15 225 0 15 225 0 15 225 0 15 225 0 15 225 0 15 225 0 15 225 0 15 225 0 15 225 0 15 225 0 15 225 0 15 225 0 15 225 0 15 225 0 15 225 0 15 225 0 15 225 0 15 225 0 15 225 0 15 225 0 15 225 0 15 225 0 15 225 0 15 225 0 15 225 0 15 225 0 15 225 0 15 225 0 15 225 0 15 225 0 15 225 0 15 225 0 15 225 0 15 225 0 15 225 0 15 225 0 15 225 0 15 225 0 15 225 0 15 225 0 15 225 0 15 225 0 15 225 0 15 225 0 15 225 0 15 225 0 15 225 0 15 225 0 15 225 0 15 225 0 15 225 0 15 225 0 15 225 0 15 225 0 15 225 0 15 225 0 15 225 0 15 225 0 15 225 0 15 225 0 15 225 0 15 225 0 15 225 0 15 225 0 15 225 0 15 225 0 15 225 0 15 225 0 15 225 0 15 225 0 15 
0 0 145 0 0 145 0 0 145 0 0 145 0 0 145 0 0 145 0 0 145 0 0 145 0 0 145 0 0 145 0 0 145 0 0 145 0 0 145 0 0 145 0 0 145 0 0 145 0 0 145 0 0 145 0 0 145 0 0 145 0 0 145 0 0 145 0 0 145 0 0 145 0 0 145 0 0 145 0 0 145 0 0 145 0 0 145 0 0 145 0 0 145 0 0 145 0 0 145 0 0 145 0 0 145 0 0 145 0 0 145 0 0 145 0 0 145 0 0 145 0 0 145 0 0 145 0 0 145 0 0 145 0 0 145 0 0 145 0 0 145 0 0 145 0 0 145 0 0 145 0 0 145 0 0 145 0 0 145 0 0 145 0 0 145 0 0 145 0 0 145 0 0 145 0 0 145 0 0 145 0 0 145 0 0 145 0 0 145 0 0 145 0 0 145 0 0 145 0 0 145 0 0 145 0 0 145 0 0 145 0 0 145 0 0 145 0 0 145 0 0 145 0 0 145 0 0 145 0 0 145 0 0 145 0 0 145 0 0 145 0 0 145 0 0 145 0 0 145 0 0 145 0 0 145 0 0 145 0 0 145 0 0 145 0 0 145 0 0 145 0 0 145 0 0 145 0 0 145 0 0 145 0 0 145 0 0 145 0 0 145 0 0 145 0 0 145 225 0 15 255 255 255 255 255 255 255 255 255 255 255 255 255 255 255 255 255 255 255 255 255 255 255 255 255 255 255 255 255 255 255 255 255 255 255 255 255 255 255 255 255 255 255 255 255 255 255 255 255 255 255 255 255 255 255 255 255 255 255 255 255 255 255 255 255 255 255 255 255 255 255 255 255 255 255 255 255 255 255 255 255 255 255 255 255 255 255 255 255 255 255 255 255 255 255 255 255 255 255 255 255 255 255 255 255 255 255 255 255 255 255 255 255 255 255 255 255 255 255 255 255 255 255 255 255 255 255 255 255 255 255 255 255 255 255 255 255 255 255 255 255 255 255 255 255 255 255 255 255 255 255 255 255 255 255 255 255 255 255 255 255 255 255 255 255 255 255 255 255 255 255 255 255 255 255 255 255 255 255 255 255 255 255 255 255 255 255 255 255 255 255 255 255 255 255 255 255 255 255 255 255 255 255 255 255 255 255 255 255 255 255 255 255 255 255 255 255 255 255 255 255 255 255 255 255 255 255 255 255 255 255 255 255 255 255 255 255 255 255 255 255 255 255 255 255 255 255 255 255 255 255 255 255 255 255 255 255 255 255 255 255 255 255 255 255 255 255 255 255 255 255 255 255 255 255 255 255 255 255 255 255 255 255 255 255 255 255 255 255 255 255 255 255 255 255 255 255 225 0 15 225 0 15 225 0 15 225 0 15 225 0 15 225 0 15 225 0 15 225 0 15 225 0 15 225 0 15 225 0 15 225 0 15 225 0 15 225 0 15 225 0 15 225 0 15 225 0 15 225 0 15 225 0 15 225 0 15 225 0 15 225 0 15 225 0 15 225 0 15 225 0 15 225 0 15 225 0 15 225 0 15 225 0 15 225 0 15 225 0 15 225 0 15 225 0 15 225 0 15 225 0 15 225 0 15 225 0 15 225 0 15 225 0 15 225 0 15 225 0 15 225 0 15 225 0 15 225 0 15 225 0 15 225 0 15 225 0 15 225 0 15 225 0 15 225 0 15 225 0 15 225 0 15 225 0 15 225 0 15 225 0 15 225 0 15 225 0 15 225 0 15 225 0 15 225 0 15 225 0 15 225 0 15 225 0 15 225 0 15 225 0 15 225 0 15 225 0 15 225 0 15 225 0 15 225 0 15 225 0 15 225 0 15 225 0 15 225 0 15 225 0 15 225 0 15 225 0 15 225 0 15 225 0 15 225 0 15 225 0 15 225 0 15 225 0 15 225 0 15 225 0 15 225 0 15 225 0 15 225 0 15 225 0 15 225 0 15 225 0 15 225 0 15 225 0 15 225 0 15 225 0 15 225 0 15 225 0 15 225 0 15 225 0 15 225 0 15 225 0 15 
0 0 145 0 0 145 0 0 145 0 0 145 0 0 145 0 0 145 0 0 145 0 0 145 0 0 145 0 0 145 0 0 145 0 0 145 0 0 145 0 0 145 0 0 145 0 0 145 0 0 145 0 0 145 0 0 145 0 0 145 0 0 145 0 0 145 0 0 145 0 0 145 0 0 145 0 0 145 0 0 145 0 0 145 0 0 145 0 0 145 0 0 145 0 0 145 0 0 145 0 0 145 0 0 145 0 0 145 0 0 145 0 0 145 0 0 145 0 0 145 0 0 145 0 0 145 0 0 145 0 0 145 0 0 145 0 0 145 0 0 145 0 0 145 0 0 145 0 0 145 0 0 145 0 0 145 0 0 145 0 0 145 0 0 145 0 0 145 0 0 145 0 0 145 0 0 145 0 0 145 0 0 145 0 0 145 0 0 145 0 0 145 0 0 145 0 0 145 0 0 145 0 0 145 0 0 145 0 0 145 0 0 145 0 0 145 0 0 145 0 0 145 0 0 145 0 0 145 0 0 145 0 0 145 0 0 145 0 0 145 0 0 145 0 0 145 0 0 145 0 0 145 0 0 145 0 0 145 0 0 145 0 0 145 0 0 145 0 0 145 0 0 145 0 0 145 0 0 145 0 0 145 0 0 145 0 0 145 0 0 145 0 0 145 0 0 145 225 0 15 255 255 255 255 255 255 255 255 255 255 255 255 255 255 255 255 255 255 255 255 255 255 255 255 255 255 255 255 255 255 255 255 255 255 255 255 255 255 255 255 255 255 255 255 255 255 255 255 255 255 255 255 255 255 255 255 255 255 255 255 255 255 255 255 255 255 255 255 255 255 255 255 255 255 255 255 255 255 255 255 255 255 255 255 255 255 255 255 255 255 255 255 255 255 255 255 255 255 255 255 255 255 255 255 255 255 255 255 255 255 255 255 255 255 255 255 255 255 255 255 255 255 255 255 255 255 255 255 255 255 255 255 255 255 255 255 255 255 255 255 255 255 255 255 255 255 255 255 255 255 255 255 255 255 255 255 255 255 255 255 255 255 255 255 255 255 255 255 255 255 255 255 255 255 255 255 255 255 255 255 255 255 255 255 255 255 255 255 255 255 255 255 255 255 255 255 255 255 255 255 255 255 255 255 255 255 255 255 255 255 255 255 255 255 255 255 255 255 255 255 255 255 255 255 255 255 255 255 255 255 255 255 255 255 255 255 255 255 255 255 255 255 255 255 255 255 255 255 255 255 255 255 255 255 255 255 255 255 255 255 255 255 255 255 255 255 255 255 255 255 255 255 255 255 255 255 255 255 255 255 255 255 255 255 255 255 255 255 255 255 255 255 255 255 255 255 255 225 0 15 225 0 15 225 0 15 225 0 15 225 0 15 225 0 15 225 0 15 225 0 15 225 0 15 225 0 15 225 0 15 225 0 15 225 0 15 225 0 15 225 0 15 225 0 15 225 0 15 225 0 15 225 0 15 225 0 15 225 0 15 225 0 15 225 0 15 225 0 15 225 0 15 225 0 15 225 0 15 225 0 15 225 0 15 225 0 15 225 0 15 225 0 15 225 0 15 225 0 15 225 0 15 225 0 15 225 0 15 225 0 15 225 0 15 225 0 15 225 0 15 225 0 15 225 0 15 225 0 15 225 0 15 225 0 15 225 0 15 225 0 15 225 0 15 225 0 15 225 0 15 225 0 15 225 0 15 225 0 15 225 0 15 225 0 15 225 0 15 225 0 15 225 0 15 225 0 15 225 0 15 225 0 15 225 0 15 225 0 15 225 0 15 225 0 15 225 0 15 225 0 15 225 0 15 225 0 15 225 0 15 225 0 15 225 0 15 225 0 15 225 0 15 225 0 15 225 0 15 225 0 15 225 0 15 225 0 15 225 0 15 225 0 15 225 0 15 225 0 15 225 0 15 225 0 15 225 0 15 225 0 15 225 0 15 225 0 15 225 0 15 225 0 15 225 0 15 225 0 15 225 0 15 225 0 15 225 0 15 225 0 15 225 0 15 225 0 15 225 0 15 
0 0 145 0 0 145 0 0 145 0 0 145 0 0 145 0 0 145 0 0 145 0 0 145 0 0 145 0 0 145 0 0 145 0 0 145 0 0 145 0 0 145 0 0 145 0 0 145 0 0 145 0 0 145 0 0 145 0 0 145 0 0 145 0 0 145 0 0 145 0 0 145 0 0 145 0 0 145 0 0 145 0 0 145 0 0 145 0 0 145 0 0 145 0 0 145 0 0 145 0 0 145 0 0 145 0 0 145 0 0 145 0 0 145 0 0 145 0 0 145 0 0 145 0 0 145 0 0 145 0 0 145 0 0 145 0 0 145 0 0 145 0 0 145 0 0 145 0 0 145 0 0 145 0 0 145 0 0 145 0 0 145 0 0 145 0 0 145 0 0 145 0 0 145 0 0 145 0 0 145 0 0 145 0 0 145 0 0 145 0 0 145 0 0 145 0 0 145 0 0 145 0 0 145 0 0 145 0 0 145 0 0 145 0 0 145 0 0 145 0 0 145 0 0 145 0 0 145 0 0 145 0 0 145 0 0 145 0 0 145 0 0 145 0 0 145 0 0 145 0 0 145 0 0 145 0 0 145 0 0 145 0 0 145 0 0 145 0 0 145 0 0 145 0 0 145 0 0 145 0 0 145 0 0 145 0 0 145 0 0 145 0 0 145 0 0 145 225 0 15 255 255 255 255 255 255 255 255 255 255 255 255 255 255 255 255 255 255 255 255 255 255 255 255 255 255 255 255 255 255 255 255 255 255 255 255 255 255 255 255 255 255 255 255 255 255 255 255 255 255 255 255 255 255 255 255 255 255 255 255 255 255 255 255 255 255 255 255 255 255 255 255 255 255 255 255 255 255 255 255 255 255 255 255 255 255 255 255 255 255 255 255 255 255 255 255 255 255 255 255 255 255 255 255 255 255 255 255 255 255 255 255 255 255 255 255 255 255 255 255 255 255 255 255 255 255 255 255 255 255 255 255 255 255 255 255 255 255 255 255 255 255 255 255 255 255 255 255 255 255 255 255 255 255 255 255 255 255 255 255 255 255 255 255 255 255 255 255 255 255 255 255 255 255 255 255 255 255 255 255 255 255 255 255 255 255 255 255 255 255 255 255 255 255 255 255 255 255 255 255 255 255 255 255 255 255 255 255 255 255 255 255 255 255 255 255 255 255 255 255 255 255 255 255 255 255 255 255 255 255 255 255 255 255 255 255 255 255 255 255 255 255 255 255 255 255 255 255 255 255 255 255 255 255 255 255 255 255 255 255 255 255 255 255 255 255 255 255 255 255 255 255 255 255 255 255 255 255 255 255 255 255 255 255 255 255 255 255 255 255 255 255 255 255 255 255 255 225 0 15 225 0 15 225 0 15 225 0 15 225 0 15 225 0 15 225 0 15 225 0 15 225 0 15 225 0 15 225 0 15 225 0 15 225 0 15 225 0 15 225 0 15 225 0 15 225 0 15 225 0 15 225 0 15 225 0 15 225 0 15 225 0 15 225 0 15 225 0 15 225 0 15 225 0 15 225 0 15 225 0 15 225 0 15 225 0 15 225 0 15 225 0 15 225 0 15 225 0 15 225 0 15 225 0 15 225 0 15 225 0 15 225 0 15 225 0 15 225 0 15 225 0 15 225 0 15 225 0 15 225 0 15 225 0 15 225 0 15 225 0 15 225 0 15 225 0 15 225 0 15 225 0 15 225 0 15 225 0 15 225 0 15 225 0 15 225 0 15 225 0 15 225 0 15 225 0 15 225 0 15 225 0 15 225 0 15 225 0 15 225 0 15 225 0 15 225 0 15 225 0 15 225 0 15 225 0 15 225 0 15 225 0 15 225 0 15 225 0 15 225 0 15 225 0 15 225 0 15 225 0 15 225 0 15 225 0 15 225 0 15 225 0 15 225 0 15 225 0 15 225 0 15 225 0 15 225 0 15 225 0 15 225 0 15 225 0 15 225 0 15 225 0 15 225 0 15 225 0 15 225 0 15 225 0 15 225 0 15 225 0 15 225 0 15 225 0 15 225 0 15 
0 0 145 0 0 145 0 0 145 0 0 145 0 0 145 0 0 145 0 0 145 0 0 145 0 0 145 0 0 145 0 0 145 0 0 145 0 0 145 0 0 145 0 0 145 0 0 145 0 0 145 0 0 145 0 0 145 0 0 145 0 0 145 0 0 145 0 0 145 0 0 145 0 0 145 0 0 145 0 0 145 0 0 145 0 0 145 0 0 145 0 0 145 0 0 145 0 0 145 0 0 145 0 0 145 0 0 145 0 0 145 0 0 145 0 0 145 0 0 145 0 0 145 0 0 145 0 0 145 0 0 145 0 0 145 0 0 145 0 0 145 0 0 145 0 0 145 0 0 145 0 0 145 0 0 145 0 0 145 0 0 145 0 0 145 0 0 145 0 0 145 0 0 145 0 0 145 0 0 145 0 0 145 0 0 145 0 0 145 0 0 145 0 0 145 0 0 145 0 0 145 0 0 145 0 0 145 0 0 145 0 0 145 0 0 145 0 0 145 0 0 145 0 0 145 0 0 145 0 0 145 0 0 145 0 0 145 0 0 145 0 0 145 0 0 145 0 0 145 0 0 145 0 0 145 0 0 145 0 0 145 0 0 145 0 0 145 0 0 145 0 0 145 0 0 145 0 0 145 0 0 145 0 0 145 0 0 145 0 0 145 0 0 145 0 0 145 225 0 15 255 255 255 255 255 255 255 255 255 255 255 255 255 255 255 255 255 255 255 255 255 255 255 255 255 255 255 255 255 255 255 255 255 255 255 255 255 255 255 255 255 255 255 255 255 255 255 255 255 255 255 255 255 255 255 255 255 255 255 255 255 255 255 255 255 255 255 255 255 255 255 255 255 255 255 255 255 255 255 255 255 255 255 255 255 255 255 255 255 255 255 255 255 255 255 255 255 255 255 255 255 255 255 255 255 255 255 255 255 255 255 255 255 255 255 255 255 255 255 255 255 255 255 255 255 255 255 255 255 255 255 255 255 255 255 255 255 255 255 255 255 255 255 255 255 255 255 255 255 255 255 255 255 255 255 255 255 255 255 255 255 255 255 255 255 255 255 255 255 255 255 255 255 255 255 255 255 255 255 255 255 255 255 255 255 255 255 255 255 255 255 255 255 255 255 255 255 255 255 255 255 255 255 255 255 255 255 255 255 255 255 255 255 255 255 255 255 255 255 255 255 255 255 255 255 255 255 255 255 255 255 255 255 255 255 255 255 255 255 255 255 255 255 255 255 255 255 255 255 255 255 255 255 255 255 255 255 255 255 255 255 255 255 255 255 255 255 255 255 255 255 255 255 255 255 255 255 255 255 255 255 255 255 255 255 255 255 255 255 255 255 255 255 255 255 255 255 225 0 15 225 0 15 225 0 15 225 0 15 225 0 15 225 0 15 225 0 15 225 0 15 225 0 15 225 0 15 225 0 15 225 0 15 225 0 15 225 0 15 225 0 15 225 0 15 225 0 15 225 0 15 225 0 15 225 0 15 225 0 15 225 0 15 225 0 15 225 0 15 225 0 15 225 0 15 225 0 15 225 0 15 225 0 15 225 0 15 225 0 15 225 0 15 225 0 15 225 0 15 225 0 15 225 0 15 225 0 15 225 0 15 225 0 15 225 0 15 225 0 15 225 0 15 225 0 15 225 0 15 225 0 15 225 0 15 225 0 15 225 0 15 225 0 15 225 0 15 225 0 15 225 0 15 225 0 15 225 0 15 225 0 15 225 0 15 225 0 15 225 0 15 225 0 15 225 0 15 225 0 15 225 0 15 225 0 15 225 0 15 225 0 15 225 0 15 225 0 15 225 0 15 225 0 15 225 0 15 225 0 15 225 0 15 225 0 15 225 0 15 225 0 15 225 0 15 225 0 15 225 0 15 225 0 15 225 0 15 225 0 15 225 0 15 225 0 15 225 0 15 225 0 15 225 0 15 225 0 15 225 0 15 225 0 15 225 0 15 225 0 15 225 0 15 225 0 15 225 0 15 225 0 15 225 0 15 225 0 15 225 0 15 225 0 15 225 0 15 225 0 15 
0 0 145 0 0 145 0 0 145 0 0 145 0 0 145 0 0 145 0 0 145 0 0 145 0 0 145 0 0 145 0 0 145 0 0 145 0 0 145 0 0 145 0 0 145 0 0 145 0 0 145 0 0 145 0 0 145 0 0 145 0 0 145 0 0 145 0 0 145 0 0 145 0 0 145 0 0 145 0 0 145 0 0 145 0 0 145 0 0 145 0 0 145 0 0 145 0 0 145 0 0 145 0 0 145 0 0 145 0 0 145 0 0 145 0 0 145 0 0 145 0 0 145 0 0 145 0 0 145 0 0 145 0 0 145 0 0 145 0 0 145 0 0 145 0 0 145 0 0 145 0 0 145 0 0 145 0 0 145 0 0 145 0 0 145 0 0 145 0 0 145 0 0 145 0 0 145 0 0 145 0 0 145 0 0 145 0 0 145 0 0 145 0 0 145 0 0 145 0 0 145 0 0 145 0 0 145 0 0 145 0 0 145 0 0 145 0 0 145 0 0 145 0 0 145 0 0 145 0 0 145 0 0 145 0 0 145 0 0 145 0 0 145 0 0 145 0 0 145 0 0 145 0 0 145 0 0 145 0 0 145 0 0 145 0 0 145 0 0 145 0 0 145 0 0 145 0 0 145 0 0 145 0 0 145 0 0 145 0 0 145 0 0 145 0 0 145 225 0 15 255 255 255 255 255 255 255 255 255 255 255 255 255 255 255 255 255 255 255 255 255 255 255 255 255 255 255 255 255 255 255 255 255 255 255 255 255 255 255 255 255 255 255 255 255 255 255 255 255 255 255 255 255 255 255 255 255 255 255 255 255 255 255 255 255 255 255 255 255 255 255 255 255 255 255 255 255 255 255 255 255 255 255 255 255 255 255 255 255 255 255 255 255 255 255 255 255 255 255 255 255 255 255 255 255 255 255 255 255 255 255 255 255 255 255 255 255 255 255 255 255 255 255 255 255 255 255 255 255 255 255 255 255 255 255 255 255 255 255 255 255 255 255 255 255 255 255 255 255 255 255 255 255 255 255 255 255 255 255 255 255 255 255 255 255 255 255 255 255 255 255 255 255 255 255 255 255 255 255 255 255 255 255 255 255 255 255 255 255 255 255 255 255 255 255 255 255 255 255 255 255 255 255 255 255 255 255 255 255 255 255 255 255 255 255 255 255 255 255 255 255 255 255 255 255 255 255 255 255 255 255 255 255 255 255 255 255 255 255 255 255 255 255 255 255 255 255 255 255 255 255 255 255 255 255 255 255 255 255 255 255 255 255 255 255 255 255 255 255 255 255 255 255 255 255 255 255 255 255 255 255 255 255 255 255 255 255 255 255 255 255 255 255 255 255 255 255 225 0 15 225 0 15 225 0 15 225 0 15 225 0 15 225 0 15 225 0 15 225 0 15 225 0 15 225 0 15 225 0 15 225 0 15 225 0 15 225 0 15 225 0 15 225 0 15 225 0 15 225 0 15 225 0 15 225 0 15 225 0 15 225 0 15 225 0 15 225 0 15 225 0 15 225 0 15 225 0 15 225 0 15 225 0 15 225 0 15 225 0 15 225 0 15 225 0 15 225 0 15 225 0 15 225 0 15 225 0 15 225 0 15 225 0 15 225 0 15 225 0 15 225 0 15 225 0 15 225 0 15 225 0 15 225 0 15 225 0 15 225 0 15 225 0 15 225 0 15 225 0 15 225 0 15 225 0 15 225 0 15 225 0 15 225 0 15 225 0 15 225 0 15 225 0 15 225 0 15 225 0 15 225 0 15 225 0 15 225 0 15 225 0 15 225 0 15 225 0 15 225 0 15 225 0 15 225 0 15 225 0 15 225 0 15 225 0 15 225 0 15 225 0 15 225 0 15 225 0 15 225 0 15 225 0 15 225 0 15 225 0 15 225 0 15 225 0 15 225 0 15 225 0 15 225 0 15 225 0 15 225 0 15 225 0 15 225 0 15 225 0 15 225 0 15 225 0 15 225 0 15 225 0 15 225 0 15 225 0 15 225 0 15 225 0 15 225 0 15 225 0 15 
0 0 145 0 0 145 0 0 145 0 0 145 0 0 145 0 0 145 0 0 145 0 0 145 0 0 145 0 0 145 0 0 145 0 0 145 0 0 145 0 0 145 0 0 145 0 0 145 0 0 145 0 0 145 0 0 145 0 0 145 0 0 145 0 0 145 0 0 145 0 0 145 0 0 145 0 0 145 0 0 145 0 0 145 0 0 145 0 0 145 0 0 145 0 0 145 0 0 145 0 0 145 0 0 145 0 0 145 0 0 145 0 0 145 0 0 145 0 0 145 0 0 145 0 0 145 0 0 145 0 0 145 0 0 145 0 0 145 0 0 145 0 0 145 0 0 145 0 0 145 0 0 145 0 0 145 0 0 145 0 0 145 0 0 145 0 0 145 0 0 145 0 0 145 0 0 145 0 0 145 0 0 145 0 0 145 0 0 145 0 0 145 0 0 145 0 0 145 0 0 145 0 0 145 0 0 145 0 0 145 0 0 145 0 0 145 0 0 145 0 0 145 0 0 145 0 0 145 0 0 145 0 0 145 0 0 145 0 0 145 0 0 145 0 0 145 0 0 145 0 0 145 0 0 145 0 0 145 0 0 145 0 0 145 0 0 145 0 0 145 0 0 145 0 0 145 0 0 145 0 0 145 0 0 145 0 0 145 0 0 145 0 0 145 0 0 145 225 0 15 255 255 255 255 255 255 255 255 255 255 255 255 255 255 255 255 255 255 255 255 255 255 255 255 255 255 255 255 255 255 255 255 255 255 255 255 255 255 255 255 255 255 255 255 255 255 255 255 255 255 255 255 255 255 255 255 255 255 255 255 255 255 255 255 255 255 255 255 255 255 255 255 255 255 255 255 255 255 255 255 255 255 255 255 255 255 255 255 255 255 255 255 255 255 255 255 255 255 255 255 255 255 255 255 255 255 255 255 255 255 255 255 255 255 255 255 255 255 255 255 255 255 255 255 255 255 255 255 255 255 255 255 255 255 255 255 255 255 255 255 255 255 255 255 255 255 255 255 255 255 255 255 255 255 255 255 255 255 255 255 255 255 255 255 255 255 255 255 255 255 255 255 255 255 255 255 255 255 255 255 255 255 255 255 255 255 255 255 255 255 255 255 255 255 255 255 255 255 255 255 255 255 255 255 255 255 255 255 255 255 255 255 255 255 255 255 255 255 255 255 255 255 255 255 255 255 255 255 255 255 255 255 255 255 255 255 255 255 255 255 255 255 255 255 255 255 255 255 255 255 255 255 255 255 255 255 255 255 255 255 255 255 255 255 255 255 255 255 255 255 255 255 255 255 255 255 255 255 255 255 255 255 255 255 255 255 255 255 255 255 255 255 255 255 255 255 255 225 0 15 225 0 15 225 0 15 225 0 15 225 0 15 225 0 15 225 0 15 225 0 15 225 0 15 225 0 15 225 0 15 225 0 15 225 0 15 225 0 15 225 0 15 225 0 15 225 0 15 225 0 15 225 0 15 225 0 15 225 0 15 225 0 15 225 0 15 225 0 15 225 0 15 225 0 15 225 0 15 225 0 15 225 0 15 225 0 15 225 0 15 225 0 15 225 0 15 225 0 15 225 0 15 225 0 15 225 0 15 225 0 15 225 0 15 225 0 15 225 0 15 225 0 15 225 0 15 225 0 15 225 0 15 225 0 15 225 0 15 225 0 15 225 0 15 225 0 15 225 0 15 225 0 15 225 0 15 225 0 15 225 0 15 225 0 15 225 0 15 225 0 15 225 0 15 225 0 15 225 0 15 225 0 15 225 0 15 225 0 15 225 0 15 225 0 15 225 0 15 225 0 15 225 0 15 225 0 15 225 0 15 225 0 15 225 0 15 225 0 15 225 0 15 225 0 15 225 0 15 225 0 15 225 0 15 225 0 15 225 0 15 225 0 15 225 0 15 225 0 15 225 0 15 225 0 15 225 0 15 225 0 15 225 0 15 225 0 15 225 0 15 225 0 15 225 0 15 225 0 15 225 0 15 225 0 15 225 0 15 225 0 15 225 0 15 225 0 15 225 0 15 
0 0 145 0 0 145 0 0 145 0 0 145 0 0 145 0 0 145 0 0 145 0 0 145 0 0 145 0 0 145 0 0 145 0 0 145 0 0 145 0 0 145 0 0 145 0 0 145 0 0 145 0 0 145 0 0 145 0 0 145 0 0 145 0 0 145 0 0 145 0 0 145 0 0 145 0 0 145 0 0 145 0 0 145 0 0 145 0 0 145 0 0 145 0 0 145 0 0 145 0 0 145 0 0 145 0 0 145 0 0 145 0 0 145 0 0 145 0 0 145 0 0 145 0 0 145 0 0 145 0 0 145 0 0 145 0 0 145 0 0 145 0 0 145 0 0 145 0 0 145 0 0 145 0 0 145 0 0 145 0 0 145 0 0 145 0 0 145 0 0 145 0 0 145 0 0 145 0 0 145 0 0 145 0 0 145 0 0 145 0 0 145 0 0 145 0 0 145 0 0 145 0 0 145 0 0 145 0 0 145 0 0 145 0 0 145 0 0 145 0 0 145 0 0 145 0 0 145 0 0 145 0 0 145 0 0 145 0 0 145 0 0 145 0 0 145 0 0 145 0 0 145 0 0 145 0 0 145 0 0 145 0 0 145 0 0 145 0 0 145 0 0 145 0 0 145 0 0 145 0 0 145 0 0 145 0 0 145 0 0 145 0 0 145 0 0 145 225 0 15 255 255 255 255 255 255 255 255 255 255 255 255 255 255 255 255 255 255 255 255 255 255 255 255 255 255 255 255 255 255 255 255 255 255 255 255 255 255 255 255 255 255 255 255 255 255 255 255 255 255 255 255 255 255 255 255 255 255 255 255 255 255 255 255 255 255 255 255 255 255 255 255 255 255 255 255 255 255 255 255 255 255 255 255 255 255 255 255 255 255 255 255 255 255 255 255 255 255 255 255 255 255 255 255 255 255 255 255 255 255 255 255 255 255 255 255 255 255 255 255 255 255 255 255 255 255 255 255 255 255 255 255 255 255 255 255 255 255 255 255 255 255 255 255 255 255 255 255 255 255 255 255 255 255 255 255 255 255 255 255 255 255 255 255 255 255 255 255 255 255 255 255 255 255 255 255 255 255 255 255 255 255 255 255 255 255 255 255 255 255 255 255 255 255 255 255 255 255 255 255 255 255 255 255 255 255 255 255 255 255 255 255 255 255 255 255 255 255 255 255 255 255 255 255 255 255 255 255 255 255 255 255 255 255 255 255 255 255 255 255 255 255 255 255 255 255 255 255 255 255 255 255 255 255 255 255 255 255 255 255 255 255 255 255 255 255 255 255 255 255 255 255 255 255 255 255 255 255 255 255 255 255 255 255 255 255 255 255 255 255 255 255 255 255 255 255 255 225 0 15 225 0 15 225 0 15 225 0 15 225 0 15 225 0 15 225 0 15 225 0 15 225 0 15 225 0 15 225 0 15 225 0 15 225 0 15 225 0 15 225 0 15 225 0 15 225 0 15 225 0 15 225 0 15 225 0 15 225 0 15 225 0 15 225 0 15 225 0 15 225 0 15 225 0 15 225 0 15 225 0 15 225 0 15 225 0 15 225 0 15 225 0 15 225 0 15 225 0 15 225 0 15 225 0 15 225 0 15 225 0 15 225 0 15 225 0 15 225 0 15 225 0 15 225 0 15 225 0 15 225 0 15 225 0 15 225 0 15 225 0 15 225 0 15 225 0 15 225 0 15 225 0 15 225 0 15 225 0 15 225 0 15 225 0 15 225 0 15 225 0 15 225 0 15 225 0 15 225 0 15 225 0 15 225 0 15 225 0 15 225 0 15 225 0 15 225 0 15 225 0 15 225 0 15 225 0 15 225 0 15 225 0 15 225 0 15 225 0 15 225 0 15 225 0 15 225 0 15 225 0 15 225 0 15 225 0 15 225 0 15 225 0 15 225 0 15 225 0 15 225 0 15 225 0 15 225 0 15 225 0 15 225 0 15 225 0 15 225 0 15 225 0 15 225 0 15 225 0 15 225 0 15 225 0 15 225 0 15 225 0 15 225 0 15 225 0 15 225 0 15 
0 0 145 0 0 145 0 0 145 0 0 145 0 0 145 0 0 145 0 0 145 0 0 145 0 0 145 0 0 145 0 0 145 0 0 145 0 0 145 0 0 145 0 0 145 0 0 145 0 0 145 0 0 145 0 0 145 0 0 145 0 0 145 0 0 145 0 0 145 0 0 145 0 0 145 0 0 145 0 0 145 0 0 145 0 0 145 0 0 145 0 0 145 0 0 145 0 0 145 0 0 145 0 0 145 0 0 145 0 0 145 0 0 145 0 0 145 0 0 145 0 0 145 0 0 145 0 0 145 0 0 145 0 0 145 0 0 145 0 0 145 0 0 145 0 0 145 0 0 145 0 0 145 0 0 145 0 0 145 0 0 145 0 0 145 0 0 145 0 0 145 0 0 145 0 0 145 0 0 145 0 0 145 0 0 145 0 0 145 0 0 145 0 0 145 0 0 145 0 0 145 0 0 145 0 0 145 0 0 145 0 0 145 0 0 145 0 0 145 0 0 145 0 0 145 0 0 145 0 0 145 0 0 145 0 0 145 0 0 145 0 0 145 0 0 145 0 0 145 0 0 145 0 0 145 0 0 145 0 0 145 0 0 145 0 0 145 0 0 145 0 0 145 0 0 145 0 0 145 0 0 145 0 0 145 0 0 145 0 0 145 0 0 145 0 0 145 225 0 15 255 255 255 255 255 255 255 255 255 255 255 255 255 255 255 255 255 255 255 255 255 255 255 255 255 255 255 255 255 255 255 255 255 255 255 255 255 255 255 255 255 255 255 255 255 255 255 255 255 255 255 255 255 255 255 255 255 255 255 255 255 255 255 255 255 255 255 255 255 255 255 255 255 255 255 255 255 255 255 255 255 255 255 255 255 255 255 255 255 255 255 255 255 255 255 255 255 255 255 255 255 255 255 255 255 255 255 255 255 255 255 255 255 255 255 255 255 255 255 255 255 255 255 255 255 255 255 255 255 255 255 255 255 255 255 255 255 255 255 255 255 255 255 255 255 255 255 255 255 255 255 255 255 255 255 255 255 255 255 255 255 255 255 255 255 255 255 255 255 255 255 255 255 255 255 255 255 255 255 255 255 255 255 255 255 255 255 255 255 255 255 255 255 255 255 255 255 255 255 255 255 255 255 255 255 255 255 255 255 255 255 255 255 255 255 255 255 255 255 255 255 255 255 255 255 255 255 255 255 255 255 255 255 255 255 255 255 255 255 255 255 255 255 255 255 255 255 255 255 255 255 255 255 255 255 255 255 255 255 255 255 255 255 255 255 255 255 255 255 255 255 255 255 255 255 255 255 255 255 255 255 255 255 255 255 255 255 255 255 255 255 255 255 255 255 255 255 225 0 15 225 0 15 225 0 15 225 0 15 225 0 15 225 0 15 225 0 15 225 0 15 225 0 15 225 0 15 225 0 15 225 0 15 225 0 15 225 0 15 225 0 15 225 0 15 225 0 15 225 0 15 225 0 15 225 0 15 225 0 15 225 0 15 225 0 15 225 0 15 225 0 15 225 0 15 225 0 15 225 0 15 225 0 15 225 0 15 225 0 15 225 0 15 225 0 15 225 0 15 225 0 15 225 0 15 225 0 15 225 0 15 225 0 15 225 0 15 225 0 15 225 0 15 225 0 15 225 0 15 225 0 15 225 0 15 225 0 15 225 0 15 225 0 15 225 0 15 225 0 15 225 0 15 225 0 15 225 0 15 225 0 15 225 0 15 225 0 15 225 0 15 225 0 15 225 0 15 225 0 15 225 0 15 225 0 15 225 0 15 225 0 15 225 0 15 225 0 15 225 0 15 225 0 15 225 0 15 225 0 15 225 0 15 225 0 15 225 0 15 225 0 15 225 0 15 225 0 15 225 0 15 225 0 15 225 0 15 225 0 15 225 0 15 225 0 15 225 0 15 225 0 15 225 0 15 225 0 15 225 0 15 225 0 15 225 0 15 225 0 15 225 0 15 225 0 15 225 0 15 225 0 15 225 0 15 225 0 15 225 0 15 225 0 15 225 0 15 225 0 15 
0 0 145 0 0 145 0 0 145 0 0 145 0 0 145 0 0 145 0 0 145 0 0 145 0 0 145 0 0 145 0 0 145 0 0 145 0 0 145 0 0 145 0 0 145 0 0 145 0 0 145 0 0 145 0 0 145 0 0 145 0 0 145 0 0 145 0 0 145 0 0 145 0 0 145 0 0 145 0 0 145 0 0 145 0 0 145 0 0 145 0 0 145 0 0 145 0 0 145 0 0 145 0 0 145 0 0 145 0 0 145 0 0 145 0 0 145 0 0 145 0 0 145 0 0 145 0 0 145 0 0 145 0 0 145 0 0 145 0 0 145 0 0 145 0 0 145 0 0 145 0 0 145 0 0 145 0 0 145 0 0 145 0 0 145 0 0 145 0 0 145 0 0 145 0 0 145 0 0 145 0 0 145 0 0 145 0 0 145 0 0 145 0 0 145 0 0 145 0 0 145 0 0 145 0 0 145 0 0 145 0 0 145 0 0 145 0 0 145 0 0 145 0 0 145 0 0 145 0 0 145 0 0 145 0 0 145 0 0 145 0 0 145 0 0 145 0 0 145 0 0 145 0 0 145 0 0 145 0 0 145 0 0 145 0 0 145 0 0 145 0 0 145 0 0 145 0 0 145 0 0 145 0 0 145 0 0 145 0 0 145 0 0 145 0 0 145 225 0 15 255 255 255 255 255 255 255 255 255 255 255 255 255 255 255 255 255 255 255 255 255 255 255 255 255 255 255 255 255 255 255 255 255 255 255 255 255 255 255 255 255 255 255 255 255 255 255 255 255 255 255 255 255 255 255 255 255 255 255 255 255 255 255 255 255 255 255 255 255 255 255 255 255 255 255 255 255 255 255 255 255 255 255 255 255 255 255 255 255 255 255 255 255 255 255 255 255 255 255 255 255 255 255 255 255 255 255 255 255 255 255 255 255 255 255 255 255 255 255 255 255 255 255 255 255 255 255 255 255 255 255 255 255 255 255 255 255 255 255 255 255 255 255 255 255 255 255 255 255 255 255 255 255 255 255 255 255 255 255 255 255 255 255 255 255 255 255 255 255 255 255 255 255 255 255 255 255 255 255 255 255 255 255 255 255 255 255 255 255 255 255 255 255 255 255 255 255 255 255 255 255 255 255 255 255 255 255 255 255 255 255 255 255 255 255 255 255 255 255 255 255 255 255 255 255 255 255 255 255 255 255 255 255 255 255 255 255 255 255 255 255 255 255 255 255 255 255 255 255 255 255 255 255 255 255 255 255 255 255 255 255 255 255 255 255 255 255 255 255 255 255 255 255 255 255 255 255 255 255 255 255 255 255 255 255 255 255 255 255 255 255 255 255 255 255 255 255 225 0 15 225 0 15 225 0 15 225 0 15 225 0 15 225 0 15 225 0 15 225 0 15 225 0 15 225 0 15 225 0 15 225 0 15 225 0 15 225 0 15 225 0 15 225 0 15 225 0 15 225 0 15 225 0 15 225 0 15 225 0 15 225 0 15 225 0 15 225 0 15 225 0 15 225 0 15 225 0 15 225 0 15 225 0 15 225 0 15 225 0 15 225 0 15 225 0 15 225 0 15 225 0 15 225 0 15 225 0 15 225 0 15 225 0 15 225 0 15 225 0 15 225 0 15 225 0 15 225 0 15 225 0 15 225 0 15 225 0 15 225 0 15 225 0 15 225 0 15 225 0 15 225 0 15 225 0 15 225 0 15 225 0 15 225 0 15 225 0 15 225 0 15 225 0 15 225 0 15 225 0 15 225 0 15 225 0 15 225 0 15 225 0 15 225 0 15 225 0 15 225 0 15 225 0 15 225 0 15 225 0 15 225 0 15 225 0 15 225 0 15 225 0 15 225 0 15 225 0 15 225 0 15 225 0 15 225 0 15 225 0 15 225 0 15 225 0 15 225 0 15 225 0 15 225 0 15 225 0 15 225 0 15 225 0 15 225 0 15 225 0 15 225 0 15 225 0 15 225 0 15 225 0 15 225 0 15 225 0 15 225 0 15 225 0 15 225 0 15 225 0 15 
0 0 145 0 0 145 0 0 145 0 0 145 0 0 145 0 0 145 0 0 145 0 0 145 0 0 145 0 0 145 0 0 145 0 0 145 0 0 145 0 0 145 0 0 145 0 0 145 0 0 145 0 0 145 0 0 145 0 0 145 0 0 145 0 0 145 0 0 145 0 0 145 0 0 145 0 0 145 0 0 145 0 0 145 0 0 145 0 0 145 0 0 145 0 0 145 0 0 145 0 0 145 0 0 145 0 0 145 0 0 145 0 0 145 0 0 145 0 0 145 0 0 145 0 0 145 0 0 145 0 0 145 0 0 145 0 0 145 0 0 145 0 0 145 0 0 145 0 0 145 0 0 145 0 0 145 0 0 145 0 0 145 0 0 145 0 0 145 0 0 145 0 0 145 0 0 145 0 0 145 0 0 145 0 0 145 0 0 145 0 0 145 0 0 145 0 0 145 0 0 145 0 0 145 0 0 145 0 0 145 0 0 145 0 0 145 0 0 145 0 0 145 0 0 145 0 0 145 0 0 145 0 0 145 0 0 145 0 0 145 0 0 145 0 0 145 0 0 145 0 0 145 0 0 145 0 0 145 0 0 145 0 0 145 0 0 145 0 0 145 0 0 145 0 0 145 0 0 145 0 0 145 0 0 145 0 0 145 0 0 145 0 0 145 0 0 145 225 0 15 255 255 255 255 255 255 255 255 255 255 255 255 255 255 255 255 255 255 255 255 255 255 255 255 255 255 255 255 255 255 255 255 255 255 255 255 255 255 255 255 255 255 255 255 255 255 255 255 255 255 255 255 255 255 255 255 255 255 255 255 255 255 255 255 255 255 255 255 255 255 255 255 255 255 255 255 255 255 255 255 255 255 255 255 255 255 255 255 255 255 255 255 255 255 255 255 255 255 255 255 255 255 255 255 255 255 255 255 255 255 255 255 255 255 255 255 255 255 255 255 255 255 255 255 255 255 255 255 255 255 255 255 255 255 255 255 255 255 255 255 255 255 255 255 255 255 255 255 255 255 255 255 255 255 255 255 255 255 255 255 255 255 255 255 255 255 255 255 255 255 255 255 255 255 255 255 255 255 255 255 255 255 255 255 255 255 255 255 255 255 255 255 255 255 255 255 255 255 255 255 255 255 255 255 255 255 255 255 255 255 255 255 255 255 255 255 255 255 255 255 255 255 255 255 255 255 255 255 255 255 255 255 255 255 255 255 255 255 255 255 255 255 255 255 255 255 255 255 255 255 255 255 255 255 255 255 255 255 255 255 255 255 255 255 255 255 255 255 255 255 255 255 255 255 255 255 255 255 255 255 255 255 255 255 255 255 255 255 255 255 255 255 255 255 255 255 255 225 0 15 225 0 15 225 0 15 225 0 15 225 0 15 225 0 15 225 0 15 225 0 15 225 0 15 225 0 15 225 0 15 225 0 15 225 0 15 225 0 15 225 0 15 225 0 15 225 0 15 225 0 15 225 0 15 225 0 15 225 0 15 225 0 15 225 0 15 225 0 15 225 0 15 225 0 15 225 0 15 225 0 15 225 0 15 225 0 15 225 0 15 225 0 15 225 0 15 225 0 15 225 0 15 225 0 15 225 0 15 225 0 15 225 0 15 225 0 15 225 0 15 225 0 15 225 0 15 225 0 15 225 0 15 225 0 15 225 0 15 225 0 15 225 0 15 225 0 15 225 0 15 225 0 15 225 0 15 225 0 15 225 0 15 225 0 15 225 0 15 225 0 15 225 0 15 225 0 15 225 0 15 225 0 15 225 0 15 225 0 15 225 0 15 225 0 15 225 0 15 225 0 15 225 0 15 225 0 15 225 0 15 225 0 15 225 0 15 225 0 15 225 0 15 225 0 15 225 0 15 225 0 15 225 0 15 225 0 15 225 0 15 225 0 15 225 0 15 225 0 15 225 0 15 225 0 15 225 0 15 225 0 15 225 0 15 225 0 15 225 0 15 225 0 15 225 0 15 225 0 15 225 0 15 225 0 15 225 0 15 225 0 15 225 0 15 225 0 15 225 0 15 
0 0 145 0 0 145 0 0 145 0 0 145 0 0 145 0 0 145 0 0 145 0 0 145 0 0 145 0 0 145 0 0 145 0 0 145 0 0 145 0 0 145 0 0 145 0 0 145 0 0 145 0 0 145 0 0 145 0 0 145 0 0 145 0 0 145 0 0 145 0 0 145 0 0 145 0 0 145 0 0 145 0 0 145 0 0 145 0 0 145 0 0 145 0 0 145 0 0 145 0 0 145 0 0 145 0 0 145 0 0 145 0 0 145 0 0 145 0 0 145 0 0 145 0 0 145 0 0 145 0 0 145 0 0 145 0 0 145 0 0 145 0 0 145 0 0 145 0 0 145 0 0 145 0 0 145 0 0 145 0 0 145 0 0 145 0 0 145 0 0 145 0 0 145 0 0 145 0 0 145 0 0 145 0 0 145 0 0 145 0 0 145 0 0 145 0 0 145 0 0 145 0 0 145 0 0 145 0 0 145 0 0 145 0 0 145 0 0 145 0 0 145 0 0 145 0 0 145 0 0 145 0 0 145 0 0 145 0 0 145 0 0 145 0 0 145 0 0 145 0 0 145 0 0 145 0 0 145 0 0 145 0 0 145 0 0 145 0 0 145 0 0 145 0 0 145 0 0 145 0 0 145 0 0 145 0 0 145 0 0 145 0 0 145 0 0 145 225 0 15 255 255 255 255 255 255 255 255 255 255 255 255 255 255 255 255 255 255 255 255 255 255 255 255 255 255 255 255 255 255 255 255 255 255 255 255 255 255 255 255 255 255 255 255 255 255 255 255 255 255 255 255 255 255 255 255 255 255 255 255 255 255 255 255 255 255 255 255 255 255 255 255 255 255 255 255 255 255 255 255 255 255 255 255 255 255 255 255 255 255 255 255 255 255 255 255 255 255 255 255 255 255 255 255 255 255 255 255 255 255 255 255 255 255 255 255 255 255 255 255 255 255 255 255 255 255 255 255 255 255 255 255 255 255 255 255 255 255 255 255 255 255 255 255 255 255 255 255 255 255 255 255 255 255 255 255 255 255 255 255 255 255 255 255 255 255 255 255 255 255 255 255 255 255 255 255 255 255 255 255 255 255 255 255 255 255 255 255 255 255 255 255 255 255 255 255 255 255 255 255 255 255 255 255 255 255 255 255 255 255 255 255 255 255 255 255 255 255 255 255 255 255 255 255 255 255 255 255 255 255 255 255 255 255 255 255 255 255 255 255 255 255 255 255 255 255 255 255 255 255 255 255 255 255 255 255 255 255 255 255 255 255 255 255 255 255 255 255 255 255 255 255 255 255 255 255 255 255 255 255 255 255 255 255 255 255 255 255 255 255 255 255 255 255 255 255 255 225 0 15 225 0 15 225 0 15 225 0 15 225 0 15 225 0 15 225 0 15 225 0 15 225 0 15 225 0 15 225 0 15 225 0 15 225 0 15 225 0 15 225 0 15 225 0 15 225 0 15 225 0 15 225 0 15 225 0 15 225 0 15 225 0 15 225 0 15 225 0 15 225 0 15 225 0 15 225 0 15 225 0 15 225 0 15 225 0 15 225 0 15 225 0 15 225 0 15 225 0 15 225 0 15 225 0 15 225 0 15 225 0 15 225 0 15 225 0 15 225 0 15 225 0 15 225 0 15 225 0 15 225 0 15 225 0 15 225 0 15 225 0 15 225 0 15 225 0 15 225 0 15 225 0 15 225 0 15 225 0 15 225 0 15 225 0 15 225 0 15 225 0 15 225 0 15 225 0 15 225 0 15 225 0 15 225 0 15 225 0 15 225 0 15 225 0 15 225 0 15 225 0 15 225 0 15 225 0 15 225 0 15 225 0 15 225 0 15 225 0 15 225 0 15 225 0 15 225 0 15 225 0 15 225 0 15 225 0 15 225 0 15 225 0 15 225 0 15 225 0 15 225 0 15 225 0 15 225 0 15 225 0 15 225 0 15 225 0 15 225 0 15 225 0 15 225 0 15 225 0 15 225 0 15 225 0 15 225 0 15 225 0 15 225 0 15 225 0 15 225 0 15 
0 0 145 0 0 145 0 0 145 0 0 145 0 0 145 0 0 145 0 0 145 0 0 145 0 0 145 0 0 145 0 0 145 0 0 145 0 0 145 0 0 145 0 0 145 0 0 145 0 0 145 0 0 145 0 0 145 0 0 145 0 0 145 0 0 145 0 0 145 0 0 145 0 0 145 0 0 145 0 0 145 0 0 145 0 0 145 0 0 145 0 0 145 0 0 145 0 0 145 0 0 145 0 0 145 0 0 145 0 0 145 0 0 145 0 0 145 0 0 145 0 0 145 0 0 145 0 0 145 0 0 145 0 0 145 0 0 145 0 0 145 0 0 145 0 0 145 0 0 145 0 0 145 0 0 145 0 0 145 0 0 145 0 0 145 0 0 145 0 0 145 0 0 145 0 0 145 0 0 145 0 0 145 0 0 145 0 0 145 0 0 145 0 0 145 0 0 145 0 0 145 0 0 145 0 0 145 0 0 145 0 0 145 0 0 145 0 0 145 0 0 145 0 0 145 0 0 145 0 0 145 0 0 145 0 0 145 0 0 145 0 0 145 0 0 145 0 0 145 0 0 145 0 0 145 0 0 145 0 0 145 0 0 145 0 0 145 0 0 145 0 0 145 0 0 145 0 0 145 0 0 145 0 0 145 0 0 145 0 0 145 0 0 145 0 0 145 225 0 15 255 255 255 255 255 255 255 255 255 255 255 255 255 255 255 255 255 255 255 255 255 255 255 255 255 255 255 255 255 255 255 255 255 255 255 255 255 255 255 255 255 255 255 255 255 255 255 255 255 255 255 255 255 255 255 255 255 255 255 255 255 255 255 255 255 255 255 255 255 255 255 255 255 255 255 255 255 255 255 255 255 255 255 255 255 255 255 255 255 255 255 255 255 255 255 255 255 255 255 255 255 255 255 255 255 255 255 255 255 255 255 255 255 255 255 255 255 255 255 255 255 255 255 255 255 255 255 255 255 255 255 255 255 255 255 255 255 255 255 255 255 255 255 255 255 255 255 255 255 255 255 255 255 255 255 255 255 255 255 255 255 255 255 255 255 255 255 255 255 255 255 255 255 255 255 255 255 255 255 255 255 255 255 255 255 255 255 255 255 255 255 255 255 255 255 255 255 255 255 255 255 255 255 255 255 255 255 255 255 255 255 255 255 255 255 255 255 255 255 255 255 255 255 255 255 255 255 255 255 255 255 255 255 255 255 255 255 255 255 255 255 255 255 255 255 255 255 255 255 255 255 255 255 255 255 255 255 255 255 255 255 255 255 255 255 255 255 255 255 255 255 255 255 255 255 255 255 255 255 255 255 255 255 255 255 255 255 255 255 255 255 255 255 255 255 255 255 225 0 15 225 0 15 225 0 15 225 0 15 225 0 15 225 0 15 225 0 15 225 0 15 225 0 15 225 0 15 225 0 15 225 0 15 225 0 15 225 0 15 225 0 15 225 0 15 225 0 15 225 0 15 225 0 15 225 0 15 225 0 15 225 0 15 225 0 15 225 0 15 225 0 15 225 0 15 225 0 15 225 0 15 225 0 15 225 0 15 225 0 15 225 0 15 225 0 15 225 0 15 225 0 15 225 0 15 225 0 15 225 0 15 225 0 15 225 0 15 225 0 15 225 0 15 225 0 15 225 0 15 225 0 15 225 0 15 225 0 15 225 0 15 225 0 15 225 0 15 225 0 15 225 0 15 225 0 15 225 0 15 225 0 15 225 0 15 225 0 15 225 0 15 225 0 15 225 0 15 225 0 15 225 0 15 225 0 15 225 0 15 225 0 15 225 0 15 225 0 15 225 0 15 225 0 15 225 0 15 225 0 15 225 0 15 225 0 15 225 0 15 225 0 15 225 0 15 225 0 15 225 0 15 225 0 15 225 0 15 225 0 15 225 0 15 225 0 15 225 0 15 225 0 15 225 0 15 225 0 15 225 0 15 225 0 15 225 0 15 225 0 15 225 0 15 225 0 15 225 0 15 225 0 15 225 0 15 225 0 15 225 0 15 225 0 15 225 0 15 225 0 15 
0 0 145 0 0 145 0 0 145 0 0 145 0 0 145 0 0 145 0 0 145 0 0 145 0 0 145 0 0 145 0 0 145 0 0 145 0 0 145 0 0 145 0 0 145 0 0 145 0 0 145 0 0 145 0 0 145 0 0 145 0 0 145 0 0 145 0 0 145 0 0 145 0 0 145 0 0 145 0 0 145 0 0 145 0 0 145 0 0 145 0 0 145 0 0 145 0 0 145 0 0 145 0 0 145 0 0 145 0 0 145 0 0 145 0 0 145 0 0 145 0 0 145 0 0 145 0 0 145 0 0 145 0 0 145 0 0 145 0 0 145 0 0 145 0 0 145 0 0 145 0 0 145 0 0 145 0 0 145 0 0 145 0 0 145 0 0 145 0 0 145 0 0 145 0 0 145 0 0 145 0 0 145 0 0 145 0 0 145 0 0 145 0 0 145 0 0 145 0 0 145 0 0 145 0 0 145 0 0 145 0 0 145 0 0 145 0 0 145 0 0 145 0 0 145 0 0 145 0 0 145 0 0 145 0 0 145 0 0 145 0 0 145 0 0 145 0 0 145 0 0 145 0 0 145 0 0 145 0 0 145 0 0 145 0 0 145 0 0 145 0 0 145 0 0 145 0 0 145 0 0 145 0 0 145 0 0 145 0 0 145 0 0 145 0 0 145 225 0 15 255 255 255 255 255 255 255 255 255 255 255 255 255 255 255 255 255 255 255 255 255 255 255 255 255 255 255 255 255 255 255 255 255 255 255 255 255 255 255 255 255 255 255 255 255 255 255 255 255 255 255 255 255 255 255 255 255 255 255 255 255 255 255 255 255 255 255 255 255 255 255 255 255 255 255 255 255 255 255 255 255 255 255 255 255 255 255 255 255 255 255 255 255 255 255 255 255 255 255 255 255 255 255 255 255 255 255 255 255 255 255 255 255 255 255 255 255 255 255 255 255 255 255 255 255 255 255 255 255 255 255 255 255 255 255 255 255 255 255 255 255 255 255 255 255 255 255 255 255 255 255 255 255 255 255 255 255 255 255 255 255 255 255 255 255 255 255 255 255 255 255 255 255 255 255 255 255 255 255 255 255 255 255 255 255 255 255 255 255 255 255 255 255 255 255 255 255 255 255 255 255 255 255 255 255 255 255 255 255 255 255 255 255 255 255 255 255 255 255 255 255 255 255 255 255 255 255 255 255 255 255 255 255 255 255 255 255 255 255 255 255 255 255 255 255 255 255 255 255 255 255 255 255 255 255 255 255 255 255 255 255 255 255 255 255 255 255 255 255 255 255 255 255 255 255 255 255 255 255 255 255 255 255 255 255 255 255 255 255 255 255 255 255 255 255 255 255 225 0 15 225 0 15 225 0 15 225 0 15 225 0 15 225 0 15 225 0 15 225 0 15 225 0 15 225 0 15 225 0 15 225 0 15 225 0 15 225 0 15 225 0 15 225 0 15 225 0 15 225 0 15 225 0 15 225 0 15 225 0 15 225 0 15 225 0 15 225 0 15 225 0 15 225 0 15 225 0 15 225 0 15 225 0 15 225 0 15 225 0 15 225 0 15 225 0 15 225 0 15 225 0 15 225 0 15 225 0 15 225 0 15 225 0 15 225 0 15 225 0 15 225 0 15 225 0 15 225 0 15 225 0 15 225 0 15 225 0 15 225 0 15 225 0 15 225 0 15 225 0 15 225 0 15 225 0 15 225 0 15 225 0 15 225 0 15 225 0 15 225 0 15 225 0 15 225 0 15 225 0 15 225 0 15 225 0 15 225 0 15 225 0 15 225 0 15 225 0 15 225 0 15 225 0 15 225 0 15 225 0 15 225 0 15 225 0 15 225 0 15 225 0 15 225 0 15 225 0 15 225 0 15 225 0 15 225 0 15 225 0 15 225 0 15 225 0 15 225 0 15 225 0 15 225 0 15 225 0 15 225 0 15 225 0 15 225 0 15 225 0 15 225 0 15 225 0 15 225 0 15 225 0 15 225 0 15 225 0 15 225 0 15 225 0 15 225 0 15 225 0 15 
0 0 145 0 0 145 0 0 145 0 0 145 0 0 145 0 0 145 0 0 145 0 0 145 0 0 145 0 0 145 0 0 145 0 0 145 0 0 145 0 0 145 0 0 145 0 0 145 0 0 145 0 0 145 0 0 145 0 0 145 0 0 145 0 0 145 0 0 145 0 0 145 0 0 145 0 0 145 0 0 145 0 0 145 0 0 145 0 0 145 0 0 145 0 0 145 0 0 145 0 0 145 0 0 145 0 0 145 0 0 145 0 0 145 0 0 145 0 0 145 0 0 145 0 0 145 0 0 145 0 0 145 0 0 145 0 0 145 0 0 145 0 0 145 0 0 145 0 0 145 0 0 145 0 0 145 0 0 145 0 0 145 0 0 145 0 0 145 0 0 145 0 0 145 0 0 145 0 0 145 0 0 145 0 0 145 0 0 145 0 0 145 0 0 145 0 0 145 0 0 145 0 0 145 0 0 145 0 0 145 0 0 145 0 0 145 0 0 145 0 0 145 0 0 145 0 0 145 0 0 145 0 0 145 0 0 145 0 0 145 0 0 145 0 0 145 0 0 145 0 0 145 0 0 145 0 0 145 0 0 145 0 0 145 0 0 145 0 0 145 0 0 145 0 0 145 0 0 145 0 0 145 0 0 145 0 0 145 0 0 145 0 0 145 0 0 145 225 0 15 255 255 255 255 255 255 255 255 255 255 255 255 255 255 255 255 255 255 255 255 255 255 255 255 255 255 255 255 255 255 255 255 255 255 255 255 255 255 255 255 255 255 255 255 255 255 255 255 255 255 255 255 255 255 255 255 255 255 255 255 255 255 255 255 255 255 255 255 255 255 255 255 255 255 255 255 255 255 255 255 255 255 255 255 255 255 255 255 255 255 255 255 255 255 255 255 255 255 255 255 255 255 255 255 255 255 255 255 255 255 255 255 255 255 255 255 255 255 255 255 255 255 255 255 255 255 255 255 255 255 255 255 255 255 255 255 255 255 255 255 255 255 255 255 255 255 255 255 255 255 255 255 255 255 255 255 255 255 255 255 255 255 255 255 255 255 255 255 255 255 255 255 255 255 255 255 255 255 255 255 255 255 255 255 255 255 255 255 255 255 255 255 255 255 255 255 255 255 255 255 255 255 255 255 255 255 255 255 255 255 255 255 255 255 255 255 255 255 255 255 255 255 255 255 255 255 255 255 255 255 255 255 255 255 255 255 255 255 255 255 255 255 255 255 255 255 255 255 255 255 255 255 255 255 255 255 255 255 255 255 255 255 255 255 255 255 255 255 255 255 255 255 255 255 255 255 255 255 255 255 255 255 255 255 255 255 255 255 255 255 255 255 255 255 255 255 255 225 0 15 225 0 15 225 0 15 225 0 15 225 0 15 225 0 15 225 0 15 225 0 15 225 0 15 225 0 15 225 0 15 225 0 15 225 0 15 225 0 15 225 0 15 225 0 15 225 0 15 225 0 15 225 0 15 225 0 15 225 0 15 225 0 15 225 0 15 225 0 15 225 0 15 225 0 15 225 0 15 225 0 15 225 0 15 225 0 15 225 0 15 225 0 15 225 0 15 225 0 15 225 0 15 225 0 15 225 0 15 225 0 15 225 0 15 225 0 15 225 0 15 225 0 15 225 0 15 225 0 15 225 0 15 225 0 15 225 0 15 225 0 15 225 0 15 225 0 15 225 0 15 225 0 15 225 0 15 225 0 15 225 0 15 225 0 15 225 0 15 225 0 15 225 0 15 225 0 15 225 0 15 225 0 15 225 0 15 225 0 15 225 0 15 225 0 15 225 0 15 225 0 15 225 0 15 225 0 15 225 0 15 225 0 15 225 0 15 225 0 15 225 0 15 225 0 15 225 0 15 225 0 15 225 0 15 225 0 15 225 0 15 225 0 15 225 0 15 225 0 15 225 0 15 225 0 15 225 0 15 225 0 15 225 0 15 225 0 15 225 0 15 225 0 15 225 0 15 225 0 15 225 0 15 225 0 15 225 0 15 225 0 15 225 0 15 225 0 15 225 0 15 
0 0 145 0 0 145 0 0 145 0 0 145 0 0 145 0 0 145 0 0 145 0 0 145 0 0 145 0 0 145 0 0 145 0 0 145 0 0 145 0 0 145 0 0 145 0 0 145 0 0 145 0 0 145 0 0 145 0 0 145 0 0 145 0 0 145 0 0 145 0 0 145 0 0 145 0 0 145 0 0 145 0 0 145 0 0 145 0 0 145 0 0 145 0 0 145 0 0 145 0 0 145 0 0 145 0 0 145 0 0 145 0 0 145 0 0 145 0 0 145 0 0 145 0 0 145 0 0 145 0 0 145 0 0 145 0 0 145 0 0 145 0 0 145 0 0 145 0 0 145 0 0 145 0 0 145 0 0 145 0 0 145 0 0 145 0 0 145 0 0 145 0 0 145 0 0 145 0 0 145 0 0 145 0 0 145 0 0 145 0 0 145 0 0 145 0 0 145 0 0 145 0 0 145 0 0 145 0 0 145 0 0 145 0 0 145 0 0 145 0 0 145 0 0 145 0 0 145 0 0 145 0 0 145 0 0 145 0 0 145 0 0 145 0 0 145 0 0 145 0 0 145 0 0 145 0 0 145 0 0 145 0 0 145 0 0 145 0 0 145 0 0 145 0 0 145 0 0 145 0 0 145 0 0 145 0 0 145 0 0 145 0 0 145 0 0 145 225 0 15 255 255 255 255 255 255 255 255 255 255 255 255 255 255 255 255 255 255 255 255 255 255 255 255 255 255 255 255 255 255 255 255 255 255 255 255 255 255 255 255 255 255 255 255 255 255 255 255 255 255 255 255 255 255 255 255 255 255 255 255 255 255 255 255 255 255 255 255 255 255 255 255 255 255 255 255 255 255 255 255 255 255 255 255 255 255 255 255 255 255 255 255 255 255 255 255 255 255 255 255 255 255 255 255 255 255 255 255 255 255 255 255 255 255 255 255 255 255 255 255 255 255 255 255 255 255 255 255 255 255 255 255 255 255 255 255 255 255 255 255 255 255 255 255 255 255 255 255 255 255 255 255 255 255 255 255 255 255 255 255 255 255 255 255 255 255 255 255 255 255 255 255 255 255 255 255 255 255 255 255 255 255 255 255 255 255 255 255 255 255 255 255 255 255 255 255 255 255 255 255 255 255 255 255 255 255 255 255 255 255 255 255 255 255 255 255 255 255 255 255 255 255 255 255 255 255 255 255 255 255 255 255 255 255 255 255 255 255 255 255 255 255 255 255 255 255 255 255 255 255 255 255 255 255 255 255 255 255 255 255 255 255 255 255 255 255 255 255 255 255 255 255 255 255 255 255 255 255 255 255 255 255 255 255 255 255 255 255 255 255 255 255 255 255 255 255 255 225 0 15 225 0 15 225 0 15 225 0 15 225 0 15 225 0 15 225 0 15 225 0 15 225 0 15 225 0 15 225 0 15 225 0 15 225 0 15 225 0 15 225 0 15 225 0 15 225 0 15 225 0 15 225 0 15 225 0 15 225 0 15 225 0 15 225 0 15 225 0 15 225 0 15 225 0 15 225 0 15 225 0 15 225 0 15 225 0 15 225 0 15 225 0 15 225 0 15 225 0 15 225 0 15 225 0 15 225 0 15 225 0 15 225 0 15 225 0 15 225 0 15 225 0 15 225 0 15 225 0 15 225 0 15 225 0 15 225 0 15 225 0 15 225 0 15 225 0 15 225 0 15 225 0 15 225 0 15 225 0 15 225 0 15 225 0 15 225 0 15 225 0 15 225 0 15 225 0 15 225 0 15 225 0 15 225 0 15 225 0 15 225 0 15 225 0 15 225 0 15 225 0 15 225 0 15 225 0 15 225 0 15 225 0 15 225 0 15 225 0 15 225 0 15 225 0 15 225 0 15 225 0 15 225 0 15 225 0 15 225 0 15 225 0 15 225 0 15 225 0 15 225 0 15 225 0 15 225 0 15 225 0 15 225 0 15 225 0 15 225 0 15 225 0 15 225 0 15 225 0 15 225 0 15 225 0 15 225 0 15 225 0 15 225 0 15 225 0 15 225 0 15 
0 0 145 0 0 145 0 0 145 0 0 145 0 0 145 0 0 145 0 0 145 0 0 145 0 0 145 0 0 145 0 0 145 0 0 145 0 0 145 0 0 145 0 0 145 0 0 145 0 0 145 0 0 145 0 0 145 0 0 145 0 0 145 0 0 145 0 0 145 0 0 145 0 0 145 0 0 145 0 0 145 0 0 145 0 0 145 0 0 145 0 0 145 0 0 145 0 0 145 0 0 145 0 0 145 0 0 145 0 0 145 0 0 145 0 0 145 0 0 145 0 0 145 0 0 145 0 0 145 0 0 145 0 0 145 0 0 145 0 0 145 0 0 145 0 0 145 0 0 145 0 0 145 0 0 145 0 0 145 0 0 145 0 0 145 0 0 145 0 0 145 0 0 145 0 0 145 0 0 145 0 0 145 0 0 145 0 0 145 0 0 145 0 0 145 0 0 145 0 0 145 0 0 145 0 0 145 0 0 145 0 0 145 0 0 145 0 0 145 0 0 145 0 0 145 0 0 145 0 0 145 0 0 145 0 0 145 0 0 145 0 0 145 0 0 145 0 0 145 0 0 145 0 0 145 0 0 145 0 0 145 0 0 145 0 0 145 0 0 145 0 0 145 0 0 145 0 0 145 0 0 145 0 0 145 0 0 145 0 0 145 0 0 145 0 0 145 225 0 15 255 255 255 255 255 255 255 255 255 255 255 255 255 255 255 255 255 255 255 255 255 255 255 255 255 255 255 255 255 255 255 255 255 255 255 255 255 255 255 255 255 255 255 255 255 255 255 255 255 255 255 255 255 255 255 255 255 255 255 255 255 255 255 255 255 255 255 255 255 255 255 255 255 255 255 255 255 255 255 255 255 255 255 255 255 255 255 255 255 255 255 255 255 255 255 255 255 255 255 255 255 255 255 255 255 255 255 255 255 255 255 255 255 255 255 255 255 255 255 255 255 255 255 255 255 255 255 255 255 255 255 255 255 255 255 255 255 255 255 255 255 255 255 255 255 255 255 255 255 255 255 255 255 255 255 255 255 255 255 255 255 255 255 255 255 255 255 255 255 255 255 255 255 255 255 255 255 255 255 255 255 255 255 255 255 255 255 255 255 255 255 255 255 255 255 255 255 255 255 255 255 255 255 255 255 255 255 255 255 255 255 255 255 255 255 255 255 255 255 255 255 255 255 255 255 255 255 255 255 255 255 255 255 255 255 255 255 255 255 255 255 255 255 255 255 255 255 255 255 255 255 255 255 255 255 255 255 255 255 255 255 255 255 255 255 255 255 255 255 255 255 255 255 255 255 255 255 255 255 255 255 255 255 255 255 255 255 255 255 255 255 255 255 255 255 255 255 225 0 15 225 0 15 225 0 15 225 0 15 225 0 15 225 0 15 225 0 15 225 0 15 225 0 15 225 0 15 225 0 15 225 0 15 225 0 15 225 0 15 225 0 15 225 0 15 225 0 15 225 0 15 225 0 15 225 0 15 225 0 15 225 0 15 225 0 15 225 0 15 225 0 15 225 0 15 225 0 15 225 0 15 225 0 15 225 0 15 225 0 15 225 0 15 225 0 15 225 0 15 225 0 15 225 0 15 225 0 15 225 0 15 225 0 15 225 0 15 225 0 15 225 0 15 225 0 15 225 0 15 225 0 15 225 0 15 225 0 15 225 0 15 225 0 15 225 0 15 225 0 15 225 0 15 225 0 15 225 0 15 225 0 15 225 0 15 225 0 15 225 0 15 225 0 15 225 0 15 225 0 15 225 0 15 225 0 15 225 0 15 225 0 15 225 0 15 225 0 15 225 0 15 225 0 15 225 0 15 225 0 15 225 0 15 225 0 15 225 0 15 225 0 15 225 0 15 225 0 15 225 0 15 225 0 15 225 0 15 225 0 15 225 0 15 225 0 15 225 0 15 225 0 15 225 0 15 225 0 15 225 0 15 225 0 15 225 0 15 225 0 15 225 0 15 225 0 15 225 0 15 225 0 15 225 0 15 225 0 15 225 0 15 225 0 15 225 0 15 225 0 15 
0 0 145 0 0 145 0 0 145 0 0 145 0 0 145 0 0 145 0 0 145 0 0 145 0 0 145 0 0 145 0 0 145 0 0 145 0 0 145 0 0 145 0 0 145 0 0 145 0 0 145 0 0 145 0 0 145 0 0 145 0 0 145 0 0 145 0 0 145 0 0 145 0 0 145 0 0 145 0 0 145 0 0 145 0 0 145 0 0 145 0 0 145 0 0 145 0 0 145 0 0 145 0 0 145 0 0 145 0 0 145 0 0 145 0 0 145 0 0 145 0 0 145 0 0 145 0 0 145 0 0 145 0 0 145 0 0 145 0 0 145 0 0 145 0 0 145 0 0 145 0 0 145 0 0 145 0 0 145 0 0 145 0 0 145 0 0 145 0 0 145 0 0 145 0 0 145 0 0 145 0 0 145 0 0 145 0 0 145 0 0 145 0 0 145 0 0 145 0 0 145 0 0 145 0 0 145 0 0 145 0 0 145 0 0 145 0 0 145 0 0 145 0 0 145 0 0 145 0 0 145 0 0 145 0 0 145 0 0 145 0 0 145 0 0 145 0 0 145 0 0 145 0 0 145 0 0 145 0 0 145 0 0 145 0 0 145 0 0 145 0 0 145 0 0 145 0 0 145 0 0 145 0 0 145 0 0 145 0 0 145 0 0 145 0 0 145 225 0 15 255 255 255 255 255 255 255 255 255 255 255 255 255 255 255 255 255 255 255 255 255 255 255 255 255 255 255 255 255 255 255 255 255 255 255 255 255 255 255 255 255 255 255 255 255 255 255 255 255 255 255 255 255 255 255 255 255 255 255 255 255 255 255 255 255 255 255 255 255 255 255 255 255 255 255 255 255 255 255 255 255 255 255 255 255 255 255 255 255 255 255 255 255 255 255 255 255 255 255 255 255 255 255 255 255 255 255 255 255 255 255 255 255 255 255 255 255 255 255 255 255 255 255 255 255 255 255 255 255 255 255 255 255 255 255 255 255 255 255 255 255 255 255 255 255 255 255 255 255 255 255 255 255 255 255 255 255 255 255 255 255 255 255 255 255 255 255 255 255 255 255 255 255 255 255 255 255 255 255 255 255 255 255 255 255 255 255 255 255 255 255 255 255 255 255 255 255 255 255 255 255 255 255 255 255 255 255 255 255 255 255 255 255 255 255 255 255 255 255 255 255 255 255 255 255 255 255 255 255 255 255 255 255 255 255 255 255 255 255 255 255 255 255 255 255 255 255 255 255 255 255 255 255 255 255 255 255 255 255 255 255 255 255 255 255 255 255 255 255 255 255 255 255 255 255 255 255 255 255 255 255 255 255 255 255 255 255 255 255 255 255 255 255 255 255 255 255 225 0 15 225 0 15 225 0 15 225 0 15 225 0 15 225 0 15 225 0 15 225 0 15 225 0 15 225 0 15 225 0 15 225 0 15 225 0 15 225 0 15 225 0 15 225 0 15 225 0 15 225 0 15 225 0 15 225 0 15 225 0 15 225 0 15 225 0 15 225 0 15 225 0 15 225 0 15 225 0 15 225 0 15 225 0 15 225 0 15 225 0 15 225 0 15 225 0 15 225 0 15 225 0 15 225 0 15 225 0 15 225 0 15 225 0 15 225 0 15 225 0 15 225 0 15 225 0 15 225 0 15 225 0 15 225 0 15 225 0 15 225 0 15 225 0 15 225 0 15 225 0 15 225 0 15 225 0 15 225 0 15 225 0 15 225 0 15 225 0 15 225 0 15 225 0 15 225 0 15 225 0 15 225 0 15 225 0 15 225 0 15 225 0 15 225 0 15 225 0 15 225 0 15 225 0 15 225 0 15 225 0 15 225 0 15 225 0 15 225 0 15 225 0 15 225 0 15 225 0 15 225 0 15 225 0 15 225 0 15 225 0 15 225 0 15 225 0 15 225 0 15 225 0 15 225 0 15 225 0 15 225 0 15 225 0 15 225 0 15 225 0 15 225 0 15 225 0 15 225 0 15 225 0 15 225 0 15 225 0 15 225 0 15 225 0 15 225 0 15 225 0 15 
0 0 145 0 0 145 0 0 145 0 0 145 0 0 145 0 0 145 0 0 145 0 0 145 0 0 145 0 0 145 0 0 145 0 0 145 0 0 145 0 0 145 0 0 145 0 0 145 0 0 145 0 0 145 0 0 145 0 0 145 0 0 145 0 0 145 0 0 145 0 0 145 0 0 145 0 0 145 0 0 145 0 0 145 0 0 145 0 0 145 0 0 145 0 0 145 0 0 145 0 0 145 0 0 145 0 0 145 0 0 145 0 0 145 0 0 145 0 0 145 0 0 145 0 0 145 0 0 145 0 0 145 0 0 145 0 0 145 0 0 145 0 0 145 0 0 145 0 0 145 0 0 145 0 0 145 0 0 145 0 0 145 0 0 145 0 0 145 0 0 145 0 0 145 0 0 145 0 0 145 0 0 145 0 0 145 0 0 145 0 0 145 0 0 145 0 0 145 0 0 145 0 0 145 0 0 145 0 0 145 0 0 145 0 0 145 0 0 145 0 0 145 0 0 145 0 0 145 0 0 145 0 0 145 0 0 145 0 0 145 0 0 145 0 0 145 0 0 145 0 0 145 0 0 145 0 0 145 0 0 145 0 0 145 0 0 145 0 0 145 0 0 145 0 0 145 0 0 145 0 0 145 0 0 145 0 0 145 0 0 145 0 0 145 0 0 145 225 0 15 255 255 255 255 255 255 255 255 255 255 255 255 255 255 255 255 255 255 255 255 255 255 255 255 255 255 255 255 255 255 255 255 255 255 255 255 255 255 255 255 255 255 255 255 255 255 255 255 255 255 255 255 255 255 255 255 255 255 255 255 255 255 255 255 255 255 255 255 255 255 255 255 255 255 255 255 255 255 255 255 255 255 255 255 255 255 255 255 255 255 255 255 255 255 255 255 255 255 255 255 255 255 255 255 255 255 255 255 255 255 255 255 255 255 255 255 255 255 255 255 255 255 255 255 255 255 255 255 255 255 255 255 255 255 255 255 255 255 255 255 255 255 255 255 255 255 255 255 255 255 255 255 255 255 255 255 255 255 255 255 255 255 255 255 255 255 255 255 255 255 255 255 255 255 255 255 255 255 255 255 255 255 255 255 255 255 255 255 255 255 255 255 255 255 255 255 255 255 255 255 255 255 255 255 255 255 255 255 255 255 255 255 255 255 255 255 255 255 255 255 255 255 255 255 255 255 255 255 255 255 255 255 255 255 255 255 255 255 255 255 255 255 255 255 255 255 255 255 255 255 255 255 255 255 255 255 255 255 255 255 255 255 255 255 255 255 255 255 255 255 255 255 255 255 255 255 255 255 255 255 255 255 255 255 255 255 255 255 255 255 255 255 255 255 255 255 255 225 0 15 225 0 15 225 0 15 225 0 15 225 0 15 225 0 15 225 0 15 225 0 15 225 0 15 225 0 15 225 0 15 225 0 15 225 0 15 225 0 15 225 0 15 225 0 15 225 0 15 225 0 15 225 0 15 225 0 15 225 0 15 225 0 15 225 0 15 225 0 15 225 0 15 225 0 15 225 0 15 225 0 15 225 0 15 225 0 15 225 0 15 225 0 15 225 0 15 225 0 15 225 0 15 225 0 15 225 0 15 225 0 15 225 0 15 225 0 15 225 0 15 225 0 15 225 0 15 225 0 15 225 0 15 225 0 15 225 0 15 225 0 15 225 0 15 225 0 15 225 0 15 225 0 15 225 0 15 225 0 15 225 0 15 225 0 15 225 0 15 225 0 15 225 0 15 225 0 15 225 0 15 225 0 15 225 0 15 225 0 15 225 0 15 225 0 15 225 0 15 225 0 15 225 0 15 225 0 15 225 0 15 225 0 15 225 0 15 225 0 15 225 0 15 225 0 15 225 0 15 225 0 15 225 0 15 225 0 15 225 0 15 225 0 15 225 0 15 225 0 15 225 0 15 225 0 15 225 0 15 225 0 15 225 0 15 225 0 15 225 0 15 225 0 15 225 0 15 225 0 15 225 0 15 225 0 15 225 0 15 225 0 15 225 0 15 225 0 15 225 0 15 
0 0 145 0 0 145 0 0 145 0 0 145 0 0 145 0 0 145 0 0 145 0 0 145 0 0 145 0 0 145 0 0 145 0 0 145 0 0 145 0 0 145 0 0 145 0 0 145 0 0 145 0 0 145 0 0 145 0 0 145 0 0 145 0 0 145 0 0 145 0 0 145 0 0 145 0 0 145 0 0 145 0 0 145 0 0 145 0 0 145 0 0 145 0 0 145 0 0 145 0 0 145 0 0 145 0 0 145 0 0 145 0 0 145 0 0 145 0 0 145 0 0 145 0 0 145 0 0 145 0 0 145 0 0 145 0 0 145 0 0 145 0 0 145 0 0 145 0 0 145 0 0 145 0 0 145 0 0 145 0 0 145 0 0 145 0 0 145 0 0 145 0 0 145 0 0 145 0 0 145 0 0 145 0 0 145 0 0 145 0 0 145 0 0 145 0 0 145 0 0 145 0 0 145 0 0 145 0 0 145 0 0 145 0 0 145 0 0 145 0 0 145 0 0 145 0 0 145 0 0 145 0 0 145 0 0 145 0 0 145 0 0 145 0 0 145 0 0 145 0 0 145 0 0 145 0 0 145 0 0 145 0 0 145 0 0 145 0 0 145 0 0 145 0 0 145 0 0 145 0 0 145 0 0 145 0 0 145 0 0 145 0 0 145 0 0 145 225 0 15 255 255 255 255 255 255 255 255 255 255 255 255 255 255 255 255 255 255 255 255 255 255 255 255 255 255 255 255 255 255 255 255 255 255 255 255 255 255 255 255 255 255 255 255 255 255 255 255 255 255 255 255 255 255 255 255 255 255 255 255 255 255 255 255 255 255 255 255 255 255 255 255 255 255 255 255 255 255 255 255 255 255 255 255 255 255 255 255 255 255 255 255 255 255 255 255 255 255 255 255 255 255 255 255 255 255 255 255 255 255 255 255 255 255 255 255 255 255 255 255 255 255 255 255 255 255 255 255 255 255 255 255 255 255 255 255 255 255 255 255 255 255 255 255 255 255 255 255 255 255 255 255 255 255 255 255 255 255 255 255 255 255 255 255 255 255 255 255 255 255 255 255 255 255 255 255 255 255 255 255 255 255 255 255 255 255 255 255 255 255 255 255 255 255 255 255 255 255 255 255 255 255 255 255 255 255 255 255 255 255 255 255 255 255 255 255 255 255 255 255 255 255 255 255 255 255 255 255 255 255 255 255 255 255 255 255 255 255 255 255 255 255 255 255 255 255 255 255 255 255 255 255 255 255 255 255 255 255 255 255 255 255 255 255 255 255 255 255 255 255 255 255 255 255 255 255 255 255 255 255 255 255 255 255 255 255 255 255 255 255 255 255 255 255 255 255 255 225 0 15 225 0 15 225 0 15 225 0 15 225 0 15 225 0 15 225 0 15 225 0 15 225 0 15 225 0 15 225 0 15 225 0 15 225 0 15 225 0 15 225 0 15 225 0 15 225 0 15 225 0 15 225 0 15 225 0 15 225 0 15 225 0 15 225 0 15 225 0 15 225 0 15 225 0 15 225 0 15 225 0 15 225 0 15 225 0 15 225 0 15 225 0 15 225 0 15 225 0 15 225 0 15 225 0 15 225 0 15 225 0 15 225 0 15 225 0 15 225 0 15 225 0 15 225 0 15 225 0 15 225 0 15 225 0 15 225 0 15 225 0 15 225 0 15 225 0 15 225 0 15 225 0 15 225 0 15 225 0 15 225 0 15 225 0 15 225 0 15 225 0 15 225 0 15 225 0 15 225 0 15 225 0 15 225 0 15 225 0 15 225 0 15 225 0 15 225 0 15 225 0 15 225 0 15 225 0 15 225 0 15 225 0 15 225 0 15 225 0 15 225 0 15 225 0 15 225 0 15 225 0 15 225 0 15 225 0 15 225 0 15 225 0 15 225 0 15 225 0 15 225 0 15 225 0 15 225 0 15 225 0 15 225 0 15 225 0 15 225 0 15 225 0 15 225 0 15 225 0 15 225 0 15 225 0 15 225 0 15 225 0 15 225 0 15 225 0 15 225 0 15 
0 0 145 0 0 145 0 0 145 0 0 145 0 0 145 0 0 145 0 0 145 0 0 145 0 0 145 0 0 145 0 0 145 0 0 145 0 0 145 0 0 145 0 0 145 0 0 145 0 0 145 0 0 145 0 0 145 0 0 145 0 0 145 0 0 145 0 0 145 0 0 145 0 0 145 0 0 145 0 0 145 0 0 145 0 0 145 0 0 145 0 0 145 0 0 145 0 0 145 0 0 145 0 0 145 0 0 145 0 0 145 0 0 145 0 0 145 0 0 145 0 0 145 0 0 145 0 0 145 0 0 145 0 0 145 0 0 145 0 0 145 0 0 145 0 0 145 0 0 145 0 0 145 0 0 145 0 0 145 0 0 145 0 0 145 0 0 145 0 0 145 0 0 145 0 0 145 0 0 145 0 0 145 0 0 145 0 0 145 0 0 145 0 0 145 0 0 145 0 0 145 0 0 145 0 0 145 0 0 145 0 0 145 0 0 145 0 0 145 0 0 145 0 0 145 0 0 145 0 0 145 0 0 145 0 0 145 0 0 145 0 0 145 0 0 145 0 0 145 0 0 145 0 0 145 0 0 145 0 0 145 0 0 145 0 0 145 0 0 145 0 0 145 0 0 145 0 0 145 0 0 145 0 0 145 0 0 145 0 0 145 0 0 145 0 0 145 225 0 15 255 255 255 255 255 255 255 255 255 255 255 255 255 255 255 255 255 255 255 255 255 255 255 255 255 255 255 255 255 255 255 255 255 255 255 255 255 255 255 255 255 255 255 255 255 255 255 255 255 255 255 255 255 255 255 255 255 255 255 255 255 255 255 255 255 255 255 255 255 255 255 255 255 255 255 255 255 255 255 255 255 255 255 255 255 255 255 255 255 255 255 255 255 255 255 255 255 255 255 255 255 255 255 255 255 255 255 255 255 255 255 255 255 255 255 255 255 255 255 255 255 255 255 255 255 255 255 255 255 255 255 255 255 255 255 255 255 255 255 255 255 255 255 255 255 255 255 255 255 255 255 255 255 255 255 255 255 255 255 255 255 255 255 255 255 255 255 255 255 255 255 255 255 255 255 255 255 255 255 255 255 255 255 255 255 255 255 255 255 255 255 255 255 255 255 255 255 255 255 255 255 255 255 255 255 255 255 255 255 255 255 255 255 255 255 255 255 255 255 255 255 255 255 255 255 255 255 255 255 255 255 255 255 255 255 255 255 255 255 255 255 255 255 255 255 255 255 255 255 255 255 255 255 255 255 255 255 255 255 255 255 255 255 255 255 255 255 255 255 255 255 255 255 255 255 255 255 255 255 255 255 255 255 255 255 255 255 255 255 255 255 255 255 255 255 255 255 225 0 15 225 0 15 225 0 15 225 0 15 225 0 15 225 0 15 225 0 15 225 0 15 225 0 15 225 0 15 225 0 15 225 0 15 225 0 15 225 0 15 225 0 15 225 0 15 225 0 15 225 0 15 225 0 15 225 0 15 225 0 15 225 0 15 225 0 15 225 0 15 225 0 15 225 0 15 225 0 15 225 0 15 225 0 15 225 0 15 225 0 15 225 0 15 225 0 15 225 0 15 225 0 15 225 0 15 225 0 15 225 0 15 225 0 15 225 0 15 225 0 15 225 0 15 225 0 15 225 0 15 225 0 15 225 0 15 225 0 15 225 0 15 225 0 15 225 0 15 225 0 15 225 0 15 225 0 15 225 0 15 225 0 15 225 0 15 225 0 15 225 0 15 225 0 15 225 0 15 225 0 15 225 0 15 225 0 15 225 0 15 225 0 15 225 0 15 225 0 15 225 0 15 225 0 15 225 0 15 225 0 15 225 0 15 225 0 15 225 0 15 225 0 15 225 0 15 225 0 15 225 0 15 225 0 15 225 0 15 225 0 15 225 0 15 225 0 15 225 0 15 225 0 15 225 0 15 225 0 15 225 0 15 225 0 15 225 0 15 225 0 15 225 0 15 225 0 15 225 0 15 225 0 15 225 0 15 225 0 15 225 0 15 225 0 15 225 0 15 225 0 15 
0 0 145 0 0 145 0 0 145 0 0 145 0 0 145 0 0 145 0 0 145 0 0 145 0 0 145 0 0 145 0 0 145 0 0 145 0 0 145 0 0 145 0 0 145 0 0 145 0 0 145 0 0 145 0 0 145 0 0 145 0 0 145 0 0 145 0 0 145 0 0 145 0 0 145 0 0 145 0 0 145 0 0 145 0 0 145 0 0 145 0 0 145 0 0 145 0 0 145 0 0 145 0 0 145 0 0 145 0 0 145 0 0 145 0 0 145 0 0 145 0 0 145 0 0 145 0 0 145 0 0 145 0 0 145 0 0 145 0 0 145 0 0 145 0 0 145 0 0 145 0 0 145 0 0 145 0 0 145 0 0 145 0 0 145 0 0 145 0 0 145 0 0 145 0 0 145 0 0 145 0 0 145 0 0 145 0 0 145 0 0 145 0 0 145 0 0 145 0 0 145 0 0 145 0 0 145 0 0 145 0 0 145 0 0 145 0 0 145 0 0 145 0 0 145 0 0 145 0 0 145 0 0 145 0 0 145 0 0 145 0 0 145 0 0 145 0 0 145 0 0 145 0 0 145 0 0 145 0 0 145 0 0 145 0 0 145 0 0 145 0 0 145 0 0 145 0 0 145 0 0 145 0 0 145 0 0 145 0 0 145 0 0 145 0 0 145 225 0 15 255 255 255 255 255 255 255 255 255 255 255 255 255 255 255 255 255 255 255 255 255 255 255 255 255 255 255 255 255 255 255 255 255 255 255 255 255 255 255 255 255 255 255 255 255 255 255 255 255 255 255 255 255 255 255 255 255 255 255 255 255 255 255 255 255 255 255 255 255 255 255 255 255 255 255 255 255 255 255 255 255 255 255 255 255 255 255 255 255 255 255 255 255 255 255 255 255 255 255 255 255 255 255 255 255 255 255 255 255 255 255 255 255 255 255 255 255 255 255 255 255 255 255 255 255 255 255 255 255 255 255 255 255 255 255 255 255 255 255 255 255 255 255 255 255 255 255 255 255 255 255 255 255 255 255 255 255 255 255 255 255 255 255 255 255 255 255 255 255 255 255 255 255 255 255 255 255 255 255 255 255 255 255 255 255 255 255 255 255 255 255 255 255 255 255 255 255 255 255 255 255 255 255 255 255 255 255 255 255 255 255 255 255 255 255 255 255 255 255 255 255 255 255 255 255 255 255 255 255 255 255 255 255 255 255 255 255 255 255 255 255 255 255 255 255 255 255 255 255 255 255 255 255 255 255 255 255 255 255 255 255 255 255 255 255 255 255 255 255 255 255 255 255 255 255 255 255 255 255 255 255 255 255 255 255 255 255 255 255 255 255 255 255 255 255 255 255 225 0 15 225 0 15 225 0 15 225 0 15 225 0 15 225 0 15 225 0 15 225 0 15 225 0 15 225 0 15 225 0 15 225 0 15 225 0 15 225 0 15 225 0 15 225 0 15 225 0 15 225 0 15 225 0 15 225 0 15 225 0 15 225 0 15 225 0 15 225 0 15 225 0 15 225 0 15 225 0 15 225 0 15 225 0 15 225 0 15 225 0 15 225 0 15 225 0 15 225 0 15 225 0 15 225 0 15 225 0 15 225 0 15 225 0 15 225 0 15 225 0 15 225 0 15 225 0 15 225 0 15 225 0 15 225 0 15 225 0 15 225 0 15 225 0 15 225 0 15 225 0 15 225 0 15 225 0 15 225 0 15 225 0 15 225 0 15 225 0 15 225 0 15 225 0 15 225 0 15 225 0 15 225 0 15 225 0 15 225 0 15 225 0 15 225 0 15 225 0 15 225 0 15 225 0 15 225 0 15 225 0 15 225 0 15 225 0 15 225 0 15 225 0 15 225 0 15 225 0 15 225 0 15 225 0 15 225 0 15 225 0 15 225 0 15 225 0 15 225 0 15 225 0 15 225 0 15 225 0 15 225 0 15 225 0 15 225 0 15 225 0 15 225 0 15 225 0 15 225 0 15 225 0 15 225 0 15 225 0 15 225 0 15 225 0 15 225 0 15 225 0 15 
0 0 145 0 0 145 0 0 145 0 0 145 0 0 145 0 0 145 0 0 145 0 0 145 0 0 145 0 0 145 0 0 145 0 0 145 0 0 145 0 0 145 0 0 145 0 0 145 0 0 145 0 0 145 0 0 145 0 0 145 0 0 145 0 0 145 0 0 145 0 0 145 0 0 145 0 0 145 0 0 145 0 0 145 0 0 145 0 0 145 0 0 145 0 0 145 0 0 145 0 0 145 0 0 145 0 0 145 0 0 145 0 0 145 0 0 145 0 0 145 0 0 145 0 0 145 0 0 145 0 0 145 0 0 145 0 0 145 0 0 145 0 0 145 0 0 145 0 0 145 0 0 145 0 0 145 0 0 145 0 0 145 0 0 145 0 0 145 0 0 145 0 0 145 0 0 145 0 0 145 0 0 145 0 0 145 0 0 145 0 0 145 0 0 145 0 0 145 0 0 145 0 0 145 0 0 145 0 0 145 0 0 145 0 0 145 0 0 145 0 0 145 0 0 145 0 0 145 0 0 145 0 0 145 0 0 145 0 0 145 0 0 145 0 0 145 0 0 145 0 0 145 0 0 145 0 0 145 0 0 145 0 0 145 0 0 145 0 0 145 0 0 145 0 0 145 0 0 145 0 0 145 0 0 145 0 0 145 0 0 145 0 0 145 0 0 145 225 0 15 255 255 255 255 255 255 255 255 255 255 255 255 255 255 255 255 255 255 255 255 255 255 255 255 255 255 255 255 255 255 255 255 255 255 255 255 255 255 255 255 255 255 255 255 255 255 255 255 255 255 255 255 255 255 255 255 255 255 255 255 255 255 255 255 255 255 255 255 255 255 255 255 255 255 255 255 255 255 255 255 255 255 255 255 255 255 255 255 255 255 255 255 255 255 255 255 255 255 255 255 255 255 255 255 255 255 255 255 255 255 255 255 255 255 255 255 255 255 255 255 255 255 255 255 255 255 255 255 255 255 255 255 255 255 255 255 255 255 255 255 255 255 255 255 255 255 255 255 255 255 255 255 255 255 255 255 255 255 255 255 255 255 255 255 255 255 255 255 255 255 255 255 255 255 255 255 255 255 255 255 255 255 255 255 255 255 255 255 255 255 255 255 255 255 255 255 255 255 255 255 255 255 255 255 255 255 255 255 255 255 255 255 255 255 255 255 255 255 255 255 255 255 255 255 255 255 255 255 255 255 255 255 255 255 255 255 255 255 255 255 255 255 255 255 255 255 255 255 255 255 255 255 255 255 255 255 255 255 255 255 255 255 255 255 255 255 255 255 255 255 255 255 255 255 255 255 255 255 255 255 255 255 255 255 255 255 255 255 255 255 255 255 255 255 255 255 255 225 0 15 225 0 15 225 0 15 225 0 15 225 0 15 225 0 15 225 0 15 225 0 15 225 0 15 225 0 15 225 0 15 225 0 15 225 0 15 225 0 15 225 0 15 225 0 15 225 0 15 225 0 15 225 0 15 225 0 15 225 0 15 225 0 15 225 0 15 225 0 15 225 0 15 225 0 15 225 0 15 225 0 15 225 0 15 225 0 15 225 0 15 225 0 15 225 0 15 225 0 15 225 0 15 225 0 15 225 0 15 225 0 15 225 0 15 225 0 15 225 0 15 225 0 15 225 0 15 225 0 15 225 0 15 225 0 15 225 0 15 225 0 15 225 0 15 225 0 15 225 0 15 225 0 15 225 0 15 225 0 15 225 0 15 225 0 15 225 0 15 225 0 15 225 0 15 225 0 15 225 0 15 225 0 15 225 0 15 225 0 15 225 0 15 225 0 15 225 0 15 225 0 15 225 0 15 225 0 15 225 0 15 225 0 15 225 0 15 225 0 15 225 0 15 225 0 15 225 0 15 225 0 15 225 0 15 225 0 15 225 0 15 225 0 15 225 0 15 225 0 15 225 0 15 225 0 15 225 0 15 225 0 15 225 0 15 225 0 15 225 0 15 225 0 15 225 0 15 225 0 15 225 0 15 225 0 15 225 0 15 225 0 15 225 0 15 225 0 15 225 0 15 
0 0 145 0 0 145 0 0 145 0 0 145 0 0 145 0 0 145 0 0 145 0 0 145 0 0 145 0 0 145 0 0 145 0 0 145 0 0 145 0 0 145 0 0 145 0 0 145 0 0 145 0 0 145 0 0 145 0 0 145 0 0 145 0 0 145 0 0 145 0 0 145 0 0 145 0 0 145 0 0 145 0 0 145 0 0 145 0 0 145 0 0 145 0 0 145 0 0 145 0 0 145 0 0 145 0 0 145 0 0 145 0 0 145 0 0 145 0 0 145 0 0 145 0 0 145 0 0 145 0 0 145 0 0 145 0 0 145 0 0 145 0 0 145 0 0 145 0 0 145 0 0 145 0 0 145 0 0 145 0 0 145 0 0 145 0 0 145 0 0 145 0 0 145 0 0 145 0 0 145 0 0 145 0 0 145 0 0 145 0 0 145 0 0 145 0 0 145 0 0 145 0 0 145 0 0 145 0 0 145 0 0 145 0 0 145 0 0 145 0 0 145 0 0 145 0 0 145 0 0 145 0 0 145 0 0 145 0 0 145 0 0 145 0 0 145 0 0 145 0 0 145 0 0 145 0 0 145 0 0 145 0 0 145 0 0 145 0 0 145 0 0 145 0 0 145 0 0 145 0 0 145 0 0 145 0 0 145 0 0 145 0 0 145 0 0 145 225 0 15 255 255 255 255 255 255 255 255 255 255 255 255 255 255 255 255 255 255 255 255 255 255 255 255 255 255 255 255 255 255 255 255 255 255 255 255 255 255 255 255 255 255 255 255 255 255 255 255 255 255 255 255 255 255 255 255 255 255 255 255 255 255 255 255 255 255 255 255 255 255 255 255 255 255 255 255 255 255 255 255 255 255 255 255 255 255 255 255 255 255 255 255 255 255 255 255 255 255 255 255 255 255 255 255 255 255 255 255 255 255 255 255 255 255 255 255 255 255 255 255 255 255 255 255 255 255 255 255 255 255 255 255 255 255 255 255 255 255 255 255 255 255 255 255 255 255 255 255 255 255 255 255 255 255 255 255 255 255 255 255 255 255 255 255 255 255 255 255 255 255 255 255 255 255 255 255 255 255 255 255 255 255 255 255 255 255 255 255 255 255 255 255 255 255 255 255 255 255 255 255 255 255 255 255 255 255 255 255 255 255 255 255 255 255 255 255 255 255 255 255 255 255 255 255 255 255 255 255 255 255 255 255 255 255 255 255 255 255 255 255 255 255 255 255 255 255 255 255 255 255 255 255 255 255 255 255 255 255 255 255 255 255 255 255 255 255 255 255 255 255 255 255 255 255 255 255 255 255 255 255 255 255 255 255 255 255 255 255 255 255 255 255 255 255 255 255 255 225 0 15 225 0 15 225 0 15 225 0 15 225 0 15 225 0 15 225 0 15 225 0 15 225 0 15 225 0 15 225 0 15 225 0 15 225 0 15 225 0 15 225 0 15 225 0 15 225 0 15 225 0 15 225 0 15 225 0 15 225 0 15 225 0 15 225 0 15 225 0 15 225 0 15 225 0 15 225 0 15 225 0 15 225 0 15 225 0 15 225 0 15 225 0 15 225 0 15 225 0 15 225 0 15 225 0 15 225 0 15 225 0 15 225 0 15 225 0 15 225 0 15 225 0 15 225 0 15 225 0 15 225 0 15 225 0 15 225 0 15 225 0 15 225 0 15 225 0 15 225 0 15 225 0 15 225 0 15 225 0 15 225 0 15 225 0 15 225 0 15 225 0 15 225 0 15 225 0 15 225 0 15 225 0 15 225 0 15 225 0 15 225 0 15 225 0 15 225 0 15 225 0 15 225 0 15 225 0 15 225 0 15 225 0 15 225 0 15 225 0 15 225 0 15 225 0 15 225 0 15 225 0 15 225 0 15 225 0 15 225 0 15 225 0 15 225 0 15 225 0 15 225 0 15 225 0 15 225 0 15 225 0 15 225 0 15 225 0 15 225 0 15 225 0 15 225 0 15 225 0 15 225 0 15 225 0 15 225 0 15 225 0 15 225 0 15 225 0 15 225 0 15 
0 0 145 0 0 145 0 0 145 0 0 145 0 0 145 0 0 145 0 0 145 0 0 145 0 0 145 0 0 145 0 0 145 0 0 145 0 0 145 0 0 145 0 0 145 0 0 145 0 0 145 0 0 145 0 0 145 0 0 145 0 0 145 0 0 145 0 0 145 0 0 145 0 0 145 0 0 145 0 0 145 0 0 145 0 0 145 0 0 145 0 0 145 0 0 145 0 0 145 0 0 145 0 0 145 0 0 145 0 0 145 0 0 145 0 0 145 0 0 145 0 0 145 0 0 145 0 0 145 0 0 145 0 0 145 0 0 145 0 0 145 0 0 145 0 0 145 0 0 145 0 0 145 0 0 145 0 0 145 0 0 145 0 0 145 0 0 145 0 0 145 0 0 145 0 0 145 0 0 145 0 0 145 0 0 145 0 0 145 0 0 145 0 0 145 0 0 145 0 0 145 0 0 145 0 0 145 0 0 145 0 0 145 0 0 145 0 0 145 0 0 145 0 0 145 0 0 145 0 0 145 0 0 145 0 0 145 0 0 145 0 0 145 0 0 145 0 0 145 0 0 145 0 0 145 0 0 145 0 0 145 0 0 145 0 0 145 0 0 145 0 0 145 0 0 145 0 0 145 0 0 145 0 0 145 0 0 145 0 0 145 0 0 145 0 0 145 225 0 15 255 255 255 255 255 255 255 255 255 255 255 255 255 255 255 255 255 255 255 255 255 255 255 255 255 255 255 255 255 255 255 255 255 255 255 255 255 255 255 255 255 255 255 255 255 255 255 255 255 255 255 255 255 255 255 255 255 255 255 255 255 255 255 255 255 255 255 255 255 255 255 255 255 255 255 255 255 255 255 255 255 255 255 255 255 255 255 255 255 255 255 255 255 255 255 255 255 255 255 255 255 255 255 255 255 255 255 255 255 255 255 255 255 255 255 255 255 255 255 255 255 255 255 255 255 255 255 255 255 255 255 255 255 255 255 255 255 255 255 255 255 255 255 255 255 255 255 255 255 255 255 255 255 255 255 255 255 255 255 255 255 255 255 255 255 255 255 255 255 255 255 255 255 255 255 255 255 255 255 255 255 255 255 255 255 255 255 255 255 255 255 255 255 255 255 255 255 255 255 255 255 255 255 255 255 255 255 255 255 255 255 255 255 255 255 255 255 255 255 255 255 255 255 255 255 255 255 255 255 255 255 255 255 255 255 255 255 255 255 255 255 255 255 255 255 255 255 255 255 255 255 255 255 255 255 255 255 255 255 255 255 255 255 255 255 255 255 255 255 255 255 255 255 255 255 255 255 255 255 255 255 255 255 255 255 255 255 255 255 255 255 255 255 255 255 255 255 225 0 15 225 0 15 225 0 15 225 0 15 225 0 15 225 0 15 225 0 15 225 0 15 225 0 15 225 0 15 225 0 15 225 0 15 225 0 15 225 0 15 225 0 15 225 0 15 225 0 15 225 0 15 225 0 15 225 0 15 225 0 15 225 0 15 225 0 15 225 0 15 225 0 15 225 0 15 225 0 15 225 0 15 225 0 15 225 0 15 225 0 15 225 0 15 225 0 15 225 0 15 225 0 15 225 0 15 225 0 15 225 0 15 225 0 15 225 0 15 225 0 15 225 0 15 225 0 15 225 0 15 225 0 15 225 0 15 225 0 15 225 0 15 225 0 15 225 0 15 225 0 15 225 0 15 225 0 15 225 0 15 225 0 15 225 0 15 225 0 15 225 0 15 225 0 15 225 0 15 225 0 15 225 0 15 225 0 15 225 0 15 225 0 15 225 0 15 225 0 15 225 0 15 225 0 15 225 0 15 225 0 15 225 0 15 225 0 15 225 0 15 225 0 15 225 0 15 225 0 15 225 0 15 225 0 15 225 0 15 225 0 15 225 0 15 225 0 15 225 0 15 225 0 15 225 0 15 225 0 15 225 0 15 225 0 15 225 0 15 225 0 15 225 0 15 225 0 15 225 0 15 225 0 15 225 0 15 225 0 15 225 0 15 225 0 15 225 0 15 225 0 15 
0 0 145 0 0 145 0 0 145 0 0 145 0 0 145 0 0 145 0 0 145 0 0 145 0 0 145 0 0 145 0 0 145 0 0 145 0 0 145 0 0 145 0 0 145 0 0 145 0 0 145 0 0 145 0 0 145 0 0 145 0 0 145 0 0 145 0 0 145 0 0 145 0 0 145 0 0 145 0 0 145 0 0 145 0 0 145 0 0 145 0 0 145 0 0 145 0 0 145 0 0 145 0 0 145 0 0 145 0 0 145 0 0 145 0 0 145 0 0 145 0 0 145 0 0 145 0 0 145 0 0 145 0 0 145 0 0 145 0 0 145 0 0 145 0 0 145 0 0 145 0 0 145 0 0 145 0 0 145 0 0 145 0 0 145 0 0 145 0 0 145 0 0 145 0 0 145 0 0 145 0 0 145 0 0 145 0 0 145 0 0 145 0 0 145 0 0 145 0 0 145 0 0 145 0 0 145 0 0 145 0 0 145 0 0 145 0 0 145 0 0 145 0 0 145 0 0 145 0 0 145 0 0 145 0 0 145 0 0 145 0 0 145 0 0 145 0 0 145 0 0 145 0 0 145 0 0 145 0 0 145 0 0 145 0 0 145 0 0 145 0 0 145 0 0 145 0 0 145 0 0 145 0 0 145 0 0 145 0 0 145 0 0 145 0 0 145 225 0 15 255 255 255 255 255 255 255 255 255 255 255 255 255 255 255 255 255 255 255 255 255 255 255 255 255 255 255 255 255 255 255 255 255 255 255 255 255 255 255 255 255 255 255 255 255 255 255 255 255 255 255 255 255 255 255 255 255 255 255 255 255 255 255 255 255 255 255 255 255 255 255 255 255 255 255 255 255 255 255 255 255 255 255 255 255 255 255 255 255 255 255 255 255 255 255 255 255 255 255 255 255 255 255 255 255 255 255 255 255 255 255 255 255 255 255 255 255 255 255 255 255 255 255 255 255 255 255 255 255 255 255 255 255 255 255 255 255 255 255 255 255 255 255 255 255 255 255 255 255 255 255 255 255 255 255 255 255 255 255 255 255 255 255 255 255 255 255 255 255 255 255 255 255 255 255 255 255 255 255 255 255 255 255 255 255 255 255 255 255 255 255 255 255 255 255 255 255 255 255 255 255 255 255 255 255 255 255 255 255 255 255 255 255 255 255 255 255 255 255 255 255 255 255 255 255 255 255 255 255 255 255 255 255 255 255 255 255 255 255 255 255 255 255 255 255 255 255 255 255 255 255 255 255 255 255 255 255 255 255 255 255 255 255 255 255 255 255 255 255 255 255 255 255 255 255 255 255 255 255 255 255 255 255 255 255 255 255 255 255 255 255 255 255 255 255 255 255 225 0 15 225 0 15 225 0 15 225 0 15 225 0 15 225 0 15 225 0 15 225 0 15 225 0 15 225 0 15 225 0 15 225 0 15 225 0 15 225 0 15 225 0 15 225 0 15 225 0 15 225 0 15 225 0 15 225 0 15 225 0 15 225 0 15 225 0 15 225 0 15 225 0 15 225 0 15 225 0 15 225 0 15 225 0 15 225 0 15 225 0 15 225 0 15 225 0 15 225 0 15 225 0 15 225 0 15 225 0 15 225 0 15 225 0 15 225 0 15 225 0 15 225 0 15 225 0 15 225 0 15 225 0 15 225 0 15 225 0 15 225 0 15 225 0 15 225 0 15 225 0 15 225 0 15 225 0 15 225 0 15 225 0 15 225 0 15 225 0 15 225 0 15 225 0 15 225 0 15 225 0 15 225 0 15 225 0 15 225 0 15 225 0 15 225 0 15 225 0 15 225 0 15 225 0 15 225 0 15 225 0 15 225 0 15 225 0 15 225 0 15 225 0 15 225 0 15 225 0 15 225 0 15 225 0 15 225 0 15 225 0 15 225 0 15 225 0 15 225 0 15 225 0 15 225 0 15 225 0 15 225 0 15 225 0 15 225 0 15 225 0 15 225 0 15 225 0 15 225 0 15 225 0 15 225 0 15 225 0 15 225 0 15 225 0 15 225 0 15 225 0 15 
0 0 145 0 0 145 0 0 145 0 0 145 0 0 145 0 0 145 0 0 145 0 0 145 0 0 145 0 0 145 0 0 145 0 0 145 0 0 145 0 0 145 0 0 145 0 0 145 0 0 145 0 0 145 0 0 145 0 0 145 0 0 145 0 0 145 0 0 145 0 0 145 0 0 145 0 0 145 0 0 145 0 0 145 0 0 145 0 0 145 0 0 145 0 0 145 0 0 145 0 0 145 0 0 145 0 0 145 0 0 145 0 0 145 0 0 145 0 0 145 0 0 145 0 0 145 0 0 145 0 0 145 0 0 145 0 0 145 0 0 145 0 0 145 0 0 145 0 0 145 0 0 145 0 0 145 0 0 145 0 0 145 0 0 145 0 0 145 0 0 145 0 0 145 0 0 145 0 0 145 0 0 145 0 0 145 0 0 145 0 0 145 0 0 145 0 0 145 0 0 145 0 0 145 0 0 145 0 0 145 0 0 145 0 0 145 0 0 145 0 0 145 0 0 145 0 0 145 0 0 145 0 0 145 0 0 145 0 0 145 0 0 145 0 0 145 0 0 145 0 0 145 0 0 145 0 0 145 0 0 145 0 0 145 0 0 145 0 0 145 0 0 145 0 0 145 0 0 145 0 0 145 0 0 145 0 0 145 0 0 145 0 0 145 0 0 145 225 0 15 255 255 255 255 255 255 255 255 255 255 255 255 255 255 255 255 255 255 255 255 255 255 255 255 255 255 255 255 255 255 255 255 255 255 255 255 255 255 255 255 255 255 255 255 255 255 255 255 255 255 255 255 255 255 255 255 255 255 255 255 255 255 255 255 255 255 255 255 255 255 255 255 255 255 255 255 255 255 255 255 255 255 255 255 255 255 255 255 255 255 255 255 255 255 255 255 255 255 255 255 255 255 255 255 255 255 255 255 255 255 255 255 255 255 255 255 255 255 255 255 255 255 255 255 255 255 255 255 255 255 255 255 255 255 255 255 255 255 255 255 255 255 255 255 255 255 255 255 255 255 255 255 255 255 255 255 255 255 255 255 255 255 255 255 255 255 255 255 255 255 255 255 255 255 255 255 255 255 255 255 255 255 255 255 255 255 255 255 255 255 255 255 255 255 255 255 255 255 255 255 255 255 255 255 255 255 255 255 255 255 255 255 255 255 255 255 255 255 255 255 255 255 255 255 255 255 255 255 255 255 255 255 255 255 255 255 255 255 255 255 255 255 255 255 255 255 255 255 255 255 255 255 255 255 255 255 255 255 255 255 255 255 255 255 255 255 255 255 255 255 255 255 255 255 255 255 255 255 255 255 255 255 255 255 255 255 255 255 255 255 255 255 255 255 255 255 255 225 0 15 225 0 15 225 0 15 225 0 15 225 0 15 225 0 15 225 0 15 225 0 15 225 0 15 225 0 15 225 0 15 225 0 15 225 0 15 225 0 15 225 0 15 225 0 15 225 0 15 225 0 15 225 0 15 225 0 15 225 0 15 225 0 15 225 0 15 225 0 15 225 0 15 225 0 15 225 0 15 225 0 15 225 0 15 225 0 15 225 0 15 225 0 15 225 0 15 225 0 15 225 0 15 225 0 15 225 0 15 225 0 15 225 0 15 225 0 15 225 0 15 225 0 15 225 0 15 225 0 15 225 0 15 225 0 15 225 0 15 225 0 15 225 0 15 225 0 15 225 0 15 225 0 15 225 0 15 225 0 15 225 0 15 225 0 15 225 0 15 225 0 15 225 0 15 225 0 15 225 0 15 225 0 15 225 0 15 225 0 15 225 0 15 225 0 15 225 0 15 225 0 15 225 0 15 225 0 15 225 0 15 225 0 15 225 0 15 225 0 15 225 0 15 225 0 15 225 0 15 225 0 15 225 0 15 225 0 15 225 0 15 225 0 15 225 0 15 225 0 15 225 0 15 225 0 15 225 0 15 225 0 15 225 0 15 225 0 15 225 0 15 225 0 15 225 0 15 225 0 15 225 0 15 225 0 15 225 0 15 225 0 15 225 0 15 225 0 15 225 0 15 
0 0 145 0 0 145 0 0 145 0 0 145 0 0 145 0 0 145 0 0 145 0 0 145 0 0 145 0 0 145 0 0 145 0 0 145 0 0 145 0 0 145 0 0 145 0 0 145 0 0 145 0 0 145 0 0 145 0 0 145 0 0 145 0 0 145 0 0 145 0 0 145 0 0 145 0 0 145 0 0 145 0 0 145 0 0 145 0 0 145 0 0 145 0 0 145 0 0 145 0 0 145 0 0 145 0 0 145 0 0 145 0 0 145 0 0 145 0 0 145 0 0 145 0 0 145 0 0 145 0 0 145 0 0 145 0 0 145 0 0 145 0 0 145 0 0 145 0 0 145 0 0 145 0 0 145 0 0 145 0 0 145 0 0 145 0 0 145 0 0 145 0 0 145 0 0 145 0 0 145 0 0 145 0 0 145 0 0 145 0 0 145 0 0 145 0 0 145 0 0 145 0 0 145 0 0 145 0 0 145 0 0 145 0 0 145 0 0 145 0 0 145 0 0 145 0 0 145 0 0 145 0 0 145 0 0 145 0 0 145 0 0 145 0 0 145 0 0 145 0 0 145 0 0 145 0 0 145 0 0 145 0 0 145 0 0 145 0 0 145 0 0 145 0 0 145 0 0 145 0 0 145 0 0 145 0 0 145 0 0 145 0 0 145 0 0 145 225 0 15 255 255 255 255 255 255 255 255 255 255 255 255 255 255 255 255 255 255 255 255 255 255 255 255 255 255 255 255 255 255 255 255 255 255 255 255 255 255 255 255 255 255 255 255 255 255 255 255 255 255 255 255 255 255 255 255 255 255 255 255 255 255 255 255 255 255 255 255 255 255 255 255 255 255 255 255 255 255 255 255 255 255 255 255 255 255 255 255 255 255 255 255 255 255 255 255 255 255 255 255 255 255 255 255 255 255 255 255 255 255 255 255 255 255 255 255 255 255 255 255 255 255 255 255 255 255 255 255 255 255 255 255 255 255 255 255 255 255 255 255 255 255 255 255 255 255 255 255 255 255 255 255 255 255 255 255 255 255 255 255 255 255 255 255 255 255 255 255 255 255 255 255 255 255 255 255 255 255 255 255 255 255 255 255 255 255 255 255 255 255 255 255 255 255 255 255 255 255 255 255 255 255 255 255 255 255 255 255 255 255 255 255 255 255 255 255 255 255 255 255 255 255 255 255 255 255 255 255 255 255 255 255 255 255 255 255 255 255 255 255 255 255 255 255 255 255 255 255 255 255 255 255 255 255 255 255 255 255 255 255 255 255 255 255 255 255 255 255 255 255 255 255 255 255 255 255 255 255 255 255 255 255 255 255 255 255 255 255 255 255 255 255 255 255 255 255 255 225 0 15 225 0 15 225 0 15 225 0 15 225 0 15 225 0 15 225 0 15 225 0 15 225 0 15 225 0 15 225 0 15 225 0 15 225 0 15 225 0 15 225 0 15 225 0 15 225 0 15 225 0 15 225 0 15 225 0 15 225 0 15 225 0 15 225 0 15 225 0 15 225 0 15 225 0 15 225 0 15 225 0 15 225 0 15 225 0 15 225 0 15 225 0 15 225 0 15 225 0 15 225 0 15 225 0 15 225 0 15 225 0 15 225 0 15 225 0 15 225 0 15 225 0 15 225 0 15 225 0 15 225 0 15 225 0 15 225 0 15 225 0 15 225 0 15 225 0 15 225 0 15 225 0 15 225 0 15 225 0 15 225 0 15 225 0 15 225 0 15 225 0 15 225 0 15 225 0 15 225 0 15 225 0 15 225 0 15 225 0 15 225 0 15 225 0 15 225 0 15 225 0 15 225 0 15 225 0 15 225 0 15 225 0 15 225 0 15 225 0 15 225 0 15 225 0 15 225 0 15 225 0 15 225 0 15 225 0 15 225 0 15 225 0 15 225 0 15 225 0 15 225 0 15 225 0 15 225 0 15 225 0 15 225 0 15 225 0 15 225 0 15 225 0 15 225 0 15 225 0 15 225 0 15 225 0 15 225 0 15 225 0 15 225 0 15 225 0 15 225 0 15 
0 0 145 0 0 145 0 0 145 0 0 145 0 0 145 0 0 145 0 0 145 0 0 145 0 0 145 0 0 145 0 0 145 0 0 145 0 0 145 0 0 145 0 0 145 0 0 145 0 0 145 0 0 145 0 0 145 0 0 145 0 0 145 0 0 145 0 0 145 0 0 145 0 0 145 0 0 145 0 0 145 0 0 145 0 0 145 0 0 145 0 0 145 0 0 145 0 0 145 0 0 145 0 0 145 0 0 145 0 0 145 0 0 145 0 0 145 0 0 145 0 0 145 0 0 145 0 0 145 0 0 145 0 0 145 0 0 145 0 0 145 0 0 145 0 0 145 0 0 145 0 0 145 0 0 145 0 0 145 0 0 145 0 0 145 0 0 145 0 0 145 0 0 145 0 0 145 0 0 145 0 0 145 0 0 145 0 0 145 0 0 145 0 0 145 0 0 145 0 0 145 0 0 145 0 0 145 0 0 145 0 0 145 0 0 145 0 0 145 0 0 145 0 0 145 0 0 145 0 0 145 0 0 145 0 0 145 0 0 145 0 0 145 0 0 145 0 0 145 0 0 145 0 0 145 0 0 145 0 0 145 0 0 145 0 0 145 0 0 145 0 0 145 0 0 145 0 0 145 0 0 145 0 0 145 0 0 145 0 0 145 0 0 145 0 0 145 225 0 15 255 255 255 255 255 255 255 255 255 255 255 255 255 255 255 255 255 255 255 255 255 255 255 255 255 255 255 255 255 255 255 255 255 255 255 255 255 255 255 255 255 255 255 255 255 255 255 255 255 255 255 255 255 255 255 255 255 255 255 255 255 255 255 255 255 255 255 255 255 255 255 255 255 255 255 255 255 255 255 255 255 255 255 255 255 255 255 255 255 255 255 255 255 255 255 255 255 255 255 255 255 255 255 255 255 255 255 255 255 255 255 255 255 255 255 255 255 255 255 255 255 255 255 255 255 255 255 255 255 255 255 255 255 255 255 255 255 255 255 255 255 255 255 255 255 255 255 255 255 255 255 255 255 255 255 255 255 255 255 255 255 255 255 255 255 255 255 255 255 255 255 255 255 255 255 255 255 255 255 255 255 255 255 255 255 255 255 255 255 255 255 255 255 255 255 255 255 255 255 255 255 255 255 255 255 255 255 255 255 255 255 255 255 255 255 255 255 255 255 255 255 255 255 255 255 255 255 255 255 255 255 255 255 255 255 255 255 255 255 255 255 255 255 255 255 255 255 255 255 255 255 255 255 255 255 255 255 255 255 255 255 255 255 255 255 255 255 255 255 255 255 255 255 255 255 255 255 255 255 255 255 255 255 255 255 255 255 255 255 255 255 255 255 255 255 255 255 225 0 15 225 0 15 225 0 15 225 0 15 225 0 15 225 0 15 225 0 15 225 0 15 225 0 15 225 0 15 225 0 15 225 0 15 225 0 15 225 0 15 225 0 15 225 0 15 225 0 15 225 0 15 225 0 15 225 0 15 225 0 15 225 0 15 225 0 15 225 0 15 225 0 15 225 0 15 225 0 15 225 0 15 225 0 15 225 0 15 225 0 15 225 0 15 225 0 15 225 0 15 225 0 15 225 0 15 225 0 15 225 0 15 225 0 15 225 0 15 225 0 15 225 0 15 225 0 15 225 0 15 225 0 15 225 0 15 225 0 15 225 0 15 225 0 15 225 0 15 225 0 15 225 0 15 225 0 15 225 0 15 225 0 15 225 0 15 225 0 15 225 0 15 225 0 15 225 0 15 225 0 15 225 0 15 225 0 15 225 0 15 225 0 15 225 0 15 225 0 15 225 0 15 225 0 15 225 0 15 225 0 15 225 0 15 225 0 15 225 0 15 225 0 15 225 0 15 225 0 15 225 0 15 225 0 15 225 0 15 225 0 15 225 0 15 225 0 15 225 0 15 225 0 15 225 0 15 225 0 15 225 0 15 225 0 15 225 0 15 225 0 15 225 0 15 225 0 15 225 0 15 225 0 15 225 0 15 225 0 15 225 0 15 225 0 15 225 0 15 225 0 15 
0 0 145 0 0 145 0 0 145 0 0 145 0 0 145 0 0 145 0 0 145 0 0 145 0 0 145 0 0 145 0 0 145 0 0 145 0 0 145 0 0 145 0 0 145 0 0 145 0 0 145 0 0 145 0 0 145 0 0 145 0 0 145 0 0 145 0 0 145 0 0 145 0 0 145 0 0 145 0 0 145 0 0 145 0 0 145 0 0 145 0 0 145 0 0 145 0 0 145 0 0 145 0 0 145 0 0 145 0 0 145 0 0 145 0 0 145 0 0 145 0 0 145 0 0 145 0 0 145 0 0 145 0 0 145 0 0 145 0 0 145 0 0 145 0 0 145 0 0 145 0 0 145 0 0 145 0 0 145 0 0 145 0 0 145 0 0 145 0 0 145 0 0 145 0 0 145 0 0 145 0 0 145 0 0 145 0 0 145 0 0 145 0 0 145 0 0 145 0 0 145 0 0 145 0 0 145 0 0 145 0 0 145 0 0 145 0 0 145 0 0 145 0 0 145 0 0 145 0 0 145 0 0 145 0 0 145 0 0 145 0 0 145 0 0 145 0 0 145 0 0 145 0 0 145 0 0 145 0 0 145 0 0 145 0 0 145 0 0 145 0 0 145 0 0 145 0 0 145 0 0 145 0 0 145 0 0 145 0 0 145 0 0 145 0 0 145 225 0 15 255 255 255 255 255 255 255 255 255 255 255 255 255 255 255 255 255 255 255 255 255 255 255 255 255 255 255 255 255 255 255 255 255 255 255 255 255 255 255 255 255 255 255 255 255 255 255 255 255 255 255 255 255 255 255 255 255 255 255 255 255 255 255 255 255 255 255 255 255 255 255 255 255 255 255 255 255 255 255 255 255 255 255 255 255 255 255 255 255 255 255 255 255 255 255 255 255 255 255 255 255 255 255 255 255 255 255 255 255 255 255 255 255 255 255 255 255 255 255 255 255 255 255 255 255 255 255 255 255 255 255 255 255 255 255 255 255 255 255 255 255 255 255 255 255 255 255 255 255 255 255 255 255 255 255 255 255 255 255 255 255 255 255 255 255 255 255 255 255 255 255 255 255 255 255 255 255 255 255 255 255 255 255 255 255 255 255 255 255 255 255 255 255 255 255 255 255 255 255 255 255 255 255 255 255 255 255 255 255 255 255 255 255 255 255 255 255 255 255 255 255 255 255 255 255 255 255 255 255 255 255 255 255 255 255 255 255 255 255 255 255 255 255 255 255 255 255 255 255 255 255 255 255 255 255 255 255 255 255 255 255 255 255 255 255 255 255 255 255 255 255 255 255 255 255 255 255 255 255 255 255 255 255 255 255 255 255 255 255 255 255 255 255 255 255 255 255 225 0 15 225 0 15 225 0 15 225 0 15 225 0 15 225 0 15 225 0 15 225 0 15 225 0 15 225 0 15 225 0 15 225 0 15 225 0 15 225 0 15 225 0 15 225 0 15 225 0 15 225 0 15 225 0 15 225 0 15 225 0 15 225 0 15 225 0 15 225 0 15 225 0 15 225 0 15 225 0 15 225 0 15 225 0 15 225 0 15 225 0 15 225 0 15 225 0 15 225 0 15 225 0 15 225 0 15 225 0 15 225 0 15 225 0 15 225 0 15 225 0 15 225 0 15 225 0 15 225 0 15 225 0 15 225 0 15 225 0 15 225 0 15 225 0 15 225 0 15 225 0 15 225 0 15 225 0 15 225 0 15 225 0 15 225 0 15 225 0 15 225 0 15 225 0 15 225 0 15 225 0 15 225 0 15 225 0 15 225 0 15 225 0 15 225 0 15 225 0 15 225 0 15 225 0 15 225 0 15 225 0 15 225 0 15 225 0 15 225 0 15 225 0 15 225 0 15 225 0 15 225 0 15 225 0 15 225 0 15 225 0 15 225 0 15 225 0 15 225 0 15 225 0 15 225 0 15 225 0 15 225 0 15 225 0 15 225 0 15 225 0 15 225 0 15 225 0 15 225 0 15 225 0 15 225 0 15 225 0 15 225 0 15 225 0 15 225 0 15 225 0 15 
0 0 145 0 0 145 0 0 145 0 0 145 0 0 145 0 0 145 0 0 145 0 0 145 0 0 145 0 0 145 0 0 145 0 0 145 0 0 145 0 0 145 0 0 145 0 0 145 0 0 145 0 0 145 0 0 145 0 0 145 0 0 145 0 0 145 0 0 145 0 0 145 0 0 145 0 0 145 0 0 145 0 0 145 0 0 145 0 0 145 0 0 145 0 0 145 0 0 145 0 0 145 0 0 145 0 0 145 0 0 145 0 0 145 0 0 145 0 0 145 0 0 145 0 0 145 0 0 145 0 0 145 0 0 145 0 0 145 0 0 145 0 0 145 0 0 145 0 0 145 0 0 145 0 0 145 0 0 145 0 0 145 0 0 145 0 0 145 0 0 145 0 0 145 0 0 145 0 0 145 0 0 145 0 0 145 0 0 145 0 0 145 0 0 145 0 0 145 0 0 145 0 0 145 0 0 145 0 0 145 0 0 145 0 0 145 0 0 145 0 0 145 0 0 145 0 0 145 0 0 145 0 0 145 0 0 145 0 0 145 0 0 145 0 0 145 0 0 145 0 0 145 0 0 145 0 0 145 0 0 145 0 0 145 0 0 145 0 0 145 0 0 145 0 0 145 0 0 145 0 0 145 0 0 145 0 0 145 0 0 145 0 0 145 0 0 145 225 0 15 255 255 255 255 255 255 255 255 255 255 255 255 255 255 255 255 255 255 255 255 255 255 255 255 255 255 255 255 255 255 255 255 255 255 255 255 255 255 255 255 255 255 255 255 255 255 255 255 255 255 255 255 255 255 255 255 255 255 255 255 255 255 255 255 255 255 255 255 255 255 255 255 255 255 255 255 255 255 255 255 255 255 255 255 255 255 255 255 255 255 255 255 255 255 255 255 255 255 255 255 255 255 255 255 255 255 255 255 255 255 255 255 255 255 255 255 255 255 255 255 255 255 255 255 255 255 255 255 255 255 255 255 255 255 255 255 255 255 255 255 255 255 255 255 255 255 255 255 255 255 255 255 255 255 255 255 255 255 255 255 255 255 255 255 255 255 255 255 255 255 255 255 255 255 255 255 255 255 255 255 255 255 255 255 255 255 255 255 255 255 255 255 255 255 255 255 255 255 255 255 255 255 255 255 255 255 255 255 255 255 255 255 255 255 255 255 255 255 255 255 255 255 255 255 255 255 255 255 255 255 255 255 255 255 255 255 255 255 255 255 255 255 255 255 255 255 255 255 255 255 255 255 255 255 255 255 255 255 255 255 255 255 255 255 255 255 255 255 255 255 255 255 255 255 255 255 255 255 255 255 255 255 255 255 255 255 255 255 255 255 255 255 255 255 255 255 255 225 0 15 225 0 15 225 0 15 225 0 15 225 0 15 225 0 15 225 0 15 225 0 15 225 0 15 225 0 15 225 0 15 225 0 15 225 0 15 225 0 15 225 0 15 225 0 15 225 0 15 225 0 15 225 0 15 225 0 15 225 0 15 225 0 15 225 0 15 225 0 15 225 0 15 225 0 15 225 0 15 225 0 15 225 0 15 225 0 15 225 0 15 225 0 15 225 0 15 225 0 15 225 0 15 225 0 15 225 0 15 225 0 15 225 0 15 225 0 15 225 0 15 225 0 15 225 0 15 225 0 15 225 0 15 225 0 15 225 0 15 225 0 15 225 0 15 225 0 15 225 0 15 225 0 15 225 0 15 225 0 15 225 0 15 225 0 15 225 0 15 225 0 15 225 0 15 225 0 15 225 0 15 225 0 15 225 0 15 225 0 15 225 0 15 225 0 15 225 0 15 225 0 15 225 0 15 225 0 15 225 0 15 225 0 15 225 0 15 225 0 15 225 0 15 225 0 15 225 0 15 225 0 15 225 0 15 225 0 15 225 0 15 225 0 15 225 0 15 225 0 15 225 0 15 225 0 15 225 0 15 225 0 15 225 0 15 225 0 15 225 0 15 225 0 15 225 0 15 225 0 15 225 0 15 225 0 15 225 0 15 225 0 15 225 0 15 225 0 15 225 0 15 
0 0 145 0 0 145 0 0 145 0 0 145 0 0 145 0 0 145 0 0 145 0 0 145 0 0 145 0 0 145 0 0 145 0 0 145 0 0 145 0 0 145 0 0 145 0 0 145 0 0 145 0 0 145 0 0 145 0 0 145 0 0 145 0 0 145 0 0 145 0 0 145 0 0 145 0 0 145 0 0 145 0 0 145 0 0 145 0 0 145 0 0 145 0 0 145 0 0 145 0 0 145 0 0 145 0 0 145 0 0 145 0 0 145 0 0 145 0 0 145 0 0 145 0 0 145 0 0 145 0 0 145 0 0 145 0 0 145 0 0 145 0 0 145 0 0 145 0 0 145 0 0 145 0 0 145 0 0 145 0 0 145 0 0 145 0 0 145 0 0 145 0 0 145 0 0 145 0 0 145 0 0 145 0 0 145 0 0 145 0 0 145 0 0 145 0 0 145 0 0 145 0 0 145 0 0 145 0 0 145 0 0 145 0 0 145 0 0 145 0 0 145 0 0 145 0 0 145 0 0 145 0 0 145 0 0 145 0 0 145 0 0 145 0 0 145 0 0 145 0 0 145 0 0 145 0 0 145 0 0 145 0 0 145 0 0 145 0 0 145 0 0 145 0 0 145 0 0 145 0 0 145 0 0 145 0 0 145 0 0 145 0 0 145 0 0 145 225 0 15 255 255 255 255 255 255 255 255 255 255 255 255 255 255 255 255 255 255 255 255 255 255 255 255 255 255 255 255 255 255 255 255 255 255 255 255 255 255 255 255 255 255 255 255 255 255 255 255 255 255 255 255 255 255 255 255 255 255 255 255 255 255 255 255 255 255 255 255 255 255 255 255 255 255 255 255 255 255 255 255 255 255 255 255 255 255 255 255 255 255 255 255 255 255 255 255 255 255 255 255 255 255 255 255 255 255 255 255 255 255 255 255 255 255 255 255 255 255 255 255 255 255 255 255 255 255 255 255 255 255 255 255 255 255 255 255 255 255 255 255 255 255 255 255 255 255 255 255 255 255 255 255 255 255 255 255 255 255 255 255 255 255 255 255 255 255 255 255 255 255 255 255 255 255 255 255 255 255 255 255 255 255 255 255 255 255 255 255 255 255 255 255 255 255 255 255 255 255 255 255 255 255 255 255 255 255 255 255 255 255 255 255 255 255 255 255 255 255 255 255 255 255 255 255 255 255 255 255 255 255 255 255 255 255 255 255 255 255 255 255 255 255 255 255 255 255 255 255 255 255 255 255 255 255 255 255 255 255 255 255 255 255 255 255 255 255 255 255 255 255 255 255 255 255 255 255 255 255 255 255 255 255 255 255 255 255 255 255 255 255 255 255 255 255 255 255 255 225 0 15 225 0 15 225 0 15 225 0 15 225 0 15 225 0 15 225 0 15 225 0 15 225 0 15 225 0 15 225 0 15 225 0 15 225 0 15 225 0 15 225 0 15 225 0 15 225 0 15 225 0 15 225 0 15 225 0 15 225 0 15 225 0 15 225 0 15 225 0 15 225 0 15 225 0 15 225 0 15 225 0 15 225 0 15 225 0 15 225 0 15 225 0 15 225 0 15 225 0 15 225 0 15 225 0 15 225 0 15 225 0 15 225 0 15 225 0 15 225 0 15 225 0 15 225 0 15 225 0 15 225 0 15 225 0 15 225 0 15 225 0 15 225 0 15 225 0 15 225 0 15 225 0 15 225 0 15 225 0 15 225 0 15 225 0 15 225 0 15 225 0 15 225 0 15 225 0 15 225 0 15 225 0 15 225 0 15 225 0 15 225 0 15 225 0 15 225 0 15 225 0 15 225 0 15 225 0 15 225 0 15 225 0 15 225 0 15 225 0 15 225 0 15 225 0 15 225 0 15 225 0 15 225 0 15 225 0 15 225 0 15 225 0 15 225 0 15 225 0 15 225 0 15 225 0 15 225 0 15 225 0 15 225 0 15 225 0 15 225 0 15 225 0 15 225 0 15 225 0 15 225 0 15 225 0 15 225 0 15 225 0 15 225 0 15 225 0 15 225 0 15 
0 0 145 0 0 145 0 0 145 0 0 145 0 0 145 0 0 145 0 0 145 0 0 145 0 0 145 0 0 145 0 0 145 0 0 145 0 0 145 0 0 145 0 0 145 0 0 145 0 0 145 0 0 145 0 0 145 0 0 145 0 0 145 0 0 145 0 0 145 0 0 145 0 0 145 0 0 145 0 0 145 0 0 145 0 0 145 0 0 145 0 0 145 0 0 145 0 0 145 0 0 145 0 0 145 0 0 145 0 0 145 0 0 145 0 0 145 0 0 145 0 0 145 0 0 145 0 0 145 0 0 145 0 0 145 0 0 145 0 0 145 0 0 145 0 0 145 0 0 145 0 0 145 0 0 145 0 0 145 0 0 145 0 0 145 0 0 145 0 0 145 0 0 145 0 0 145 0 0 145 0 0 145 0 0 145 0 0 145 0 0 145 0 0 145 0 0 145 0 0 145 0 0 145 0 0 145 0 0 145 0 0 145 0 0 145 0 0 145 0 0 145 0 0 145 0 0 145 0 0 145 0 0 145 0 0 145 0 0 145 0 0 145 0 0 145 0 0 145 0 0 145 0 0 145 0 0 145 0 0 145 0 0 145 0 0 145 0 0 145 0 0 145 0 0 145 0 0 145 0 0 145 0 0 145 0 0 145 0 0 145 0 0 145 0 0 145 225 0 15 255 255 255 255 255 255 255 255 255 255 255 255 255 255 255 255 255 255 255 255 255 255 255 255 255 255 255 255 255 255 255 255 255 255 255 255 255 255 255 255 255 255 255 255 255 255 255 255 255 255 255 255 255 255 255 255 255 255 255 255 255 255 255 255 255 255 255 255 255 255 255 255 255 255 255 255 255 255 255 255 255 255 255 255 255 255 255 255 255 255 255 255 255 255 255 255 255 255 255 255 255 255 255 255 255 255 255 255 255 255 255 255 255 255 255 255 255 255 255 255 255 255 255 255 255 255 255 255 255 255 255 255 255 255 255 255 255 255 255 255 255 255 255 255 255 255 255 255 255 255 255 255 255 255 255 255 255 255 255 255 255 255 255 255 255 255 255 255 255 255 255 255 255 255 255 255 255 255 255 255 255 255 255 255 255 255 255 255 255 255 255 255 255 255 255 255 255 255 255 255 255 255 255 255 255 255 255 255 255 255 255 255 255 255 255 255 255 255 255 255 255 255 255 255 255 255 255 255 255 255 255 255 255 255 255 255 255 255 255 255 255 255 255 255 255 255 255 255 255 255 255 255 255 255 255 255 255 255 255 255 255 255 255 255 255 255 255 255 255 255 255 255 255 255 255 255 255 255 255 255 255 255 255 255 255 255 255 255 255 255 255 255 255 255 255 255 255 225 0 15 225 0 15 225 0 15 225 0 15 225 0 15 225 0 15 225 0 15 225 0 15 225 0 15 225 0 15 225 0 15 225 0 15 225 0 15 225 0 15 225 0 15 225 0 15 225 0 15 225 0 15 225 0 15 225 0 15 225 0 15 225 0 15 225 0 15 225 0 15 225 0 15 225 0 15 225 0 15 225 0 15 225 0 15 225 0 15 225 0 15 225 0 15 225 0 15 225 0 15 225 0 15 225 0 15 225 0 15 225 0 15 225 0 15 225 0 15 225 0 15 225 0 15 225 0 15 225 0 15 225 0 15 225 0 15 225 0 15 225 0 15 225 0 15 225 0 15 225 0 15 225 0 15 225 0 15 225 0 15 225 0 15 225 0 15 225 0 15 225 0 15 225 0 15 225 0 15 225 0 15 225 0 15 225 0 15 225 0 15 225 0 15 225 0 15 225 0 15 225 0 15 225 0 15 225 0 15 225 0 15 225 0 15 225 0 15 225 0 15 225 0 15 225 0 15 225 0 15 225 0 15 225 0 15 225 0 15 225 0 15 225 0 15 225 0 15 225 0 15 225 0 15 225 0 15 225 0 15 225 0 15 225 0 15 225 0 15 225 0 15 225 0 15 225 0 15 225 0 15 225 0 15 225 0 15 225 0 15 225 0 15 225 0 15 225 0 15 225 0 15 
0 0 145 0 0 145 0 0 145 0 0 145 0 0 145 0 0 145 0 0 145 0 0 145 0 0 145 0 0 145 0 0 145 0 0 145 0 0 145 0 0 145 0 0 145 0 0 145 0 0 145 0 0 145 0 0 145 0 0 145 0 0 145 0 0 145 0 0 145 0 0 145 0 0 145 0 0 145 0 0 145 0 0 145 0 0 145 0 0 145 0 0 145 0 0 145 0 0 145 0 0 145 0 0 145 0 0 145 0 0 145 0 0 145 0 0 145 0 0 145 0 0 145 0 0 145 0 0 145 0 0 145 0 0 145 0 0 145 0 0 145 0 0 145 0 0 145 0 0 145 0 0 145 0 0 145 0 0 145 0 0 145 0 0 145 0 0 145 0 0 145 0 0 145 0 0 145 0 0 145 0 0 145 0 0 145 0 0 145 0 0 145 0 0 145 0 0 145 0 0 145 0 0 145 0 0 145 0 0 145 0 0 145 0 0 145 0 0 145 0 0 145 0 0 145 0 0 145 0 0 145 0 0 145 0 0 145 0 0 145 0 0 145 0 0 145 0 0 145 0 0 145 0 0 145 0 0 145 0 0 145 0 0 145 0 0 145 0 0 145 0 0 145 0 0 145 0 0 145 0 0 145 0 0 145 0 0 145 0 0 145 0 0 145 0 0 145 225 0 15 255 255 255 255 255 255 255 255 255 255 255 255 255 255 255 255 255 255 255 255 255 255 255 255 255 255 255 255 255 255 255 255 255 255 255 255 255 255 255 255 255 255 255 255 255 255 255 255 255 255 255 255 255 255 255 255 255 255 255 255 255 255 255 255 255 255 255 255 255 255 255 255 255 255 255 255 255 255 255 255 255 255 255 255 255 255 255 255 255 255 255 255 255 255 255 255 255 255 255 255 255 255 255 255 255 255 255 255 255 255 255 255 255 255 255 255 255 255 255 255 255 255 255 255 255 255 255 255 255 255 255 255 255 255 255 255 255 255 255 255 255 255 255 255 255 255 255 255 255 255 255 255 255 255 255 255 255 255 255 255 255 255 255 255 255 255 255 255 255 255 255 255 255 255 255 255 255 255 255 255 255 255 255 255 255 255 255 255 255 255 255 255 255 255 255 255 255 255 255 255 255 255 255 255 255 255 255 255 255 255 255 255 255 255 255 255 255 255 255 255 255 255 255 255 255 255 255 255 255 255 255 255 255 255 255 255 255 255 255 255 255 255 255 255 255 255 255 255 255 255 255 255 255 255 255 255 255 255 255 255 255 255 255 255 255 255 255 255 255 255 255 255 255 255 255 255 255 255 255 255 255 255 255 255 255 255 255 255 255 255 255 255 255 255 255 255 255 225 0 15 225 0 15 225 0 15 225 0 15 225 0 15 225 0 15 225 0 15 225 0 15 225 0 15 225 0 15 225 0 15 225 0 15 225 0 15 225 0 15 225 0 15 225 0 15 225 0 15 225 0 15 225 0 15 225 0 15 225 0 15 225 0 15 225 0 15 225 0 15 225 0 15 225 0 15 225 0 15 225 0 15 225 0 15 225 0 15 225 0 15 225 0 15 225 0 15 225 0 15 225 0 15 225 0 15 225 0 15 225 0 15 225 0 15 225 0 15 225 0 15 225 0 15 225 0 15 225 0 15 225 0 15 225 0 15 225 0 15 225 0 15 225 0 15 225 0 15 225 0 15 225 0 15 225 0 15 225 0 15 225 0 15 225 0 15 225 0 15 225 0 15 225 0 15 225 0 15 225 0 15 225 0 15 225 0 15 225 0 15 225 0 15 225 0 15 225 0 15 225 0 15 225 0 15 225 0 15 225 0 15 225 0 15 225 0 15 225 0 15 225 0 15 225 0 15 225 0 15 225 0 15 225 0 15 225 0 15 225 0 15 225 0 15 225 0 15 225 0 15 225 0 15 225 0 15 225 0 15 225 0 15 225 0 15 225 0 15 225 0 15 225 0 15 225 0 15 225 0 15 225 0 15 225 0 15 225 0 15 225 0 15 225 0 15 225 0 15 225 0 15 
0 0 145 0 0 145 0 0 145 0 0 145 0 0 145 0 0 145 0 0 145 0 0 145 0 0 145 0 0 145 0 0 145 0 0 145 0 0 145 0 0 145 0 0 145 0 0 145 0 0 145 0 0 145 0 0 145 0 0 145 0 0 145 0 0 145 0 0 145 0 0 145 0 0 145 0 0 145 0 0 145 0 0 145 0 0 145 0 0 145 0 0 145 0 0 145 0 0 145 0 0 145 0 0 145 0 0 145 0 0 145 0 0 145 0 0 145 0 0 145 0 0 145 0 0 145 0 0 145 0 0 145 0 0 145 0 0 145 0 0 145 0 0 145 0 0 145 0 0 145 0 0 145 0 0 145 0 0 145 0 0 145 0 0 145 0 0 145 0 0 145 0 0 145 0 0 145 0 0 145 0 0 145 0 0 145 0 0 145 0 0 145 0 0 145 0 0 145 0 0 145 0 0 145 0 0 145 0 0 145 0 0 145 0 0 145 0 0 145 0 0 145 0 0 145 0 0 145 0 0 145 0 0 145 0 0 145 0 0 145 0 0 145 0 0 145 0 0 145 0 0 145 0 0 145 0 0 145 0 0 145 0 0 145 0 0 145 0 0 145 0 0 145 0 0 145 0 0 145 0 0 145 0 0 145 0 0 145 0 0 145 0 0 145 0 0 145 225 0 15 255 255 255 255 255 255 255 255 255 255 255 255 255 255 255 255 255 255 255 255 255 255 255 255 255 255 255 255 255 255 255 255 255 255 255 255 255 255 255 255 255 255 255 255 255 255 255 255 255 255 255 255 255 255 255 255 255 255 255 255 255 255 255 255 255 255 255 255 255 255 255 255 255 255 255 255 255 255 255 255 255 255 255 255 255 255 255 255 255 255 255 255 255 255 255 255 255 255 255 255 255 255 255 255 255 255 255 255 255 255 255 255 255 255 255 255 255 255 255 255 255 255 255 255 255 255 255 255 255 255 255 255 255 255 255 255 255 255 255 255 255 255 255 255 255 255 255 255 255 255 255 255 255 255 255 255 255 255 255 255 255 255 255 255 255 255 255 255 255 255 255 255 255 255 255 255 255 255 255 255 255 255 255 255 255 255 255 255 255 255 255 255 255 255 255 255 255 255 255 255 255 255 255 255 255 255 255 255 255 255 255 255 255 255 255 255 255 255 255 255 255 255 255 255 255 255 255 255 255 255 255 255 255 255 255 255 255 255 255 255 255 255 255 255 255 255 255 255 255 255 255 255 255 255 255 255 255 255 255 255 255 255 255 255 255 255 255 255 255 255 255 255 255 255 255 255 255 255 255 255 255 255 255 255 255 255 255 255 255 255 255 255 255 255 255 255 255 225 0 15 225 0 15 225 0 15 225 0 15 225 0 15 225 0 15 225 0 15 225 0 15 225 0 15 225 0 15 225 0 15 225 0 15 225 0 15 225 0 15 225 0 15 225 0 15 225 0 15 225 0 15 225 0 15 225 0 15 225 0 15 225 0 15 225 0 15 225 0 15 225 0 15 225 0 15 225 0 15 225 0 15 225 0 15 225 0 15 225 0 15 225 0 15 225 0 15 225 0 15 225 0 15 225 0 15 225 0 15 225 0 15 225 0 15 225 0 15 225 0 15 225 0 15 225 0 15 225 0 15 225 0 15 225 0 15 225 0 15 225 0 15 225 0 15 225 0 15 225 0 15 225 0 15 225 0 15 225 0 15 225 0 15 225 0 15 225 0 15 225 0 15 225 0 15 225 0 15 225 0 15 225 0 15 225 0 15 225 0 15 225 0 15 225 0 15 225 0 15 225 0 15 225 0 15 225 0 15 225 0 15 225 0 15 225 0 15 225 0 15 225 0 15 225 0 15 225 0 15 225 0 15 225 0 15 225 0 15 225 0 15 225 0 15 225 0 15 225 0 15 225 0 15 225 0 15 225 0 15 225 0 15 225 0 15 225 0 15 225 0 15 225 0 15 225 0 15 225 0 15 225 0 15 225 0 15 225 0 15 225 0 15 225 0 15 225 0 15 225 0 15 
0 0 145 0 0 145 0 0 145 0 0 145 0 0 145 0 0 145 0 0 145 0 0 145 0 0 145 0 0 145 0 0 145 0 0 145 0 0 145 0 0 145 0 0 145 0 0 145 0 0 145 0 0 145 0 0 145 0 0 145 0 0 145 0 0 145 0 0 145 0 0 145 0 0 145 0 0 145 0 0 145 0 0 145 0 0 145 0 0 145 0 0 145 0 0 145 0 0 145 0 0 145 0 0 145 0 0 145 0 0 145 0 0 145 0 0 145 0 0 145 0 0 145 0 0 145 0 0 145 0 0 145 0 0 145 0 0 145 0 0 145 0 0 145 0 0 145 0 0 145 0 0 145 0 0 145 0 0 145 0 0 145 0 0 145 0 0 145 0 0 145 0 0 145 0 0 145 0 0 145 0 0 145 0 0 145 0 0 145 0 0 145 0 0 145 0 0 145 0 0 145 0 0 145 0 0 145 0 0 145 0 0 145 0 0 145 0 0 145 0 0 145 0 0 145 0 0 145 0 0 145 0 0 145 0 0 145 0 0 145 0 0 145 0 0 145 0 0 145 0 0 145 0 0 145 0 0 145 0 0 145 0 0 145 0 0 145 0 0 145 0 0 145 0 0 145 0 0 145 0 0 145 0 0 145 0 0 145 0 0 145 0 0 145 0 0 145 225 0 15 255 255 255 255 255 255 255 255 255 255 255 255 255 255 255 255 255 255 255 255 255 255 255 255 255 255 255 255 255 255 255 255 255 255 255 255 255 255 255 255 255 255 255 255 255 255 255 255 255 255 255 255 255 255 255 255 255 255 255 255 255 255 255 255 255 255 255 255 255 255 255 255 255 255 255 255 255 255 255 255 255 255 255 255 255 255 255 255 255 255 255 255 255 255 255 255 255 255 255 255 255 255 255 255 255 255 255 255 255 255 255 255 255 255 255 255 255 255 255 255 255 255 255 255 255 255 255 255 255 255 255 255 255 255 255 255 255 255 255 255 255 255 255 255 255 255 255 255 255 255 255 255 255 255 255 255 255 255 255 255 255 255 255 255 255 255 255 255 255 255 255 255 255 255 255 255 255 255 255 255 255 255 255 255 255 255 255 255 255 255 255 255 255 255 255 255 255 255 255 255 255 255 255 255 255 255 255 255 255 255 255 255 255 255 255 255 255 255 255 255 255 255 255 255 255 255 255 255 255 255 255 255 255 255 255 255 255 255 255 255 255 255 255 255 255 255 255 255 255 255 255 255 255 255 255 255 255 255 255 255 255 255 255 255 255 255 255 255 255 255 255 255 255 255 255 255 255 255 255 255 255 255 255 255 255 255 255 255 255 255 255 255 255 255 255 255 255 225 0 15 225 0 15 225 0 15 225 0 15 225 0 15 225 0 15 225 0 15 225 0 15 225 0 15 225 0 15 225 0 15 225 0 15 225 0 15 225 0 15 225 0 15 225 0 15 225 0 15 225 0 15 225 0 15 225 0 15 225 0 15 225 0 15 225 0 15 225 0 15 225 0 15 225 0 15 225 0 15 225 0 15 225 0 15 225 0 15 225 0 15 225 0 15 225 0 15 225 0 15 225 0 15 225 0 15 225 0 15 225 0 15 225 0 15 225 0 15 225 0 15 225 0 15 225 0 15 225 0 15 225 0 15 225 0 15 225 0 15 225 0 15 225 0 15 225 0 15 225 0 15 225 0 15 225 0 15 225 0 15 225 0 15 225 0 15 225 0 15 225 0 15 225 0 15 225 0 15 225 0 15 225 0 15 225 0 15 225 0 15 225 0 15 225 0 15 225 0 15 225 0 15 225 0 15 225 0 15 225 0 15 225 0 15 225 0 15 225 0 15 225 0 15 225 0 15 225 0 15 225 0 15 225 0 15 225 0 15 225 0 15 225 0 15 225 0 15 225 0 15 225 0 15 225 0 15 225 0 15 225 0 15 225 0 15 225 0 15 225 0 15 225 0 15 225 0 15 225 0 15 225 0 15 225 0 15 225 0 15 225 0 15 225 0 15 225 0 15 225 0 15 
0 0 145 0 0 145 0 0 145 0 0 145 0 0 145 0 0 145 0 0 145 0 0 145 0 0 145 0 0 145 0 0 145 0 0 145 0 0 145 0 0 145 0 0 145 0 0 145 0 0 145 0 0 145 0 0 145 0 0 145 0 0 145 0 0 145 0 0 145 0 0 145 0 0 145 0 0 145 0 0 145 0 0 145 0 0 145 0 0 145 0 0 145 0 0 145 0 0 145 0 0 145 0 0 145 0 0 145 0 0 145 0 0 145 0 0 145 0 0 145 0 0 145 0 0 145 0 0 145 0 0 145 0 0 145 0 0 145 0 0 145 0 0 145 0 0 145 0 0 145 0 0 145 0 0 145 0 0 145 0 0 145 0 0 145 0 0 145 0 0 145 0 0 145 0 0 145 0 0 145 0 0 145 0 0 145 0 0 145 0 0 145 0 0 145 0 0 145 0 0 145 0 0 145 0 0 145 0 0 145 0 0 145 0 0 145 0 0 145 0 0 145 0 0 145 0 0 145 0 0 145 0 0 145 0 0 145 0 0 145 0 0 145 0 0 145 0 0 145 0 0 145 0 0 145 0 0 145 0 0 145 0 0 145 0 0 145 0 0 145 0 0 145 0 0 145 0 0 145 0 0 145 0 0 145 0 0 145 0 0 145 0 0 145 0 0 145 225 0 15 255 255 255 255 255 255 255 255 255 255 255 255 255 255 255 255 255 255 255 255 255 255 255 255 255 255 255 255 255 255 255 255 255 255 255 255 255 255 255 255 255 255 255 255 255 255 255 255 255 255 255 255 255 255 255 255 255 255 255 255 255 255 255 255 255 255 255 255 255 255 255 255 255 255 255 255 255 255 255 255 255 255 255 255 255 255 255 255 255 255 255 255 255 255 255 255 255 255 255 255 255 255 255 255 255 255 255 255 255 255 255 255 255 255 255 255 255 255 255 255 255 255 255 255 255 255 255 255 255 255 255 255 255 255 255 255 255 255 255 255 255 255 255 255 255 255 255 255 255 255 255 255 255 255 255 255 255 255 255 255 255 255 255 255 255 255 255 255 255 255 255 255 255 255 255 255 255 255 255 255 255 255 255 255 255 255 255 255 255 255 255 255 255 255 255 255 255 255 255 255 255 255 255 255 255 255 255 255 255 255 255 255 255 255 255 255 255 255 255 255 255 255 255 255 255 255 255 255 255 255 255 255 255 255 255 255 255 255 255 255 255 255 255 255 255 255 255 255 255 255 255 255 255 255 255 255 255 255 255 255 255 255 255 255 255 255 255 255 255 255 255 255 255 255 255 255 255 255 255 255 255 255 255 255 255 255 255 255 255 255 255 255 255 255 255 255 255 225 0 15 225 0 15 225 0 15 225 0 15 225 0 15 225 0 15 225 0 15 225 0 15 225 0 15 225 0 15 225 0 15 225 0 15 225 0 15 225 0 15 225 0 15 225 0 15 225 0 15 225 0 15 225 0 15 225 0 15 225 0 15 225 0 15 225 0 15 225 0 15 225 0 15 225 0 15 225 0 15 225 0 15 225 0 15 225 0 15 225 0 15 225 0 15 225 0 15 225 0 15 225 0 15 225 0 15 225 0 15 225 0 15 225 0 15 225 0 15 225 0 15 225 0 15 225 0 15 225 0 15 225 0 15 225 0 15 225 0 15 225 0 15 225 0 15 225 0 15 225 0 15 225 0 15 225 0 15 225 0 15 225 0 15 225 0 15 225 0 15 225 0 15 225 0 15 225 0 15 225 0 15 225 0 15 225 0 15 225 0 15 225 0 15 225 0 15 225 0 15 225 0 15 225 0 15 225 0 15 225 0 15 225 0 15 225 0 15 225 0 15 225 0 15 225 0 15 225 0 15 225 0 15 225 0 15 225 0 15 225 0 15 225 0 15 225 0 15 225 0 15 225 0 15 225 0 15 225 0 15 225 0 15 225 0 15 225 0 15 225 0 15 225 0 15 225 0 15 225 0 15 225 0 15 225 0 15 225 0 15 225 0 15 225 0 15 225 0 15 225 0 15 
0 0 145 0 0 145 0 0 145 0 0 145 0 0 145 0 0 145 0 0 145 0 0 145 0 0 145 0 0 145 0 0 145 0 0 145 0 0 145 0 0 145 0 0 145 0 0 145 0 0 145 0 0 145 0 0 145 0 0 145 0 0 145 0 0 145 0 0 145 0 0 145 0 0 145 0 0 145 0 0 145 0 0 145 0 0 145 0 0 145 0 0 145 0 0 145 0 0 145 0 0 145 0 0 145 0 0 145 0 0 145 0 0 145 0 0 145 0 0 145 0 0 145 0 0 145 0 0 145 0 0 145 0 0 145 0 0 145 0 0 145 0 0 145 0 0 145 0 0 145 0 0 145 0 0 145 0 0 145 0 0 145 0 0 145 0 0 145 0 0 145 0 0 145 0 0 145 0 0 145 0 0 145 0 0 145 0 0 145 0 0 145 0 0 145 0 0 145 0 0 145 0 0 145 0 0 145 0 0 145 0 0 145 0 0 145 0 0 145 0 0 145 0 0 145 0 0 145 0 0 145 0 0 145 0 0 145 0 0 145 0 0 145 0 0 145 0 0 145 0 0 145 0 0 145 0 0 145 0 0 145 0 0 145 0 0 145 0 0 145 0 0 145 0 0 145 0 0 145 0 0 145 0 0 145 0 0 145 0 0 145 0 0 145 0 0 145 225 0 15 255 255 255 255 255 255 255 255 255 255 255 255 255 255 255 255 255 255 255 255 255 255 255 255 255 255 255 255 255 255 255 255 255 255 255 255 255 255 255 255 255 255 255 255 255 255 255 255 255 255 255 255 255 255 255 255 255 255 255 255 255 255 255 255 255 255 255 255 255 255 255 255 255 255 255 255 255 255 255 255 255 255 255 255 255 255 255 255 255 255 255 255 255 255 255 255 255 255 255 255 255 255 255 255 255 255 255 255 255 255 255 255 255 255 255 255 255 255 255 255 255 255 255 255 255 255 255 255 255 255 255 255 255 255 255 255 255 255 255 255 255 255 255 255 255 255 255 255 255 255 255 255 255 255 255 255 255 255 255 255 255 255 255 255 255 255 255 255 255 255 255 255 255 255 255 255 255 255 255 255 255 255 255 255 255 255 255 255 255 255 255 255 255 255 255 255 255 255 255 255 255 255 255 255 255 255 255 255 255 255 255 255 255 255 255 255 255 255 255 255 255 255 255 255 255 255 255 255 255 255 255 255 255 255 255 255 255 255 255 255 255 255 255 255 255 255 255 255 255 255 255 255 255 255 255 255 255 255 255 255 255 255 255 255 255 255 255 255 255 255 255 255 255 255 255 255 255 255 255 255 255 255 255 255 255 255 255 255 255 255 255 255 255 255 255 255 255 225 0 15 225 0 15 225 0 15 225 0 15 225 0 15 225 0 15 225 0 15 225 0 15 225 0 15 225 0 15 225 0 15 225 0 15 225 0 15 225 0 15 225 0 15 225 0 15 225 0 15 225 0 15 225 0 15 225 0 15 225 0 15 225 0 15 225 0 15 225 0 15 225 0 15 225 0 15 225 0 15 225 0 15 225 0 15 225 0 15 225 0 15 225 0 15 225 0 15 225 0 15 225 0 15 225 0 15 225 0 15 225 0 15 225 0 15 225 0 15 225 0 15 225 0 15 225 0 15 225 0 15 225 0 15 225 0 15 225 0 15 225 0 15 225 0 15 225 0 15 225 0 15 225 0 15 225 0 15 225 0 15 225 0 15 225 0 15 225 0 15 225 0 15 225 0 15 225 0 15 225 0 15 225 0 15 225 0 15 225 0 15 225 0 15 225 0 15 225 0 15 225 0 15 225 0 15 225 0 15 225 0 15 225 0 15 225 0 15 225 0 15 225 0 15 225 0 15 225 0 15 225 0 15 225 0 15 225 0 15 225 0 15 225 0 15 225 0 15 225 0 15 225 0 15 225 0 15 225 0 15 225 0 15 225 0 15 225 0 15 225 0 15 225 0 15 225 0 15 225 0 15 225 0 15 225 0 15 225 0 15 225 0 15 225 0 15 225 0 15 225 0 15 
0 0 145 0 0 145 0 0 145 0 0 145 0 0 145 0 0 145 0 0 145 0 0 145 0 0 145 0 0 145 0 0 145 0 0 145 0 0 145 0 0 145 0 0 145 0 0 145 0 0 145 0 0 145 0 0 145 0 0 145 0 0 145 0 0 145 0 0 145 0 0 145 0 0 145 0 0 145 0 0 145 0 0 145 0 0 145 0 0 145 0 0 145 0 0 145 0 0 145 0 0 145 0 0 145 0 0 145 0 0 145 0 0 145 0 0 145 0 0 145 0 0 145 0 0 145 0 0 145 0 0 145 0 0 145 0 0 145 0 0 145 0 0 145 0 0 145 0 0 145 0 0 145 0 0 145 0 0 145 0 0 145 0 0 145 0 0 145 0 0 145 0 0 145 0 0 145 0 0 145 0 0 145 0 0 145 0 0 145 0 0 145 0 0 145 0 0 145 0 0 145 0 0 145 0 0 145 0 0 145 0 0 145 0 0 145 0 0 145 0 0 145 0 0 145 0 0 145 0 0 145 0 0 145 0 0 145 0 0 145 0 0 145 0 0 145 0 0 145 0 0 145 0 0 145 0 0 145 0 0 145 0 0 145 0 0 145 0 0 145 0 0 145 0 0 145 0 0 145 0 0 145 0 0 145 0 0 145 0 0 145 0 0 145 0 0 145 225 0 15 255 255 255 255 255 255 255 255 255 255 255 255 255 255 255 255 255 255 255 255 255 255 255 255 255 255 255 255 255 255 255 255 255 255 255 255 255 255 255 255 255 255 255 255 255 255 255 255 255 255 255 255 255 255 255 255 255 255 255 255 255 255 255 255 255 255 255 255 255 255 255 255 255 255 255 255 255 255 255 255 255 255 255 255 255 255 255 255 255 255 255 255 255 255 255 255 255 255 255 255 255 255 255 255 255 255 255 255 255 255 255 255 255 255 255 255 255 255 255 255 255 255 255 255 255 255 255 255 255 255 255 255 255 255 255 255 255 255 255 255 255 255 255 255 255 255 255 255 255 255 255 255 255 255 255 255 255 255 255 255 255 255 255 255 255 255 255 255 255 255 255 255 255 255 255 255 255 255 255 255 255 255 255 255 255 255 255 255 255 255 255 255 255 255 255 255 255 255 255 255 255 255 255 255 255 255 255 255 255 255 255 255 255 255 255 255 255 255 255 255 255 255 255 255 255 255 255 255 255 255 255 255 255 255 255 255 255 255 255 255 255 255 255 255 255 255 255 255 255 255 255 255 255 255 255 255 255 255 255 255 255 255 255 255 255 255 255 255 255 255 255 255 255 255 255 255 255 255 255 255 255 255 255 255 255 255 255 255 255 255 255 255 255 255 255 255 255 225 0 15 225 0 15 225 0 15 225 0 15 225 0 15 225 0 15 225 0 15 225 0 15 225 0 15 225 0 15 225 0 15 225 0 15 225 0 15 225 0 15 225 0 15 225 0 15 225 0 15 225 0 15 225 0 15 225 0 15 225 0 15 225 0 15 225 0 15 225 0 15 225 0 15 225 0 15 225 0 15 225 0 15 225 0 15 225 0 15 225 0 15 225 0 15 225 0 15 225 0 15 225 0 15 225 0 15 225 0 15 225 0 15 225 0 15 225 0 15 225 0 15 225 0 15 225 0 15 225 0 15 225 0 15 225 0 15 225 0 15 225 0 15 225 0 15 225 0 15 225 0 15 225 0 15 225 0 15 225 0 15 225 0 15 225 0 15 225 0 15 225 0 15 225 0 15 225 0 15 225 0 15 225 0 15 225 0 15 225 0 15 225 0 15 225 0 15 225 0 15 225 0 15 225 0 15 225 0 15 225 0 15 225 0 15 225 0 15 225 0 15 225 0 15 225 0 15 225 0 15 225 0 15 225 0 15 225 0 15 225 0 15 225 0 15 225 0 15 225 0 15 225 0 15 225 0 15 225 0 15 225 0 15 225 0 15 225 0 15 225 0 15 225 0 15 225 0 15 225 0 15 225 0 15 225 0 15 225 0 15 225 0 15 225 0 15 225 0 15 225 0 15 
0 0 145 0 0 145 0 0 145 0 0 145 0 0 145 0 0 145 0 0 145 0 0 145 0 0 145 0 0 145 0 0 145 0 0 145 0 0 145 0 0 145 0 0 145 0 0 145 0 0 145 0 0 145 0 0 145 0 0 145 0 0 145 0 0 145 0 0 145 0 0 145 0 0 145 0 0 145 0 0 145 0 0 145 0 0 145 0 0 145 0 0 145 0 0 145 0 0 145 0 0 145 0 0 145 0 0 145 0 0 145 0 0 145 0 0 145 0 0 145 0 0 145 0 0 145 0 0 145 0 0 145 0 0 145 0 0 145 0 0 145 0 0 145 0 0 145 0 0 145 0 0 145 0 0 145 0 0 145 0 0 145 0 0 145 0 0 145 0 0 145 0 0 145 0 0 145 0 0 145 0 0 145 0 0 145 0 0 145 0 0 145 0 0 145 0 0 145 0 0 145 0 0 145 0 0 145 0 0 145 0 0 145 0 0 145 0 0 145 0 0 145 0 0 145 0 0 145 0 0 145 0 0 145 0 0 145 0 0 145 0 0 145 0 0 145 0 0 145 0 0 145 0 0 145 0 0 145 0 0 145 0 0 145 0 0 145 0 0 145 0 0 145 0 0 145 0 0 145 0 0 145 0 0 145 0 0 145 0 0 145 0 0 145 0 0 145 225 0 15 255 255 255 255 255 255 255 255 255 255 255 255 255 255 255 255 255 255 255 255 255 255 255 255 255 255 255 255 255 255 255 255 255 255 255 255 255 255 255 255 255 255 255 255 255 255 255 255 255 255 255 255 255 255 255 255 255 255 255 255 255 255 255 255 255 255 255 255 255 255 255 255 255 255 255 255 255 255 255 255 255 255 255 255 255 255 255 255 255 255 255 255 255 255 255 255 255 255 255 255 255 255 255 255 255 255 255 255 255 255 255 255 255 255 255 255 255 255 255 255 255 255 255 255 255 255 255 255 255 255 255 255 255 255 255 255 255 255 255 255 255 255 255 255 255 255 255 255 255 255 255 255 255 255 255 255 255 255 255 255 255 255 255 255 255 255 255 255 255 255 255 255 255 255 255 255 255 255 255 255 255 255 255 255 255 255 255 255 255 255 255 255 255 255 255 255 255 255 255 255 255 255 255 255 255 255 255 255 255 255 255 255 255 255 255 255 255 255 255 255 255 255 255 255 255 255 255 255 255 255 255 255 255 255 255 255 255 255 255 255 255 255 255 255 255 255 255 255 255 255 255 255 255 255 255 255 255 255 255 255 255 255 255 255 255 255 255 255 255 255 255 255 255 255 255 255 255 255 255 255 255 255 255 255 255 255 255 255 255 255 255 255 255 255 255 255 255 225 0 15 225 0 15 225 0 15 225 0 15 225 0 15 225 0 15 225 0 15 225 0 15 225 0 15 225 0 15 225 0 15 225 0 15 225 0 15 225 0 15 225 0 15 225 0 15 225 0 15 225 0 15 225 0 15 225 0 15 225 0 15 225 0 15 225 0 15 225 0 15 225 0 15 225 0 15 225 0 15 225 0 15 225 0 15 225 0 15 225 0 15 225 0 15 225 0 15 225 0 15 225 0 15 225 0 15 225 0 15 225 0 15 225 0 15 225 0 15 225 0 15 225 0 15 225 0 15 225 0 15 225 0 15 225 0 15 225 0 15 225 0 15 225 0 15 225 0 15 225 0 15 225 0 15 225 0 15 225 0 15 225 0 15 225 0 15 225 0 15 225 0 15 225 0 15 225 0 15 225 0 15 225 0 15 225 0 15 225 0 15 225 0 15 225 0 15 225 0 15 225 0 15 225 0 15 225 0 15 225 0 15 225 0 15 225 0 15 225 0 15 225 0 15 225 0 15 225 0 15 225 0 15 225 0 15 225 0 15 225 0 15 225 0 15 225 0 15 225 0 15 225 0 15 225 0 15 225 0 15 225 0 15 225 0 15 225 0 15 225 0 15 225 0 15 225 0 15 225 0 15 225 0 15 225 0 15 225 0 15 225 0 15 225 0 15 225 0 15 225 0 15 
0 0 145 0 0 145 0 0 145 0 0 145 0 0 145 0 0 145 0 0 145 0 0 145 0 0 145 0 0 145 0 0 145 0 0 145 0 0 145 0 0 145 0 0 145 0 0 145 0 0 145 0 0 145 0 0 145 0 0 145 0 0 145 0 0 145 0 0 145 0 0 145 0 0 145 0 0 145 0 0 145 0 0 145 0 0 145 0 0 145 0 0 145 0 0 145 0 0 145 0 0 145 0 0 145 0 0 145 0 0 145 0 0 145 0 0 145 0 0 145 0 0 145 0 0 145 0 0 145 0 0 145 0 0 145 0 0 145 0 0 145 0 0 145 0 0 145 0 0 145 0 0 145 0 0 145 0 0 145 0 0 145 0 0 145 0 0 145 0 0 145 0 0 145 0 0 145 0 0 145 0 0 145 0 0 145 0 0 145 0 0 145 0 0 145 0 0 145 0 0 145 0 0 145 0 0 145 0 0 145 0 0 145 0 0 145 0 0 145 0 0 145 0 0 145 0 0 145 0 0 145 0 0 145 0 0 145 0 0 145 0 0 145 0 0 145 0 0 145 0 0 145 0 0 145 0 0 145 0 0 145 0 0 145 0 0 145 0 0 145 0 0 145 0 0 145 0 0 145 0 0 145 0 0 145 0 0 145 0 0 145 0 0 145 0 0 145 225 0 15 255 255 255 255 255 255 255 255 255 255 255 255 255 255 255 255 255 255 255 255 255 255 255 255 255 255 255 255 255 255 255 255 255 255 255 255 255 255 255 255 255 255 255 255 255 255 255 255 255 255 255 255 255 255 255 255 255 255 255 255 255 255 255 255 255 255 255 255 255 255 255 255 255 255 255 255 255 255 255 255 255 255 255 255 255 255 255 255 255 255 255 255 255 255 255 255 255 255 255 255 255 255 255 255 255 255 255 255 255 255 255 255 255 255 255 255 255 255 255 255 255 255 255 255 255 255 255 255 255 255 255 255 255 255 255 255 255 255 255 255 255 255 255 255 255 255 255 255 255 255 255 255 255 255 255 255 255 255 255 255 255 255 255 255 255 255 255 255 255 255 255 255 255 255 255 255 255 255 255 255 255 255 255 255 255 255 255 255 255 255 255 255 255 255 255 255 255 255 255 255 255 255 255 255 255 255 255 255 255 255 255 255 255 255 255 255 255 255 255 255 255 255 255 255 255 255 255 255 255 255 255 255 255 255 255 255 255 255 255 255 255 255 255 255 255 255 255 255 255 255 255 255 255 255 255 255 255 255 255 255 255 255 255 255 255 255 255 255 255 255 255 255 255 255 255 255 255 255 255 255 255 255 255 255 255 255 255 255 255 255 255 255 255 255 255 255 255 225 0 15 225 0 15 225 0 15 225 0 15 225 0 15 225 0 15 225 0 15 225 0 15 225 0 15 225 0 15 225 0 15 225 0 15 225 0 15 225 0 15 225 0 15 225 0 15 225 0 15 225 0 15 225 0 15 225 0 15 225 0 15 225 0 15 225 0 15 225 0 15 225 0 15 225 0 15 225 0 15 225 0 15 225 0 15 225 0 15 225 0 15 225 0 15 225 0 15 225 0 15 225 0 15 225 0 15 225 0 15 225 0 15 225 0 15 225 0 15 225 0 15 225 0 15 225 0 15 225 0 15 225 0 15 225 0 15 225 0 15 225 0 15 225 0 15 225 0 15 225 0 15 225 0 15 225 0 15 225 0 15 225 0 15 225 0 15 225 0 15 225 0 15 225 0 15 225 0 15 225 0 15 225 0 15 225 0 15 225 0 15 225 0 15 225 0 15 225 0 15 225 0 15 225 0 15 225 0 15 225 0 15 225 0 15 225 0 15 225 0 15 225 0 15 225 0 15 225 0 15 225 0 15 225 0 15 225 0 15 225 0 15 225 0 15 225 0 15 225 0 15 225 0 15 225 0 15 225 0 15 225 0 15 225 0 15 225 0 15 225 0 15 225 0 15 225 0 15 225 0 15 225 0 15 225 0 15 225 0 15 225 0 15 225 0 15 225 0 15 225 0 15 
0 0 145 0 0 145 0 0 145 0 0 145 0 0 145 0 0 145 0 0 145 0 0 145 0 0 145 0 0 145 0 0 145 0 0 145 0 0 145 0 0 145 0 0 145 0 0 145 0 0 145 0 0 145 0 0 145 0 0 145 0 0 145 0 0 145 0 0 145 0 0 145 0 0 145 0 0 145 0 0 145 0 0 145 0 0 145 0 0 145 0 0 145 0 0 145 0 0 145 0 0 145 0 0 145 0 0 145 0 0 145 0 0 145 0 0 145 0 0 145 0 0 145 0 0 145 0 0 145 0 0 145 0 0 145 0 0 145 0 0 145 0 0 145 0 0 145 0 0 145 0 0 145 0 0 145 0 0 145 0 0 145 0 0 145 0 0 145 0 0 145 0 0 145 0 0 145 0 0 145 0 0 145 0 0 145 0 0 145 0 0 145 0 0 145 0 0 145 0 0 145 0 0 145 0 0 145 0 0 145 0 0 145 0 0 145 0 0 145 0 0 145 0 0 145 0 0 145 0 0 145 0 0 145 0 0 145 0 0 145 0 0 145 0 0 145 0 0 145 0 0 145 0 0 145 0 0 145 0 0 145 0 0 145 0 0 145 0 0 145 0 0 145 0 0 145 0 0 145 0 0 145 0 0 145 0 0 145 0 0 145 0 0 145 0 0 145 225 0 15 255 255 255 255 255 255 255 255 255 255 255 255 255 255 255 255 255 255 255 255 255 255 255 255 255 255 255 255 255 255 255 255 255 255 255 255 255 255 255 255 255 255 255 255 255 255 255 255 255 255 255 255 255 255 255 255 255 255 255 255 255 255 255 255 255 255 255 255 255 255 255 255 255 255 255 255 255 255 255 255 255 255 255 255 255 255 255 255 255 255 255 255 255 255 255 255 255 255 255 255 255 255 255 255 255 255 255 255 255 255 255 255 255 255 255 255 255 255 255 255 255 255 255 255 255 255 255 255 255 255 255 255 255 255 255 255 255 255 255 255 255 255 255 255 255 255 255 255 255 255 255 255 255 255 255 255 255 255 255 255 255 255 255 255 255 255 255 255 255 255 255 255 255 255 255 255 255 255 255 255 255 255 255 255 255 255 255 255 255 255 255 255 255 255 255 255 255 255 255 255 255 255 255 255 255 255 255 255 255 255 255 255 255 255 255 255 255 255 255 255 255 255 255 255 255 255 255 255 255 255 255 255 255 255 255 255 255 255 255 255 255 255 255 255 255 255 255 255 255 255 255 255 255 255 255 255 255 255 255 255 255 255 255 255 255 255 255 255 255 255 255 255 255 255 255 255 255 255 255 255 255 255 255 255 255 255 255 255 255 255 255 255 255 255 255 255 255 225 0 15 225 0 15 225 0 15 225 0 15 225 0 15 225 0 15 225 0 15 225 0 15 225 0 15 225 0 15 225 0 15 225 0 15 225 0 15 225 0 15 225 0 15 225 0 15 225 0 15 225 0 15 225 0 15 225 0 15 225 0 15 225 0 15 225 0 15 225 0 15 225 0 15 225 0 15 225 0 15 225 0 15 225 0 15 225 0 15 225 0 15 225 0 15 225 0 15 225 0 15 225 0 15 225 0 15 225 0 15 225 0 15 225 0 15 225 0 15 225 0 15 225 0 15 225 0 15 225 0 15 225 0 15 225 0 15 225 0 15 225 0 15 225 0 15 225 0 15 225 0 15 225 0 15 225 0 15 225 0 15 225 0 15 225 0 15 225 0 15 225 0 15 225 0 15 225 0 15 225 0 15 225 0 15 225 0 15 225 0 15 225 0 15 225 0 15 225 0 15 225 0 15 225 0 15 225 0 15 225 0 15 225 0 15 225 0 15 225 0 15 225 0 15 225 0 15 225 0 15 225 0 15 225 0 15 225 0 15 225 0 15 225 0 15 225 0 15 225 0 15 225 0 15 225 0 15 225 0 15 225 0 15 225 0 15 225 0 15 225 0 15 225 0 15 225 0 15 225 0 15 225 0 15 225 0 15 225 0 15 225 0 15 225 0 15 225 0 15 225 0 15 
0 0 145 0 0 145 0 0 145 0 0 145 0 0 145 0 0 145 0 0 145 0 0 145 0 0 145 0 0 145 0 0 145 0 0 145 0 0 145 0 0 145 0 0 145 0 0 145 0 0 145 0 0 145 0 0 145 0 0 145 0 0 145 0 0 145 0 0 145 0 0 145 0 0 145 0 0 145 0 0 145 0 0 145 0 0 145 0 0 145 0 0 145 0 0 145 0 0 145 0 0 145 0 0 145 0 0 145 0 0 145 0 0 145 0 0 145 0 0 145 0 0 145 0 0 145 0 0 145 0 0 145 0 0 145 0 0 145 0 0 145 0 0 145 0 0 145 0 0 145 0 0 145 0 0 145 0 0 145 0 0 145 0 0 145 0 0 145 0 0 145 0 0 145 0 0 145 0 0 145 0 0 145 0 0 145 0 0 145 0 0 145 0 0 145 0 0 145 0 0 145 0 0 145 0 0 145 0 0 145 0 0 145 0 0 145 0 0 145 0 0 145 0 0 145 0 0 145 0 0 145 0 0 145 0 0 145 0 0 145 0 0 145 0 0 145 0 0 145 0 0 145 0 0 145 0 0 145 0 0 145 0 0 145 0 0 145 0 0 145 0 0 145 0 0 145 0 0 145 0 0 145 0 0 145 0 0 145 0 0 145 0 0 145 0 0 145 225 0 15 255 255 255 255 255 255 255 255 255 255 255 255 255 255 255 255 255 255 255 255 255 255 255 255 255 255 255 255 255 255 255 255 255 255 255 255 255 255 255 255 255 255 255 255 255 255 255 255 255 255 255 255 255 255 255 255 255 255 255 255 255 255 255 255 255 255 255 255 255 255 255 255 255 255 255 255 255 255 255 255 255 255 255 255 255 255 255 255 255 255 255 255 255 255 255 255 255 255 255 255 255 255 255 255 255 255 255 255 255 255 255 255 255 255 255 255 255 255 255 255 255 255 255 255 255 255 255 255 255 255 255 255 255 255 255 255 255 255 255 255 255 255 255 255 255 255 255 255 255 255 255 255 255 255 255 255 255 255 255 255 255 255 255 255 255 255 255 255 255 255 255 255 255 255 255 255 255 255 255 255 255 255 255 255 255 255 255 255 255 255 255 255 255 255 255 255 255 255 255 255 255 255 255 255 255 255 255 255 255 255 255 255 255 255 255 255 255 255 255 255 255 255 255 255 255 255 255 255 255 255 255 255 255 255 255 255 255 255 255 255 255 255 255 255 255 255 255 255 255 255 255 255 255 255 255 255 255 255 255 255 255 255 255 255 255 255 255 255 255 255 255 255 255 255 255 255 255 255 255 255 255 255 255 255 255 255 255 255 255 255 255 255 255 255 255 255 255 225 0 15 225 0 15 225 0 15 225 0 15 225 0 15 225 0 15 225 0 15 225 0 15 225 0 15 225 0 15 225 0 15 225 0 15 225 0 15 225 0 15 225 0 15 225 0 15 225 0 15 225 0 15 225 0 15 225 0 15 225 0 15 225 0 15 225 0 15 225 0 15 225 0 15 225 0 15 225 0 15 225 0 15 225 0 15 225 0 15 225 0 15 225 0 15 225 0 15 225 0 15 225 0 15 225 0 15 225 0 15 225 0 15 225 0 15 225 0 15 225 0 15 225 0 15 225 0 15 225 0 15 225 0 15 225 0 15 225 0 15 225 0 15 225 0 15 225 0 15 225 0 15 225 0 15 225 0 15 225 0 15 225 0 15 225 0 15 225 0 15 225 0 15 225 0 15 225 0 15 225 0 15 225 0 15 225 0 15 225 0 15 225 0 15 225 0 15 225 0 15 225 0 15 225 0 15 225 0 15 225 0 15 225 0 15 225 0 15 225 0 15 225 0 15 225 0 15 225 0 15 225 0 15 225 0 15 225 0 15 225 0 15 225 0 15 225 0 15 225 0 15 225 0 15 225 0 15 225 0 15 225 0 15 225 0 15 225 0 15 225 0 15 225 0 15 225 0 15 225 0 15 225 0 15 225 0 15 225 0 15 225 0 15 225 0 15 225 0 15 225 0 15 
0 0 145 0 0 145 0 0 145 0 0 145 0 0 145 0 0 145 0 0 145 0 0 145 0 0 145 0 0 145 0 0 145 0 0 145 0 0 145 0 0 145 0 0 145 0 0 145 0 0 145 0 0 145 0 0 145 0 0 145 0 0 145 0 0 145 0 0 145 0 0 145 0 0 145 0 0 145 0 0 145 0 0 145 0 0 145 0 0 145 0 0 145 0 0 145 0 0 145 0 0 145 0 0 145 0 0 145 0 0 145 0 0 145 0 0 145 0 0 145 0 0 145 0 0 145 0 0 145 0 0 145 0 0 145 0 0 145 0 0 145 0 0 145 0 0 145 0 0 145 0 0 145 0 0 145 0 0 145 0 0 145 0 0 145 0 0 145 0 0 145 0 0 145 0 0 145 0 0 145 0 0 145 0 0 145 0 0 145 0 0 145 0 0 145 0 0 145 0 0 145 0 0 145 0 0 145 0 0 145 0 0 145 0 0 145 0 0 145 0 0 145 0 0 145 0 0 145 0 0 145 0 0 145 0 0 145 0 0 145 0 0 145 0 0 145 0 0 145 0 0 145 0 0 145 0 0 145 0 0 145 0 0 145 0 0 145 0 0 145 0 0 145 0 0 145 0 0 145 0 0 145 0 0 145 0 0 145 0 0 145 0 0 145 0 0 145 225 0 15 255 255 255 255 255 255 255 255 255 255 255 255 255 255 255 255 255 255 255 255 255 255 255 255 255 255 255 255 255 255 255 255 255 255 255 255 255 255 255 255 255 255 255 255 255 255 255 255 255 255 255 255 255 255 255 255 255 255 255 255 255 255 255 255 255 255 255 255 255 255 255 255 255 255 255 255 255 255 255 255 255 255 255 255 255 255 255 255 255 255 255 255 255 255 255 255 255 255 255 255 255 255 255 255 255 255 255 255 255 255 255 255 255 255 255 255 255 255 255 255 255 255 255 255 255 255 255 255 255 255 255 255 255 255 255 255 255 255 255 255 255 255 255 255 255 255 255 255 255 255 255 255 255 255 255 255 255 255 255 255 255 255 255 255 255 255 255 255 255 255 255 255 255 255 255 255 255 255 255 255 255 255 255 255 255 255 255 255 255 255 255 255 255 255 255 255 255 255 255 255 255 255 255 255 255 255 255 255 255 255 255 255 255 255 255 255 255 255 255 255 255 255 255 255 255 255 255 255 255 255 255 255 255 255 255 255 255 255 255 255 255 255 255 255 255 255 255 255 255 255 255 255 255 255 255 255 255 255 255 255 255 255 255 255 255 255 255 255 255 255 255 255 255 255 255 255 255 255 255 255 255 255 255 255 255 255 255 255 255 255 255 255 255 255 255 255 255 225 0 15 225 0 15 225 0 15 225 0 15 225 0 15 225 0 15 225 0 15 225 0 15 225 0 15 225 0 15 225 0 15 225 0 15 225 0 15 225 0 15 225 0 15 225 0 15 225 0 15 225 0 15 225 0 15 225 0 15 225 0 15 225 0 15 225 0 15 225 0 15 225 0 15 225 0 15 225 0 15 225 0 15 225 0 15 225 0 15 225 0 15 225 0 15 225 0 15 225 0 15 225 0 15 225 0 15 225 0 15 225 0 15 225 0 15 225 0 15 225 0 15 225 0 15 225 0 15 225 0 15 225 0 15 225 0 15 225 0 15 225 0 15 225 0 15 225 0 15 225 0 15 225 0 15 225 0 15 225 0 15 225 0 15 225 0 15 225 0 15 225 0 15 225 0 15 225 0 15 225 0 15 225 0 15 225 0 15 225 0 15 225 0 15 225 0 15 225 0 15 225 0 15 225 0 15 225 0 15 225 0 15 225 0 15 225 0 15 225 0 15 225 0 15 225 0 15 225 0 15 225 0 15 225 0 15 225 0 15 225 0 15 225 0 15 225 0 15 225 0 15 225 0 15 225 0 15 225 0 15 225 0 15 225 0 15 225 0 15 225 0 15 225 0 15 225 0 15 225 0 15 225 0 15 225 0 15 225 0 15 225 0 15 225 0 15 225 0 15 225 0 15 
0 0 145 0 0 145 0 0 145 0 0 145 0 0 145 0 0 145 0 0 145 0 0 145 0 0 145 0 0 145 0 0 145 0 0 145 0 0 145 0 0 145 0 0 145 0 0 145 0 0 145 0 0 145 0 0 145 0 0 145 0 0 145 0 0 145 0 0 145 0 0 145 0 0 145 0 0 145 0 0 145 0 0 145 0 0 145 0 0 145 0 0 145 0 0 145 0 0 145 0 0 145 0 0 145 0 0 145 0 0 145 0 0 145 0 0 145 0 0 145 0 0 145 0 0 145 0 0 145 0 0 145 0 0 145 0 0 145 0 0 145 0 0 145 0 0 145 0 0 145 0 0 145 0 0 145 0 0 145 0 0 145 0 0 145 0 0 145 0 0 145 0 0 145 0 0 145 0 0 145 0 0 145 0 0 145 0 0 145 0 0 145 0 0 145 0 0 145 0 0 145 0 0 145 0 0 145 0 0 145 0 0 145 0 0 145 0 0 145 0 0 145 0 0 145 0 0 145 0 0 145 0 0 145 0 0 145 0 0 145 0 0 145 0 0 145 0 0 145 0 0 145 0 0 145 0 0 145 0 0 145 0 0 145 0 0 145 0 0 145 0 0 145 0 0 145 0 0 145 0 0 145 0 0 145 0 0 145 0 0 145 0 0 145 0 0 145 225 0 15 255 255 255 255 255 255 255 255 255 255 255 255 255 255 255 255 255 255 255 255 255 255 255 255 255 255 255 255 255 255 255 255 255 255 255 255 255 255 255 255 255 255 255 255 255 255 255 255 255 255 255 255 255 255 255 255 255 255 255 255 255 255 255 255 255 255 255 255 255 255 255 255 255 255 255 255 255 255 255 255 255 255 255 255 255 255 255 255 255 255 255 255 255 255 255 255 255 255 255 255 255 255 255 255 255 255 255 255 255 255 255 255 255 255 255 255 255 255 255 255 255 255 255 255 255 255 255 255 255 255 255 255 255 255 255 255 255 255 255 255 255 255 255 255 255 255 255 255 255 255 255 255 255 255 255 255 255 255 255 255 255 255 255 255 255 255 255 255 255 255 255 255 255 255 255 255 255 255 255 255 255 255 255 255 255 255 255 255 255 255 255 255 255 255 255 255 255 255 255 255 255 255 255 255 255 255 255 255 255 255 255 255 255 255 255 255 255 255 255 255 255 255 255 255 255 255 255 255 255 255 255 255 255 255 255 255 255 255 255 255 255 255 255 255 255 255 255 255 255 255 255 255 255 255 255 255 255 255 255 255 255 255 255 255 255 255 255 255 255 255 255 255 255 255 255 255 255 255 255 255 255 255 255 255 255 255 255 255 255 255 255 255 255 255 255 255 255 225 0 15 225 0 15 225 0 15 225 0 15 225 0 15 225 0 15 225 0 15 225 0 15 225 0 15 225 0 15 225 0 15 225 0 15 225 0 15 225 0 15 225 0 15 225 0 15 225 0 15 225 0 15 225 0 15 225 0 15 225 0 15 225 0 15 225 0 15 225 0 15 225 0 15 225 0 15 225 0 15 225 0 15 225 0 15 225 0 15 225 0 15 225 0 15 225 0 15 225 0 15 225 0 15 225 0 15 225 0 15 225 0 15 225 0 15 225 0 15 225 0 15 225 0 15 225 0 15 225 0 15 225 0 15 225 0 15 225 0 15 225 0 15 225 0 15 225 0 15 225 0 15 225 0 15 225 0 15 225 0 15 225 0 15 225 0 15 225 0 15 225 0 15 225 0 15 225 0 15 225 0 15 225 0 15 225 0 15 225 0 15 225 0 15 225 0 15 225 0 15 225 0 15 225 0 15 225 0 15 225 0 15 225 0 15 225 0 15 225 0 15 225 0 15 225 0 15 225 0 15 225 0 15 225 0 15 225 0 15 225 0 15 225 0 15 225 0 15 225 0 15 225 0 15 225 0 15 225 0 15 225 0 15 225 0 15 225 0 15 225 0 15 225 0 15 225 0 15 225 0 15 225 0 15 225 0 15 225 0 15 225 0 15 225 0 15 225 0 15 225 0 15 
0 0 145 0 0 145 0 0 145 0 0 145 0 0 145 0 0 145 0 0 145 0 0 145 0 0 145 0 0 145 0 0 145 0 0 145 0 0 145 0 0 145 0 0 145 0 0 145 0 0 145 0 0 145 0 0 145 0 0 145 0 0 145 0 0 145 0 0 145 0 0 145 0 0 145 0 0 145 0 0 145 0 0 145 0 0 145 0 0 145 0 0 145 0 0 145 0 0 145 0 0 145 0 0 145 0 0 145 0 0 145 0 0 145 0 0 145 0 0 145 0 0 145 0 0 145 0 0 145 0 0 145 0 0 145 0 0 145 0 0 145 0 0 145 0 0 145 0 0 145 0 0 145 0 0 145 0 0 145 0 0 145 0 0 145 0 0 145 0 0 145 0 0 145 0 0 145 0 0 145 0 0 145 0 0 145 0 0 145 0 0 145 0 0 145 0 0 145 0 0 145 0 0 145 0 0 145 0 0 145 0 0 145 0 0 145 0 0 145 0 0 145 0 0 145 0 0 145 0 0 145 0 0 145 0 0 145 0 0 145 0 0 145 0 0 145 0 0 145 0 0 145 0 0 145 0 0 145 0 0 145 0 0 145 0 0 145 0 0 145 0 0 145 0 0 145 0 0 145 0 0 145 0 0 145 0 0 145 0 0 145 0 0 145 0 0 145 225 0 15 255 255 255 255 255 255 255 255 255 255 255 255 255 255 255 255 255 255 255 255 255 255 255 255 255 255 255 255 255 255 255 255 255 255 255 255 255 255 255 255 255 255 255 255 255 255 255 255 255 255 255 255 255 255 255 255 255 255 255 255 255 255 255 255 255 255 255 255 255 255 255 255 255 255 255 255 255 255 255 255 255 255 255 255 255 255 255 255 255 255 255 255 255 255 255 255 255 255 255 255 255 255 255 255 255 255 255 255 255 255 255 255 255 255 255 255 255 255 255 255 255 255 255 255 255 255 255 255 255 255 255 255 255 255 255 255 255 255 255 255 255 255 255 255 255 255 255 255 255 255 255 255 255 255 255 255 255 255 255 255 255 255 255 255 255 255 255 255 255 255 255 255 255 255 255 255 255 255 255 255 255 255 255 255 255 255 255 255 255 255 255 255 255 255 255 255 255 255 255 255 255 255 255 255 255 255 255 255 255 255 255 255 255 255 255 255 255 255 255 255 255 255 255 255 255 255 255 255 255 255 255 255 255 255 255 255 255 255 255 255 255 255 255 255 255 255 255 255 255 255 255 255 255 255 255 255 255 255 255 255 255 255 255 255 255 255 255 255 255 255 255 255 255 255 255 255 255 255 255 255 255 255 255 255 255 255 255 255 255 255 255 255 255 255 255 255 255 225 0 15 225 0 15 225 0 15 225 0 15 225 0 15 225 0 15 225 0 15 225 0 15 225 0 15 225 0 15 225 0 15 225 0 15 225 0 15 225 0 15 225 0 15 225 0 15 225 0 15 225 0 15 225 0 15 225 0 15 225 0 15 225 0 15 225 0 15 225 0 15 225 0 15 225 0 15 225 0 15 225 0 15 225 0 15 225 0 15 225 0 15 225 0 15 225 0 15 225 0 15 225 0 15 225 0 15 225 0 15 225 0 15 225 0 15 225 0 15 225 0 15 225 0 15 225 0 15 225 0 15 225 0 15 225 0 15 225 0 15 225 0 15 225 0 15 225 0 15 225 0 15 225 0 15 225 0 15 225 0 15 225 0 15 225 0 15 225 0 15 225 0 15 225 0 15 225 0 15 225 0 15 225 0 15 225 0 15 225 0 15 225 0 15 225 0 15 225 0 15 225 0 15 225 0 15 225 0 15 225 0 15 225 0 15 225 0 15 225 0 15 225 0 15 225 0 15 225 0 15 225 0 15 225 0 15 225 0 15 225 0 15 225 0 15 225 0 15 225 0 15 225 0 15 225 0 15 225 0 15 225 0 15 225 0 15 225 0 15 225 0 15 225 0 15 225 0 15 225 0 15 225 0 15 225 0 15 225 0 15 225 0 15 225 0 15 225 0 15 225 0 15 
0 0 145 0 0 145 0 0 145 0 0 145 0 0 145 0 0 145 0 0 145 0 0 145 0 0 145 0 0 145 0 0 145 0 0 145 0 0 145 0 0 145 0 0 145 0 0 145 0 0 145 0 0 145 0 0 145 0 0 145 0 0 145 0 0 145 0 0 145 0 0 145 0 0 145 0 0 145 0 0 145 0 0 145 0 0 145 0 0 145 0 0 145 0 0 145 0 0 145 0 0 145 0 0 145 0 0 145 0 0 145 0 0 145 0 0 145 0 0 145 0 0 145 0 0 145 0 0 145 0 0 145 0 0 145 0 0 145 0 0 145 0 0 145 0 0 145 0 0 145 0 0 145 0 0 145 0 0 145 0 0 145 0 0 145 0 0 145 0 0 145 0 0 145 0 0 145 0 0 145 0 0 145 0 0 145 0 0 145 0 0 145 0 0 145 0 0 145 0 0 145 0 0 145 0 0 145 0 0 145 0 0 145 0 0 145 0 0 145 0 0 145 0 0 145 0 0 145 0 0 145 0 0 145 0 0 145 0 0 145 0 0 145 0 0 145 0 0 145 0 0 145 0 0 145 0 0 145 0 0 145 0 0 145 0 0 145 0 0 145 0 0 145 0 0 145 0 0 145 0 0 145 0 0 145 0 0 145 0 0 145 0 0 145 0 0 145 225 0 15 255 255 255 255 255 255 255 255 255 255 255 255 255 255 255 255 255 255 255 255 255 255 255 255 255 255 255 255 255 255 255 255 255 255 255 255 255 255 255 255 255 255 255 255 255 255 255 255 255 255 255 255 255 255 255 255 255 255 255 255 255 255 255 255 255 255 255 255 255 255 255 255 255 255 255 255 255 255 255 255 255 255 255 255 255 255 255 255 255 255 255 255 255 255 255 255 255 255 255 255 255 255 255 255 255 255 255 255 255 255 255 255 255 255 255 255 255 255 255 255 255 255 255 255 255 255 255 255 255 255 255 255 255 255 255 255 255 255 255 255 255 255 255 255 255 255 255 255 255 255 255 255 255 255 255 255 255 255 255 255 255 255 255 255 255 255 255 255 255 255 255 255 255 255 255 255 255 255 255 255 255 255 255 255 255 255 255 255 255 255 255 255 255 255 255 255 255 255 255 255 255 255 255 255 255 255 255 255 255 255 255 255 255 255 255 255 255 255 255 255 255 255 255 255 255 255 255 255 255 255 255 255 255 255 255 255 255 255 255 255 255 255 255 255 255 255 255 255 255 255 255 255 255 255 255 255 255 255 255 255 255 255 255 255 255 255 255 255 255 255 255 255 255 255 255 255 255 255 255 255 255 255 255 255 255 255 255 255 255 255 255 255 255 255 255 255 255 225 0 15 225 0 15 225 0 15 225 0 15 225 0 15 225 0 15 225 0 15 225 0 15 225 0 15 225 0 15 225 0 15 225 0 15 225 0 15 225 0 15 225 0 15 225 0 15 225 0 15 225 0 15 225 0 15 225 0 15 225 0 15 225 0 15 225 0 15 225 0 15 225 0 15 225 0 15 225 0 15 225 0 15 225 0 15 225 0 15 225 0 15 225 0 15 225 0 15 225 0 15 225 0 15 225 0 15 225 0 15 225 0 15 225 0 15 225 0 15 225 0 15 225 0 15 225 0 15 225 0 15 225 0 15 225 0 15 225 0 15 225 0 15 225 0 15 225 0 15 225 0 15 225 0 15 225 0 15 225 0 15 225 0 15 225 0 15 225 0 15 225 0 15 225 0 15 225 0 15 225 0 15 225 0 15 225 0 15 225 0 15 225 0 15 225 0 15 225 0 15 225 0 15 225 0 15 225 0 15 225 0 15 225 0 15 225 0 15 225 0 15 225 0 15 225 0 15 225 0 15 225 0 15 225 0 15 225 0 15 225 0 15 225 0 15 225 0 15 225 0 15 225 0 15 225 0 15 225 0 15 225 0 15 225 0 15 225 0 15 225 0 15 225 0 15 225 0 15 225 0 15 225 0 15 225 0 15 225 0 15 225 0 15 225 0 15 225 0 15 225 0 15 
0 0 145 0 0 145 0 0 145 0 0 145 0 0 145 0 0 145 0 0 145 0 0 145 0 0 145 0 0 145 0 0 145 0 0 145 0 0 145 0 0 145 0 0 145 0 0 145 0 0 145 0 0 145 0 0 145 0 0 145 0 0 145 0 0 145 0 0 145 0 0 145 0 0 145 0 0 145 0 0 145 0 0 145 0 0 145 0 0 145 0 0 145 0 0 145 0 0 145 0 0 145 0 0 145 0 0 145 0 0 145 0 0 145 0 0 145 0 0 145 0 0 145 0 0 145 0 0 145 0 0 145 0 0 145 0 0 145 0 0 145 0 0 145 0 0 145 0 0 145 0 0 145 0 0 145 0 0 145 0 0 145 0 0 145 0 0 145 0 0 145 0 0 145 0 0 145 0 0 145 0 0 145 0 0 145 0 0 145 0 0 145 0 0 145 0 0 145 0 0 145 0 0 145 0 0 145 0 0 145 0 0 145 0 0 145 0 0 145 0 0 145 0 0 145 0 0 145 0 0 145 0 0 145 0 0 145 0 0 145 0 0 145 0 0 145 0 0 145 0 0 145 0 0 145 0 0 145 0 0 145 0 0 145 0 0 145 0 0 145 0 0 145 0 0 145 0 0 145 0 0 145 0 0 145 0 0 145 0 0 145 0 0 145 0 0 145 225 0 15 255 255 255 255 255 255 255 255 255 255 255 255 255 255 255 255 255 255 255 255 255 255 255 255 255 255 255 255 255 255 255 255 255 255 255 255 255 255 255 255 255 255 255 255 255 255 255 255 255 255 255 255 255 255 255 255 255 255 255 255 255 255 255 255 255 255 255 255 255 255 255 255 255 255 255 255 255 255 255 255 255 255 255 255 255 255 255 255 255 255 255 255 255 255 255 255 255 255 255 255 255 255 255 255 255 255 255 255 255 255 255 255 255 255 255 255 255 255 255 255 255 255 255 255 255 255 255 255 255 255 255 255 255 255 255 255 255 255 255 255 255 255 255 255 255 255 255 255 255 255 255 255 255 255 255 255 255 255 255 255 255 255 255 255 255 255 255 255 255 255 255 255 255 255 255 255 255 255 255 255 255 255 255 255 255 255 255 255 255 255 255 255 255 255 255 255 255 255 255 255 255 255 255 255 255 255 255 255 255 255 255 255 255 255 255 255 255 255 255 255 255 255 255 255 255 255 255 255 255 255 255 255 255 255 255 255 255 255 255 255 255 255 255 255 255 255 255 255 255 255 255 255 255 255 255 255 255 255 255 255 255 255 255 255 255 255 255 255 255 255 255 255 255 255 255 255 255 255 255 255 255 255 255 255 255 255 255 255 255 255 255 255 255 255 255 255 255 225 0 15 225 0 15 225 0 15 225 0 15 225 0 15 225 0 15 225 0 15 225 0 15 225 0 15 225 0 15 225 0 15 225 0 15 225 0 15 225 0 15 225 0 15 225 0 15 225 0 15 225 0 15 225 0 15 225 0 15 225 0 15 225 0 15 225 0 15 225 0 15 225 0 15 225 0 15 225 0 15 225 0 15 225 0 15 225 0 15 225 0 15 225 0 15 225 0 15 225 0 15 225 0 15 225 0 15 225 0 15 225 0 15 225 0 15 225 0 15 225 0 15 225 0 15 225 0 15 225 0 15 225 0 15 225 0 15 225 0 15 225 0 15 225 0 15 225 0 15 225 0 15 225 0 15 225 0 15 225 0 15 225 0 15 225 0 15 225 0 15 225 0 15 225 0 15 225 0 15 225 0 15 225 0 15 225 0 15 225 0 15 225 0 15 225 0 15 225 0 15 225 0 15 225 0 15 225 0 15 225 0 15 225 0 15 225 0 15 225 0 15 225 0 15 225 0 15 225 0 15 225 0 15 225 0 15 225 0 15 225 0 15 225 0 15 225 0 15 225 0 15 225 0 15 225 0 15 225 0 15 225 0 15 225 0 15 225 0 15 225 0 15 225 0 15 225 0 15 225 0 15 225 0 15 225 0 15 225 0 15 225 0 15 225 0 15 225 0 15 225 0 15 
