P3
300 200
255
174 28 40 174 28 40 174 28 40 174 28 40 174 28 40 174 28 40 174 28 40 174 28 40 174 28 40 174 28 40 174 28 40 174 28 40 174 28 40 174 28 40 174 28 40 174 28 40 174 28 40 174 28 40 174 28 40 174 28 40 174 28 40 174 28 40 174 28 40 174 28 40 174 28 40 174 28 40 174 28 40 174 28 40 174 28 40 174 28 40 174 28 40 174 28 40 174 28 40 174 28 40 174 28 40 174 28 40 174 28 40 174 28 40 174 28 40 174 28 40 174 28 40 174 28 40 174 28 40 174 28 40 174 28 40 174 28 40 174 28 40 174 28 40 174 28 40 174 28 40 174 28 40 174 28 40 174 28 40 174 28 40 174 28 40 174 28 40 174 28 40 174 28 40 174 28 40 174 28 40 174 28 40 174 28 40 174 28 40 174 28 40 174 28 40 174 28 40 174 28 40 174 28 40 174 28 40 174 28 40 174 28 40 174 28 40 174 28 40 174 28 40 174 28 40 174 28 40 174 28 40 174 28 40 174 28 40 174 28 40 174 28 40 174 28 40 174 28 40 174 28 40 174 28 40 174 28 40 174 28 40 174 28 40 174 28 40 174 28 40 174 28 40 174 28 40 174 28 40 174 28 40 174 28 40 174 28 40 174 28 40 174 28 40 174 28 40 174 28 40 174 28 40 174 28 40 174 28 40 174 28 40 174 28 40 174 28 40 174 28 40 174 28 40 174 28 40 174 28 40 174 28 40 174 28 40 174 28 40 174 28 40 174 28 40 174 28 40 174 28 40 174 28 40 174 28 40 174 28 40 174 28 40 174 28 40 174 28 40 174 28 40 174 28 40 174 28 40 174 28 40 174 28 40 174 28 40 174 28 40 174 28 40 174 28 40 174 28 40 174 28 40 174 28 40 174 28 40 174 28 40 174 28 40 174 28 40 174 28 40 174 28 40 174 28 40 174 28 40 174 28 40 174 28 40 174 28 40 174 28 40 174 28 40 174 28 40 174 28 40 174 28 40 174 28 40 174 28 40 174 28 40 174 28 40 174 28 40 174 28 40 174 28 40 174 28 40 174 28 40 174 28 40 174 28 40 174 28 40 174 28 40 174 28 40 174 28 40 174 28 40 174 28 40 174 28 40 174 28 40 174 28 40 174 28 40 174 28 40 174 28 40 174 28 40 174 28 40 174 28 40 174 28 40 174 28 40 174 28 40 174 28 40 174 28 40 174 28 40 174 28 40 174 28 40 174 28 40 174 28 40 174 28 40 174 28 40 174 28 40 174 28 40 174 28 40 174 28 40 174 28 40 174 28 40 174 28 40 174 28 40 174 28 40 174 28 40 174 28 40 174 28 40 174 28 40 174 28 40 174 28 40 174 28 40 174 28 40 174 28 40 174 28 40 174 28 40 174 28 40 174 28 40 174 28 40 174 28 40 174 28 40 174 28 40 174 28 40 174 28 40 174 28 40 174 28 40 174 28 40 174 28 40 174 28 40 174 28 40 174 28 40 174 28 40 174 28 40 174 28 40 174 28 40 174 28 40 174 28 40 174 28 40 174 28 40 174 28 40 174 28 40 174 28 40 174 28 40 174 28 40 174 28 40 174 28 40 174 28 40 174 28 40 174 28 40 174 28 40 174 28 40 174 28 40 174 28 40 174 28 40 174 28 40 174 28 40 174 28 40 174 28 40 174 28 40 174 28 40 174 28 40 174 28 40 174 28 40 174 28 40 174 28 40 174 28 40 174 28 40 174 28 40 174 28 40 174 28 40 174 28 40 174 28 40 174 28 40 174 28 40 174 28 40 174 28 40 174 28 40 174 28 40 174 28 40 174 28 40 174 28 40 174 28 40 174 28 40 174 28 40 174 28 40 174 28 40 174 28 40 174 28 40 174 28 40 174 28 40 174 28 40 174 28 40 174 28 40 174 28 40 174 28 40 174 28 40 174 28 40 174 28 40 174 28 40 174 28 40 174 28 40 174 28 40 174 28 40 174 28 40 174 28 40 174 28 40 174 28 40 
174 28 40 174 28 40 174 28 40 174 28 40 174 28 40 174 28 40 174 28 40 174 28 40 174 28 40 174 28 40 174 28 40 174 28 40 174 28 40 174 28 40 174 28 40 174 28 40 174 28 40 174 28 40 174 28 40 174 28 40 174 28 40 174 28 40 174 28 40 174 28 40 174 28 40 174 28 40 174 28 40 174 28 40 174 28 40 174 28 40 174 28 40 174 28 40 174 28 40 174 28 40 174 28 40 174 28 40 174 28 40 174 28 40 174 28 40 174 28 40 174 28 40 174 28 40 174 28 40 174 28 40 174 28 40 174 28 40 174 28 40 174 28 40 174 28 40 174 28 40 174 28 40 174 28 40 174 28 40 174 28 40 174 28 40 174 28 40 174 28 40 174 28 40 174 28 40 174 28 40 174 28 40 174 28 40 174 28 40 174 28 40 174 28 40 174 28 40 174 28 40 174 28 40 174 28 40 174 28 40 174 28 40 174 28 40 174 28 40 174 28 40 174 28 40 174 28 40 174 28 40 174 28 40 174 28 40 174 28 40 174 28 40 174 28 40 174 28 40 174 28 40 174 28 40 174 28 40 174 28 40 174 28 40 174 28 40 174 28 40 174 28 40 174 28 40 174 28 40 174 28 40 174 28 40 174 28 40 174 28 40 174 28 40 174 28 40 174 28 40 174 28 40 174 28 40 174 28 40 174 28 40 174 28 40 174 28 40 174 28 40 174 28 40 174 28 40 174 28 40 174 28 40 174 28 40 174 28 40 174 28 40 174 28 40 174 28 40 174 28 40 174 28 40 174 28 40 174 28 40 174 28 40 174 28 40 174 28 40 174 28 40 174 28 40 174 28 40 174 28 40 174 28 40 174 28 40 174 28 40 174 28 40 174 28 40 174 28 40 174 28 40 174 28 40 174 28 40 174 28 40 174 28 40 174 28 40 174 28 40 174 28 40 174 28 40 174 28 40 174 28 40 174 28 40 174 28 40 174 28 40 174 28 40 174 28 40 174 28 40 174 28 40 174 28 40 174 28 40 174 28 40 174 28 40 174 28 40 174 28 40 174 28 40 174 28 40 174 28 40 174 28 40 174 28 40 174 28 40 174 28 40 174 28 40 174 28 40 174 28 40 174 28 40 174 28 40 174 28 40 174 28 40 174 28 40 174 28 40 174 28 40 174 28 40 174 28 40 174 28 40 174 28 40 174 28 40 174 28 40 174 28 40 174 28 40 174 28 40 174 28 40 174 28 40 174 28 40 174 28 40 174 28 40 174 28 40 174 28 40 174 28 40 174 28 40 174 28 40 174 28 40 174 28 40 174 28 40 174 28 40 174 28 40 174 28 40 174 28 40 174 28 40 174 28 40 174 28 40 174 28 40 174 28 40 174 28 40 174 28 40 174 28 40 174 28 40 174 28 40 174 28 40 174 28 40 174 28 40 174 28 40 174 28 40 174 28 40 174 28 40 174 28 40 174 28 40 174 28 40 174 28 40 174 28 40 174 28 40 174 28 40 174 28 40 174 28 40 174 28 40 174 28 40 174 28 40 174 28 40 174 28 40 174 28 40 174 28 40 174 28 40 174 28 40 174 28 40 174 28 40 174 28 40 174 28 40 174 28 40 174 28 40 174 28 40 174 28 40 174 28 40 174 28 40 174 28 40 174 28 40 174 28 40 174 28 40 174 28 40 174 28 40 174 28 40 174 28 40 174 28 40 174 28 40 174 28 40 174 28 40 174 28 40 174 28 40 174 28 40 174 28 40 174 28 40 174 28 40 174 28 40 174 28 40 174 28 40 174 28 40 174 28 40 174 28 40 174 28 40 174 28 40 174 28 40 174 28 40 174 28 40 174 28 40 174 28 40 174 28 40 174 28 40 174 28 40 174 28 40 174 28 40 174 28 40 174 28 40 174 28 40 174 28 40 174 28 40 174 28 40 174 28 40 174 28 40 174 28 40 174 28 40 174 28 40 174 28 40 174 28 40 174 28 40 174 28 40 174 28 40 174 28 40 174 28 40 174 28 40 
174 28 40 174 28 40 174 28 40 174 28 40 174 28 40 174 28 40 174 28 40 174 28 40 174 28 40 174 28 40 174 28 40 174 28 40 174 28 40 174 28 40 174 28 40 174 28 40 174 28 40 174 28 40 174 28 40 174 28 40 174 28 40 174 28 40 174 28 40 174 28 40 174 28 40 174 28 40 174 28 40 174 28 40 174 28 40 174 28 40 174 28 40 174 28 40 174 28 40 174 28 40 174 28 40 174 28 40 174 28 40 174 28 40 174 28 40 174 28 40 174 28 40 174 28 40 174 28 40 174 28 40 174 28 40 174 28 40 174 28 40 174 28 40 174 28 40 174 28 40 174 28 40 174 28 40 174 28 40 174 28 40 174 28 40 174 28 40 174 28 40 174 28 40 174 28 40 174 28 40 174 28 40 174 28 40 174 28 40 174 28 40 174 28 40 174 28 40 174 28 40 174 28 40 174 28 40 174 28 40 174 28 40 174 28 40 174 28 40 174 28 40 174 28 40 174 28 40 174 28 40 174 28 40 174 28 40 174 28 40 174 28 40 174 28 40 174 28 40 174 28 40 174 28 40 174 28 40 174 28 40 174 28 40 174 28 40 174 28 40 174 28 40 174 28 40 174 28 40 174 28 40 174 28 40 174 28 40 174 28 40 174 28 40 174 28 40 174 28 40 174 28 40 174 28 40 174 28 40 174 28 40 174 28 40 174 28 40 174 28 40 174 28 40 174 28 40 174 28 40 174 28 40 174 28 40 174 28 40 174 28 40 174 28 40 174 28 40 174 28 40 174 28 40 174 28 40 174 28 40 174 28 40 174 28 40 174 28 40 174 28 40 174 28 40 174 28 40 174 28 40 174 28 40 174 28 40 174 28 40 174 28 40 174 28 40 174 28 40 174 28 40 174 28 40 174 28 40 174 28 40 174 28 40 174 28 40 174 28 40 174 28 40 174 28 40 174 28 40 174 28 40 174 28 40 174 28 40 174 28 40 174 28 40 174 28 40 174 28 40 174 28 40 174 28 40 174 28 40 174 28 40 174 28 40 174 28 40 174 28 40 174 28 40 174 28 40 174 28 40 174 28 40 174 28 40 174 28 40 174 28 40 174 28 40 174 28 40 174 28 40 174 28 40 174 28 40 174 28 40 174 28 40 174 28 40 174 28 40 174 28 40 174 28 40 174 28 40 174 28 40 174 28 40 174 28 40 174 28 40 174 28 40 174 28 40 174 28 40 174 28 40 174 28 40 174 28 40 174 28 40 174 28 40 174 28 40 174 28 40 174 28 40 174 28 40 174 28 40 174 28 40 174 28 40 174 28 40 174 28 40 174 28 40 174 28 40 174 28 40 174 28 40 174 28 40 174 28 40 174 28 40 174 28 40 174 28 40 174 28 40 174 28 40 174 28 40 174 28 40 174 28 40 174 28 40 174 28 40 174 28 40 174 28 40 174 28 40 174 28 40 174 28 40 174 28 40 174 28 40 174 28 40 174 28 40 174 28 40 174 28 40 174 28 40 174 28 40 174 28 40 174 28 40 174 28 40 174 28 40 174 28 40 174 28 40 174 28 40 174 28 40 174 28 40 174 28 40 174 28 40 174 28 40 174 28 40 174 28 40 174 28 40 174 28 40 174 28 40 174 28 40 174 28 40 174 28 40 174 28 40 174 28 40 174 28 40 174 28 40 174 28 40 174 28 40 174 28 40 174 28 40 174 28 40 174 28 40 174 28 40 174 28 40 174 28 40 174 28 40 174 28 40 174 28 40 174 28 40 174 28 40 174 28 40 174 28 40 174 28 40 174 28 40 174 28 40 174 28 40 174 28 40 174 28 40 174 28 40 174 28 40 174 28 40 174 28 40 174 28 40 174 28 40 174 28 40 174 28 40 174 28 40 174 28 40 174 28 40 174 28 40 174 28 40 174 28 40 174 28 40 174 28 40 174 28 40 174 28 40 174 28 40 174 28 40 174 28 40 174 28 40 174 28 40 174 28 40 174 28 40 174 28 40 174 28 40 174 28 40 
174 28 40 174 28 40 174 28 40 174 28 40 174 28 40 174 28 40 174 28 40 174 28 40 174 28 40 174 28 40 174 28 40 174 28 40 174 28 40 174 28 40 174 28 40 174 28 40 174 28 40 174 28 40 174 28 40 174 28 40 174 28 40 174 28 40 174 28 40 174 28 40 174 28 40 174 28 40 174 28 40 174 28 40 174 28 40 174 28 40 174 28 40 174 28 40 174 28 40 174 28 40 174 28 40 174 28 40 174 28 40 174 28 40 174 28 40 174 28 40 174 28 40 174 28 40 174 28 40 174 28 40 174 28 40 174 28 40 174 28 40 174 28 40 174 28 40 174 28 40 174 28 40 174 28 40 174 28 40 174 28 40 174 28 40 174 28 40 174 28 40 174 28 40 174 28 40 174 28 40 174 28 40 174 28 40 174 28 40 174 28 40 174 28 40 174 28 40 174 28 40 174 28 40 174 28 40 174 28 40 174 28 40 174 28 40 174 28 40 174 28 40 174 28 40 174 28 40 174 28 40 174 28 40 174 28 40 174 28 40 174 28 40 174 28 40 174 28 40 174 28 40 174 28 40 174 28 40 174 28 40 174 28 40 174 28 40 174 28 40 174 28 40 174 28 40 174 28 40 174 28 40 174 28 40 174 28 40 174 28 40 174 28 40 174 28 40 174 28 40 174 28 40 174 28 40 174 28 40 174 28 40 174 28 40 174 28 40 174 28 40 174 28 40 174 28 40 174 28 40 174 28 40 174 28 40 174 28 40 174 28 40 174 28 40 174 28 40 174 28 40 174 28 40 174 28 40 174 28 40 174 28 40 174 28 40 174 28 40 174 28 40 174 28 40 174 28 40 174 28 40 174 28 40 174 28 40 174 28 40 174 28 40 174 28 40 174 28 40 174 28 40 174 28 40 174 28 40 174 28 40 174 28 40 174 28 40 174 28 40 174 28 40 174 28 40 174 28 40 174 28 40 174 28 40 174 28 40 174 28 40 174 28 40 174 28 40 174 28 40 174 28 40 174 28 40 174 28 40 174 28 40 174 28 40 174 28 40 174 28 40 174 28 40 174 28 40 174 28 40 174 28 40 174 28 40 174 28 40 174 28 40 174 28 40 174 28 40 174 28 40 174 28 40 174 28 40 174 28 40 174 28 40 174 28 40 174 28 40 174 28 40 174 28 40 174 28 40 174 28 40 174 28 40 174 28 40 174 28 40 174 28 40 174 28 40 174 28 40 174 28 40 174 28 40 174 28 40 174 28 40 174 28 40 174 28 40 174 28 40 174 28 40 174 28 40 174 28 40 174 28 40 174 28 40 174 28 40 174 28 40 174 28 40 174 28 40 174 28 40 174 28 40 174 28 40 174 28 40 174 28 40 174 28 40 174 28 40 174 28 40 174 28 40 174 28 40 174 28 40 174 28 40 174 28 40 174 28 40 174 28 40 174 28 40 174 28 40 174 28 40 174 28 40 174 28 40 174 28 40 174 28 40 174 28 40 174 28 40 174 28 40 174 28 40 174 28 40 174 28 40 174 28 40 174 28 40 174 28 40 174 28 40 174 28 40 174 28 40 174 28 40 174 28 40 174 28 40 174 28 40 174 28 40 174 28 40 174 28 40 174 28 40 174 28 40 174 28 40 174 28 40 174 28 40 174 28 40 174 28 40 174 28 40 174 28 40 174 28 40 174 28 40 174 28 40 174 28 40 174 28 40 174 28 40 174 28 40 174 28 40 174 28 40 174 28 40 174 28 40 174 28 40 174 28 40 174 28 40 174 28 40 174 28 40 174 28 40 174 28 40 174 28 40 174 28 40 174 28 40 174 28 40 174 28 40 174 28 40 174 28 40 174 28 40 174 28 40 174 28 40 174 28 40 174 28 40 174 28 40 174 28 40 174 28 40 174 28 40 174 28 40 174 28 40 174 28 40 174 28 40 174 28 40 174 28 40 174 28 40 174 28 40 174 28 40 174 28 40 174 28 40 174 28 40 174 28 40 174 28 40 174 28 40 174 28 40 174 28 40 
174 28 40 174 28 40 174 28 40 174 28 40 174 28 40 174 28 40 174 28 40 174 28 40 174 28 40 174 28 40 174 28 40 174 28 40 174 28 40 174 28 40 174 28 40 174 28 40 174 28 40 174 28 40 174 28 40 174 28 40 174 28 40 174 28 40 174 28 40 174 28 40 174 28 40 174 28 40 174 28 40 174 28 40 174 28 40 174 28 40 174 28 40 174 28 40 174 28 40 174 28 40 174 28 40 174 28 40 174 28 40 174 28 40 174 28 40 174 28 40 174 28 40 174 28 40 174 28 40 174 28 40 174 28 40 174 28 40 174 28 40 174 28 40 174 28 40 174 28 40 174 28 40 174 28 40 174 28 40 174 28 40 174 28 40 174 28 40 174 28 40 174 28 40 174 28 40 174 28 40 174 28 40 174 28 40 174 28 40 174 28 40 174 28 40 174 28 40 174 28 40 174 28 40 174 28 40 174 28 40 174 28 40 174 28 40 174 28 40 174 28 40 174 28 40 174 28 40 174 28 40 174 28 40 174 28 40 174 28 40 174 28 40 174 28 40 174 28 40 174 28 40 174 28 40 174 28 40 174 28 40 174 28 40 174 28 40 174 28 40 174 28 40 174 28 40 174 28 40 174 28 40 174 28 40 174 28 40 174 28 40 174 28 40 174 28 40 174 28 40 174 28 40 174 28 40 174 28 40 174 28 40 174 28 40 174 28 40 174 28 40 174 28 40 174 28 40 174 28 40 174 28 40 174 28 40 174 28 40 174 28 40 174 28 40 174 28 40 174 28 40 174 28 40 174 28 40 174 28 40 174 28 40 174 28 40 174 28 40 174 28 40 174 28 40 174 28 40 174 28 40 174 28 40 174 28 40 174 28 40 174 28 40 174 28 40 174 28 40 174 28 40 174 28 40 174 28 40 174 28 40 174 28 40 174 28 40 174 28 40 174 28 40 174 28 40 174 28 40 174 28 40 174 28 40 174 28 40 174 28 40 174 28 40 174 28 40 174 28 40 174 28 40 174 28 40 174 28 40 174 28 40 174 28 40 174 28 40 174 28 40 174 28 40 174 28 40 174 28 40 174 28 40 174 28 40 174 28 40 174 28 40 174 28 40 174 28 40 174 28 40 174 28 40 174 28 40 174 28 40 174 28 40 174 28 40 174 28 40 174 28 40 174 28 40 174 28 40 174 28 40 174 28 40 174 28 40 174 28 40 174 28 40 174 28 40 174 28 40 174 28 40 174 28 40 174 28 40 174 28 40 174 28 40 174 28 40 174 28 40 174 28 40 174 28 40 174 28 40 174 28 40 174 28 40 174 28 40 174 28 40 174 28 40 174 28 40 174 28 40 174 28 40 174 28 40 174 28 40 174 28 40 174 28 40 174 28 40 174 28 40 174 28 40 174 28 40 174 28 40 174 28 40 174 28 40 174 28 40 174 28 40 174 28 40 174 28 40 174 28 40 174 28 40 174 28 40 174 28 40 174 28 40 174 28 40 174 28 40 174 28 40 174 28 40 174 28 40 174 28 40 174 28 40 174 28 40 174 28 40 174 28 40 174 28 40 174 28 40 174 28 40 174 28 40 174 28 40 174 28 40 174 28 40 174 28 40 174 28 40 174 28 40 174 28 40 174 28 40 174 28 40 174 28 40 174 28 40 174 28 40 174 28 40 174 28 40 174 28 40 174 28 40 174 28 40 174 28 40 174 28 40 174 28 40 174 28 40 174 28 40 174 28 40 174 28 40 174 28 40 174 28 40 174 28 40 174 28 40 174 28 40 174 28 40 174 28 40 174 28 40 174 28 40 174 28 40 174 28 40 174 28 40 174 28 40 174 28 40 174 28 40 174 28 40 174 28 40 174 28 40 174 28 40 174 28 40 174 28 40 174 28 40 174 28 40 174 28 40 174 28 40 174 28 40 174 28 40 174 28 40 174 28 40 174 28 40 174 28 40 174 28 40 174 28 40 174 28 40 174 28 40 174 28 40 174 28 40 174 28 40 174 28 40 174 28 40 174 28 40 
174 28 40 174 28 40 174 28 40 174 28 40 174 28 40 174 28 40 174 28 40 174 28 40 174 28 40 174 28 40 174 28 40 174 28 40 174 28 40 174 28 40 174 28 40 174 28 40 174 28 40 174 28 40 174 28 40 174 28 40 174 28 40 174 28 40 174 28 40 174 28 40 174 28 40 174 28 40 174 28 40 174 28 40 174 28 40 174 28 40 174 28 40 174 28 40 174 28 40 174 28 40 174 28 40 174 28 40 174 28 40 174 28 40 174 28 40 174 28 40 174 28 40 174 28 40 174 28 40 174 28 40 174 28 40 174 28 40 174 28 40 174 28 40 174 28 40 174 28 40 174 28 40 174 28 40 174 28 40 174 28 40 174 28 40 174 28 40 174 28 40 174 28 40 174 28 40 174 28 40 174 28 40 174 28 40 174 28 40 174 28 40 174 28 40 174 28 40 174 28 40 174 28 40 174 28 40 174 28 40 174 28 40 174 28 40 174 28 40 174 28 40 174 28 40 174 28 40 174 28 40 174 28 40 174 28 40 174 28 40 174 28 40 174 28 40 174 28 40 174 28 40 174 28 40 174 28 40 174 28 40 174 28 40 174 28 40 174 28 40 174 28 40 174 28 40 174 28 40 174 28 40 174 28 40 174 28 40 174 28 40 174 28 40 174 28 40 174 28 40 174 28 40 174 28 40 174 28 40 174 28 40 174 28 40 174 28 40 174 28 40 174 28 40 174 28 40 174 28 40 174 28 40 174 28 40 174 28 40 174 28 40 174 28 40 174 28 40 174 28 40 174 28 40 174 28 40 174 28 40 174 28 40 174 28 40 174 28 40 174 28 40 174 28 40 174 28 40 174 28 40 174 28 40 174 28 40 174 28 40 174 28 40 174 28 40 174 28 40 174 28 40 174 28 40 174 28 40 174 28 40 174 28 40 174 28 40 174 28 40 174 28 40 174 28 40 174 28 40 174 28 40 174 28 40 174 28 40 174 28 40 174 28 40 174 28 40 174 28 40 174 28 40 174 28 40 174 28 40 174 28 40 174 28 40 174 28 40 174 28 40 174 28 40 174 28 40 174 28 40 174 28 40 174 28 40 174 28 40 174 28 40 174 28 40 174 28 40 174 28 40 174 28 40 174 28 40 174 28 40 174 28 40 174 28 40 174 28 40 174 28 40 174 28 40 174 28 40 174 28 40 174 28 40 174 28 40 174 28 40 174 28 40 174 28 40 174 28 40 174 28 40 174 28 40 174 28 40 174 28 40 174 28 40 174 28 40 174 28 40 174 28 40 174 28 40 174 28 40 174 28 40 174 28 40 174 28 40 174 28 40 174 28 40 174 28 40 174 28 40 174 28 40 174 28 40 174 28 40 174 28 40 174 28 40 174 28 40 174 28 40 174 28 40 174 28 40 174 28 40 174 28 40 174 28 40 174 28 40 174 28 40 174 28 40 174 28 40 174 28 40 174 28 40 174 28 40 174 28 40 174 28 40 174 28 40 174 28 40 174 28 40 174 28 40 174 28 40 174 28 40 174 28 40 174 28 40 174 28 40 174 28 40 174 28 40 174 28 40 174 28 40 174 28 40 174 28 40 174 28 40 174 28 40 174 28 40 174 28 40 174 28 40 174 28 40 174 28 40 174 28 40 174 28 40 174 28 40 174 28 40 174 28 40 174 28 40 174 28 40 174 28 40 174 28 40 174 28 40 174 28 40 174 28 40 174 28 40 174 28 40 174 28 40 174 28 40 174 28 40 174 28 40 174 28 40 174 28 40 174 28 40 174 28 40 174 28 40 174 28 40 174 28 40 174 28 40 174 28 40 174 28 40 174 28 40 174 28 40 174 28 40 174 28 40 174 28 40 174 28 40 174 28 40 174 28 40 174 28 40 174 28 40 174 28 40 174 28 40 174 28 40 174 28 40 174 28 40 174 28 40 174 28 40 174 28 40 174 28 40 174 28 40 174 28 40 174 28 40 174 28 40 174 28 40 174 28 40 174 28 40 174 28 40 174 28 40 174 28 40 
174 28 40 174 28 40 174 28 40 174 28 40 174 28 40 174 28 40 174 28 40 174 28 40 174 28 40 174 28 40 174 28 40 174 28 40 174 28 40 174 28 40 174 28 40 174 28 40 174 28 40 174 28 40 174 28 40 174 28 40 174 28 40 174 28 40 174 28 40 174 28 40 174 28 40 174 28 40 174 28 40 174 28 40 174 28 40 174 28 40 174 28 40 174 28 40 174 28 40 174 28 40 174 28 40 174 28 40 174 28 40 174 28 40 174 28 40 174 28 40 174 28 40 174 28 40 174 28 40 174 28 40 174 28 40 174 28 40 174 28 40 174 28 40 174 28 40 174 28 40 174 28 40 174 28 40 174 28 40 174 28 40 174 28 40 174 28 40 174 28 40 174 28 40 174 28 40 174 28 40 174 28 40 174 28 40 174 28 40 174 28 40 174 28 40 174 28 40 174 28 40 174 28 40 174 28 40 174 28 40 174 28 40 174 28 40 174 28 40 174 28 40 174 28 40 174 28 40 174 28 40 174 28 40 174 28 40 174 28 40 174 28 40 174 28 40 174 28 40 174 28 40 174 28 40 174 28 40 174 28 40 174 28 40 174 28 40 174 28 40 174 28 40 174 28 40 174 28 40 174 28 40 174 28 40 174 28 40 174 28 40 174 28 40 174 28 40 174 28 40 174 28 40 174 28 40 174 28 40 174 28 40 174 28 40 174 28 40 174 28 40 174 28 40 174 28 40 174 28 40 174 28 40 174 28 40 174 28 40 174 28 40 174 28 40 174 28 40 174 28 40 174 28 40 174 28 40 174 28 40 174 28 40 174 28 40 174 28 40 174 28 40 174 28 40 174 28 40 174 28 40 174 28 40 174 28 40 174 28 40 174 28 40 174 28 40 174 28 40 174 28 40 174 28 40 174 28 40 174 28 40 174 28 40 174 28 40 174 28 40 174 28 40 174 28 40 174 28 40 174 28 40 174 28 40 174 28 40 174 28 40 174 28 40 174 28 40 174 28 40 174 28 40 174 28 40 174 28 40 174 28 40 174 28 40 174 28 40 174 28 40 174 28 40 174 28 40 174 28 40 174 28 40 174 28 40 174 28 40 174 28 40 174 28 40 174 28 40 174 28 40 174 28 40 174 28 40 174 28 40 174 28 40 174 28 40 174 28 40 174 28 40 174 28 40 174 28 40 174 28 40 174 28 40 174 28 40 174 28 40 174 28 40 174 28 40 174 28 40 174 28 40 174 28 40 174 28 40 174 28 40 174 28 40 174 28 40 174 28 40 174 28 40 174 28 40 174 28 40 174 28 40 174 28 40 174 28 40 174 28 40 174 28 40 174 28 40 174 28 40 174 28 40 174 28 40 174 28 40 174 28 40 174 28 40 174 28 40 174 28 40 174 28 40 174 28 40 174 28 40 174 28 40 174 28 40 174 28 40 174 28 40 174 28 40 174 28 40 174 28 40 174 28 40 174 28 40 174 28 40 174 28 40 174 28 40 174 28 40 174 28 40 174 28 40 174 28 40 174 28 40 174 28 40 174 28 40 174 28 40 174 28 40 174 28 40 174 28 40 174 28 40 174 28 40 174 28 40 174 28 40 174 28 40 174 28 40 174 28 40 174 28 40 174 28 40 174 28 40 174 28 40 174 28 40 174 28 40 174 28 40 174 28 40 174 28 40 174 28 40 174 28 40 174 28 40 174 28 40 174 28 40 174 28 40 174 28 40 174 28 40 174 28 40 174 28 40 174 28 40 174 28 40 174 28 40 174 28 40 174 28 40 174 28 40 174 28 40 174 28 40 174 28 40 174 28 40 174 28 40 174 28 40 174 28 40 174 28 40 174 28 40 174 28 40 174 28 40 174 28 40 174 28 40 174 28 40 174 28 40 174 28 40 174 28 40 174 28 40 174 28 40 174 28 40 174 28 40 174 28 40 174 28 40 174 28 40 174 28 40 174 28 40 174 28 40 174 28 40 174 28 40 174 28 40 174 28 40 174 28 40 174 28 40 174 28 40 174 28 40 
174 28 40 174 28 40 174 28 40 174 28 40 174 28 40 174 28 40 174 28 40 174 28 40 174 28 40 174 28 40 174 28 40 174 28 40 174 28 40 174 28 40 174 28 40 174 28 40 174 28 40 174 28 40 174 28 40 174 28 40 174 28 40 174 28 40 174 28 40 174 28 40 174 28 40 174 28 40 174 28 40 174 28 40 174 28 40 174 28 40 174 28 40 174 28 40 174 28 40 174 28 40 174 28 40 174 28 40 174 28 40 174 28 40 174 28 40 174 28 40 174 28 40 174 28 40 174 28 40 174 28 40 174 28 40 174 28 40 174 28 40 174 28 40 174 28 40 174 28 40 174 28 40 174 28 40 174 28 40 174 28 40 174 28 40 174 28 40 174 28 40 174 28 40 174 28 40 174 28 40 174 28 40 174 28 40 174 28 40 174 28 40 174 28 40 174 28 40 174 28 40 174 28 40 174 28 40 174 28 40 174 28 40 174 28 40 174 28 40 174 28 40 174 28 40 174 28 40 174 28 40 174 28 40 174 28 40 174 28 40 174 28 40 174 28 40 174 28 40 174 28 40 174 28 40 174 28 40 174 28 40 174 28 40 174 28 40 174 28 40 174 28 40 174 28 40 174 28 40 174 28 40 174 28 40 174 28 40 174 28 40 174 28 40 174 28 40 174 28 40 174 28 40 174 28 40 174 28 40 174 28 40 174 28 40 174 28 40 174 28 40 174 28 40 174 28 40 174 28 40 174 28 40 174 28 40 174 28 40 174 28 40 174 28 40 174 28 40 174 28 40 174 28 40 174 28 40 174 28 40 174 28 40 174 28 40 174 28 40 174 28 40 174 28 40 174 28 40 174 28 40 174 28 40 174 28 40 174 28 40 174 28 40 174 28 40 174 28 40 174 28 40 174 28 40 174 28 40 174 28 40 174 28 40 174 28 40 174 28 40 174 28 40 174 28 40 174 28 40 174 28 40 174 28 40 174 28 40 174 28 40 174 28 40 174 28 40 174 28 40 174 28 40 174 28 40 174 28 40 174 28 40 174 28 40 174 28 40 174 28 40 174 28 40 174 28 40 174 28 40 174 28 40 174 28 40 174 28 40 174 28 40 174 28 40 174 28 40 174 28 40 174 28 40 174 28 40 174 28 40 174 28 40 174 28 40 174 28 40 174 28 40 174 28 40 174 28 40 174 28 40 174 28 40 174 28 40 174 28 40 174 28 40 174 28 40 174 28 40 174 28 40 174 28 40 174 28 40 174 28 40 174 28 40 174 28 40 174 28 40 174 28 40 174 28 40 174 28 40 174 28 40 174 28 40 174 28 40 174 28 40 174 28 40 174 28 40 174 28 40 174 28 40 174 28 40 174 28 40 174 28 40 174 28 40 174 28 40 174 28 40 174 28 40 174 28 40 174 28 40 174 28 40 174 28 40 174 28 40 174 28 40 174 28 40 174 28 40 174 28 40 174 28 40 174 28 40 174 28 40 174 28 40 174 28 40 174 28 40 174 28 40 174 28 40 174 28 40 174 28 40 174 28 40 174 28 40 174 28 40 174 28 40 174 28 40 174 28 40 174 28 40 174 28 40 174 28 40 174 28 40 174 28 40 174 28 40 174 28 40 174 28 40 174 28 40 174 28 40 174 28 40 174 28 40 174 28 40 174 28 40 174 28 40 174 28 40 174 28 40 174 28 40 174 28 40 174 28 40 174 28 40 174 28 40 174 28 40 174 28 40 174 28 40 174 28 40 174 28 40 174 28 40 174 28 40 174 28 40 174 28 40 174 28 40 174 28 40 174 28 40 174 28 40 174 28 40 174 28 40 174 28 40 174 28 40 174 28 40 174 28 40 174 28 40 174 28 40 174 28 40 174 28 40 174 28 40 174 28 40 174 28 40 174 28 40 174 28 40 174 28 40 174 28 40 174 28 40 174 28 40 174 28 40 174 28 40 174 28 40 174 28 40 174 28 40 174 28 40 174 28 40 174 28 40 174 28 40 174 28 40 174 28 40 174 28 40 174 28 40 
174 28 40 174 28 40 174 28 40 174 28 40 174 28 40 174 28 40 174 28 40 174 28 40 174 28 40 174 28 40 174 28 40 174 28 40 174 28 40 174 28 40 174 28 40 174 28 40 174 28 40 174 28 40 174 28 40 174 28 40 174 28 40 174 28 40 174 28 40 174 28 40 174 28 40 174 28 40 174 28 40 174 28 40 174 28 40 174 28 40 174 28 40 174 28 40 174 28 40 174 28 40 174 28 40 174 28 40 174 28 40 174 28 40 174 28 40 174 28 40 174 28 40 174 28 40 174 28 40 174 28 40 174 28 40 174 28 40 174 28 40 174 28 40 174 28 40 174 28 40 174 28 40 174 28 40 174 28 40 174 28 40 174 28 40 174 28 40 174 28 40 174 28 40 174 28 40 174 28 40 174 28 40 174 28 40 174 28 40 174 28 40 174 28 40 174 28 40 174 28 40 174 28 40 174 28 40 174 28 40 174 28 40 174 28 40 174 28 40 174 28 40 174 28 40 174 28 40 174 28 40 174 28 40 174 28 40 174 28 40 174 28 40 174 28 40 174 28 40 174 28 40 174 28 40 174 28 40 174 28 40 174 28 40 174 28 40 174 28 40 174 28 40 174 28 40 174 28 40 174 28 40 174 28 40 174 28 40 174 28 40 174 28 40 174 28 40 174 28 40 174 28 40 174 28 40 174 28 40 174 28 40 174 28 40 174 28 40 174 28 40 174 28 40 174 28 40 174 28 40 174 28 40 174 28 40 174 28 40 174 28 40 174 28 40 174 28 40 174 28 40 174 28 40 174 28 40 174 28 40 174 28 40 174 28 40 174 28 40 174 28 40 174 28 40 174 28 40 174 28 40 174 28 40 174 28 40 174 28 40 174 28 40 174 28 40 174 28 40 174 28 40 174 28 40 174 28 40 174 28 40 174 28 40 174 28 40 174 28 40 174 28 40 174 28 40 174 28 40 174 28 40 174 28 40 174 28 40 174 28 40 174 28 40 174 28 40 174 28 40 174 28 40 174 28 40 174 28 40 174 28 40 174 28 40 174 28 40 174 28 40 174 28 40 174 28 40 174 28 40 174 28 40 174 28 40 174 28 40 174 28 40 174 28 40 174 28 40 174 28 40 174 28 40 174 28 40 174 28 40 174 28 40 174 28 40 174 28 40 174 28 40 174 28 40 174 28 40 174 28 40 174 28 40 174 28 40 174 28 40 174 28 40 174 28 40 174 28 40 174 28 40 174 28 40 174 28 40 174 28 40 174 28 40 174 28 40 174 28 40 174 28 40 174 28 40 174 28 40 174 28 40 174 28 40 174 28 40 174 28 40 174 28 40 174 28 40 174 28 40 174 28 40 174 28 40 174 28 40 174 28 40 174 28 40 174 28 40 174 28 40 174 28 40 174 28 40 174 28 40 174 28 40 174 28 40 174 28 40 174 28 40 174 28 40 174 28 40 174 28 40 174 28 40 174 28 40 174 28 40 174 28 40 174 28 40 174 28 40 174 28 40 174 28 40 174 28 40 174 28 40 174 28 40 174 28 40 174 28 40 174 28 40 174 28 40 174 28 40 174 28 40 174 28 40 174 28 40 174 28 40 174 28 40 174 28 40 174 28 40 174 28 40 174 28 40 174 28 40 174 28 40 174 28 40 174 28 40 174 28 40 174 28 40 174 28 40 174 28 40 174 28 40 174 28 40 174 28 40 174 28 40 174 28 40 174 28 40 174 28 40 174 28 40 174 28 40 174 28 40 174 28 40 174 28 40 174 28 40 174 28 40 174 28 40 174 28 40 174 28 40 174 28 40 174 28 40 174 28 40 174 28 40 174 28 40 174 28 40 174 28 40 174 28 40 174 28 40 174 28 40 174 28 40 174 28 40 174 28 40 174 28 40 174 28 40 174 28 40 174 28 40 174 28 40 174 28 40 174 28 40 174 28 40 174 28 40 174 28 40 174 28 40 174 28 40 174 28 40 174 28 40 174 28 40 174 28 40 174 28 40 174 28 40 174 28 40 174 28 40 
174 28 40 174 28 40 174 28 40 174 28 40 174 28 40 174 28 40 174 28 40 174 28 40 174 28 40 174 28 40 174 28 40 174 28 40 174 28 40 174 28 40 174 28 40 174 28 40 174 28 40 174 28 40 174 28 40 174 28 40 174 28 40 174 28 40 174 28 40 174 28 40 174 28 40 174 28 40 174 28 40 174 28 40 174 28 40 174 28 40 174 28 40 174 28 40 174 28 40 174 28 40 174 28 40 174 28 40 174 28 40 174 28 40 174 28 40 174 28 40 174 28 40 174 28 40 174 28 40 174 28 40 174 28 40 174 28 40 174 28 40 174 28 40 174 28 40 174 28 40 174 28 40 174 28 40 174 28 40 174 28 40 174 28 40 174 28 40 174 28 40 174 28 40 174 28 40 174 28 40 174 28 40 174 28 40 174 28 40 174 28 40 174 28 40 174 28 40 174 28 40 174 28 40 174 28 40 174 28 40 174 28 40 174 28 40 174 28 40 174 28 40 174 28 40 174 28 40 174 28 40 174 28 40 174 28 40 174 28 40 174 28 40 174 28 40 174 28 40 174 28 40 174 28 40 174 28 40 174 28 40 174 28 40 174 28 40 174 28 40 174 28 40 174 28 40 174 28 40 174 28 40 174 28 40 174 28 40 174 28 40 174 28 40 174 28 40 174 28 40 174 28 40 174 28 40 174 28 40 174 28 40 174 28 40 174 28 40 174 28 40 174 28 40 174 28 40 174 28 40 174 28 40 174 28 40 174 28 40 174 28 40 174 28 40 174 28 40 174 28 40 174 28 40 174 28 40 174 28 40 174 28 40 174 28 40 174 28 40 174 28 40 174 28 40 174 28 40 174 28 40 174 28 40 174 28 40 174 28 40 174 28 40 174 28 40 174 28 40 174 28 40 174 28 40 174 28 40 174 28 40 174 28 40 174 28 40 174 28 40 174 28 40 174 28 40 174 28 40 174 28 40 174 28 40 174 28 40 174 28 40 174 28 40 174 28 40 174 28 40 174 28 40 174 28 40 174 28 40 174 28 40 174 28 40 174 28 40 174 28 40 174 28 40 174 28 40 174 28 40 174 28 40 174 28 40 174 28 40 174 28 40 174 28 40 174 28 40 174 28 40 174 28 40 174 28 40 174 28 40 174 28 40 174 28 40 174 28 40 174 28 40 174 28 40 174 28 40 174 28 40 174 28 40 174 28 40 174 28 40 174 28 40 174 28 40 174 28 40 174 28 40 174 28 40 174 28 40 174 28 40 174 28 40 174 28 40 174 28 40 174 28 40 174 28 40 174 28 40 174 28 40 174 28 40 174 28 40 174 28 40 174 28 40 174 28 40 174 28 40 174 28 40 174 28 40 174 28 40 174 28 40 174 28 40 174 28 40 174 28 40 174 28 40 174 28 40 174 28 40 174 28 40 174 28 40 174 28 40 174 28 40 174 28 40 174 28 40 174 28 40 174 28 40 174 28 40 174 28 40 174 28 40 174 28 40 174 28 40 174 28 40 174 28 40 174 28 40 174 28 40 174 28 40 174 28 40 174 28 40 174 28 40 174 28 40 174 28 40 174 28 40 174 28 40 174 28 40 174 28 40 174 28 40 174 28 40 174 28 40 174 28 40 174 28 40 174 28 40 174 28 40 174 28 40 174 28 40 174 28 40 174 28 40 174 28 40 174 28 40 174 28 40 174 28 40 174 28 40 174 28 40 174 28 40 174 28 40 174 28 40 174 28 40 174 28 40 174 28 40 174 28 40 174 28 40 174 28 40 174 28 40 174 28 40 174 28 40 174 28 40 174 28 40 174 28 40 174 28 40 174 28 40 174 28 40 174 28 40 174 28 40 174 28 40 174 28 40 174 28 40 174 28 40 174 28 40 174 28 40 174 28 40 174 28 40 174 28 40 174 28 40 174 28 40 174 28 40 174 28 40 174 28 40 174 28 40 174 28 40 174 28 40 174 28 40 174 28 40 174 28 40 174 28 40 174 28 40 174 28 40 174 28 40 174 28 40 174 28 40 
174 28 40 174 28 40 174 28 40 174 28 40 174 28 40 174 28 40 174 28 40 174 28 40 174 28 40 174 28 40 174 28 40 174 28 40 174 28 40 174 28 40 174 28 40 174 28 40 174 28 40 174 28 40 174 28 40 174 28 40 174 28 40 174 28 40 174 28 40 174 28 40 174 28 40 174 28 40 174 28 40 174 28 40 174 28 40 174 28 40 174 28 40 174 28 40 174 28 40 174 28 40 174 28 40 174 28 40 174 28 40 174 28 40 174 28 40 174 28 40 174 28 40 174 28 40 174 28 40 174 28 40 174 28 40 174 28 40 174 28 40 174 28 40 174 28 40 174 28 40 174 28 40 174 28 40 174 28 40 174 28 40 174 28 40 174 28 40 174 28 40 174 28 40 174 28 40 174 28 40 174 28 40 174 28 40 174 28 40 174 28 40 174 28 40 174 28 40 174 28 40 174 28 40 174 28 40 174 28 40 174 28 40 174 28 40 174 28 40 174 28 40 174 28 40 174 28 40 174 28 40 174 28 40 174 28 40 174 28 40 174 28 40 174 28 40 174 28 40 174 28 40 174 28 40 174 28 40 174 28 40 174 28 40 174 28 40 174 28 40 174 28 40 174 28 40 174 28 40 174 28 40 174 28 40 174 28 40 174 28 40 174 28 40 174 28 40 174 28 40 174 28 40 174 28 40 174 28 40 174 28 40 174 28 40 174 28 40 174 28 40 174 28 40 174 28 40 174 28 40 174 28 40 174 28 40 174 28 40 174 28 40 174 28 40 174 28 40 174 28 40 174 28 40 174 28 40 174 28 40 174 28 40 174 28 40 174 28 40 174 28 40 174 28 40 174 28 40 174 28 40 174 28 40 174 28 40 174 28 40 174 28 40 174 28 40 174 28 40 174 28 40 174 28 40 174 28 40 174 28 40 174 28 40 174 28 40 174 28 40 174 28 40 174 28 40 174 28 40 174 28 40 174 28 40 174 28 40 174 28 40 174 28 40 174 28 40 174 28 40 174 28 40 174 28 40 174 28 40 174 28 40 174 28 40 174 28 40 174 28 40 174 28 40 174 28 40 174 28 40 174 28 40 174 28 40 174 28 40 174 28 40 174 28 40 174 28 40 174 28 40 174 28 40 174 28 40 174 28 40 174 28 40 174 28 40 174 28 40 174 28 40 174 28 40 174 28 40 174 28 40 174 28 40 174 28 40 174 28 40 174 28 40 174 28 40 174 28 40 174 28 40 174 28 40 174 28 40 174 28 40 174 28 40 174 28 40 174 28 40 174 28 40 174 28 40 174 28 40 174 28 40 174 28 40 174 28 40 174 28 40 174 28 40 174 28 40 174 28 40 174 28 40 174 28 40 174 28 40 174 28 40 174 28 40 174 28 40 174 28 40 174 28 40 174 28 40 174 28 40 174 28 40 174 28 40 174 28 40 174 28 40 174 28 40 174 28 40 174 28 40 174 28 40 174 28 40 174 28 40 174 28 40 174 28 40 174 28 40 174 28 40 174 28 40 174 28 40 174 28 40 174 28 40 174 28 40 174 28 40 174 28 40 174 28 40 174 28 40 174 28 40 174 28 40 174 28 40 174 28 40 174 28 40 174 28 40 174 28 40 174 28 40 174 28 40 174 28 40 174 28 40 174 28 40 174 28 40 174 28 40 174 28 40 174 28 40 174 28 40 174 28 40 174 28 40 174 28 40 174 28 40 174 28 40 174 28 40 174 28 40 174 28 40 174 28 40 174 28 40 174 28 40 174 28 40 174 28 40 174 28 40 174 28 40 174 28 40 174 28 40 174 28 40 174 28 40 174 28 40 174 28 40 174 28 40 174 28 40 174 28 40 174 28 40 174 28 40 174 28 40 174 28 40 174 28 40 174 28 40 174 28 40 174 28 40 174 28 40 174 28 40 174 28 40 174 28 40 174 28 40 174 28 40 174 28 40 174 28 40 174 28 40 174 28 40 174 28 40 174 28 40 174 28 40 174 28 40 174 28 40 174 28 40 174 28 40 174 28 40 
174 28 40 174 28 40 174 28 40 174 28 40 174 28 40 174 28 40 174 28 40 174 28 40 174 28 40 174 28 40 174 28 40 174 28 40 174 28 40 174 28 40 174 28 40 174 28 40 174 28 40 174 28 40 174 28 40 174 28 40 174 28 40 174 28 40 174 28 40 174 28 40 174 28 40 174 28 40 174 28 40 174 28 40 174 28 40 174 28 40 174 28 40 174 28 40 174 28 40 174 28 40 174 28 40 174 28 40 174 28 40 174 28 40 174 28 40 174 28 40 174 28 40 174 28 40 174 28 40 174 28 40 174 28 40 174 28 40 174 28 40 174 28 40 174 28 40 174 28 40 174 28 40 174 28 40 174 28 40 174 28 40 174 28 40 174 28 40 174 28 40 174 28 40 174 28 40 174 28 40 174 28 40 174 28 40 174 28 40 174 28 40 174 28 40 174 28 40 174 28 40 174 28 40 174 28 40 174 28 40 174 28 40 174 28 40 174 28 40 174 28 40 174 28 40 174 28 40 174 28 40 174 28 40 174 28 40 174 28 40 174 28 40 174 28 40 174 28 40 174 28 40 174 28 40 174 28 40 174 28 40 174 28 40 174 28 40 174 28 40 174 28 40 174 28 40 174 28 40 174 28 40 174 28 40 174 28 40 174 28 40 174 28 40 174 28 40 174 28 40 174 28 40 174 28 40 174 28 40 174 28 40 174 28 40 174 28 40 174 28 40 174 28 40 174 28 40 174 28 40 174 28 40 174 28 40 174 28 40 174 28 40 174 28 40 174 28 40 174 28 40 174 28 40 174 28 40 174 28 40 174 28 40 174 28 40 174 28 40 174 28 40 174 28 40 174 28 40 174 28 40 174 28 40 174 28 40 174 28 40 174 28 40 174 28 40 174 28 40 174 28 40 174 28 40 174 28 40 174 28 40 174 28 40 174 28 40 174 28 40 174 28 40 174 28 40 174 28 40 174 28 40 174 28 40 174 28 40 174 28 40 174 28 40 174 28 40 174 28 40 174 28 40 174 28 40 174 28 40 174 28 40 174 28 40 174 28 40 174 28 40 174 28 40 174 28 40 174 28 40 174 28 40 174 28 40 174 28 40 174 28 40 174 28 40 174 28 40 174 28 40 174 28 40 174 28 40 174 28 40 174 28 40 174 28 40 174 28 40 174 28 40 174 28 40 174 28 40 174 28 40 174 28 40 174 28 40 174 28 40 174 28 40 174 28 40 174 28 40 174 28 40 174 28 40 174 28 40 174 28 40 174 28 40 174 28 40 174 28 40 174 28 40 174 28 40 174 28 40 174 28 40 174 28 40 174 28 40 174 28 40 174 28 40 174 28 40 174 28 40 174 28 40 174 28 40 174 28 40 174 28 40 174 28 40 174 28 40 174 28 40 174 28 40 174 28 40 174 28 40 174 28 40 174 28 40 174 28 40 174 28 40 174 28 40 174 28 40 174 28 40 174 28 40 174 28 40 174 28 40 174 28 40 174 28 40 174 28 40 174 28 40 174 28 40 174 28 40 174 28 40 174 28 40 174 28 40 174 28 40 174 28 40 174 28 40 174 28 40 174 28 40 174 28 40 174 28 40 174 28 40 174 28 40 174 28 40 174 28 40 174 28 40 174 28 40 174 28 40 174 28 40 174 28 40 174 28 40 174 28 40 174 28 40 174 28 40 174 28 40 174 28 40 174 28 40 174 28 40 174 28 40 174 28 40 174 28 40 174 28 40 174 28 40 174 28 40 174 28 40 174 28 40 174 28 40 174 28 40 174 28 40 174 28 40 174 28 40 174 28 40 174 28 40 174 28 40 174 28 40 174 28 40 174 28 40 174 28 40 174 28 40 174 28 40 174 28 40 174 28 40 174 28 40 174 28 40 174 28 40 174 28 40 174 28 40 174 28 40 174 28 40 174 28 40 174 28 40 174 28 40 174 28 40 174 28 40 174 28 40 174 28 40 174 28 40 174 28 40 174 28 40 174 28 40 174 28 40 174 28 40 174 28 40 174 28 40 174 28 40 
174 28 40 174 28 40 174 28 40 174 28 40 174 28 40 174 28 40 174 28 40 174 28 40 174 28 40 174 28 40 174 28 40 174 28 40 174 28 40 174 28 40 174 28 40 174 28 40 174 28 40 174 28 40 174 28 40 174 28 40 174 28 40 174 28 40 174 28 40 174 28 40 174 28 40 174 28 40 174 28 40 174 28 40 174 28 40 174 28 40 174 28 40 174 28 40 174 28 40 174 28 40 174 28 40 174 28 40 174 28 40 174 28 40 174 28 40 174 28 40 174 28 40 174 28 40 174 28 40 174 28 40 174 28 40 174 28 40 174 28 40 174 28 40 174 28 40 174 28 40 174 28 40 174 28 40 174 28 40 174 28 40 174 28 40 174 28 40 174 28 40 174 28 40 174 28 40 174 28 40 174 28 40 174 28 40 174 28 40 174 28 40 174 28 40 174 28 40 174 28 40 174 28 40 174 28 40 174 28 40 174 28 40 174 28 40 174 28 40 174 28 40 174 28 40 174 28 40 174 28 40 174 28 40 174 28 40 174 28 40 174 28 40 174 28 40 174 28 40 174 28 40 174 28 40 174 28 40 174 28 40 174 28 40 174 28 40 174 28 40 174 28 40 174 28 40 174 28 40 174 28 40 174 28 40 174 28 40 174 28 40 174 28 40 174 28 40 174 28 40 174 28 40 174 28 40 174 28 40 174 28 40 174 28 40 174 28 40 174 28 40 174 28 40 174 28 40 174 28 40 174 28 40 174 28 40 174 28 40 174 28 40 174 28 40 174 28 40 174 28 40 174 28 40 174 28 40 174 28 40 174 28 40 174 28 40 174 28 40 174 28 40 174 28 40 174 28 40 174 28 40 174 28 40 174 28 40 174 28 40 174 28 40 174 28 40 174 28 40 174 28 40 174 28 40 174 28 40 174 28 40 174 28 40 174 28 40 174 28 40 174 28 40 174 28 40 174 28 40 174 28 40 174 28 40 174 28 40 174 28 40 174 28 40 174 28 40 174 28 40 174 28 40 174 28 40 174 28 40 174 28 40 174 28 40 174 28 40 174 28 40 174 28 40 174 28 40 174 28 40 174 28 40 174 28 40 174 28 40 174 28 40 174 28 40 174 28 40 174 28 40 174 28 40 174 28 40 174 28 40 174 28 40 174 28 40 174 28 40 174 28 40 174 28 40 174 28 40 174 28 40 174 28 40 174 28 40 174 28 40 174 28 40 174 28 40 174 28 40 174 28 40 174 28 40 174 28 40 174 28 40 174 28 40 174 28 40 174 28 40 174 28 40 174 28 40 174 28 40 174 28 40 174 28 40 174 28 40 174 28 40 174 28 40 174 28 40 174 28 40 174 28 40 174 28 40 174 28 40 174 28 40 174 28 40 174 28 40 174 28 40 174 28 40 174 28 40 174 28 40 174 28 40 174 28 40 174 28 40 174 28 40 174 28 40 174 28 40 174 28 40 174 28 40 174 28 40 174 28 40 174 28 40 174 28 40 174 28 40 174 28 40 174 28 40 174 28 40 174 28 40 174 28 40 174 28 40 174 28 40 174 28 40 174 28 40 174 28 40 174 28 40 174 28 40 174 28 40 174 28 40 174 28 40 174 28 40 174 28 40 174 28 40 174 28 40 174 28 40 174 28 40 174 28 40 174 28 40 174 28 40 174 28 40 174 28 40 174 28 40 174 28 40 174 28 40 174 28 40 174 28 40 174 28 40 174 28 40 174 28 40 174 28 40 174 28 40 174 28 40 174 28 40 174 28 40 174 28 40 174 28 40 174 28 40 174 28 40 174 28 40 174 28 40 174 28 40 174 28 40 174 28 40 174 28 40 174 28 40 174 28 40 174 28 40 174 28 40 174 28 40 174 28 40 174 28 40 174 28 40 174 28 40 174 28 40 174 28 40 174 28 40 174 28 40 174 28 40 174 28 40 174 28 40 174 28 40 174 28 40 174 28 40 174 28 40 174 28 40 174 28 40 174 28 40 174 28 40 174 28 40 174 28 40 174 28 40 174 28 40 
174 28 40 174 28 40 174 28 40 174 28 40 174 28 40 174 28 40 174 28 40 174 28 40 174 28 40 174 28 40 174 28 40 174 28 40 174 28 40 174 28 40 174 28 40 174 28 40 174 28 40 174 28 40 174 28 40 174 28 40 174 28 40 174 28 40 174 28 40 174 28 40 174 28 40 174 28 40 174 28 40 174 28 40 174 28 40 174 28 40 174 28 40 174 28 40 174 28 40 174 28 40 174 28 40 174 28 40 174 28 40 174 28 40 174 28 40 174 28 40 174 28 40 174 28 40 174 28 40 174 28 40 174 28 40 174 28 40 174 28 40 174 28 40 174 28 40 174 28 40 174 28 40 174 28 40 174 28 40 174 28 40 174 28 40 174 28 40 174 28 40 174 28 40 174 28 40 174 28 40 174 28 40 174 28 40 174 28 40 174 28 40 174 28 40 174 28 40 174 28 40 174 28 40 174 28 40 174 28 40 174 28 40 174 28 40 174 28 40 174 28 40 174 28 40 174 28 40 174 28 40 174 28 40 174 28 40 174 28 40 174 28 40 174 28 40 174 28 40 174 28 40 174 28 40 174 28 40 174 28 40 174 28 40 174 28 40 174 28 40 174 28 40 174 28 40 174 28 40 174 28 40 174 28 40 174 28 40 174 28 40 174 28 40 174 28 40 174 28 40 174 28 40 174 28 40 174 28 40 174 28 40 174 28 40 174 28 40 174 28 40 174 28 40 174 28 40 174 28 40 174 28 40 174 28 40 174 28 40 174 28 40 174 28 40 174 28 40 174 28 40 174 28 40 174 28 40 174 28 40 174 28 40 174 28 40 174 28 40 174 28 40 174 28 40 174 28 40 174 28 40 174 28 40 174 28 40 174 28 40 174 28 40 174 28 40 174 28 40 174 28 40 174 28 40 174 28 40 174 28 40 174 28 40 174 28 40 174 28 40 174 28 40 174 28 40 174 28 40 174 28 40 174 28 40 174 28 40 174 28 40 174 28 40 174 28 40 174 28 40 174 28 40 174 28 40 174 28 40 174 28 40 174 28 40 174 28 40 174 28 40 174 28 40 174 28 40 174 28 40 174 28 40 174 28 40 174 28 40 174 28 40 174 28 40 174 28 40 174 28 40 174 28 40 174 28 40 174 28 40 174 28 40 174 28 40 174 28 40 174 28 40 174 28 40 174 28 40 174 28 40 174 28 40 174 28 40 174 28 40 174 28 40 174 28 40 174 28 40 174 28 40 174 28 40 174 28 40 174 28 40 174 28 40 174 28 40 174 28 40 174 28 40 174 28 40 174 28 40 174 28 40 174 28 40 174 28 40 174 28 40 174 28 40 174 28 40 174 28 40 174 28 40 174 28 40 174 28 40 174 28 40 174 28 40 174 28 40 174 28 40 174 28 40 174 28 40 174 28 40 174 28 40 174 28 40 174 28 40 174 28 40 174 28 40 174 28 40 174 28 40 174 28 40 174 28 40 174 28 40 174 28 40 174 28 40 174 28 40 174 28 40 174 28 40 174 28 40 174 28 40 174 28 40 174 28 40 174 28 40 174 28 40 174 28 40 174 28 40 174 28 40 174 28 40 174 28 40 174 28 40 174 28 40 174 28 40 174 28 40 174 28 40 174 28 40 174 28 40 174 28 40 174 28 40 174 28 40 174 28 40 174 28 40 174 28 40 174 28 40 174 28 40 174 28 40 174 28 40 174 28 40 174 28 40 174 28 40 174 28 40 174 28 40 174 28 40 174 28 40 174 28 40 174 28 40 174 28 40 174 28 40 174 28 40 174 28 40 174 28 40 174 28 40 174 28 40 174 28 40 174 28 40 174 28 40 174 28 40 174 28 40 174 28 40 174 28 40 174 28 40 174 28 40 174 28 40 174 28 40 174 28 40 174 28 40 174 28 40 174 28 40 174 28 40 174 28 40 174 28 40 174 28 40 174 28 40 174 28 40 174 28 40 174 28 40 174 28 40 174 28 40 174 28 40 174 28 40 174 28 40 174 28 40 174 28 40 174 28 40 
174 28 40 174 28 40 174 28 40 174 28 40 174 28 40 174 28 40 174 28 40 174 28 40 174 28 40 174 28 40 174 28 40 174 28 40 174 28 40 174 28 40 174 28 40 174 28 40 174 28 40 174 28 40 174 28 40 174 28 40 174 28 40 174 28 40 174 28 40 174 28 40 174 28 40 174 28 40 174 28 40 174 28 40 174 28 40 174 28 40 174 28 40 174 28 40 174 28 40 174 28 40 174 28 40 174 28 40 174 28 40 174 28 40 174 28 40 174 28 40 174 28 40 174 28 40 174 28 40 174 28 40 174 28 40 174 28 40 174 28 40 174 28 40 174 28 40 174 28 40 174 28 40 174 28 40 174 28 40 174 28 40 174 28 40 174 28 40 174 28 40 174 28 40 174 28 40 174 28 40 174 28 40 174 28 40 174 28 40 174 28 40 174 28 40 174 28 40 174 28 40 174 28 40 174 28 40 174 28 40 174 28 40 174 28 40 174 28 40 174 28 40 174 28 40 174 28 40 174 28 40 174 28 40 174 28 40 174 28 40 174 28 40 174 28 40 174 28 40 174 28 40 174 28 40 174 28 40 174 28 40 174 28 40 174 28 40 174 28 40 174 28 40 174 28 40 174 28 40 174 28 40 174 28 40 174 28 40 174 28 40 174 28 40 174 28 40 174 28 40 174 28 40 174 28 40 174 28 40 174 28 40 174 28 40 174 28 40 174 28 40 174 28 40 174 28 40 174 28 40 174 28 40 174 28 40 174 28 40 174 28 40 174 28 40 174 28 40 174 28 40 174 28 40 174 28 40 174 28 40 174 28 40 174 28 40 174 28 40 174 28 40 174 28 40 174 28 40 174 28 40 174 28 40 174 28 40 174 28 40 174 28 40 174 28 40 174 28 40 174 28 40 174 28 40 174 28 40 174 28 40 174 28 40 174 28 40 174 28 40 174 28 40 174 28 40 174 28 40 174 28 40 174 28 40 174 28 40 174 28 40 174 28 40 174 28 40 174 28 40 174 28 40 174 28 40 174 28 40 174 28 40 174 28 40 174 28 40 174 28 40 174 28 40 174 28 40 174 28 40 174 28 40 174 28 40 174 28 40 174 28 40 174 28 40 174 28 40 174 28 40 174 28 40 174 28 40 174 28 40 174 28 40 174 28 40 174 28 40 174 28 40 174 28 40 174 28 40 174 28 40 174 28 40 174 28 40 174 28 40 174 28 40 174 28 40 174 28 40 174 28 40 174 28 40 174 28 40 174 28 40 174 28 40 174 28 40 174 28 40 174 28 40 174 28 40 174 28 40 174 28 40 174 28 40 174 28 40 174 28 40 174 28 40 174 28 40 174 28 40 174 28 40 174 28 40 174 28 40 174 28 40 174 28 40 174 28 40 174 28 40 174 28 40 174 28 40 174 28 40 174 28 40 174 28 40 174 28 40 174 28 40 174 28 40 174 28 40 174 28 40 174 28 40 174 28 40 174 28 40 174 28 40 174 28 40 174 28 40 174 28 40 174 28 40 174 28 40 174 28 40 174 28 40 174 28 40 174 28 40 174 28 40 174 28 40 174 28 40 174 28 40 174 28 40 174 28 40 174 28 40 174 28 40 174 28 40 174 28 40 174 28 40 174 28 40 174 28 40 174 28 40 174 28 40 174 28 40 174 28 40 174 28 40 174 28 40 174 28 40 174 28 40 174 28 40 174 28 40 174 28 40 174 28 40 174 28 40 174 28 40 174 28 40 174 28 40 174 28 40 174 28 40 174 28 40 174 28 40 174 28 40 174 28 40 174 28 40 174 28 40 174 28 40 174 28 40 174 28 40 174 28 40 174 28 40 174 28 40 174 28 40 174 28 40 174 28 40 174 28 40 174 28 40 174 28 40 174 28 40 174 28 40 174 28 40 174 28 40 174 28 40 174 28 40 174 28 40 174 28 40 174 28 40 174 28 40 174 28 40 174 28 40 174 28 40 174 28 40 174 28 40 174 28 40 174 28 40 174 28 40 174 28 40 174 28 40 174 28 40 
174 28 40 174 28 40 174 28 40 174 28 40 174 28 40 174 28 40 174 28 40 174 28 40 174 28 40 174 28 40 174 28 40 174 28 40 174 28 40 174 28 40 174 28 40 174 28 40 174 28 40 174 28 40 174 28 40 174 28 40 174 28 40 174 28 40 174 28 40 174 28 40 174 28 40 174 28 40 174 28 40 174 28 40 174 28 40 174 28 40 174 28 40 174 28 40 174 28 40 174 28 40 174 28 40 174 28 40 174 28 40 174 28 40 174 28 40 174 28 40 174 28 40 174 28 40 174 28 40 174 28 40 174 28 40 174 28 40 174 28 40 174 28 40 174 28 40 174 28 40 174 28 40 174 28 40 174 28 40 174 28 40 174 28 40 174 28 40 174 28 40 174 28 40 174 28 40 174 28 40 174 28 40 174 28 40 174 28 40 174 28 40 174 28 40 174 28 40 174 28 40 174 28 40 174 28 40 174 28 40 174 28 40 174 28 40 174 28 40 174 28 40 174 28 40 174 28 40 174 28 40 174 28 40 174 28 40 174 28 40 174 28 40 174 28 40 174 28 40 174 28 40 174 28 40 174 28 40 174 28 40 174 28 40 174 28 40 174 28 40 174 28 40 174 28 40 174 28 40 174 28 40 174 28 40 174 28 40 174 28 40 174 28 40 174 28 40 174 28 40 174 28 40 174 28 40 174 28 40 174 28 40 174 28 40 174 28 40 174 28 40 174 28 40 174 28 40 174 28 40 174 28 40 174 28 40 174 28 40 174 28 40 174 28 40 174 28 40 174 28 40 174 28 40 174 28 40 174 28 40 174 28 40 174 28 40 174 28 40 174 28 40 174 28 40 174 28 40 174 28 40 174 28 40 174 28 40 174 28 40 174 28 40 174 28 40 174 28 40 174 28 40 174 28 40 174 28 40 174 28 40 174 28 40 174 28 40 174 28 40 174 28 40 174 28 40 174 28 40 174 28 40 174 28 40 174 28 40 174 28 40 174 28 40 174 28 40 174 28 40 174 28 40 174 28 40 174 28 40 174 28 40 174 28 40 174 28 40 174 28 40 174 28 40 174 28 40 174 28 40 174 28 40 174 28 40 174 28 40 174 28 40 174 28 40 174 28 40 174 28 40 174 28 40 174 28 40 174 28 40 174 28 40 174 28 40 174 28 40 174 28 40 174 28 40 174 28 40 174 28 40 174 28 40 174 28 40 174 28 40 174 28 40 174 28 40 174 28 40 174 28 40 174 28 40 174 28 40 174 28 40 174 28 40 174 28 40 174 28 40 174 28 40 174 28 40 174 28 40 174 28 40 174 28 40 174 28 40 174 28 40 174 28 40 174 28 40 174 28 40 174 28 40 174 28 40 174 28 40 174 28 40 174 28 40 174 28 40 174 28 40 174 28 40 174 28 40 174 28 40 174 28 40 174 28 40 174 28 40 174 28 40 174 28 40 174 28 40 174 28 40 174 28 40 174 28 40 174 28 40 174 28 40 174 28 40 174 28 40 174 28 40 174 28 40 174 28 40 174 28 40 174 28 40 174 28 40 174 28 40 174 28 40 174 28 40 174 28 40 174 28 40 174 28 40 174 28 40 174 28 40 174 28 40 174 28 40 174 28 40 174 28 40 174 28 40 174 28 40 174 28 40 174 28 40 174 28 40 174 28 40 174 28 40 174 28 40 174 28 40 174 28 40 174 28 40 174 28 40 174 28 40 174 28 40 174 28 40 174 28 40 174 28 40 174 28 40 174 28 40 174 28 40 174 28 40 174 28 40 174 28 40 174 28 40 174 28 40 174 28 40 174 28 40 174 28 40 174 28 40 174 28 40 174 28 40 174 28 40 174 28 40 174 28 40 174 28 40 174 28 40 174 28 40 174 28 40 174 28 40 174 28 40 174 28 40 174 28 40 174 28 40 174 28 40 174 28 40 174 28 40 174 28 40 174 28 40 174 28 40 174 28 40 174 28 40 174 28 40 174 28 40 174 28 40 174 28 40 174 28 40 174 28 40 174 28 40 174 28 40 
174 28 40 174 28 40 174 28 40 174 28 40 174 28 40 174 28 40 174 28 40 174 28 40 174 28 40 174 28 40 174 28 40 174 28 40 174 28 40 174 28 40 174 28 40 174 28 40 174 28 40 174 28 40 174 28 40 174 28 40 174 28 40 174 28 40 174 28 40 174 28 40 174 28 40 174 28 40 174 28 40 174 28 40 174 28 40 174 28 40 174 28 40 174 28 40 174 28 40 174 28 40 174 28 40 174 28 40 174 28 40 174 28 40 174 28 40 174 28 40 174 28 40 174 28 40 174 28 40 174 28 40 174 28 40 174 28 40 174 28 40 174 28 40 174 28 40 174 28 40 174 28 40 174 28 40 174 28 40 174 28 40 174 28 40 174 28 40 174 28 40 174 28 40 174 28 40 174 28 40 174 28 40 174 28 40 174 28 40 174 28 40 174 28 40 174 28 40 174 28 40 174 28 40 174 28 40 174 28 40 174 28 40 174 28 40 174 28 40 174 28 40 174 28 40 174 28 40 174 28 40 174 28 40 174 28 40 174 28 40 174 28 40 174 28 40 174 28 40 174 28 40 174 28 40 174 28 40 174 28 40 174 28 40 174 28 40 174 28 40 174 28 40 174 28 40 174 28 40 174 28 40 174 28 40 174 28 40 174 28 40 174 28 40 174 28 40 174 28 40 174 28 40 174 28 40 174 28 40 174 28 40 174 28 40 174 28 40 174 28 40 174 28 40 174 28 40 174 28 40 174 28 40 174 28 40 174 28 40 174 28 40 174 28 40 174 28 40 174 28 40 174 28 40 174 28 40 174 28 40 174 28 40 174 28 40 174 28 40 174 28 40 174 28 40 174 28 40 174 28 40 174 28 40 174 28 40 174 28 40 174 28 40 174 28 40 174 28 40 174 28 40 174 28 40 174 28 40 174 28 40 174 28 40 174 28 40 174 28 40 174 28 40 174 28 40 174 28 40 174 28 40 174 28 40 174 28 40 174 28 40 174 28 40 174 28 40 174 28 40 174 28 40 174 28 40 174 28 40 174 28 40 174 28 40 174 28 40 174 28 40 174 28 40 174 28 40 174 28 40 174 28 40 174 28 40 174 28 40 174 28 40 174 28 40 174 28 40 174 28 40 174 28 40 174 28 40 174 28 40 174 28 40 174 28 40 174 28 40 174 28 40 174 28 40 174 28 40 174 28 40 174 28 40 174 28 40 174 28 40 174 28 40 174 28 40 174 28 40 174 28 40 174 28 40 174 28 40 174 28 40 174 28 40 174 28 40 174 28 40 174 28 40 174 28 40 174 28 40 174 28 40 174 28 40 174 28 40 174 28 40 174 28 40 174 28 40 174 28 40 174 28 40 174 28 40 174 28 40 174 28 40 174 28 40 174 28 40 174 28 40 174 28 40 174 28 40 174 28 40 174 28 40 174 28 40 174 28 40 174 28 40 174 28 40 174 28 40 174 28 40 174 28 40 174 28 40 174 28 40 174 28 40 174 28 40 174 28 40 174 28 40 174 28 40 174 28 40 174 28 40 174 28 40 174 28 40 174 28 40 174 28 40 174 28 40 174 28 40 174 28 40 174 28 40 174 28 40 174 28 40 174 28 40 174 28 40 174 28 40 174 28 40 174 28 40 174 28 40 174 28 40 174 28 40 174 28 40 174 28 40 174 28 40 174 28 40 174 28 40 174 28 40 174 28 40 174 28 40 174 28 40 174 28 40 174 28 40 174 28 40 174 28 40 174 28 40 174 28 40 174 28 40 174 28 40 174 28 40 174 28 40 174 28 40 174 28 40 174 28 40 174 28 40 174 28 40 174 28 40 174 28 40 174 28 40 174 28 40 174 28 40 174 28 40 174 28 40 174 28 40 174 28 40 174 28 40 174 28 40 174 28 40 174 28 40 174 28 40 174 28 40 174 28 40 174 28 40 174 28 40 174 28 40 174 28 40 174 28 40 174 28 40 174 28 40 174 28 40 174 28 40 174 28 40 174 28 40 174 28 40 174 28 40 174 28 40 174 28 40 
174 28 40 174 28 40 174 28 40 174 28 40 174 28 40 174 28 40 174 28 40 174 28 40 174 28 40 174 28 40 174 28 40 174 28 40 174 28 40 174 28 40 174 28 40 174 28 40 174 28 40 174 28 40 174 28 40 174 28 40 174 28 40 174 28 40 174 28 40 174 28 40 174 28 40 174 28 40 174 28 40 174 28 40 174 28 40 174 28 40 174 28 40 174 28 40 174 28 40 174 28 40 174 28 40 174 28 40 174 28 40 174 28 40 174 28 40 174 28 40 174 28 40 174 28 40 174 28 40 174 28 40 174 28 40 174 28 40 174 28 40 174 28 40 174 28 40 174 28 40 174 28 40 174 28 40 174 28 40 174 28 40 174 28 40 174 28 40 174 28 40 174 28 40 174 28 40 174 28 40 174 28 40 174 28 40 174 28 40 174 28 40 174 28 40 174 28 40 174 28 40 174 28 40 174 28 40 174 28 40 174 28 40 174 28 40 174 28 40 174 28 40 174 28 40 174 28 40 174 28 40 174 28 40 174 28 40 174 28 40 174 28 40 174 28 40 174 28 40 174 28 40 174 28 40 174 28 40 174 28 40 174 28 40 174 28 40 174 28 40 174 28 40 174 28 40 174 28 40 174 28 40 174 28 40 174 28 40 174 28 40 174 28 40 174 28 40 174 28 40 174 28 40 174 28 40 174 28 40 174 28 40 174 28 40 174 28 40 174 28 40 174 28 40 174 28 40 174 28 40 174 28 40 174 28 40 174 28 40 174 28 40 174 28 40 174 28 40 174 28 40 174 28 40 174 28 40 174 28 40 174 28 40 174 28 40 174 28 40 174 28 40 174 28 40 174 28 40 174 28 40 174 28 40 174 28 40 174 28 40 174 28 40 174 28 40 174 28 40 174 28 40 174 28 40 174 28 40 174 28 40 174 28 40 174 28 40 174 28 40 174 28 40 174 28 40 174 28 40 174 28 40 174 28 40 174 28 40 174 28 40 174 28 40 174 28 40 174 28 40 174 28 40 174 28 40 174 28 40 174 28 40 174 28 40 174 28 40 174 28 40 174 28 40 174 28 40 174 28 40 174 28 40 174 28 40 174 28 40 174 28 40 174 28 40 174 28 40 174 28 40 174 28 40 174 28 40 174 28 40 174 28 40 174 28 40 174 28 40 174 28 40 174 28 40 174 28 40 174 28 40 174 28 40 174 28 40 174 28 40 174 28 40 174 28 40 174 28 40 174 28 40 174 28 40 174 28 40 174 28 40 174 28 40 174 28 40 174 28 40 174 28 40 174 28 40 174 28 40 174 28 40 174 28 40 174 28 40 174 28 40 174 28 40 174 28 40 174 28 40 174 28 40 174 28 40 174 28 40 174 28 40 174 28 40 174 28 40 174 28 40 174 28 40 174 28 40 174 28 40 174 28 40 174 28 40 174 28 40 174 28 40 174 28 40 174 28 40 174 28 40 174 28 40 174 28 40 174 28 40 174 28 40 174 28 40 174 28 40 174 28 40 174 28 40 174 28 40 174 28 40 174 28 40 174 28 40 174 28 40 174 28 40 174 28 40 174 28 40 174 28 40 174 28 40 174 28 40 174 28 40 174 28 40 174 28 40 174 28 40 174 28 40 174 28 40 174 28 40 174 28 40 174 28 40 174 28 40 174 28 40 174 28 40 174 28 40 174 28 40 174 28 40 174 28 40 174 28 40 174 28 40 174 28 40 174 28 40 174 28 40 174 28 40 174 28 40 174 28 40 174 28 40 174 28 40 174 28 40 174 28 40 174 28 40 174 28 40 174 28 40 174 28 40 174 28 40 174 28 40 174 28 40 174 28 40 174 28 40 174 28 40 174 28 40 174 28 40 174 28 40 174 28 40 174 28 40 174 28 40 174 28 40 174 28 40 174 28 40 174 28 40 174 28 40 174 28 40 174 28 40 174 28 40 174 28 40 174 28 40 174 28 40 174 28 40 174 28 40 174 28 40 174 28 40 174 28 40 174 28 40 174 28 40 174 28 40 174 28 40 
174 28 40 174 28 40 174 28 40 174 28 40 174 28 40 174 28 40 174 28 40 174 28 40 174 28 40 174 28 40 174 28 40 174 28 40 174 28 40 174 28 40 174 28 40 174 28 40 174 28 40 174 28 40 174 28 40 174 28 40 174 28 40 174 28 40 174 28 40 174 28 40 174 28 40 174 28 40 174 28 40 174 28 40 174 28 40 174 28 40 174 28 40 174 28 40 174 28 40 174 28 40 174 28 40 174 28 40 174 28 40 174 28 40 174 28 40 174 28 40 174 28 40 174 28 40 174 28 40 174 28 40 174 28 40 174 28 40 174 28 40 174 28 40 174 28 40 174 28 40 174 28 40 174 28 40 174 28 40 174 28 40 174 28 40 174 28 40 174 28 40 174 28 40 174 28 40 174 28 40 174 28 40 174 28 40 174 28 40 174 28 40 174 28 40 174 28 40 174 28 40 174 28 40 174 28 40 174 28 40 174 28 40 174 28 40 174 28 40 174 28 40 174 28 40 174 28 40 174 28 40 174 28 40 174 28 40 174 28 40 174 28 40 174 28 40 174 28 40 174 28 40 174 28 40 174 28 40 174 28 40 174 28 40 174 28 40 174 28 40 174 28 40 174 28 40 174 28 40 174 28 40 174 28 40 174 28 40 174 28 40 174 28 40 174 28 40 174 28 40 174 28 40 174 28 40 174 28 40 174 28 40 174 28 40 174 28 40 174 28 40 174 28 40 174 28 40 174 28 40 174 28 40 174 28 40 174 28 40 174 28 40 174 28 40 174 28 40 174 28 40 174 28 40 174 28 40 174 28 40 174 28 40 174 28 40 174 28 40 174 28 40 174 28 40 174 28 40 174 28 40 174 28 40 174 28 40 174 28 40 174 28 40 174 28 40 174 28 40 174 28 40 174 28 40 174 28 40 174 28 40 174 28 40 174 28 40 174 28 40 174 28 40 174 28 40 174 28 40 174 28 40 174 28 40 174 28 40 174 28 40 174 28 40 174 28 40 174 28 40 174 28 40 174 28 40 174 28 40 174 28 40 174 28 40 174 28 40 174 28 40 174 28 40 174 28 40 174 28 40 174 28 40 174 28 40 174 28 40 174 28 40 174 28 40 174 28 40 174 28 40 174 28 40 174 28 40 174 28 40 174 28 40 174 28 40 174 28 40 174 28 40 174 28 40 174 28 40 174 28 40 174 28 40 174 28 40 174 28 40 174 28 40 174 28 40 174 28 40 174 28 40 174 28 40 174 28 40 174 28 40 174 28 40 174 28 40 174 28 40 174 28 40 174 28 40 174 28 40 174 28 40 174 28 40 174 28 40 174 28 40 174 28 40 174 28 40 174 28 40 174 28 40 174 28 40 174 28 40 174 28 40 174 28 40 174 28 40 174 28 40 174 28 40 174 28 40 174 28 40 174 28 40 174 28 40 174 28 40 174 28 40 174 28 40 174 28 40 174 28 40 174 28 40 174 28 40 174 28 40 174 28 40 174 28 40 174 28 40 174 28 40 174 28 40 174 28 40 174 28 40 174 28 40 174 28 40 174 28 40 174 28 40 174 28 40 174 28 40 174 28 40 174 28 40 174 28 40 174 28 40 174 28 40 174 28 40 174 28 40 174 28 40 174 28 40 174 28 40 174 28 40 174 28 40 174 28 40 174 28 40 174 28 40 174 28 40 174 28 40 174 28 40 174 28 40 174 28 40 174 28 40 174 28 40 174 28 40 174 28 40 174 28 40 174 28 40 174 28 40 174 28 40 174 28 40 174 28 40 174 28 40 174 28 40 174 28 40 174 28 40 174 28 40 174 28 40 174 28 40 174 28 40 174 28 40 174 28 40 174 28 40 174 28 40 174 28 40 174 28 40 174 28 40 174 28 40 174 28 40 174 28 40 174 28 40 174 28 40 174 28 40 174 28 40 174 28 40 174 28 40 174 28 40 174 28 40 174 28 40 174 28 40 174 28 40 174 28 40 174 28 40 174 28 40 174 28 40 174 28 40 174 28 40 174 28 40 174 28 40 
174 28 40 174 28 40 174 28 40 174 28 40 174 28 40 174 28 40 174 28 40 174 28 40 174 28 40 174 28 40 174 28 40 174 28 40 174 28 40 174 28 40 174 28 40 174 28 40 174 28 40 174 28 40 174 28 40 174 28 40 174 28 40 174 28 40 174 28 40 174 28 40 174 28 40 174 28 40 174 28 40 174 28 40 174 28 40 174 28 40 174 28 40 174 28 40 174 28 40 174 28 40 174 28 40 174 28 40 174 28 40 174 28 40 174 28 40 174 28 40 174 28 40 174 28 40 174 28 40 174 28 40 174 28 40 174 28 40 174 28 40 174 28 40 174 28 40 174 28 40 174 28 40 174 28 40 174 28 40 174 28 40 174 28 40 174 28 40 174 28 40 174 28 40 174 28 40 174 28 40 174 28 40 174 28 40 174 28 40 174 28 40 174 28 40 174 28 40 174 28 40 174 28 40 174 28 40 174 28 40 174 28 40 174 28 40 174 28 40 174 28 40 174 28 40 174 28 40 174 28 40 174 28 40 174 28 40 174 28 40 174 28 40 174 28 40 174 28 40 174 28 40 174 28 40 174 28 40 174 28 40 174 28 40 174 28 40 174 28 40 174 28 40 174 28 40 174 28 40 174 28 40 174 28 40 174 28 40 174 28 40 174 28 40 174 28 40 174 28 40 174 28 40 174 28 40 174 28 40 174 28 40 174 28 40 174 28 40 174 28 40 174 28 40 174 28 40 174 28 40 174 28 40 174 28 40 174 28 40 174 28 40 174 28 40 174 28 40 174 28 40 174 28 40 174 28 40 174 28 40 174 28 40 174 28 40 174 28 40 174 28 40 174 28 40 174 28 40 174 28 40 174 28 40 174 28 40 174 28 40 174 28 40 174 28 40 174 28 40 174 28 40 174 28 40 174 28 40 174 28 40 174 28 40 174 28 40 174 28 40 174 28 40 174 28 40 174 28 40 174 28 40 174 28 40 174 28 40 174 28 40 174 28 40 174 28 40 174 28 40 174 28 40 174 28 40 174 28 40 174 28 40 174 28 40 174 28 40 174 28 40 174 28 40 174 28 40 174 28 40 174 28 40 174 28 40 174 28 40 174 28 40 174 28 40 174 28 40 174 28 40 174 28 40 174 28 40 174 28 40 174 28 40 174 28 40 174 28 40 174 28 40 174 28 40 174 28 40 174 28 40 174 28 40 174 28 40 174 28 40 174 28 40 174 28 40 174 28 40 174 28 40 174 28 40 174 28 40 174 28 40 174 28 40 174 28 40 174 28 40 174 28 40 174 28 40 174 28 40 174 28 40 174 28 40 174 28 40 174 28 40 174 28 40 174 28 40 174 28 40 174 28 40 174 28 40 174 28 40 174 28 40 174 28 40 174 28 40 174 28 40 174 28 40 174 28 40 174 28 40 174 28 40 174 28 40 174 28 40 174 28 40 174 28 40 174 28 40 174 28 40 174 28 40 174 28 40 174 28 40 174 28 40 174 28 40 174 28 40 174 28 40 174 28 40 174 28 40 174 28 40 174 28 40 174 28 40 174 28 40 174 28 40 174 28 40 174 28 40 174 28 40 174 28 40 174 28 40 174 28 40 174 28 40 174 28 40 174 28 40 174 28 40 174 28 40 174 28 40 174 28 40 174 28 40 174 28 40 174 28 40 174 28 40 174 28 40 174 28 40 174 28 40 174 28 40 174 28 40 174 28 40 174 28 40 174 28 40 174 28 40 174 28 40 174 28 40 174 28 40 174 28 40 174 28 40 174 28 40 174 28 40 174 28 40 174 28 40 174 28 40 174 28 40 174 28 40 174 28 40 174 28 40 174 28 40 174 28 40 174 28 40 174 28 40 174 28 40 174 28 40 174 28 40 174 28 40 174 28 40 174 28 40 174 28 40 174 28 40 174 28 40 174 28 40 174 28 40 174 28 40 174 28 40 174 28 40 174 28 40 174 28 40 174 28 40 174 28 40 174 28 40 174 28 40 174 28 40 174 28 40 174 28 40 174 28 40 174 28 40 
174 28 40 174 28 40 174 28 40 174 28 40 174 28 40 174 28 40 174 28 40 174 28 40 174 28 40 174 28 40 174 28 40 174 28 40 174 28 40 174 28 40 174 28 40 174 28 40 174 28 40 174 28 40 174 28 40 174 28 40 174 28 40 174 28 40 174 28 40 174 28 40 174 28 40 174 28 40 174 28 40 174 28 40 174 28 40 174 28 40 174 28 40 174 28 40 174 28 40 174 28 40 174 28 40 174 28 40 174 28 40 174 28 40 174 28 40 174 28 40 174 28 40 174 28 40 174 28 40 174 28 40 174 28 40 174 28 40 174 28 40 174 28 40 174 28 40 174 28 40 174 28 40 174 28 40 174 28 40 174 28 40 174 28 40 174 28 40 174 28 40 174 28 40 174 28 40 174 28 40 174 28 40 174 28 40 174 28 40 174 28 40 174 28 40 174 28 40 174 28 40 174 28 40 174 28 40 174 28 40 174 28 40 174 28 40 174 28 40 174 28 40 174 28 40 174 28 40 174 28 40 174 28 40 174 28 40 174 28 40 174 28 40 174 28 40 174 28 40 174 28 40 174 28 40 174 28 40 174 28 40 174 28 40 174 28 40 174 28 40 174 28 40 174 28 40 174 28 40 174 28 40 174 28 40 174 28 40 174 28 40 174 28 40 174 28 40 174 28 40 174 28 40 174 28 40 174 28 40 174 28 40 174 28 40 174 28 40 174 28 40 174 28 40 174 28 40 174 28 40 174 28 40 174 28 40 174 28 40 174 28 40 174 28 40 174 28 40 174 28 40 174 28 40 174 28 40 174 28 40 174 28 40 174 28 40 174 28 40 174 28 40 174 28 40 174 28 40 174 28 40 174 28 40 174 28 40 174 28 40 174 28 40 174 28 40 174 28 40 174 28 40 174 28 40 174 28 40 174 28 40 174 28 40 174 28 40 174 28 40 174 28 40 174 28 40 174 28 40 174 28 40 174 28 40 174 28 40 174 28 40 174 28 40 174 28 40 174 28 40 174 28 40 174 28 40 174 28 40 174 28 40 174 28 40 174 28 40 174 28 40 174 28 40 174 28 40 174 28 40 174 28 40 174 28 40 174 28 40 174 28 40 174 28 40 174 28 40 174 28 40 174 28 40 174 28 40 174 28 40 174 28 40 174 28 40 174 28 40 174 28 40 174 28 40 174 28 40 174 28 40 174 28 40 174 28 40 174 28 40 174 28 40 174 28 40 174 28 40 174 28 40 174 28 40 174 28 40 174 28 40 174 28 40 174 28 40 174 28 40 174 28 40 174 28 40 174 28 40 174 28 40 174 28 40 174 28 40 174 28 40 174 28 40 174 28 40 174 28 40 174 28 40 174 28 40 174 28 40 174 28 40 174 28 40 174 28 40 174 28 40 174 28 40 174 28 40 174 28 40 174 28 40 174 28 40 174 28 40 174 28 40 174 28 40 174 28 40 174 28 40 174 28 40 174 28 40 174 28 40 174 28 40 174 28 40 174 28 40 174 28 40 174 28 40 174 28 40 174 28 40 174 28 40 174 28 40 174 28 40 174 28 40 174 28 40 174 28 40 174 28 40 174 28 40 174 28 40 174 28 40 174 28 40 174 28 40 174 28 40 174 28 40 174 28 40 174 28 40 174 28 40 174 28 40 174 28 40 174 28 40 174 28 40 174 28 40 174 28 40 174 28 40 174 28 40 174 28 40 174 28 40 174 28 40 174 28 40 174 28 40 174 28 40 174 28 40 174 28 40 174 28 40 174 28 40 174 28 40 174 28 40 174 28 40 174 28 40 174 28 40 174 28 40 174 28 40 174 28 40 174 28 40 174 28 40 174 28 40 174 28 40 174 28 40 174 28 40 174 28 40 174 28 40 174 28 40 174 28 40 174 28 40 174 28 40 174 28 40 174 28 40 174 28 40 174 28 40 174 28 40 174 28 40 174 28 40 174 28 40 174 28 40 174 28 40 174 28 40 174 28 40 174 28 40 174 28 40 174 28 40 174 28 40 174 28 40 174 28 40 
174 28 40 174 28 40 174 28 40 174 28 40 174 28 40 174 28 40 174 28 40 174 28 40 174 28 40 174 28 40 174 28 40 174 28 40 174 28 40 174 28 40 174 28 40 174 28 40 174 28 40 174 28 40 174 28 40 174 28 40 174 28 40 174 28 40 174 28 40 174 28 40 174 28 40 174 28 40 174 28 40 174 28 40 174 28 40 174 28 40 174 28 40 174 28 40 174 28 40 174 28 40 174 28 40 174 28 40 174 28 40 174 28 40 174 28 40 174 28 40 174 28 40 174 28 40 174 28 40 174 28 40 174 28 40 174 28 40 174 28 40 174 28 40 174 28 40 174 28 40 174 28 40 174 28 40 174 28 40 174 28 40 174 28 40 174 28 40 174 28 40 174 28 40 174 28 40 174 28 40 174 28 40 174 28 40 174 28 40 174 28 40 174 28 40 174 28 40 174 28 40 174 28 40 174 28 40 174 28 40 174 28 40 174 28 40 174 28 40 174 28 40 174 28 40 174 28 40 174 28 40 174 28 40 174 28 40 174 28 40 174 28 40 174 28 40 174 28 40 174 28 40 174 28 40 174 28 40 174 28 40 174 28 40 174 28 40 174 28 40 174 28 40 174 28 40 174 28 40 174 28 40 174 28 40 174 28 40 174 28 40 174 28 40 174 28 40 174 28 40 174 28 40 174 28 40 174 28 40 174 28 40 174 28 40 174 28 40 174 28 40 174 28 40 174 28 40 174 28 40 174 28 40 174 28 40 174 28 40 174 28 40 174 28 40 174 28 40 174 28 40 174 28 40 174 28 40 174 28 40 174 28 40 174 28 40 174 28 40 174 28 40 174 28 40 174 28 40 174 28 40 174 28 40 174 28 40 174 28 40 174 28 40 174 28 40 174 28 40 174 28 40 174 28 40 174 28 40 174 28 40 174 28 40 174 28 40 174 28 40 174 28 40 174 28 40 174 28 40 174 28 40 174 28 40 174 28 40 174 28 40 174 28 40 174 28 40 174 28 40 174 28 40 174 28 40 174 28 40 174 28 40 174 28 40 174 28 40 174 28 40 174 28 40 174 28 40 174 28 40 174 28 40 174 28 40 174 28 40 174 28 40 174 28 40 174 28 40 174 28 40 174 28 40 174 28 40 174 28 40 174 28 40 174 28 40 174 28 40 174 28 40 174 28 40 174 28 40 174 28 40 174 28 40 174 28 40 174 28 40 174 28 40 174 28 40 174 28 40 174 28 40 174 28 40 174 28 40 174 28 40 174 28 40 174 28 40 174 28 40 174 28 40 174 28 40 174 28 40 174 28 40 174 28 40 174 28 40 174 28 40 174 28 40 174 28 40 174 28 40 174 28 40 174 28 40 174 28 40 174 28 40 174 28 40 174 28 40 174 28 40 174 28 40 174 28 40 174 28 40 174 28 40 174 28 40 174 28 40 174 28 40 174 28 40 174 28 40 174 28 40 174 28 40 174 28 40 174 28 40 174 28 40 174 28 40 174 28 40 174 28 40 174 28 40 174 28 40 174 28 40 174 28 40 174 28 40 174 28 40 174 28 40 174 28 40 174 28 40 174 28 40 174 28 40 174 28 40 174 28 40 174 28 40 174 28 40 174 28 40 174 28 40 174 28 40 174 28 40 174 28 40 174 28 40 174 28 40 174 28 40 174 28 40 174 28 40 174 28 40 174 28 40 174 28 40 174 28 40 174 28 40 174 28 40 174 28 40 174 28 40 174 28 40 174 28 40 174 28 40 174 28 40 174 28 40 174 28 40 174 28 40 174 28 40 174 28 40 174 28 40 174 28 40 174 28 40 174 28 40 174 28 40 174 28 40 174 28 40 174 28 40 174 28 40 174 28 40 174 28 40 174 28 40 174 28 40 174 28 40 174 28 40 174 28 40 174 28 40 174 28 40 174 28 40 174 28 40 174 28 40 174 28 40 174 28 40 174 28 40 174 28 40 174 28 40 174 28 40 174 28 40 174 28 40 174 28 40 174 28 40 174 28 40 174 28 40 174 28 40 
174 28 40 174 28 40 174 28 40 174 28 40 174 28 40 174 28 40 174 28 40 174 28 40 174 28 40 174 28 40 174 28 40 174 28 40 174 28 40 174 28 40 174 28 40 174 28 40 174 28 40 174 28 40 174 28 40 174 28 40 174 28 40 174 28 40 174 28 40 174 28 40 174 28 40 174 28 40 174 28 40 174 28 40 174 28 40 174 28 40 174 28 40 174 28 40 174 28 40 174 28 40 174 28 40 174 28 40 174 28 40 174 28 40 174 28 40 174 28 40 174 28 40 174 28 40 174 28 40 174 28 40 174 28 40 174 28 40 174 28 40 174 28 40 174 28 40 174 28 40 174 28 40 174 28 40 174 28 40 174 28 40 174 28 40 174 28 40 174 28 40 174 28 40 174 28 40 174 28 40 174 28 40 174 28 40 174 28 40 174 28 40 174 28 40 174 28 40 174 28 40 174 28 40 174 28 40 174 28 40 174 28 40 174 28 40 174 28 40 174 28 40 174 28 40 174 28 40 174 28 40 174 28 40 174 28 40 174 28 40 174 28 40 174 28 40 174 28 40 174 28 40 174 28 40 174 28 40 174 28 40 174 28 40 174 28 40 174 28 40 174 28 40 174 28 40 174 28 40 174 28 40 174 28 40 174 28 40 174 28 40 174 28 40 174 28 40 174 28 40 174 28 40 174 28 40 174 28 40 174 28 40 174 28 40 174 28 40 174 28 40 174 28 40 174 28 40 174 28 40 174 28 40 174 28 40 174 28 40 174 28 40 174 28 40 174 28 40 174 28 40 174 28 40 174 28 40 174 28 40 174 28 40 174 28 40 174 28 40 174 28 40 174 28 40 174 28 40 174 28 40 174 28 40 174 28 40 174 28 40 174 28 40 174 28 40 174 28 40 174 28 40 174 28 40 174 28 40 174 28 40 174 28 40 174 28 40 174 28 40 174 28 40 174 28 40 174 28 40 174 28 40 174 28 40 174 28 40 174 28 40 174 28 40 174 28 40 174 28 40 174 28 40 174 28 40 174 28 40 174 28 40 174 28 40 174 28 40 174 28 40 174 28 40 174 28 40 174 28 40 174 28 40 174 28 40 174 28 40 174 28 40 174 28 40 174 28 40 174 28 40 174 28 40 174 28 40 174 28 40 174 28 40 174 28 40 174 28 40 174 28 40 174 28 40 174 28 40 174 28 40 174 28 40 174 28 40 174 28 40 174 28 40 174 28 40 174 28 40 174 28 40 174 28 40 174 28 40 174 28 40 174 28 40 174 28 40 174 28 40 174 28 40 174 28 40 174 28 40 174 28 40 174 28 40 174 28 40 174 28 40 174 28 40 174 28 40 174 28 40 174 28 40 174 28 40 174 28 40 174 28 40 174 28 40 174 28 40 174 28 40 174 28 40 174 28 40 174 28 40 174 28 40 174 28 40 174 28 40 174 28 40 174 28 40 174 28 40 174 28 40 174 28 40 174 28 40 174 28 40 174 28 40 174 28 40 174 28 40 174 28 40 174 28 40 174 28 40 174 28 40 174 28 40 174 28 40 174 28 40 174 28 40 174 28 40 174 28 40 174 28 40 174 28 40 174 28 40 174 28 40 174 28 40 174 28 40 174 28 40 174 28 40 174 28 40 174 28 40 174 28 40 174 28 40 174 28 40 174 28 40 174 28 40 174 28 40 174 28 40 174 28 40 174 28 40 174 28 40 174 28 40 174 28 40 174 28 40 174 28 40 174 28 40 174 28 40 174 28 40 174 28 40 174 28 40 174 28 40 174 28 40 174 28 40 174 28 40 174 28 40 174 28 40 174 28 40 174 28 40 174 28 40 174 28 40 174 28 40 174 28 40 174 28 40 174 28 40 174 28 40 174 28 40 174 28 40 174 28 40 174 28 40 174 28 40 174 28 40 174 28 40 174 28 40 174 28 40 174 28 40 174 28 40 174 28 40 174 28 40 174 28 40 174 28 40 174 28 40 174 28 40 174 28 40 174 28 40 174 28 40 174 28 40 174 28 40 174 28 40 
174 28 40 174 28 40 174 28 40 174 28 40 174 28 40 174 28 40 174 28 40 174 28 40 174 28 40 174 28 40 174 28 40 174 28 40 174 28 40 174 28 40 174 28 40 174 28 40 174 28 40 174 28 40 174 28 40 174 28 40 174 28 40 174 28 40 174 28 40 174 28 40 174 28 40 174 28 40 174 28 40 174 28 40 174 28 40 174 28 40 174 28 40 174 28 40 174 28 40 174 28 40 174 28 40 174 28 40 174 28 40 174 28 40 174 28 40 174 28 40 174 28 40 174 28 40 174 28 40 174 28 40 174 28 40 174 28 40 174 28 40 174 28 40 174 28 40 174 28 40 174 28 40 174 28 40 174 28 40 174 28 40 174 28 40 174 28 40 174 28 40 174 28 40 174 28 40 174 28 40 174 28 40 174 28 40 174 28 40 174 28 40 174 28 40 174 28 40 174 28 40 174 28 40 174 28 40 174 28 40 174 28 40 174 28 40 174 28 40 174 28 40 174 28 40 174 28 40 174 28 40 174 28 40 174 28 40 174 28 40 174 28 40 174 28 40 174 28 40 174 28 40 174 28 40 174 28 40 174 28 40 174 28 40 174 28 40 174 28 40 174 28 40 174 28 40 174 28 40 174 28 40 174 28 40 174 28 40 174 28 40 174 28 40 174 28 40 174 28 40 174 28 40 174 28 40 174 28 40 174 28 40 174 28 40 174 28 40 174 28 40 174 28 40 174 28 40 174 28 40 174 28 40 174 28 40 174 28 40 174 28 40 174 28 40 174 28 40 174 28 40 174 28 40 174 28 40 174 28 40 174 28 40 174 28 40 174 28 40 174 28 40 174 28 40 174 28 40 174 28 40 174 28 40 174 28 40 174 28 40 174 28 40 174 28 40 174 28 40 174 28 40 174 28 40 174 28 40 174 28 40 174 28 40 174 28 40 174 28 40 174 28 40 174 28 40 174 28 40 174 28 40 174 28 40 174 28 40 174 28 40 174 28 40 174 28 40 174 28 40 174 28 40 174 28 40 174 28 40 174 28 40 174 28 40 174 28 40 174 28 40 174 28 40 174 28 40 174 28 40 174 28 40 174 28 40 174 28 40 174 28 40 174 28 40 174 28 40 174 28 40 174 28 40 174 28 40 174 28 40 174 28 40 174 28 40 174 28 40 174 28 40 174 28 40 174 28 40 174 28 40 174 28 40 174 28 40 174 28 40 174 28 40 174 28 40 174 28 40 174 28 40 174 28 40 174 28 40 174 28 40 174 28 40 174 28 40 174 28 40 174 28 40 174 28 40 174 28 40 174 28 40 174 28 40 174 28 40 174 28 40 174 28 40 174 28 40 174 28 40 174 28 40 174 28 40 174 28 40 174 28 40 174 28 40 174 28 40 174 28 40 174 28 40 174 28 40 174 28 40 174 28 40 174 28 40 174 28 40 174 28 40 174 28 40 174 28 40 174 28 40 174 28 40 174 28 40 174 28 40 174 28 40 174 28 40 174 28 40 174 28 40 174 28 40 174 28 40 174 28 40 174 28 40 174 28 40 174 28 40 174 28 40 174 28 40 174 28 40 174 28 40 174 28 40 174 28 40 174 28 40 174 28 40 174 28 40 174 28 40 174 28 40 174 28 40 174 28 40 174 28 40 174 28 40 174 28 40 174 28 40 174 28 40 174 28 40 174 28 40 174 28 40 174 28 40 174 28 40 174 28 40 174 28 40 174 28 40 174 28 40 174 28 40 174 28 40 174 28 40 174 28 40 174 28 40 174 28 40 174 28 40 174 28 40 174 28 40 174 28 40 174 28 40 174 28 40 174 28 40 174 28 40 174 28 40 174 28 40 174 28 40 174 28 40 174 28 40 174 28 40 174 28 40 174 28 40 174 28 40 174 28 40 174 28 40 174 28 40 174 28 40 174 28 40 174 28 40 174 28 40 174 28 40 174 28 40 174 28 40 174 28 40 174 28 40 174 28 40 174 28 40 174 28 40 174 28 40 174 28 40 174 28 40 174 28 40 174 28 40 
174 28 40 174 28 40 174 28 40 174 28 40 174 28 40 174 28 40 174 28 40 174 28 40 174 28 40 174 28 40 174 28 40 174 28 40 174 28 40 174 28 40 174 28 40 174 28 40 174 28 40 174 28 40 174 28 40 174 28 40 174 28 40 174 28 40 174 28 40 174 28 40 174 28 40 174 28 40 174 28 40 174 28 40 174 28 40 174 28 40 174 28 40 174 28 40 174 28 40 174 28 40 174 28 40 174 28 40 174 28 40 174 28 40 174 28 40 174 28 40 174 28 40 174 28 40 174 28 40 174 28 40 174 28 40 174 28 40 174 28 40 174 28 40 174 28 40 174 28 40 174 28 40 174 28 40 174 28 40 174 28 40 174 28 40 174 28 40 174 28 40 174 28 40 174 28 40 174 28 40 174 28 40 174 28 40 174 28 40 174 28 40 174 28 40 174 28 40 174 28 40 174 28 40 174 28 40 174 28 40 174 28 40 174 28 40 174 28 40 174 28 40 174 28 40 174 28 40 174 28 40 174 28 40 174 28 40 174 28 40 174 28 40 174 28 40 174 28 40 174 28 40 174 28 40 174 28 40 174 28 40 174 28 40 174 28 40 174 28 40 174 28 40 174 28 40 174 28 40 174 28 40 174 28 40 174 28 40 174 28 40 174 28 40 174 28 40 174 28 40 174 28 40 174 28 40 174 28 40 174 28 40 174 28 40 174 28 40 174 28 40 174 28 40 174 28 40 174 28 40 174 28 40 174 28 40 174 28 40 174 28 40 174 28 40 174 28 40 174 28 40 174 28 40 174 28 40 174 28 40 174 28 40 174 28 40 174 28 40 174 28 40 174 28 40 174 28 40 174 28 40 174 28 40 174 28 40 174 28 40 174 28 40 174 28 40 174 28 40 174 28 40 174 28 40 174 28 40 174 28 40 174 28 40 174 28 40 174 28 40 174 28 40 174 28 40 174 28 40 174 28 40 174 28 40 174 28 40 174 28 40 174 28 40 174 28 40 174 28 40 174 28 40 174 28 40 174 28 40 174 28 40 174 28 40 174 28 40 174 28 40 174 28 40 174 28 40 174 28 40 174 28 40 174 28 40 174 28 40 174 28 40 174 28 40 174 28 40 174 28 40 174 28 40 174 28 40 174 28 40 174 28 40 174 28 40 174 28 40 174 28 40 174 28 40 174 28 40 174 28 40 174 28 40 174 28 40 174 28 40 174 28 40 174 28 40 174 28 40 174 28 40 174 28 40 174 28 40 174 28 40 174 28 40 174 28 40 174 28 40 174 28 40 174 28 40 174 28 40 174 28 40 174 28 40 174 28 40 174 28 40 174 28 40 174 28 40 174 28 40 174 28 40 174 28 40 174 28 40 174 28 40 174 28 40 174 28 40 174 28 40 174 28 40 174 28 40 174 28 40 174 28 40 174 28 40 174 28 40 174 28 40 174 28 40 174 28 40 174 28 40 174 28 40 174 28 40 174 28 40 174 28 40 174 28 40 174 28 40 174 28 40 174 28 40 174 28 40 174 28 40 174 28 40 174 28 40 174 28 40 174 28 40 174 28 40 174 28 40 174 28 40 174 28 40 174 28 40 174 28 40 174 28 40 174 28 40 174 28 40 174 28 40 174 28 40 174 28 40 174 28 40 174 28 40 174 28 40 174 28 40 174 28 40 174 28 40 174 28 40 174 28 40 174 28 40 174 28 40 174 28 40 174 28 40 174 28 40 174 28 40 174 28 40 174 28 40 174 28 40 174 28 40 174 28 40 174 28 40 174 28 40 174 28 40 174 28 40 174 28 40 174 28 40 174 28 40 174 28 40 174 28 40 174 28 40 174 28 40 174 28 40 174 28 40 174 28 40 174 28 40 174 28 40 174 28 40 174 28 40 174 28 40 174 28 40 174 28 40 174 28 40 174 28 40 174 28 40 174 28 40 174 28 40 174 28 40 174 28 40 174 28 40 174 28 40 174 28 40 174 28 40 174 28 40 174 28 40 174 28 40 174 28 40 174 28 40 174 28 40 
174 28 40 174 28 40 174 28 40 174 28 40 174 28 40 174 28 40 174 28 40 174 28 40 174 28 40 174 28 40 174 28 40 174 28 40 174 28 40 174 28 40 174 28 40 174 28 40 174 28 40 174 28 40 174 28 40 174 28 40 174 28 40 174 28 40 174 28 40 174 28 40 174 28 40 174 28 40 174 28 40 174 28 40 174 28 40 174 28 40 174 28 40 174 28 40 174 28 40 174 28 40 174 28 40 174 28 40 174 28 40 174 28 40 174 28 40 174 28 40 174 28 40 174 28 40 174 28 40 174 28 40 174 28 40 174 28 40 174 28 40 174 28 40 174 28 40 174 28 40 174 28 40 174 28 40 174 28 40 174 28 40 174 28 40 174 28 40 174 28 40 174 28 40 174 28 40 174 28 40 174 28 40 174 28 40 174 28 40 174 28 40 174 28 40 174 28 40 174 28 40 174 28 40 174 28 40 174 28 40 174 28 40 174 28 40 174 28 40 174 28 40 174 28 40 174 28 40 174 28 40 174 28 40 174 28 40 174 28 40 174 28 40 174 28 40 174 28 40 174 28 40 174 28 40 174 28 40 174 28 40 174 28 40 174 28 40 174 28 40 174 28 40 174 28 40 174 28 40 174 28 40 174 28 40 174 28 40 174 28 40 174 28 40 174 28 40 174 28 40 174 28 40 174 28 40 174 28 40 174 28 40 174 28 40 174 28 40 174 28 40 174 28 40 174 28 40 174 28 40 174 28 40 174 28 40 174 28 40 174 28 40 174 28 40 174 28 40 174 28 40 174 28 40 174 28 40 174 28 40 174 28 40 174 28 40 174 28 40 174 28 40 174 28 40 174 28 40 174 28 40 174 28 40 174 28 40 174 28 40 174 28 40 174 28 40 174 28 40 174 28 40 174 28 40 174 28 40 174 28 40 174 28 40 174 28 40 174 28 40 174 28 40 174 28 40 174 28 40 174 28 40 174 28 40 174 28 40 174 28 40 174 28 40 174 28 40 174 28 40 174 28 40 174 28 40 174 28 40 174 28 40 174 28 40 174 28 40 174 28 40 174 28 40 174 28 40 174 28 40 174 28 40 174 28 40 174 28 40 174 28 40 174 28 40 174 28 40 174 28 40 174 28 40 174 28 40 174 28 40 174 28 40 174 28 40 174 28 40 174 28 40 174 28 40 174 28 40 174 28 40 174 28 40 174 28 40 174 28 40 174 28 40 174 28 40 174 28 40 174 28 40 174 28 40 174 28 40 174 28 40 174 28 40 174 28 40 174 28 40 174 28 40 174 28 40 174 28 40 174 28 40 174 28 40 174 28 40 174 28 40 174 28 40 174 28 40 174 28 40 174 28 40 174 28 40 174 28 40 174 28 40 174 28 40 174 28 40 174 28 40 174 28 40 174 28 40 174 28 40 174 28 40 174 28 40 174 28 40 174 28 40 174 28 40 174 28 40 174 28 40 174 28 40 174 28 40 174 28 40 174 28 40 174 28 40 174 28 40 174 28 40 174 28 40 174 28 40 174 28 40 174 28 40 174 28 40 174 28 40 174 28 40 174 28 40 174 28 40 174 28 40 174 28 40 174 28 40 174 28 40 174 28 40 174 28 40 174 28 40 174 28 40 174 28 40 174 28 40 174 28 40 174 28 40 174 28 40 174 28 40 174 28 40 174 28 40 174 28 40 174 28 40 174 28 40 174 28 40 174 28 40 174 28 40 174 28 40 174 28 40 174 28 40 174 28 40 174 28 40 174 28 40 174 28 40 174 28 40 174 28 40 174 28 40 174 28 40 174 28 40 174 28 40 174 28 40 174 28 40 174 28 40 174 28 40 174 28 40 174 28 40 174 28 40 174 28 40 174 28 40 174 28 40 174 28 40 174 28 40 174 28 40 174 28 40 174 28 40 174 28 40 174 28 40 174 28 40 174 28 40 174 28 40 174 28 40 174 28 40 174 28 40 174 28 40 174 28 40 174 28 40 174 28 40 174 28 40 174 28 40 174 28 40 174 28 40 174 28 40 
174 28 40 174 28 40 174 28 40 174 28 40 174 28 40 174 28 40 174 28 40 174 28 40 174 28 40 174 28 40 174 28 40 174 28 40 174 28 40 174 28 40 174 28 40 174 28 40 174 28 40 174 28 40 174 28 40 174 28 40 174 28 40 174 28 40 174 28 40 174 28 40 174 28 40 174 28 40 174 28 40 174 28 40 174 28 40 174 28 40 174 28 40 174 28 40 174 28 40 174 28 40 174 28 40 174 28 40 174 28 40 174 28 40 174 28 40 174 28 40 174 28 40 174 28 40 174 28 40 174 28 40 174 28 40 174 28 40 174 28 40 174 28 40 174 28 40 174 28 40 174 28 40 174 28 40 174 28 40 174 28 40 174 28 40 174 28 40 174 28 40 174 28 40 174 28 40 174 28 40 174 28 40 174 28 40 174 28 40 174 28 40 174 28 40 174 28 40 174 28 40 174 28 40 174 28 40 174 28 40 174 28 40 174 28 40 174 28 40 174 28 40 174 28 40 174 28 40 174 28 40 174 28 40 174 28 40 174 28 40 174 28 40 174 28 40 174 28 40 174 28 40 174 28 40 174 28 40 174 28 40 174 28 40 174 28 40 174 28 40 174 28 40 174 28 40 174 28 40 174 28 40 174 28 40 174 28 40 174 28 40 174 28 40 174 28 40 174 28 40 174 28 40 174 28 40 174 28 40 174 28 40 174 28 40 174 28 40 174 28 40 174 28 40 174 28 40 174 28 40 174 28 40 174 28 40 174 28 40 174 28 40 174 28 40 174 28 40 174 28 40 174 28 40 174 28 40 174 28 40 174 28 40 174 28 40 174 28 40 174 28 40 174 28 40 174 28 40 174 28 40 174 28 40 174 28 40 174 28 40 174 28 40 174 28 40 174 28 40 174 28 40 174 28 40 174 28 40 174 28 40 174 28 40 174 28 40 174 28 40 174 28 40 174 28 40 174 28 40 174 28 40 174 28 40 174 28 40 174 28 40 174 28 40 174 28 40 174 28 40 174 28 40 174 28 40 174 28 40 174 28 40 174 28 40 174 28 40 174 28 40 174 28 40 174 28 40 174 28 40 174 28 40 174 28 40 174 28 40 174 28 40 174 28 40 174 28 40 174 28 40 174 28 40 174 28 40 174 28 40 174 28 40 174 28 40 174 28 40 174 28 40 174 28 40 174 28 40 174 28 40 174 28 40 174 28 40 174 28 40 174 28 40 174 28 40 174 28 40 174 28 40 174 28 40 174 28 40 174 28 40 174 28 40 174 28 40 174 28 40 174 28 40 174 28 40 174 28 40 174 28 40 174 28 40 174 28 40 174 28 40 174 28 40 174 28 40 174 28 40 174 28 40 174 28 40 174 28 40 174 28 40 174 28 40 174 28 40 174 28 40 174 28 40 174 28 40 174 28 40 174 28 40 174 28 40 174 28 40 174 28 40 174 28 40 174 28 40 174 28 40 174 28 40 174 28 40 174 28 40 174 28 40 174 28 40 174 28 40 174 28 40 174 28 40 174 28 40 174 28 40 174 28 40 174 28 40 174 28 40 174 28 40 174 28 40 174 28 40 174 28 40 174 28 40 174 28 40 174 28 40 174 28 40 174 28 40 174 28 40 174 28 40 174 28 40 174 28 40 174 28 40 174 28 40 174 28 40 174 28 40 174 28 40 174 28 40 174 28 40 174 28 40 174 28 40 174 28 40 174 28 40 174 28 40 174 28 40 174 28 40 174 28 40 174 28 40 174 28 40 174 28 40 174 28 40 174 28 40 174 28 40 174 28 40 174 28 40 174 28 40 174 28 40 174 28 40 174 28 40 174 28 40 174 28 40 174 28 40 174 28 40 174 28 40 174 28 40 174 28 40 174 28 40 174 28 40 174 28 40 174 28 40 174 28 40 174 28 40 174 28 40 174 28 40 174 28 40 174 28 40 174 28 40 174 28 40 174 28 40 174 28 40 174 28 40 174 28 40 174 28 40 174 28 40 174 28 40 174 28 40 174 28 40 174 28 40 174 28 40 
174 28 40 174 28 40 174 28 40 174 28 40 174 28 40 174 28 40 174 28 40 174 28 40 174 28 40 174 28 40 174 28 40 174 28 40 174 28 40 174 28 40 174 28 40 174 28 40 174 28 40 174 28 40 174 28 40 174 28 40 174 28 40 174 28 40 174 28 40 174 28 40 174 28 40 174 28 40 174 28 40 174 28 40 174 28 40 174 28 40 174 28 40 174 28 40 174 28 40 174 28 40 174 28 40 174 28 40 174 28 40 174 28 40 174 28 40 174 28 40 174 28 40 174 28 40 174 28 40 174 28 40 174 28 40 174 28 40 174 28 40 174 28 40 174 28 40 174 28 40 174 28 40 174 28 40 174 28 40 174 28 40 174 28 40 174 28 40 174 28 40 174 28 40 174 28 40 174 28 40 174 28 40 174 28 40 174 28 40 174 28 40 174 28 40 174 28 40 174 28 40 174 28 40 174 28 40 174 28 40 174 28 40 174 28 40 174 28 40 174 28 40 174 28 40 174 28 40 174 28 40 174 28 40 174 28 40 174 28 40 174 28 40 174 28 40 174 28 40 174 28 40 174 28 40 174 28 40 174 28 40 174 28 40 174 28 40 174 28 40 174 28 40 174 28 40 174 28 40 174 28 40 174 28 40 174 28 40 174 28 40 174 28 40 174 28 40 174 28 40 174 28 40 174 28 40 174 28 40 174 28 40 174 28 40 174 28 40 174 28 40 174 28 40 174 28 40 174 28 40 174 28 40 174 28 40 174 28 40 174 28 40 174 28 40 174 28 40 174 28 40 174 28 40 174 28 40 174 28 40 174 28 40 174 28 40 174 28 40 174 28 40 174 28 40 174 28 40 174 28 40 174 28 40 174 28 40 174 28 40 174 28 40 174 28 40 174 28 40 174 28 40 174 28 40 174 28 40 174 28 40 174 28 40 174 28 40 174 28 40 174 28 40 174 28 40 174 28 40 174 28 40 174 28 40 174 28 40 174 28 40 174 28 40 174 28 40 174 28 40 174 28 40 174 28 40 174 28 40 174 28 40 174 28 40 174 28 40 174 28 40 174 28 40 174 28 40 174 28 40 174 28 40 174 28 40 174 28 40 174 28 40 174 28 40 174 28 40 174 28 40 174 28 40 174 28 40 174 28 40 174 28 40 174 28 40 174 28 40 174 28 40 174 28 40 174 28 40 174 28 40 174 28 40 174 28 40 174 28 40 174 28 40 174 28 40 174 28 40 174 28 40 174 28 40 174 28 40 174 28 40 174 28 40 174 28 40 174 28 40 174 28 40 174 28 40 174 28 40 174 28 40 174 28 40 174 28 40 174 28 40 174 28 40 174 28 40 174 28 40 174 28 40 174 28 40 174 28 40 174 28 40 174 28 40 174 28 40 174 28 40 174 28 40 174 28 40 174 28 40 174 28 40 174 28 40 174 28 40 174 28 40 174 28 40 174 28 40 174 28 40 174 28 40 174 28 40 174 28 40 174 28 40 174 28 40 174 28 40 174 28 40 174 28 40 174 28 40 174 28 40 174 28 40 174 28 40 174 28 40 174 28 40 174 28 40 174 28 40 174 28 40 174 28 40 174 28 40 174 28 40 174 28 40 174 28 40 174 28 40 174 28 40 174 28 40 174 28 40 174 28 40 174 28 40 174 28 40 174 28 40 174 28 40 174 28 40 174 28 40 174 28 40 174 28 40 174 28 40 174 28 40 174 28 40 174 28 40 174 28 40 174 28 40 174 28 40 174 28 40 174 28 40 174 28 40 174 28 40 174 28 40 174 28 40 174 28 40 174 28 40 174 28 40 174 28 40 174 28 40 174 28 40 174 28 40 174 28 40 174 28 40 174 28 40 174 28 40 174 28 40 174 28 40 174 28 40 174 28 40 174 28 40 174 28 40 174 28 40 174 28 40 174 28 40 174 28 40 174 28 40 174 28 40 174 28 40 174 28 40 174 28 40 174 28 40 174 28 40 174 28 40 174 28 40 174 28 40 174 28 40 174 28 40 174 28 40 174 28 40 
174 28 40 174 28 40 174 28 40 174 28 40 174 28 40 174 28 40 174 28 40 174 28 40 174 28 40 174 28 40 174 28 40 174 28 40 174 28 40 174 28 40 174 28 40 174 28 40 174 28 40 174 28 40 174 28 40 174 28 40 174 28 40 174 28 40 174 28 40 174 28 40 174 28 40 174 28 40 174 28 40 174 28 40 174 28 40 174 28 40 174 28 40 174 28 40 174 28 40 174 28 40 174 28 40 174 28 40 174 28 40 174 28 40 174 28 40 174 28 40 174 28 40 174 28 40 174 28 40 174 28 40 174 28 40 174 28 40 174 28 40 174 28 40 174 28 40 174 28 40 174 28 40 174 28 40 174 28 40 174 28 40 174 28 40 174 28 40 174 28 40 174 28 40 174 28 40 174 28 40 174 28 40 174 28 40 174 28 40 174 28 40 174 28 40 174 28 40 174 28 40 174 28 40 174 28 40 174 28 40 174 28 40 174 28 40 174 28 40 174 28 40 174 28 40 174 28 40 174 28 40 174 28 40 174 28 40 174 28 40 174 28 40 174 28 40 174 28 40 174 28 40 174 28 40 174 28 40 174 28 40 174 28 40 174 28 40 174 28 40 174 28 40 174 28 40 174 28 40 174 28 40 174 28 40 174 28 40 174 28 40 174 28 40 174 28 40 174 28 40 174 28 40 174 28 40 174 28 40 174 28 40 174 28 40 174 28 40 174 28 40 174 28 40 174 28 40 174 28 40 174 28 40 174 28 40 174 28 40 174 28 40 174 28 40 174 28 40 174 28 40 174 28 40 174 28 40 174 28 40 174 28 40 174 28 40 174 28 40 174 28 40 174 28 40 174 28 40 174 28 40 174 28 40 174 28 40 174 28 40 174 28 40 174 28 40 174 28 40 174 28 40 174 28 40 174 28 40 174 28 40 174 28 40 174 28 40 174 28 40 174 28 40 174 28 40 174 28 40 174 28 40 174 28 40 174 28 40 174 28 40 174 28 40 174 28 40 174 28 40 174 28 40 174 28 40 174 28 40 174 28 40 174 28 40 174 28 40 174 28 40 174 28 40 174 28 40 174 28 40 174 28 40 174 28 40 174 28 40 174 28 40 174 28 40 174 28 40 174 28 40 174 28 40 174 28 40 174 28 40 174 28 40 174 28 40 174 28 40 174 28 40 174 28 40 174 28 40 174 28 40 174 28 40 174 28 40 174 28 40 174 28 40 174 28 40 174 28 40 174 28 40 174 28 40 174 28 40 174 28 40 174 28 40 174 28 40 174 28 40 174 28 40 174 28 40 174 28 40 174 28 40 174 28 40 174 28 40 174 28 40 174 28 40 174 28 40 174 28 40 174 28 40 174 28 40 174 28 40 174 28 40 174 28 40 174 28 40 174 28 40 174 28 40 174 28 40 174 28 40 174 28 40 174 28 40 174 28 40 174 28 40 174 28 40 174 28 40 174 28 40 174 28 40 174 28 40 174 28 40 174 28 40 174 28 40 174 28 40 174 28 40 174 28 40 174 28 40 174 28 40 174 28 40 174 28 40 174 28 40 174 28 40 174 28 40 174 28 40 174 28 40 174 28 40 174 28 40 174 28 40 174 28 40 174 28 40 174 28 40 174 28 40 174 28 40 174 28 40 174 28 40 174 28 40 174 28 40 174 28 40 174 28 40 174 28 40 174 28 40 174 28 40 174 28 40 174 28 40 174 28 40 174 28 40 174 28 40 174 28 40 174 28 40 174 28 40 174 28 40 174 28 40 174 28 40 174 28 40 174 28 40 174 28 40 174 28 40 174 28 40 174 28 40 174 28 40 174 28 40 174 28 40 174 28 40 174 28 40 174 28 40 174 28 40 174 28 40 174 28 40 174 28 40 174 28 40 174 28 40 174 28 40 174 28 40 174 28 40 174 28 40 174 28 40 174 28 40 174 28 40 174 28 40 174 28 40 174 28 40 174 28 40 174 28 40 174 28 40 174 28 40 174 28 40 174 28 40 174 28 40 174 28 40 174 28 40 174 28 40 
174 28 40 174 28 40 174 28 40 174 28 40 174 28 40 174 28 40 174 28 40 174 28 40 174 28 40 174 28 40 174 28 40 174 28 40 174 28 40 174 28 40 174 28 40 174 28 40 174 28 40 174 28 40 174 28 40 174 28 40 174 28 40 174 28 40 174 28 40 174 28 40 174 28 40 174 28 40 174 28 40 174 28 40 174 28 40 174 28 40 174 28 40 174 28 40 174 28 40 174 28 40 174 28 40 174 28 40 174 28 40 174 28 40 174 28 40 174 28 40 174 28 40 174 28 40 174 28 40 174 28 40 174 28 40 174 28 40 174 28 40 174 28 40 174 28 40 174 28 40 174 28 40 174 28 40 174 28 40 174 28 40 174 28 40 174 28 40 174 28 40 174 28 40 174 28 40 174 28 40 174 28 40 174 28 40 174 28 40 174 28 40 174 28 40 174 28 40 174 28 40 174 28 40 174 28 40 174 28 40 174 28 40 174 28 40 174 28 40 174 28 40 174 28 40 174 28 40 174 28 40 174 28 40 174 28 40 174 28 40 174 28 40 174 28 40 174 28 40 174 28 40 174 28 40 174 28 40 174 28 40 174 28 40 174 28 40 174 28 40 174 28 40 174 28 40 174 28 40 174 28 40 174 28 40 174 28 40 174 28 40 174 28 40 174 28 40 174 28 40 174 28 40 174 28 40 174 28 40 174 28 40 174 28 40 174 28 40 174 28 40 174 28 40 174 28 40 174 28 40 174 28 40 174 28 40 174 28 40 174 28 40 174 28 40 174 28 40 174 28 40 174 28 40 174 28 40 174 28 40 174 28 40 174 28 40 174 28 40 174 28 40 174 28 40 174 28 40 174 28 40 174 28 40 174 28 40 174 28 40 174 28 40 174 28 40 174 28 40 174 28 40 174 28 40 174 28 40 174 28 40 174 28 40 174 28 40 174 28 40 174 28 40 174 28 40 174 28 40 174 28 40 174 28 40 174 28 40 174 28 40 174 28 40 174 28 40 174 28 40 174 28 40 174 28 40 174 28 40 174 28 40 174 28 40 174 28 40 174 28 40 174 28 40 174 28 40 174 28 40 174 28 40 174 28 40 174 28 40 174 28 40 174 28 40 174 28 40 174 28 40 174 28 40 174 28 40 174 28 40 174 28 40 174 28 40 174 28 40 174 28 40 174 28 40 174 28 40 174 28 40 174 28 40 174 28 40 174 28 40 174 28 40 174 28 40 174 28 40 174 28 40 174 28 40 174 28 40 174 28 40 174 28 40 174 28 40 174 28 40 174 28 40 174 28 40 174 28 40 174 28 40 174 28 40 174 28 40 174 28 40 174 28 40 174 28 40 174 28 40 174 28 40 174 28 40 174 28 40 174 28 40 174 28 40 174 28 40 174 28 40 174 28 40 174 28 40 174 28 40 174 28 40 174 28 40 174 28 40 174 28 40 174 28 40 174 28 40 174 28 40 174 28 40 174 28 40 174 28 40 174 28 40 174 28 40 174 28 40 174 28 40 174 28 40 174 28 40 174 28 40 174 28 40 174 28 40 174 28 40 174 28 40 174 28 40 174 28 40 174 28 40 174 28 40 174 28 40 174 28 40 174 28 40 174 28 40 174 28 40 174 28 40 174 28 40 174 28 40 174 28 40 174 28 40 174 28 40 174 28 40 174 28 40 174 28 40 174 28 40 174 28 40 174 28 40 174 28 40 174 28 40 174 28 40 174 28 40 174 28 40 174 28 40 174 28 40 174 28 40 174 28 40 174 28 40 174 28 40 174 28 40 174 28 40 174 28 40 174 28 40 174 28 40 174 28 40 174 28 40 174 28 40 174 28 40 174 28 40 174 28 40 174 28 40 174 28 40 174 28 40 174 28 40 174 28 40 174 28 40 174 28 40 174 28 40 174 28 40 174 28 40 174 28 40 174 28 40 174 28 40 174 28 40 174 28 40 174 28 40 174 28 40 174 28 40 174 28 40 174 28 40 174 28 40 174 28 40 174 28 40 174 28 40 174 28 40 174 28 40 
174 28 40 174 28 40 174 28 40 174 28 40 174 28 40 174 28 40 174 28 40 174 28 40 174 28 40 174 28 40 174 28 40 174 28 40 174 28 40 174 28 40 174 28 40 174 28 40 174 28 40 174 28 40 174 28 40 174 28 40 174 28 40 174 28 40 174 28 40 174 28 40 174 28 40 174 28 40 174 28 40 174 28 40 174 28 40 174 28 40 174 28 40 174 28 40 174 28 40 174 28 40 174 28 40 174 28 40 174 28 40 174 28 40 174 28 40 174 28 40 174 28 40 174 28 40 174 28 40 174 28 40 174 28 40 174 28 40 174 28 40 174 28 40 174 28 40 174 28 40 174 28 40 174 28 40 174 28 40 174 28 40 174 28 40 174 28 40 174 28 40 174 28 40 174 28 40 174 28 40 174 28 40 174 28 40 174 28 40 174 28 40 174 28 40 174 28 40 174 28 40 174 28 40 174 28 40 174 28 40 174 28 40 174 28 40 174 28 40 174 28 40 174 28 40 174 28 40 174 28 40 174 28 40 174 28 40 174 28 40 174 28 40 174 28 40 174 28 40 174 28 40 174 28 40 174 28 40 174 28 40 174 28 40 174 28 40 174 28 40 174 28 40 174 28 40 174 28 40 174 28 40 174 28 40 174 28 40 174 28 40 174 28 40 174 28 40 174 28 40 174 28 40 174 28 40 174 28 40 174 28 40 174 28 40 174 28 40 174 28 40 174 28 40 174 28 40 174 28 40 174 28 40 174 28 40 174 28 40 174 28 40 174 28 40 174 28 40 174 28 40 174 28 40 174 28 40 174 28 40 174 28 40 174 28 40 174 28 40 174 28 40 174 28 40 174 28 40 174 28 40 174 28 40 174 28 40 174 28 40 174 28 40 174 28 40 174 28 40 174 28 40 174 28 40 174 28 40 174 28 40 174 28 40 174 28 40 174 28 40 174 28 40 174 28 40 174 28 40 174 28 40 174 28 40 174 28 40 174 28 40 174 28 40 174 28 40 174 28 40 174 28 40 174 28 40 174 28 40 174 28 40 174 28 40 174 28 40 174 28 40 174 28 40 174 28 40 174 28 40 174 28 40 174 28 40 174 28 40 174 28 40 174 28 40 174 28 40 174 28 40 174 28 40 174 28 40 174 28 40 174 28 40 174 28 40 174 28 40 174 28 40 174 28 40 174 28 40 174 28 40 174 28 40 174 28 40 174 28 40 174 28 40 174 28 40 174 28 40 174 28 40 174 28 40 174 28 40 174 28 40 174 28 40 174 28 40 174 28 40 174 28 40 174 28 40 174 28 40 174 28 40 174 28 40 174 28 40 174 28 40 174 28 40 174 28 40 174 28 40 174 28 40 174 28 40 174 28 40 174 28 40 174 28 40 174 28 40 174 28 40 174 28 40 174 28 40 174 28 40 174 28 40 174 28 40 174 28 40 174 28 40 174 28 40 174 28 40 174 28 40 174 28 40 174 28 40 174 28 40 174 28 40 174 28 40 174 28 40 174 28 40 174 28 40 174 28 40 174 28 40 174 28 40 174 28 40 174 28 40 174 28 40 174 28 40 174 28 40 174 28 40 174 28 40 174 28 40 174 28 40 174 28 40 174 28 40 174 28 40 174 28 40 174 28 40 174 28 40 174 28 40 174 28 40 174 28 40 174 28 40 174 28 40 174 28 40 174 28 40 174 28 40 174 28 40 174 28 40 174 28 40 174 28 40 174 28 40 174 28 40 174 28 40 174 28 40 174 28 40 174 28 40 174 28 40 174 28 40 174 28 40 174 28 40 174 28 40 174 28 40 174 28 40 174 28 40 174 28 40 174 28 40 174 28 40 174 28 40 174 28 40 174 28 40 174 28 40 174 28 40 174 28 40 174 28 40 174 28 40 174 28 40 174 28 40 174 28 40 174 28 40 174 28 40 174 28 40 174 28 40 174 28 40 174 28 40 174 28 40 174 28 40 174 28 40 174 28 40 174 28 40 174 28 40 174 28 40 174 28 40 174 28 40 174 28 40 174 28 40 
174 28 40 174 28 40 174 28 40 174 28 40 174 28 40 174 28 40 174 28 40 174 28 40 174 28 40 174 28 40 174 28 40 174 28 40 174 28 40 174 28 40 174 28 40 174 28 40 174 28 40 174 28 40 174 28 40 174 28 40 174 28 40 174 28 40 174 28 40 174 28 40 174 28 40 174 28 40 174 28 40 174 28 40 174 28 40 174 28 40 174 28 40 174 28 40 174 28 40 174 28 40 174 28 40 174 28 40 174 28 40 174 28 40 174 28 40 174 28 40 174 28 40 174 28 40 174 28 40 174 28 40 174 28 40 174 28 40 174 28 40 174 28 40 174 28 40 174 28 40 174 28 40 174 28 40 174 28 40 174 28 40 174 28 40 174 28 40 174 28 40 174 28 40 174 28 40 174 28 40 174 28 40 174 28 40 174 28 40 174 28 40 174 28 40 174 28 40 174 28 40 174 28 40 174 28 40 174 28 40 174 28 40 174 28 40 174 28 40 174 28 40 174 28 40 174 28 40 174 28 40 174 28 40 174 28 40 174 28 40 174 28 40 174 28 40 174 28 40 174 28 40 174 28 40 174 28 40 174 28 40 174 28 40 174 28 40 174 28 40 174 28 40 174 28 40 174 28 40 174 28 40 174 28 40 174 28 40 174 28 40 174 28 40 174 28 40 174 28 40 174 28 40 174 28 40 174 28 40 174 28 40 174 28 40 174 28 40 174 28 40 174 28 40 174 28 40 174 28 40 174 28 40 174 28 40 174 28 40 174 28 40 174 28 40 174 28 40 174 28 40 174 28 40 174 28 40 174 28 40 174 28 40 174 28 40 174 28 40 174 28 40 174 28 40 174 28 40 174 28 40 174 28 40 174 28 40 174 28 40 174 28 40 174 28 40 174 28 40 174 28 40 174 28 40 174 28 40 174 28 40 174 28 40 174 28 40 174 28 40 174 28 40 174 28 40 174 28 40 174 28 40 174 28 40 174 28 40 174 28 40 174 28 40 174 28 40 174 28 40 174 28 40 174 28 40 174 28 40 174 28 40 174 28 40 174 28 40 174 28 40 174 28 40 174 28 40 174 28 40 174 28 40 174 28 40 174 28 40 174 28 40 174 28 40 174 28 40 174 28 40 174 28 40 174 28 40 174 28 40 174 28 40 174 28 40 174 28 40 174 28 40 174 28 40 174 28 40 174 28 40 174 28 40 174 28 40 174 28 40 174 28 40 174 28 40 174 28 40 174 28 40 174 28 40 174 28 40 174 28 40 174 28 40 174 28 40 174 28 40 174 28 40 174 28 40 174 28 40 174 28 40 174 28 40 174 28 40 174 28 40 174 28 40 174 28 40 174 28 40 174 28 40 174 28 40 174 28 40 174 28 40 174 28 40 174 28 40 174 28 40 174 28 40 174 28 40 174 28 40 174 28 40 174 28 40 174 28 40 174 28 40 174 28 40 174 28 40 174 28 40 174 28 40 174 28 40 174 28 40 174 28 40 174 28 40 174 28 40 174 28 40 174 28 40 174 28 40 174 28 40 174 28 40 174 28 40 174 28 40 174 28 40 174 28 40 174 28 40 174 28 40 174 28 40 174 28 40 174 28 40 174 28 40 174 28 40 174 28 40 174 28 40 174 28 40 174 28 40 174 28 40 174 28 40 174 28 40 174 28 40 174 28 40 174 28 40 174 28 40 174 28 40 174 28 40 174 28 40 174 28 40 174 28 40 174 28 40 174 28 40 174 28 40 174 28 40 174 28 40 174 28 40 174 28 40 174 28 40 174 28 40 174 28 40 174 28 40 174 28 40 174 28 40 174 28 40 174 28 40 174 28 40 174 28 40 174 28 40 174 28 40 174 28 40 174 28 40 174 28 40 174 28 40 174 28 40 174 28 40 174 28 40 174 28 40 174 28 40 174 28 40 174 28 40 174 28 40 174 28 40 174 28 40 174 28 40 174 28 40 174 28 40 174 28 40 174 28 40 174 28 40 174 28 40 174 28 40 174 28 40 174 28 40 174 28 40 174 28 40 
174 28 40 174 28 40 174 28 40 174 28 40 174 28 40 174 28 40 174 28 40 174 28 40 174 28 40 174 28 40 174 28 40 174 28 40 174 28 40 174 28 40 174 28 40 174 28 40 174 28 40 174 28 40 174 28 40 174 28 40 174 28 40 174 28 40 174 28 40 174 28 40 174 28 40 174 28 40 174 28 40 174 28 40 174 28 40 174 28 40 174 28 40 174 28 40 174 28 40 174 28 40 174 28 40 174 28 40 174 28 40 174 28 40 174 28 40 174 28 40 174 28 40 174 28 40 174 28 40 174 28 40 174 28 40 174 28 40 174 28 40 174 28 40 174 28 40 174 28 40 174 28 40 174 28 40 174 28 40 174 28 40 174 28 40 174 28 40 174 28 40 174 28 40 174 28 40 174 28 40 174 28 40 174 28 40 174 28 40 174 28 40 174 28 40 174 28 40 174 28 40 174 28 40 174 28 40 174 28 40 174 28 40 174 28 40 174 28 40 174 28 40 174 28 40 174 28 40 174 28 40 174 28 40 174 28 40 174 28 40 174 28 40 174 28 40 174 28 40 174 28 40 174 28 40 174 28 40 174 28 40 174 28 40 174 28 40 174 28 40 174 28 40 174 28 40 174 28 40 174 28 40 174 28 40 174 28 40 174 28 40 174 28 40 174 28 40 174 28 40 174 28 40 174 28 40 174 28 40 174 28 40 174 28 40 174 28 40 174 28 40 174 28 40 174 28 40 174 28 40 174 28 40 174 28 40 174 28 40 174 28 40 174 28 40 174 28 40 174 28 40 174 28 40 174 28 40 174 28 40 174 28 40 174 28 40 174 28 40 174 28 40 174 28 40 174 28 40 174 28 40 174 28 40 174 28 40 174 28 40 174 28 40 174 28 40 174 28 40 174 28 40 174 28 40 174 28 40 174 28 40 174 28 40 174 28 40 174 28 40 174 28 40 174 28 40 174 28 40 174 28 40 174 28 40 174 28 40 174 28 40 174 28 40 174 28 40 174 28 40 174 28 40 174 28 40 174 28 40 174 28 40 174 28 40 174 28 40 174 28 40 174 28 40 174 28 40 174 28 40 174 28 40 174 28 40 174 28 40 174 28 40 174 28 40 174 28 40 174 28 40 174 28 40 174 28 40 174 28 40 174 28 40 174 28 40 174 28 40 174 28 40 174 28 40 174 28 40 174 28 40 174 28 40 174 28 40 174 28 40 174 28 40 174 28 40 174 28 40 174 28 40 174 28 40 174 28 40 174 28 40 174 28 40 174 28 40 174 28 40 174 28 40 174 28 40 174 28 40 174 28 40 174 28 40 174 28 40 174 28 40 174 28 40 174 28 40 174 28 40 174 28 40 174 28 40 174 28 40 174 28 40 174 28 40 174 28 40 174 28 40 174 28 40 174 28 40 174 28 40 174 28 40 174 28 40 174 28 40 174 28 40 174 28 40 174 28 40 174 28 40 174 28 40 174 28 40 174 28 40 174 28 40 174 28 40 174 28 40 174 28 40 174 28 40 174 28 40 174 28 40 174 28 40 174 28 40 174 28 40 174 28 40 174 28 40 174 28 40 174 28 40 174 28 40 174 28 40 174 28 40 174 28 40 174 28 40 174 28 40 174 28 40 174 28 40 174 28 40 174 28 40 174 28 40 174 28 40 174 28 40 174 28 40 174 28 40 174 28 40 174 28 40 174 28 40 174 28 40 174 28 40 174 28 40 174 28 40 174 28 40 174 28 40 174 28 40 174 28 40 174 28 40 174 28 40 174 28 40 174 28 40 174 28 40 174 28 40 174 28 40 174 28 40 174 28 40 174 28 40 174 28 40 174 28 40 174 28 40 174 28 40 174 28 40 174 28 40 174 28 40 174 28 40 174 28 40 174 28 40 174 28 40 174 28 40 174 28 40 174 28 40 174 28 40 174 28 40 174 28 40 174 28 40 174 28 40 174 28 40 174 28 40 174 28 40 174 28 40 174 28 40 174 28 40 174 28 40 174 28 40 174 28 40 174 28 40 174 28 40 
174 28 40 174 28 40 174 28 40 174 28 40 174 28 40 174 28 40 174 28 40 174 28 40 174 28 40 174 28 40 174 28 40 174 28 40 174 28 40 174 28 40 174 28 40 174 28 40 174 28 40 174 28 40 174 28 40 174 28 40 174 28 40 174 28 40 174 28 40 174 28 40 174 28 40 174 28 40 174 28 40 174 28 40 174 28 40 174 28 40 174 28 40 174 28 40 174 28 40 174 28 40 174 28 40 174 28 40 174 28 40 174 28 40 174 28 40 174 28 40 174 28 40 174 28 40 174 28 40 174 28 40 174 28 40 174 28 40 174 28 40 174 28 40 174 28 40 174 28 40 174 28 40 174 28 40 174 28 40 174 28 40 174 28 40 174 28 40 174 28 40 174 28 40 174 28 40 174 28 40 174 28 40 174 28 40 174 28 40 174 28 40 174 28 40 174 28 40 174 28 40 174 28 40 174 28 40 174 28 40 174 28 40 174 28 40 174 28 40 174 28 40 174 28 40 174 28 40 174 28 40 174 28 40 174 28 40 174 28 40 174 28 40 174 28 40 174 28 40 174 28 40 174 28 40 174 28 40 174 28 40 174 28 40 174 28 40 174 28 40 174 28 40 174 28 40 174 28 40 174 28 40 174 28 40 174 28 40 174 28 40 174 28 40 174 28 40 174 28 40 174 28 40 174 28 40 174 28 40 174 28 40 174 28 40 174 28 40 174 28 40 174 28 40 174 28 40 174 28 40 174 28 40 174 28 40 174 28 40 174 28 40 174 28 40 174 28 40 174 28 40 174 28 40 174 28 40 174 28 40 174 28 40 174 28 40 174 28 40 174 28 40 174 28 40 174 28 40 174 28 40 174 28 40 174 28 40 174 28 40 174 28 40 174 28 40 174 28 40 174 28 40 174 28 40 174 28 40 174 28 40 174 28 40 174 28 40 174 28 40 174 28 40 174 28 40 174 28 40 174 28 40 174 28 40 174 28 40 174 28 40 174 28 40 174 28 40 174 28 40 174 28 40 174 28 40 174 28 40 174 28 40 174 28 40 174 28 40 174 28 40 174 28 40 174 28 40 174 28 40 174 28 40 174 28 40 174 28 40 174 28 40 174 28 40 174 28 40 174 28 40 174 28 40 174 28 40 174 28 40 174 28 40 174 28 40 174 28 40 174 28 40 174 28 40 174 28 40 174 28 40 174 28 40 174 28 40 174 28 40 174 28 40 174 28 40 174 28 40 174 28 40 174 28 40 174 28 40 174 28 40 174 28 40 174 28 40 174 28 40 174 28 40 174 28 40 174 28 40 174 28 40 174 28 40 174 28 40 174 28 40 174 28 40 174 28 40 174 28 40 174 28 40 174 28 40 174 28 40 174 28 40 174 28 40 174 28 40 174 28 40 174 28 40 174 28 40 174 28 40 174 28 40 174 28 40 174 28 40 174 28 40 174 28 40 174 28 40 174 28 40 174 28 40 174 28 40 174 28 40 174 28 40 174 28 40 174 28 40 174 28 40 174 28 40 174 28 40 174 28 40 174 28 40 174 28 40 174 28 40 174 28 40 174 28 40 174 28 40 174 28 40 174 28 40 174 28 40 174 28 40 174 28 40 174 28 40 174 28 40 174 28 40 174 28 40 174 28 40 174 28 40 174 28 40 174 28 40 174 28 40 174 28 40 174 28 40 174 28 40 174 28 40 174 28 40 174 28 40 174 28 40 174 28 40 174 28 40 174 28 40 174 28 40 174 28 40 174 28 40 174 28 40 174 28 40 174 28 40 174 28 40 174 28 40 174 28 40 174 28 40 174 28 40 174 28 40 174 28 40 174 28 40 174 28 40 174 28 40 174 28 40 174 28 40 174 28 40 174 28 40 174 28 40 174 28 40 174 28 40 174 28 40 174 28 40 174 28 40 174 28 40 174 28 40 174 28 40 174 28 40 174 28 40 174 28 40 174 28 40 174 28 40 174 28 40 174 28 40 174 28 40 174 28 40 174 28 40 174 28 40 174 28 40 174 28 40 174 28 40 
174 28 40 174 28 40 174 28 40 174 28 40 174 28 40 174 28 40 174 28 40 174 28 40 174 28 40 174 28 40 174 28 40 174 28 40 174 28 40 174 28 40 174 28 40 174 28 40 174 28 40 174 28 40 174 28 40 174 28 40 174 28 40 174 28 40 174 28 40 174 28 40 174 28 40 174 28 40 174 28 40 174 28 40 174 28 40 174 28 40 174 28 40 174 28 40 174 28 40 174 28 40 174 28 40 174 28 40 174 28 40 174 28 40 174 28 40 174 28 40 174 28 40 174 28 40 174 28 40 174 28 40 174 28 40 174 28 40 174 28 40 174 28 40 174 28 40 174 28 40 174 28 40 174 28 40 174 28 40 174 28 40 174 28 40 174 28 40 174 28 40 174 28 40 174 28 40 174 28 40 174 28 40 174 28 40 174 28 40 174 28 40 174 28 40 174 28 40 174 28 40 174 28 40 174 28 40 174 28 40 174 28 40 174 28 40 174 28 40 174 28 40 174 28 40 174 28 40 174 28 40 174 28 40 174 28 40 174 28 40 174 28 40 174 28 40 174 28 40 174 28 40 174 28 40 174 28 40 174 28 40 174 28 40 174 28 40 174 28 40 174 28 40 174 28 40 174 28 40 174 28 40 174 28 40 174 28 40 174 28 40 174 28 40 174 28 40 174 28 40 174 28 40 174 28 40 174 28 40 174 28 40 174 28 40 174 28 40 174 28 40 174 28 40 174 28 40 174 28 40 174 28 40 174 28 40 174 28 40 174 28 40 174 28 40 174 28 40 174 28 40 174 28 40 174 28 40 174 28 40 174 28 40 174 28 40 174 28 40 174 28 40 174 28 40 174 28 40 174 28 40 174 28 40 174 28 40 174 28 40 174 28 40 174 28 40 174 28 40 174 28 40 174 28 40 174 28 40 174 28 40 174 28 40 174 28 40 174 28 40 174 28 40 174 28 40 174 28 40 174 28 40 174 28 40 174 28 40 174 28 40 174 28 40 174 28 40 174 28 40 174 28 40 174 28 40 174 28 40 174 28 40 174 28 40 174 28 40 174 28 40 174 28 40 174 28 40 174 28 40 174 28 40 174 28 40 174 28 40 174 28 40 174 28 40 174 28 40 174 28 40 174 28 40 174 28 40 174 28 40 174 28 40 174 28 40 174 28 40 174 28 40 174 28 40 174 28 40 174 28 40 174 28 40 174 28 40 174 28 40 174 28 40 174 28 40 174 28 40 174 28 40 174 28 40 174 28 40 174 28 40 174 28 40 174 28 40 174 28 40 174 28 40 174 28 40 174 28 40 174 28 40 174 28 40 174 28 40 174 28 40 174 28 40 174 28 40 174 28 40 174 28 40 174 28 40 174 28 40 174 28 40 174 28 40 174 28 40 174 28 40 174 28 40 174 28 40 174 28 40 174 28 40 174 28 40 174 28 40 174 28 40 174 28 40 174 28 40 174 28 40 174 28 40 174 28 40 174 28 40 174 28 40 174 28 40 174 28 40 174 28 40 174 28 40 174 28 40 174 28 40 174 28 40 174 28 40 174 28 40 174 28 40 174 28 40 174 28 40 174 28 40 174 28 40 174 28 40 174 28 40 174 28 40 174 28 40 174 28 40 174 28 40 174 28 40 174 28 40 174 28 40 174 28 40 174 28 40 174 28 40 174 28 40 174 28 40 174 28 40 174 28 40 174 28 40 174 28 40 174 28 40 174 28 40 174 28 40 174 28 40 174 28 40 174 28 40 174 28 40 174 28 40 174 28 40 174 28 40 174 28 40 174 28 40 174 28 40 174 28 40 174 28 40 174 28 40 174 28 40 174 28 40 174 28 40 174 28 40 174 28 40 174 28 40 174 28 40 174 28 40 174 28 40 174 28 40 174 28 40 174 28 40 174 28 40 174 28 40 174 28 40 174 28 40 174 28 40 174 28 40 174 28 40 174 28 40 174 28 40 174 28 40 174 28 40 174 28 40 174 28 40 174 28 40 174 28 40 174 28 40 174 28 40 174 28 40 174 28 40 
174 28 40 174 28 40 174 28 40 174 28 40 174 28 40 174 28 40 174 28 40 174 28 40 174 28 40 174 28 40 174 28 40 174 28 40 174 28 40 174 28 40 174 28 40 174 28 40 174 28 40 174 28 40 174 28 40 174 28 40 174 28 40 174 28 40 174 28 40 174 28 40 174 28 40 174 28 40 174 28 40 174 28 40 174 28 40 174 28 40 174 28 40 174 28 40 174 28 40 174 28 40 174 28 40 174 28 40 174 28 40 174 28 40 174 28 40 174 28 40 174 28 40 174 28 40 174 28 40 174 28 40 174 28 40 174 28 40 174 28 40 174 28 40 174 28 40 174 28 40 174 28 40 174 28 40 174 28 40 174 28 40 174 28 40 174 28 40 174 28 40 174 28 40 174 28 40 174 28 40 174 28 40 174 28 40 174 28 40 174 28 40 174 28 40 174 28 40 174 28 40 174 28 40 174 28 40 174 28 40 174 28 40 174 28 40 174 28 40 174 28 40 174 28 40 174 28 40 174 28 40 174 28 40 174 28 40 174 28 40 174 28 40 174 28 40 174 28 40 174 28 40 174 28 40 174 28 40 174 28 40 174 28 40 174 28 40 174 28 40 174 28 40 174 28 40 174 28 40 174 28 40 174 28 40 174 28 40 174 28 40 174 28 40 174 28 40 174 28 40 174 28 40 174 28 40 174 28 40 174 28 40 174 28 40 174 28 40 174 28 40 174 28 40 174 28 40 174 28 40 174 28 40 174 28 40 174 28 40 174 28 40 174 28 40 174 28 40 174 28 40 174 28 40 174 28 40 174 28 40 174 28 40 174 28 40 174 28 40 174 28 40 174 28 40 174 28 40 174 28 40 174 28 40 174 28 40 174 28 40 174 28 40 174 28 40 174 28 40 174 28 40 174 28 40 174 28 40 174 28 40 174 28 40 174 28 40 174 28 40 174 28 40 174 28 40 174 28 40 174 28 40 174 28 40 174 28 40 174 28 40 174 28 40 174 28 40 174 28 40 174 28 40 174 28 40 174 28 40 174 28 40 174 28 40 174 28 40 174 28 40 174 28 40 174 28 40 174 28 40 174 28 40 174 28 40 174 28 40 174 28 40 174 28 40 174 28 40 174 28 40 174 28 40 174 28 40 174 28 40 174 28 40 174 28 40 174 28 40 174 28 40 174 28 40 174 28 40 174 28 40 174 28 40 174 28 40 174 28 40 174 28 40 174 28 40 174 28 40 174 28 40 174 28 40 174 28 40 174 28 40 174 28 40 174 28 40 174 28 40 174 28 40 174 28 40 174 28 40 174 28 40 174 28 40 174 28 40 174 28 40 174 28 40 174 28 40 174 28 40 174 28 40 174 28 40 174 28 40 174 28 40 174 28 40 174 28 40 174 28 40 174 28 40 174 28 40 174 28 40 174 28 40 174 28 40 174 28 40 174 28 40 174 28 40 174 28 40 174 28 40 174 28 40 174 28 40 174 28 40 174 28 40 174 28 40 174 28 40 174 28 40 174 28 40 174 28 40 174 28 40 174 28 40 174 28 40 174 28 40 174 28 40 174 28 40 174 28 40 174 28 40 174 28 40 174 28 40 174 28 40 174 28 40 174 28 40 174 28 40 174 28 40 174 28 40 174 28 40 174 28 40 174 28 40 174 28 40 174 28 40 174 28 40 174 28 40 174 28 40 174 28 40 174 28 40 174 28 40 174 28 40 174 28 40 174 28 40 174 28 40 174 28 40 174 28 40 174 28 40 174 28 40 174 28 40 174 28 40 174 28 40 174 28 40 174 28 40 174 28 40 174 28 40 174 28 40 174 28 40 174 28 40 174 28 40 174 28 40 174 28 40 174 28 40 174 28 40 174 28 40 174 28 40 174 28 40 174 28 40 174 28 40 174 28 40 174 28 40 174 28 40 174 28 40 174 28 40 174 28 40 174 28 40 174 28 40 174 28 40 174 28 40 174 28 40 174 28 40 174 28 40 174 28 40 174 28 40 174 28 40 174 28 40 174 28 40 174 28 40 
174 28 40 174 28 40 174 28 40 174 28 40 174 28 40 174 28 40 174 28 40 174 28 40 174 28 40 174 28 40 174 28 40 174 28 40 174 28 40 174 28 40 174 28 40 174 28 40 174 28 40 174 28 40 174 28 40 174 28 40 174 28 40 174 28 40 174 28 40 174 28 40 174 28 40 174 28 40 174 28 40 174 28 40 174 28 40 174 28 40 174 28 40 174 28 40 174 28 40 174 28 40 174 28 40 174 28 40 174 28 40 174 28 40 174 28 40 174 28 40 174 28 40 174 28 40 174 28 40 174 28 40 174 28 40 174 28 40 174 28 40 174 28 40 174 28 40 174 28 40 174 28 40 174 28 40 174 28 40 174 28 40 174 28 40 174 28 40 174 28 40 174 28 40 174 28 40 174 28 40 174 28 40 174 28 40 174 28 40 174 28 40 174 28 40 174 28 40 174 28 40 174 28 40 174 28 40 174 28 40 174 28 40 174 28 40 174 28 40 174 28 40 174 28 40 174 28 40 174 28 40 174 28 40 174 28 40 174 28 40 174 28 40 174 28 40 174 28 40 174 28 40 174 28 40 174 28 40 174 28 40 174 28 40 174 28 40 174 28 40 174 28 40 174 28 40 174 28 40 174 28 40 174 28 40 174 28 40 174 28 40 174 28 40 174 28 40 174 28 40 174 28 40 174 28 40 174 28 40 174 28 40 174 28 40 174 28 40 174 28 40 174 28 40 174 28 40 174 28 40 174 28 40 174 28 40 174 28 40 174 28 40 174 28 40 174 28 40 174 28 40 174 28 40 174 28 40 174 28 40 174 28 40 174 28 40 174 28 40 174 28 40 174 28 40 174 28 40 174 28 40 174 28 40 174 28 40 174 28 40 174 28 40 174 28 40 174 28 40 174 28 40 174 28 40 174 28 40 174 28 40 174 28 40 174 28 40 174 28 40 174 28 40 174 28 40 174 28 40 174 28 40 174 28 40 174 28 40 174 28 40 174 28 40 174 28 40 174 28 40 174 28 40 174 28 40 174 28 40 174 28 40 174 28 40 174 28 40 174 28 40 174 28 40 174 28 40 174 28 40 174 28 40 174 28 40 174 28 40 174 28 40 174 28 40 174 28 40 174 28 40 174 28 40 174 28 40 174 28 40 174 28 40 174 28 40 174 28 40 174 28 40 174 28 40 174 28 40 174 28 40 174 28 40 174 28 40 174 28 40 174 28 40 174 28 40 174 28 40 174 28 40 174 28 40 174 28 40 174 28 40 174 28 40 174 28 40 174 28 40 174 28 40 174 28 40 174 28 40 174 28 40 174 28 40 174 28 40 174 28 40 174 28 40 174 28 40 174 28 40 174 28 40 174 28 40 174 28 40 174 28 40 174 28 40 174 28 40 174 28 40 174 28 40 174 28 40 174 28 40 174 28 40 174 28 40 174 28 40 174 28 40 174 28 40 174 28 40 174 28 40 174 28 40 174 28 40 174 28 40 174 28 40 174 28 40 174 28 40 174 28 40 174 28 40 174 28 40 174 28 40 174 28 40 174 28 40 174 28 40 174 28 40 174 28 40 174 28 40 174 28 40 174 28 40 174 28 40 174 28 40 174 28 40 174 28 40 174 28 40 174 28 40 174 28 40 174 28 40 174 28 40 174 28 40 174 28 40 174 28 40 174 28 40 174 28 40 174 28 40 174 28 40 174 28 40 174 28 40 174 28 40 174 28 40 174 28 40 174 28 40 174 28 40 174 28 40 174 28 40 174 28 40 174 28 40 174 28 40 174 28 40 174 28 40 174 28 40 174 28 40 174 28 40 174 28 40 174 28 40 174 28 40 174 28 40 174 28 40 174 28 40 174 28 40 174 28 40 174 28 40 174 28 40 174 28 40 174 28 40 174 28 40 174 28 40 174 28 40 174 28 40 174 28 40 174 28 40 174 28 40 174 28 40 174 28 40 174 28 40 174 28 40 174 28 40 174 28 40 174 28 40 174 28 40 174 28 40 174 28 40 174 28 40 174 28 40 174 28 40 
174 28 40 174 28 40 174 28 40 174 28 40 174 28 40 174 28 40 174 28 40 174 28 40 174 28 40 174 28 40 174 28 40 174 28 40 174 28 40 174 28 40 174 28 40 174 28 40 174 28 40 174 28 40 174 28 40 174 28 40 174 28 40 174 28 40 174 28 40 174 28 40 174 28 40 174 28 40 174 28 40 174 28 40 174 28 40 174 28 40 174 28 40 174 28 40 174 28 40 174 28 40 174 28 40 174 28 40 174 28 40 174 28 40 174 28 40 174 28 40 174 28 40 174 28 40 174 28 40 174 28 40 174 28 40 174 28 40 174 28 40 174 28 40 174 28 40 174 28 40 174 28 40 174 28 40 174 28 40 174 28 40 174 28 40 174 28 40 174 28 40 174 28 40 174 28 40 174 28 40 174 28 40 174 28 40 174 28 40 174 28 40 174 28 40 174 28 40 174 28 40 174 28 40 174 28 40 174 28 40 174 28 40 174 28 40 174 28 40 174 28 40 174 28 40 174 28 40 174 28 40 174 28 40 174 28 40 174 28 40 174 28 40 174 28 40 174 28 40 174 28 40 174 28 40 174 28 40 174 28 40 174 28 40 174 28 40 174 28 40 174 28 40 174 28 40 174 28 40 174 28 40 174 28 40 174 28 40 174 28 40 174 28 40 174 28 40 174 28 40 174 28 40 174 28 40 174 28 40 174 28 40 174 28 40 174 28 40 174 28 40 174 28 40 174 28 40 174 28 40 174 28 40 174 28 40 174 28 40 174 28 40 174 28 40 174 28 40 174 28 40 174 28 40 174 28 40 174 28 40 174 28 40 174 28 40 174 28 40 174 28 40 174 28 40 174 28 40 174 28 40 174 28 40 174 28 40 174 28 40 174 28 40 174 28 40 174 28 40 174 28 40 174 28 40 174 28 40 174 28 40 174 28 40 174 28 40 174 28 40 174 28 40 174 28 40 174 28 40 174 28 40 174 28 40 174 28 40 174 28 40 174 28 40 174 28 40 174 28 40 174 28 40 174 28 40 174 28 40 174 28 40 174 28 40 174 28 40 174 28 40 174 28 40 174 28 40 174 28 40 174 28 40 174 28 40 174 28 40 174 28 40 174 28 40 174 28 40 174 28 40 174 28 40 174 28 40 174 28 40 174 28 40 174 28 40 174 28 40 174 28 40 174 28 40 174 28 40 174 28 40 174 28 40 174 28 40 174 28 40 174 28 40 174 28 40 174 28 40 174 28 40 174 28 40 174 28 40 174 28 40 174 28 40 174 28 40 174 28 40 174 28 40 174 28 40 174 28 40 174 28 40 174 28 40 174 28 40 174 28 40 174 28 40 174 28 40 174 28 40 174 28 40 174 28 40 174 28 40 174 28 40 174 28 40 174 28 40 174 28 40 174 28 40 174 28 40 174 28 40 174 28 40 174 28 40 174 28 40 174 28 40 174 28 40 174 28 40 174 28 40 174 28 40 174 28 40 174 28 40 174 28 40 174 28 40 174 28 40 174 28 40 174 28 40 174 28 40 174 28 40 174 28 40 174 28 40 174 28 40 174 28 40 174 28 40 174 28 40 174 28 40 174 28 40 174 28 40 174 28 40 174 28 40 174 28 40 174 28 40 174 28 40 174 28 40 174 28 40 174 28 40 174 28 40 174 28 40 174 28 40 174 28 40 174 28 40 174 28 40 174 28 40 174 28 40 174 28 40 174 28 40 174 28 40 174 28 40 174 28 40 174 28 40 174 28 40 174 28 40 174 28 40 174 28 40 174 28 40 174 28 40 174 28 40 174 28 40 174 28 40 174 28 40 174 28 40 174 28 40 174 28 40 174 28 40 174 28 40 174 28 40 174 28 40 174 28 40 174 28 40 174 28 40 174 28 40 174 28 40 174 28 40 174 28 40 174 28 40 174 28 40 174 28 40 174 28 40 174 28 40 174 28 40 174 28 40 174 28 40 174 28 40 174 28 40 174 28 40 174 28 40 174 28 40 174 28 40 174 28 40 174 28 40 174 28 40 174 28 40 
174 28 40 174 28 40 174 28 40 174 28 40 174 28 40 174 28 40 174 28 40 174 28 40 174 28 40 174 28 40 174 28 40 174 28 40 174 28 40 174 28 40 174 28 40 174 28 40 174 28 40 174 28 40 174 28 40 174 28 40 174 28 40 174 28 40 174 28 40 174 28 40 174 28 40 174 28 40 174 28 40 174 28 40 174 28 40 174 28 40 174 28 40 174 28 40 174 28 40 174 28 40 174 28 40 174 28 40 174 28 40 174 28 40 174 28 40 174 28 40 174 28 40 174 28 40 174 28 40 174 28 40 174 28 40 174 28 40 174 28 40 174 28 40 174 28 40 174 28 40 174 28 40 174 28 40 174 28 40 174 28 40 174 28 40 174 28 40 174 28 40 174 28 40 174 28 40 174 28 40 174 28 40 174 28 40 174 28 40 174 28 40 174 28 40 174 28 40 174 28 40 174 28 40 174 28 40 174 28 40 174 28 40 174 28 40 174 28 40 174 28 40 174 28 40 174 28 40 174 28 40 174 28 40 174 28 40 174 28 40 174 28 40 174 28 40 174 28 40 174 28 40 174 28 40 174 28 40 174 28 40 174 28 40 174 28 40 174 28 40 174 28 40 174 28 40 174 28 40 174 28 40 174 28 40 174 28 40 174 28 40 174 28 40 174 28 40 174 28 40 174 28 40 174 28 40 174 28 40 174 28 40 174 28 40 174 28 40 174 28 40 174 28 40 174 28 40 174 28 40 174 28 40 174 28 40 174 28 40 174 28 40 174 28 40 174 28 40 174 28 40 174 28 40 174 28 40 174 28 40 174 28 40 174 28 40 174 28 40 174 28 40 174 28 40 174 28 40 174 28 40 174 28 40 174 28 40 174 28 40 174 28 40 174 28 40 174 28 40 174 28 40 174 28 40 174 28 40 174 28 40 174 28 40 174 28 40 174 28 40 174 28 40 174 28 40 174 28 40 174 28 40 174 28 40 174 28 40 174 28 40 174 28 40 174 28 40 174 28 40 174 28 40 174 28 40 174 28 40 174 28 40 174 28 40 174 28 40 174 28 40 174 28 40 174 28 40 174 28 40 174 28 40 174 28 40 174 28 40 174 28 40 174 28 40 174 28 40 174 28 40 174 28 40 174 28 40 174 28 40 174 28 40 174 28 40 174 28 40 174 28 40 174 28 40 174 28 40 174 28 40 174 28 40 174 28 40 174 28 40 174 28 40 174 28 40 174 28 40 174 28 40 174 28 40 174 28 40 174 28 40 174 28 40 174 28 40 174 28 40 174 28 40 174 28 40 174 28 40 174 28 40 174 28 40 174 28 40 174 28 40 174 28 40 174 28 40 174 28 40 174 28 40 174 28 40 174 28 40 174 28 40 174 28 40 174 28 40 174 28 40 174 28 40 174 28 40 174 28 40 174 28 40 174 28 40 174 28 40 174 28 40 174 28 40 174 28 40 174 28 40 174 28 40 174 28 40 174 28 40 174 28 40 174 28 40 174 28 40 174 28 40 174 28 40 174 28 40 174 28 40 174 28 40 174 28 40 174 28 40 174 28 40 174 28 40 174 28 40 174 28 40 174 28 40 174 28 40 174 28 40 174 28 40 174 28 40 174 28 40 174 28 40 174 28 40 174 28 40 174 28 40 174 28 40 174 28 40 174 28 40 174 28 40 174 28 40 174 28 40 174 28 40 174 28 40 174 28 40 174 28 40 174 28 40 174 28 40 174 28 40 174 28 40 174 28 40 174 28 40 174 28 40 174 28 40 174 28 40 174 28 40 174 28 40 174 28 40 174 28 40 174 28 40 174 28 40 174 28 40 174 28 40 174 28 40 174 28 40 174 28 40 174 28 40 174 28 40 174 28 40 174 28 40 174 28 40 174 28 40 174 28 40 174 28 40 174 28 40 174 28 40 174 28 40 174 28 40 174 28 40 174 28 40 174 28 40 174 28 40 174 28 40 174 28 40 174 28 40 174 28 40 174 28 40 174 28 40 174 28 40 174 28 40 174 28 40 174 28 40 
174 28 40 174 28 40 174 28 40 174 28 40 174 28 40 174 28 40 174 28 40 174 28 40 174 28 40 174 28 40 174 28 40 174 28 40 174 28 40 174 28 40 174 28 40 174 28 40 174 28 40 174 28 40 174 28 40 174 28 40 174 28 40 174 28 40 174 28 40 174 28 40 174 28 40 174 28 40 174 28 40 174 28 40 174 28 40 174 28 40 174 28 40 174 28 40 174 28 40 174 28 40 174 28 40 174 28 40 174 28 40 174 28 40 174 28 40 174 28 40 174 28 40 174 28 40 174 28 40 174 28 40 174 28 40 174 28 40 174 28 40 174 28 40 174 28 40 174 28 40 174 28 40 174 28 40 174 28 40 174 28 40 174 28 40 174 28 40 174 28 40 174 28 40 174 28 40 174 28 40 174 28 40 174 28 40 174 28 40 174 28 40 174 28 40 174 28 40 174 28 40 174 28 40 174 28 40 174 28 40 174 28 40 174 28 40 174 28 40 174 28 40 174 28 40 174 28 40 174 28 40 174 28 40 174 28 40 174 28 40 174 28 40 174 28 40 174 28 40 174 28 40 174 28 40 174 28 40 174 28 40 174 28 40 174 28 40 174 28 40 174 28 40 174 28 40 174 28 40 174 28 40 174 28 40 174 28 40 174 28 40 174 28 40 174 28 40 174 28 40 174 28 40 174 28 40 174 28 40 174 28 40 174 28 40 174 28 40 174 28 40 174 28 40 174 28 40 174 28 40 174 28 40 174 28 40 174 28 40 174 28 40 174 28 40 174 28 40 174 28 40 174 28 40 174 28 40 174 28 40 174 28 40 174 28 40 174 28 40 174 28 40 174 28 40 174 28 40 174 28 40 174 28 40 174 28 40 174 28 40 174 28 40 174 28 40 174 28 40 174 28 40 174 28 40 174 28 40 174 28 40 174 28 40 174 28 40 174 28 40 174 28 40 174 28 40 174 28 40 174 28 40 174 28 40 174 28 40 174 28 40 174 28 40 174 28 40 174 28 40 174 28 40 174 28 40 174 28 40 174 28 40 174 28 40 174 28 40 174 28 40 174 28 40 174 28 40 174 28 40 174 28 40 174 28 40 174 28 40 174 28 40 174 28 40 174 28 40 174 28 40 174 28 40 174 28 40 174 28 40 174 28 40 174 28 40 174 28 40 174 28 40 174 28 40 174 28 40 174 28 40 174 28 40 174 28 40 174 28 40 174 28 40 174 28 40 174 28 40 174 28 40 174 28 40 174 28 40 174 28 40 174 28 40 174 28 40 174 28 40 174 28 40 174 28 40 174 28 40 174 28 40 174 28 40 174 28 40 174 28 40 174 28 40 174 28 40 174 28 40 174 28 40 174 28 40 174 28 40 174 28 40 174 28 40 174 28 40 174 28 40 174 28 40 174 28 40 174 28 40 174 28 40 174 28 40 174 28 40 174 28 40 174 28 40 174 28 40 174 28 40 174 28 40 174 28 40 174 28 40 174 28 40 174 28 40 174 28 40 174 28 40 174 28 40 174 28 40 174 28 40 174 28 40 174 28 40 174 28 40 174 28 40 174 28 40 174 28 40 174 28 40 174 28 40 174 28 40 174 28 40 174 28 40 174 28 40 174 28 40 174 28 40 174 28 40 174 28 40 174 28 40 174 28 40 174 28 40 174 28 40 174 28 40 174 28 40 174 28 40 174 28 40 174 28 40 174 28 40 174 28 40 174 28 40 174 28 40 174 28 40 174 28 40 174 28 40 174 28 40 174 28 40 174 28 40 174 28 40 174 28 40 174 28 40 174 28 40 174 28 40 174 28 40 174 28 40 174 28 40 174 28 40 174 28 40 174 28 40 174 28 40 174 28 40 174 28 40 174 28 40 174 28 40 174 28 40 174 28 40 174 28 40 174 28 40 174 28 40 174 28 40 174 28 40 174 28 40 174 28 40 174 28 40 174 28 40 174 28 40 174 28 40 174 28 40 174 28 40 174 28 40 174 28 40 174 28 40 174 28 40 174 28 40 174 28 40 174 28 40 
174 28 40 174 28 40 174 28 40 174 28 40 174 28 40 174 28 40 174 28 40 174 28 40 174 28 40 174 28 40 174 28 40 174 28 40 174 28 40 174 28 40 174 28 40 174 28 40 174 28 40 174 28 40 174 28 40 174 28 40 174 28 40 174 28 40 174 28 40 174 28 40 174 28 40 174 28 40 174 28 40 174 28 40 174 28 40 174 28 40 174 28 40 174 28 40 174 28 40 174 28 40 174 28 40 174 28 40 174 28 40 174 28 40 174 28 40 174 28 40 174 28 40 174 28 40 174 28 40 174 28 40 174 28 40 174 28 40 174 28 40 174 28 40 174 28 40 174 28 40 174 28 40 174 28 40 174 28 40 174 28 40 174 28 40 174 28 40 174 28 40 174 28 40 174 28 40 174 28 40 174 28 40 174 28 40 174 28 40 174 28 40 174 28 40 174 28 40 174 28 40 174 28 40 174 28 40 174 28 40 174 28 40 174 28 40 174 28 40 174 28 40 174 28 40 174 28 40 174 28 40 174 28 40 174 28 40 174 28 40 174 28 40 174 28 40 174 28 40 174 28 40 174 28 40 174 28 40 174 28 40 174 28 40 174 28 40 174 28 40 174 28 40 174 28 40 174 28 40 174 28 40 174 28 40 174 28 40 174 28 40 174 28 40 174 28 40 174 28 40 174 28 40 174 28 40 174 28 40 174 28 40 174 28 40 174 28 40 174 28 40 174 28 40 174 28 40 174 28 40 174 28 40 174 28 40 174 28 40 174 28 40 174 28 40 174 28 40 174 28 40 174 28 40 174 28 40 174 28 40 174 28 40 174 28 40 174 28 40 174 28 40 174 28 40 174 28 40 174 28 40 174 28 40 174 28 40 174 28 40 174 28 40 174 28 40 174 28 40 174 28 40 174 28 40 174 28 40 174 28 40 174 28 40 174 28 40 174 28 40 174 28 40 174 28 40 174 28 40 174 28 40 174 28 40 174 28 40 174 28 40 174 28 40 174 28 40 174 28 40 174 28 40 174 28 40 174 28 40 174 28 40 174 28 40 174 28 40 174 28 40 174 28 40 174 28 40 174 28 40 174 28 40 174 28 40 174 28 40 174 28 40 174 28 40 174 28 40 174 28 40 174 28 40 174 28 40 174 28 40 174 28 40 174 28 40 174 28 40 174 28 40 174 28 40 174 28 40 174 28 40 174 28 40 174 28 40 174 28 40 174 28 40 174 28 40 174 28 40 174 28 40 174 28 40 174 28 40 174 28 40 174 28 40 174 28 40 174 28 40 174 28 40 174 28 40 174 28 40 174 28 40 174 28 40 174 28 40 174 28 40 174 28 40 174 28 40 174 28 40 174 28 40 174 28 40 174 28 40 174 28 40 174 28 40 174 28 40 174 28 40 174 28 40 174 28 40 174 28 40 174 28 40 174 28 40 174 28 40 174 28 40 174 28 40 174 28 40 174 28 40 174 28 40 174 28 40 174 28 40 174 28 40 174 28 40 174 28 40 174 28 40 174 28 40 174 28 40 174 28 40 174 28 40 174 28 40 174 28 40 174 28 40 174 28 40 174 28 40 174 28 40 174 28 40 174 28 40 174 28 40 174 28 40 174 28 40 174 28 40 174 28 40 174 28 40 174 28 40 174 28 40 174 28 40 174 28 40 174 28 40 174 28 40 174 28 40 174 28 40 174 28 40 174 28 40 174 28 40 174 28 40 174 28 40 174 28 40 174 28 40 174 28 40 174 28 40 174 28 40 174 28 40 174 28 40 174 28 40 174 28 40 174 28 40 174 28 40 174 28 40 174 28 40 174 28 40 174 28 40 174 28 40 174 28 40 174 28 40 174 28 40 174 28 40 174 28 40 174 28 40 174 28 40 174 28 40 174 28 40 174 28 40 174 28 40 174 28 40 174 28 40 174 28 40 174 28 40 174 28 40 174 28 40 174 28 40 174 28 40 174 28 40 174 28 40 174 28 40 174 28 40 174 28 40 174 28 40 174 28 40 174 28 40 174 28 40 174 28 40 
174 28 40 174 28 40 174 28 40 174 28 40 174 28 40 174 28 40 174 28 40 174 28 40 174 28 40 174 28 40 174 28 40 174 28 40 174 28 40 174 28 40 174 28 40 174 28 40 174 28 40 174 28 40 174 28 40 174 28 40 174 28 40 174 28 40 174 28 40 174 28 40 174 28 40 174 28 40 174 28 40 174 28 40 174 28 40 174 28 40 174 28 40 174 28 40 174 28 40 174 28 40 174 28 40 174 28 40 174 28 40 174 28 40 174 28 40 174 28 40 174 28 40 174 28 40 174 28 40 174 28 40 174 28 40 174 28 40 174 28 40 174 28 40 174 28 40 174 28 40 174 28 40 174 28 40 174 28 40 174 28 40 174 28 40 174 28 40 174 28 40 174 28 40 174 28 40 174 28 40 174 28 40 174 28 40 174 28 40 174 28 40 174 28 40 174 28 40 174 28 40 174 28 40 174 28 40 174 28 40 174 28 40 174 28 40 174 28 40 174 28 40 174 28 40 174 28 40 174 28 40 174 28 40 174 28 40 174 28 40 174 28 40 174 28 40 174 28 40 174 28 40 174 28 40 174 28 40 174 28 40 174 28 40 174 28 40 174 28 40 174 28 40 174 28 40 174 28 40 174 28 40 174 28 40 174 28 40 174 28 40 174 28 40 174 28 40 174 28 40 174 28 40 174 28 40 174 28 40 174 28 40 174 28 40 174 28 40 174 28 40 174 28 40 174 28 40 174 28 40 174 28 40 174 28 40 174 28 40 174 28 40 174 28 40 174 28 40 174 28 40 174 28 40 174 28 40 174 28 40 174 28 40 174 28 40 174 28 40 174 28 40 174 28 40 174 28 40 174 28 40 174 28 40 174 28 40 174 28 40 174 28 40 174 28 40 174 28 40 174 28 40 174 28 40 174 28 40 174 28 40 174 28 40 174 28 40 174 28 40 174 28 40 174 28 40 174 28 40 174 28 40 174 28 40 174 28 40 174 28 40 174 28 40 174 28 40 174 28 40 174 28 40 174 28 40 174 28 40 174 28 40 174 28 40 174 28 40 174 28 40 174 28 40 174 28 40 174 28 40 174 28 40 174 28 40 174 28 40 174 28 40 174 28 40 174 28 40 174 28 40 174 28 40 174 28 40 174 28 40 174 28 40 174 28 40 174 28 40 174 28 40 174 28 40 174 28 40 174 28 40 174 28 40 174 28 40 174 28 40 174 28 40 174 28 40 174 28 40 174 28 40 174 28 40 174 28 40 174 28 40 174 28 40 174 28 40 174 28 40 174 28 40 174 28 40 174 28 40 174 28 40 174 28 40 174 28 40 174 28 40 174 28 40 174 28 40 174 28 40 174 28 40 174 28 40 174 28 40 174 28 40 174 28 40 174 28 40 174 28 40 174 28 40 174 28 40 174 28 40 174 28 40 174 28 40 174 28 40 174 28 40 174 28 40 174 28 40 174 28 40 174 28 40 174 28 40 174 28 40 174 28 40 174 28 40 174 28 40 174 28 40 174 28 40 174 28 40 174 28 40 174 28 40 174 28 40 174 28 40 174 28 40 174 28 40 174 28 40 174 28 40 174 28 40 174 28 40 174 28 40 174 28 40 174 28 40 174 28 40 174 28 40 174 28 40 174 28 40 174 28 40 174 28 40 174 28 40 174 28 40 174 28 40 174 28 40 174 28 40 174 28 40 174 28 40 174 28 40 174 28 40 174 28 40 174 28 40 174 28 40 174 28 40 174 28 40 174 28 40 174 28 40 174 28 40 174 28 40 174 28 40 174 28 40 174 28 40 174 28 40 174 28 40 174 28 40 174 28 40 174 28 40 174 28 40 174 28 40 174 28 40 174 28 40 174 28 40 174 28 40 174 28 40 174 28 40 174 28 40 174 28 40 174 28 40 174 28 40 174 28 40 174 28 40 174 28 40 174 28 40 174 28 40 174 28 40 174 28 40 174 28 40 174 28 40 174 28 40 174 28 40 174 28 40 174 28 40 174 28 40 174 28 40 174 28 40 174 28 40 
174 28 40 174 28 40 174 28 40 174 28 40 174 28 40 174 28 40 174 28 40 174 28 40 174 28 40 174 28 40 174 28 40 174 28 40 174 28 40 174 28 40 174 28 40 174 28 40 174 28 40 174 28 40 174 28 40 174 28 40 174 28 40 174 28 40 174 28 40 174 28 40 174 28 40 174 28 40 174 28 40 174 28 40 174 28 40 174 28 40 174 28 40 174 28 40 174 28 40 174 28 40 174 28 40 174 28 40 174 28 40 174 28 40 174 28 40 174 28 40 174 28 40 174 28 40 174 28 40 174 28 40 174 28 40 174 28 40 174 28 40 174 28 40 174 28 40 174 28 40 174 28 40 174 28 40 174 28 40 174 28 40 174 28 40 174 28 40 174 28 40 174 28 40 174 28 40 174 28 40 174 28 40 174 28 40 174 28 40 174 28 40 174 28 40 174 28 40 174 28 40 174 28 40 174 28 40 174 28 40 174 28 40 174 28 40 174 28 40 174 28 40 174 28 40 174 28 40 174 28 40 174 28 40 174 28 40 174 28 40 174 28 40 174 28 40 174 28 40 174 28 40 174 28 40 174 28 40 174 28 40 174 28 40 174 28 40 174 28 40 174 28 40 174 28 40 174 28 40 174 28 40 174 28 40 174 28 40 174 28 40 174 28 40 174 28 40 174 28 40 174 28 40 174 28 40 174 28 40 174 28 40 174 28 40 174 28 40 174 28 40 174 28 40 174 28 40 174 28 40 174 28 40 174 28 40 174 28 40 174 28 40 174 28 40 174 28 40 174 28 40 174 28 40 174 28 40 174 28 40 174 28 40 174 28 40 174 28 40 174 28 40 174 28 40 174 28 40 174 28 40 174 28 40 174 28 40 174 28 40 174 28 40 174 28 40 174 28 40 174 28 40 174 28 40 174 28 40 174 28 40 174 28 40 174 28 40 174 28 40 174 28 40 174 28 40 174 28 40 174 28 40 174 28 40 174 28 40 174 28 40 174 28 40 174 28 40 174 28 40 174 28 40 174 28 40 174 28 40 174 28 40 174 28 40 174 28 40 174 28 40 174 28 40 174 28 40 174 28 40 174 28 40 174 28 40 174 28 40 174 28 40 174 28 40 174 28 40 174 28 40 174 28 40 174 28 40 174 28 40 174 28 40 174 28 40 174 28 40 174 28 40 174 28 40 174 28 40 174 28 40 174 28 40 174 28 40 174 28 40 174 28 40 174 28 40 174 28 40 174 28 40 174 28 40 174 28 40 174 28 40 174 28 40 174 28 40 174 28 40 174 28 40 174 28 40 174 28 40 174 28 40 174 28 40 174 28 40 174 28 40 174 28 40 174 28 40 174 28 40 174 28 40 174 28 40 174 28 40 174 28 40 174 28 40 174 28 40 174 28 40 174 28 40 174 28 40 174 28 40 174 28 40 174 28 40 174 28 40 174 28 40 174 28 40 174 28 40 174 28 40 174 28 40 174 28 40 174 28 40 174 28 40 174 28 40 174 28 40 174 28 40 174 28 40 174 28 40 174 28 40 174 28 40 174 28 40 174 28 40 174 28 40 174 28 40 174 28 40 174 28 40 174 28 40 174 28 40 174 28 40 174 28 40 174 28 40 174 28 40 174 28 40 174 28 40 174 28 40 174 28 40 174 28 40 174 28 40 174 28 40 174 28 40 174 28 40 174 28 40 174 28 40 174 28 40 174 28 40 174 28 40 174 28 40 174 28 40 174 28 40 174 28 40 174 28 40 174 28 40 174 28 40 174 28 40 174 28 40 174 28 40 174 28 40 174 28 40 174 28 40 174 28 40 174 28 40 174 28 40 174 28 40 174 28 40 174 28 40 174 28 40 174 28 40 174 28 40 174 28 40 174 28 40 174 28 40 174 28 40 174 28 40 174 28 40 174 28 40 174 28 40 174 28 40 174 28 40 174 28 40 174 28 40 174 28 40 174 28 40 174 28 40 174 28 40 174 28 40 174 28 40 174 28 40 174 28 40 174 28 40 174 28 40 174 28 40 174 28 40 
174 28 40 174 28 40 174 28 40 174 28 40 174 28 40 174 28 40 174 28 40 174 28 40 174 28 40 174 28 40 174 28 40 174 28 40 174 28 40 174 28 40 174 28 40 174 28 40 174 28 40 174 28 40 174 28 40 174 28 40 174 28 40 174 28 40 174 28 40 174 28 40 174 28 40 174 28 40 174 28 40 174 28 40 174 28 40 174 28 40 174 28 40 174 28 40 174 28 40 174 28 40 174 28 40 174 28 40 174 28 40 174 28 40 174 28 40 174 28 40 174 28 40 174 28 40 174 28 40 174 28 40 174 28 40 174 28 40 174 28 40 174 28 40 174 28 40 174 28 40 174 28 40 174 28 40 174 28 40 174 28 40 174 28 40 174 28 40 174 28 40 174 28 40 174 28 40 174 28 40 174 28 40 174 28 40 174 28 40 174 28 40 174 28 40 174 28 40 174 28 40 174 28 40 174 28 40 174 28 40 174 28 40 174 28 40 174 28 40 174 28 40 174 28 40 174 28 40 174 28 40 174 28 40 174 28 40 174 28 40 174 28 40 174 28 40 174 28 40 174 28 40 174 28 40 174 28 40 174 28 40 174 28 40 174 28 40 174 28 40 174 28 40 174 28 40 174 28 40 174 28 40 174 28 40 174 28 40 174 28 40 174 28 40 174 28 40 174 28 40 174 28 40 174 28 40 174 28 40 174 28 40 174 28 40 174 28 40 174 28 40 174 28 40 174 28 40 174 28 40 174 28 40 174 28 40 174 28 40 174 28 40 174 28 40 174 28 40 174 28 40 174 28 40 174 28 40 174 28 40 174 28 40 174 28 40 174 28 40 174 28 40 174 28 40 174 28 40 174 28 40 174 28 40 174 28 40 174 28 40 174 28 40 174 28 40 174 28 40 174 28 40 174 28 40 174 28 40 174 28 40 174 28 40 174 28 40 174 28 40 174 28 40 174 28 40 174 28 40 174 28 40 174 28 40 174 28 40 174 28 40 174 28 40 174 28 40 174 28 40 174 28 40 174 28 40 174 28 40 174 28 40 174 28 40 174 28 40 174 28 40 174 28 40 174 28 40 174 28 40 174 28 40 174 28 40 174 28 40 174 28 40 174 28 40 174 28 40 174 28 40 174 28 40 174 28 40 174 28 40 174 28 40 174 28 40 174 28 40 174 28 40 174 28 40 174 28 40 174 28 40 174 28 40 174 28 40 174 28 40 174 28 40 174 28 40 174 28 40 174 28 40 174 28 40 174 28 40 174 28 40 174 28 40 174 28 40 174 28 40 174 28 40 174 28 40 174 28 40 174 28 40 174 28 40 174 28 40 174 28 40 174 28 40 174 28 40 174 28 40 174 28 40 174 28 40 174 28 40 174 28 40 174 28 40 174 28 40 174 28 40 174 28 40 174 28 40 174 28 40 174 28 40 174 28 40 174 28 40 174 28 40 174 28 40 174 28 40 174 28 40 174 28 40 174 28 40 174 28 40 174 28 40 174 28 40 174 28 40 174 28 40 174 28 40 174 28 40 174 28 40 174 28 40 174 28 40 174 28 40 174 28 40 174 28 40 174 28 40 174 28 40 174 28 40 174 28 40 174 28 40 174 28 40 174 28 40 174 28 40 174 28 40 174 28 40 174 28 40 174 28 40 174 28 40 174 28 40 174 28 40 174 28 40 174 28 40 174 28 40 174 28 40 174 28 40 174 28 40 174 28 40 174 28 40 174 28 40 174 28 40 174 28 40 174 28 40 174 28 40 174 28 40 174 28 40 174 28 40 174 28 40 174 28 40 174 28 40 174 28 40 174 28 40 174 28 40 174 28 40 174 28 40 174 28 40 174 28 40 174 28 40 174 28 40 174 28 40 174 28 40 174 28 40 174 28 40 174 28 40 174 28 40 174 28 40 174 28 40 174 28 40 174 28 40 174 28 40 174 28 40 174 28 40 174 28 40 174 28 40 174 28 40 174 28 40 174 28 40 174 28 40 174 28 40 174 28 40 174 28 40 174 28 40 174 28 40 174 28 40 
174 28 40 174 28 40 174 28 40 174 28 40 174 28 40 174 28 40 174 28 40 174 28 40 174 28 40 174 28 40 174 28 40 174 28 40 174 28 40 174 28 40 174 28 40 174 28 40 174 28 40 174 28 40 174 28 40 174 28 40 174 28 40 174 28 40 174 28 40 174 28 40 174 28 40 174 28 40 174 28 40 174 28 40 174 28 40 174 28 40 174 28 40 174 28 40 174 28 40 174 28 40 174 28 40 174 28 40 174 28 40 174 28 40 174 28 40 174 28 40 174 28 40 174 28 40 174 28 40 174 28 40 174 28 40 174 28 40 174 28 40 174 28 40 174 28 40 174 28 40 174 28 40 174 28 40 174 28 40 174 28 40 174 28 40 174 28 40 174 28 40 174 28 40 174 28 40 174 28 40 174 28 40 174 28 40 174 28 40 174 28 40 174 28 40 174 28 40 174 28 40 174 28 40 174 28 40 174 28 40 174 28 40 174 28 40 174 28 40 174 28 40 174 28 40 174 28 40 174 28 40 174 28 40 174 28 40 174 28 40 174 28 40 174 28 40 174 28 40 174 28 40 174 28 40 174 28 40 174 28 40 174 28 40 174 28 40 174 28 40 174 28 40 174 28 40 174 28 40 174 28 40 174 28 40 174 28 40 174 28 40 174 28 40 174 28 40 174 28 40 174 28 40 174 28 40 174 28 40 174 28 40 174 28 40 174 28 40 174 28 40 174 28 40 174 28 40 174 28 40 174 28 40 174 28 40 174 28 40 174 28 40 174 28 40 174 28 40 174 28 40 174 28 40 174 28 40 174 28 40 174 28 40 174 28 40 174 28 40 174 28 40 174 28 40 174 28 40 174 28 40 174 28 40 174 28 40 174 28 40 174 28 40 174 28 40 174 28 40 174 28 40 174 28 40 174 28 40 174 28 40 174 28 40 174 28 40 174 28 40 174 28 40 174 28 40 174 28 40 174 28 40 174 28 40 174 28 40 174 28 40 174 28 40 174 28 40 174 28 40 174 28 40 174 28 40 174 28 40 174 28 40 174 28 40 174 28 40 174 28 40 174 28 40 174 28 40 174 28 40 174 28 40 174 28 40 174 28 40 174 28 40 174 28 40 174 28 40 174 28 40 174 28 40 174 28 40 174 28 40 174 28 40 174 28 40 174 28 40 174 28 40 174 28 40 174 28 40 174 28 40 174 28 40 174 28 40 174 28 40 174 28 40 174 28 40 174 28 40 174 28 40 174 28 40 174 28 40 174 28 40 174 28 40 174 28 40 174 28 40 174 28 40 174 28 40 174 28 40 174 28 40 174 28 40 174 28 40 174 28 40 174 28 40 174 28 40 174 28 40 174 28 40 174 28 40 174 28 40 174 28 40 174 28 40 174 28 40 174 28 40 174 28 40 174 28 40 174 28 40 174 28 40 174 28 40 174 28 40 174 28 40 174 28 40 174 28 40 174 28 40 174 28 40 174 28 40 174 28 40 174 28 40 174 28 40 174 28 40 174 28 40 174 28 40 174 28 40 174 28 40 174 28 40 174 28 40 174 28 40 174 28 40 174 28 40 174 28 40 174 28 40 174 28 40 174 28 40 174 28 40 174 28 40 174 28 40 174 28 40 174 28 40 174 28 40 174 28 40 174 28 40 174 28 40 174 28 40 174 28 40 174 28 40 174 28 40 174 28 40 174 28 40 174 28 40 174 28 40 174 28 40 174 28 40 174 28 40 174 28 40 174 28 40 174 28 40 174 28 40 174 28 40 174 28 40 174 28 40 174 28 40 174 28 40 174 28 40 174 28 40 174 28 40 174 28 40 174 28 40 174 28 40 174 28 40 174 28 40 174 28 40 174 28 40 174 28 40 174 28 40 174 28 40 174 28 40 174 28 40 174 28 40 174 28 40 174 28 40 174 28 40 174 28 40 174 28 40 174 28 40 174 28 40 174 28 40 174 28 40 174 28 40 174 28 40 174 28 40 174 28 40 174 28 40 174 28 40 174 28 40 174 28 40 174 28 40 174 28 40 
174 28 40 174 28 40 174 28 40 174 28 40 174 28 40 174 28 40 174 28 40 174 28 40 174 28 40 174 28 40 174 28 40 174 28 40 174 28 40 174 28 40 174 28 40 174 28 40 174 28 40 174 28 40 174 28 40 174 28 40 174 28 40 174 28 40 174 28 40 174 28 40 174 28 40 174 28 40 174 28 40 174 28 40 174 28 40 174 28 40 174 28 40 174 28 40 174 28 40 174 28 40 174 28 40 174 28 40 174 28 40 174 28 40 174 28 40 174 28 40 174 28 40 174 28 40 174 28 40 174 28 40 174 28 40 174 28 40 174 28 40 174 28 40 174 28 40 174 28 40 174 28 40 174 28 40 174 28 40 174 28 40 174 28 40 174 28 40 174 28 40 174 28 40 174 28 40 174 28 40 174 28 40 174 28 40 174 28 40 174 28 40 174 28 40 174 28 40 174 28 40 174 28 40 174 28 40 174 28 40 174 28 40 174 28 40 174 28 40 174 28 40 174 28 40 174 28 40 174 28 40 174 28 40 174 28 40 174 28 40 174 28 40 174 28 40 174 28 40 174 28 40 174 28 40 174 28 40 174 28 40 174 28 40 174 28 40 174 28 40 174 28 40 174 28 40 174 28 40 174 28 40 174 28 40 174 28 40 174 28 40 174 28 40 174 28 40 174 28 40 174 28 40 174 28 40 174 28 40 174 28 40 174 28 40 174 28 40 174 28 40 174 28 40 174 28 40 174 28 40 174 28 40 174 28 40 174 28 40 174 28 40 174 28 40 174 28 40 174 28 40 174 28 40 174 28 40 174 28 40 174 28 40 174 28 40 174 28 40 174 28 40 174 28 40 174 28 40 174 28 40 174 28 40 174 28 40 174 28 40 174 28 40 174 28 40 174 28 40 174 28 40 174 28 40 174 28 40 174 28 40 174 28 40 174 28 40 174 28 40 174 28 40 174 28 40 174 28 40 174 28 40 174 28 40 174 28 40 174 28 40 174 28 40 174 28 40 174 28 40 174 28 40 174 28 40 174 28 40 174 28 40 174 28 40 174 28 40 174 28 40 174 28 40 174 28 40 174 28 40 174 28 40 174 28 40 174 28 40 174 28 40 174 28 40 174 28 40 174 28 40 174 28 40 174 28 40 174 28 40 174 28 40 174 28 40 174 28 40 174 28 40 174 28 40 174 28 40 174 28 40 174 28 40 174 28 40 174 28 40 174 28 40 174 28 40 174 28 40 174 28 40 174 28 40 174 28 40 174 28 40 174 28 40 174 28 40 174 28 40 174 28 40 174 28 40 174 28 40 174 28 40 174 28 40 174 28 40 174 28 40 174 28 40 174 28 40 174 28 40 174 28 40 174 28 40 174 28 40 174 28 40 174 28 40 174 28 40 174 28 40 174 28 40 174 28 40 174 28 40 174 28 40 174 28 40 174 28 40 174 28 40 174 28 40 174 28 40 174 28 40 174 28 40 174 28 40 174 28 40 174 28 40 174 28 40 174 28 40 174 28 40 174 28 40 174 28 40 174 28 40 174 28 40 174 28 40 174 28 40 174 28 40 174 28 40 174 28 40 174 28 40 174 28 40 174 28 40 174 28 40 174 28 40 174 28 40 174 28 40 174 28 40 174 28 40 174 28 40 174 28 40 174 28 40 174 28 40 174 28 40 174 28 40 174 28 40 174 28 40 174 28 40 174 28 40 174 28 40 174 28 40 174 28 40 174 28 40 174 28 40 174 28 40 174 28 40 174 28 40 174 28 40 174 28 40 174 28 40 174 28 40 174 28 40 174 28 40 174 28 40 174 28 40 174 28 40 174 28 40 174 28 40 174 28 40 174 28 40 174 28 40 174 28 40 174 28 40 174 28 40 174 28 40 174 28 40 174 28 40 174 28 40 174 28 40 174 28 40 174 28 40 174 28 40 174 28 40 174 28 40 174 28 40 174 28 40 174 28 40 174 28 40 174 28 40 174 28 40 174 28 40 174 28 40 174 28 40 174 28 40 174 28 40 174 28 40 174 28 40 
174 28 40 174 28 40 174 28 40 174 28 40 174 28 40 174 28 40 174 28 40 174 28 40 174 28 40 174 28 40 174 28 40 174 28 40 174 28 40 174 28 40 174 28 40 174 28 40 174 28 40 174 28 40 174 28 40 174 28 40 174 28 40 174 28 40 174 28 40 174 28 40 174 28 40 174 28 40 174 28 40 174 28 40 174 28 40 174 28 40 174 28 40 174 28 40 174 28 40 174 28 40 174 28 40 174 28 40 174 28 40 174 28 40 174 28 40 174 28 40 174 28 40 174 28 40 174 28 40 174 28 40 174 28 40 174 28 40 174 28 40 174 28 40 174 28 40 174 28 40 174 28 40 174 28 40 174 28 40 174 28 40 174 28 40 174 28 40 174 28 40 174 28 40 174 28 40 174 28 40 174 28 40 174 28 40 174 28 40 174 28 40 174 28 40 174 28 40 174 28 40 174 28 40 174 28 40 174 28 40 174 28 40 174 28 40 174 28 40 174 28 40 174 28 40 174 28 40 174 28 40 174 28 40 174 28 40 174 28 40 174 28 40 174 28 40 174 28 40 174 28 40 174 28 40 174 28 40 174 28 40 174 28 40 174 28 40 174 28 40 174 28 40 174 28 40 174 28 40 174 28 40 174 28 40 174 28 40 174 28 40 174 28 40 174 28 40 174 28 40 174 28 40 174 28 40 174 28 40 174 28 40 174 28 40 174 28 40 174 28 40 174 28 40 174 28 40 174 28 40 174 28 40 174 28 40 174 28 40 174 28 40 174 28 40 174 28 40 174 28 40 174 28 40 174 28 40 174 28 40 174 28 40 174 28 40 174 28 40 174 28 40 174 28 40 174 28 40 174 28 40 174 28 40 174 28 40 174 28 40 174 28 40 174 28 40 174 28 40 174 28 40 174 28 40 174 28 40 174 28 40 174 28 40 174 28 40 174 28 40 174 28 40 174 28 40 174 28 40 174 28 40 174 28 40 174 28 40 174 28 40 174 28 40 174 28 40 174 28 40 174 28 40 174 28 40 174 28 40 174 28 40 174 28 40 174 28 40 174 28 40 174 28 40 174 28 40 174 28 40 174 28 40 174 28 40 174 28 40 174 28 40 174 28 40 174 28 40 174 28 40 174 28 40 174 28 40 174 28 40 174 28 40 174 28 40 174 28 40 174 28 40 174 28 40 174 28 40 174 28 40 174 28 40 174 28 40 174 28 40 174 28 40 174 28 40 174 28 40 174 28 40 174 28 40 174 28 40 174 28 40 174 28 40 174 28 40 174 28 40 174 28 40 174 28 40 174 28 40 174 28 40 174 28 40 174 28 40 174 28 40 174 28 40 174 28 40 174 28 40 174 28 40 174 28 40 174 28 40 174 28 40 174 28 40 174 28 40 174 28 40 174 28 40 174 28 40 174 28 40 174 28 40 174 28 40 174 28 40 174 28 40 174 28 40 174 28 40 174 28 40 174 28 40 174 28 40 174 28 40 174 28 40 174 28 40 174 28 40 174 28 40 174 28 40 174 28 40 174 28 40 174 28 40 174 28 40 174 28 40 174 28 40 174 28 40 174 28 40 174 28 40 174 28 40 174 28 40 174 28 40 174 28 40 174 28 40 174 28 40 174 28 40 174 28 40 174 28 40 174 28 40 174 28 40 174 28 40 174 28 40 174 28 40 174 28 40 174 28 40 174 28 40 174 28 40 174 28 40 174 28 40 174 28 40 174 28 40 174 28 40 174 28 40 174 28 40 174 28 40 174 28 40 174 28 40 174 28 40 174 28 40 174 28 40 174 28 40 174 28 40 174 28 40 174 28 40 174 28 40 174 28 40 174 28 40 174 28 40 174 28 40 174 28 40 174 28 40 174 28 40 174 28 40 174 28 40 174 28 40 174 28 40 174 28 40 174 28 40 174 28 40 174 28 40 174 28 40 174 28 40 174 28 40 174 28 40 174 28 40 174 28 40 174 28 40 174 28 40 174 28 40 174 28 40 174 28 40 174 28 40 174 28 40 174 28 40 174 28 40 
174 28 40 174 28 40 174 28 40 174 28 40 174 28 40 174 28 40 174 28 40 174 28 40 174 28 40 174 28 40 174 28 40 174 28 40 174 28 40 174 28 40 174 28 40 174 28 40 174 28 40 174 28 40 174 28 40 174 28 40 174 28 40 174 28 40 174 28 40 174 28 40 174 28 40 174 28 40 174 28 40 174 28 40 174 28 40 174 28 40 174 28 40 174 28 40 174 28 40 174 28 40 174 28 40 174 28 40 174 28 40 174 28 40 174 28 40 174 28 40 174 28 40 174 28 40 174 28 40 174 28 40 174 28 40 174 28 40 174 28 40 174 28 40 174 28 40 174 28 40 174 28 40 174 28 40 174 28 40 174 28 40 174 28 40 174 28 40 174 28 40 174 28 40 174 28 40 174 28 40 174 28 40 174 28 40 174 28 40 174 28 40 174 28 40 174 28 40 174 28 40 174 28 40 174 28 40 174 28 40 174 28 40 174 28 40 174 28 40 174 28 40 174 28 40 174 28 40 174 28 40 174 28 40 174 28 40 174 28 40 174 28 40 174 28 40 174 28 40 174 28 40 174 28 40 174 28 40 174 28 40 174 28 40 174 28 40 174 28 40 174 28 40 174 28 40 174 28 40 174 28 40 174 28 40 174 28 40 174 28 40 174 28 40 174 28 40 174 28 40 174 28 40 174 28 40 174 28 40 174 28 40 174 28 40 174 28 40 174 28 40 174 28 40 174 28 40 174 28 40 174 28 40 174 28 40 174 28 40 174 28 40 174 28 40 174 28 40 174 28 40 174 28 40 174 28 40 174 28 40 174 28 40 174 28 40 174 28 40 174 28 40 174 28 40 174 28 40 174 28 40 174 28 40 174 28 40 174 28 40 174 28 40 174 28 40 174 28 40 174 28 40 174 28 40 174 28 40 174 28 40 174 28 40 174 28 40 174 28 40 174 28 40 174 28 40 174 28 40 174 28 40 174 28 40 174 28 40 174 28 40 174 28 40 174 28 40 174 28 40 174 28 40 174 28 40 174 28 40 174 28 40 174 28 40 174 28 40 174 28 40 174 28 40 174 28 40 174 28 40 174 28 40 174 28 40 174 28 40 174 28 40 174 28 40 174 28 40 174 28 40 174 28 40 174 28 40 174 28 40 174 28 40 174 28 40 174 28 40 174 28 40 174 28 40 174 28 40 174 28 40 174 28 40 174 28 40 174 28 40 174 28 40 174 28 40 174 28 40 174 28 40 174 28 40 174 28 40 174 28 40 174 28 40 174 28 40 174 28 40 174 28 40 174 28 40 174 28 40 174 28 40 174 28 40 174 28 40 174 28 40 174 28 40 174 28 40 174 28 40 174 28 40 174 28 40 174 28 40 174 28 40 174 28 40 174 28 40 174 28 40 174 28 40 174 28 40 174 28 40 174 28 40 174 28 40 174 28 40 174 28 40 174 28 40 174 28 40 174 28 40 174 28 40 174 28 40 174 28 40 174 28 40 174 28 40 174 28 40 174 28 40 174 28 40 174 28 40 174 28 40 174 28 40 174 28 40 174 28 40 174 28 40 174 28 40 174 28 40 174 28 40 174 28 40 174 28 40 174 28 40 174 28 40 174 28 40 174 28 40 174 28 40 174 28 40 174 28 40 174 28 40 174 28 40 174 28 40 174 28 40 174 28 40 174 28 40 174 28 40 174 28 40 174 28 40 174 28 40 174 28 40 174 28 40 174 28 40 174 28 40 174 28 40 174 28 40 174 28 40 174 28 40 174 28 40 174 28 40 174 28 40 174 28 40 174 28 40 174 28 40 174 28 40 174 28 40 174 28 40 174 28 40 174 28 40 174 28 40 174 28 40 174 28 40 174 28 40 174 28 40 174 28 40 174 28 40 174 28 40 174 28 40 174 28 40 174 28 40 174 28 40 174 28 40 174 28 40 174 28 40 174 28 40 174 28 40 174 28 40 174 28 40 174 28 40 174 28 40 174 28 40 174 28 40 174 28 40 174 28 40 174 28 40 174 28 40 174 28 40 
174 28 40 174 28 40 174 28 40 174 28 40 174 28 40 174 28 40 174 28 40 174 28 40 174 28 40 174 28 40 174 28 40 174 28 40 174 28 40 174 28 40 174 28 40 174 28 40 174 28 40 174 28 40 174 28 40 174 28 40 174 28 40 174 28 40 174 28 40 174 28 40 174 28 40 174 28 40 174 28 40 174 28 40 174 28 40 174 28 40 174 28 40 174 28 40 174 28 40 174 28 40 174 28 40 174 28 40 174 28 40 174 28 40 174 28 40 174 28 40 174 28 40 174 28 40 174 28 40 174 28 40 174 28 40 174 28 40 174 28 40 174 28 40 174 28 40 174 28 40 174 28 40 174 28 40 174 28 40 174 28 40 174 28 40 174 28 40 174 28 40 174 28 40 174 28 40 174 28 40 174 28 40 174 28 40 174 28 40 174 28 40 174 28 40 174 28 40 174 28 40 174 28 40 174 28 40 174 28 40 174 28 40 174 28 40 174 28 40 174 28 40 174 28 40 174 28 40 174 28 40 174 28 40 174 28 40 174 28 40 174 28 40 174 28 40 174 28 40 174 28 40 174 28 40 174 28 40 174 28 40 174 28 40 174 28 40 174 28 40 174 28 40 174 28 40 174 28 40 174 28 40 174 28 40 174 28 40 174 28 40 174 28 40 174 28 40 174 28 40 174 28 40 174 28 40 174 28 40 174 28 40 174 28 40 174 28 40 174 28 40 174 28 40 174 28 40 174 28 40 174 28 40 174 28 40 174 28 40 174 28 40 174 28 40 174 28 40 174 28 40 174 28 40 174 28 40 174 28 40 174 28 40 174 28 40 174 28 40 174 28 40 174 28 40 174 28 40 174 28 40 174 28 40 174 28 40 174 28 40 174 28 40 174 28 40 174 28 40 174 28 40 174 28 40 174 28 40 174 28 40 174 28 40 174 28 40 174 28 40 174 28 40 174 28 40 174 28 40 174 28 40 174 28 40 174 28 40 174 28 40 174 28 40 174 28 40 174 28 40 174 28 40 174 28 40 174 28 40 174 28 40 174 28 40 174 28 40 174 28 40 174 28 40 174 28 40 174 28 40 174 28 40 174 28 40 174 28 40 174 28 40 174 28 40 174 28 40 174 28 40 174 28 40 174 28 40 174 28 40 174 28 40 174 28 40 174 28 40 174 28 40 174 28 40 174 28 40 174 28 40 174 28 40 174 28 40 174 28 40 174 28 40 174 28 40 174 28 40 174 28 40 174 28 40 174 28 40 174 28 40 174 28 40 174 28 40 174 28 40 174 28 40 174 28 40 174 28 40 174 28 40 174 28 40 174 28 40 174 28 40 174 28 40 174 28 40 174 28 40 174 28 40 174 28 40 174 28 40 174 28 40 174 28 40 174 28 40 174 28 40 174 28 40 174 28 40 174 28 40 174 28 40 174 28 40 174 28 40 174 28 40 174 28 40 174 28 40 174 28 40 174 28 40 174 28 40 174 28 40 174 28 40 174 28 40 174 28 40 174 28 40 174 28 40 174 28 40 174 28 40 174 28 40 174 28 40 174 28 40 174 28 40 174 28 40 174 28 40 174 28 40 174 28 40 174 28 40 174 28 40 174 28 40 174 28 40 174 28 40 174 28 40 174 28 40 174 28 40 174 28 40 174 28 40 174 28 40 174 28 40 174 28 40 174 28 40 174 28 40 174 28 40 174 28 40 174 28 40 174 28 40 174 28 40 174 28 40 174 28 40 174 28 40 174 28 40 174 28 40 174 28 40 174 28 40 174 28 40 174 28 40 174 28 40 174 28 40 174 28 40 174 28 40 174 28 40 174 28 40 174 28 40 174 28 40 174 28 40 174 28 40 174 28 40 174 28 40 174 28 40 174 28 40 174 28 40 174 28 40 174 28 40 174 28 40 174 28 40 174 28 40 174 28 40 174 28 40 174 28 40 174 28 40 174 28 40 174 28 40 174 28 40 174 28 40 174 28 40 174 28 40 174 28 40 174 28 40 174 28 40 174 28 40 174 28 40 174 28 40 
174 28 40 174 28 40 174 28 40 174 28 40 174 28 40 174 28 40 174 28 40 174 28 40 174 28 40 174 28 40 174 28 40 174 28 40 174 28 40 174 28 40 174 28 40 174 28 40 174 28 40 174 28 40 174 28 40 174 28 40 174 28 40 174 28 40 174 28 40 174 28 40 174 28 40 174 28 40 174 28 40 174 28 40 174 28 40 174 28 40 174 28 40 174 28 40 174 28 40 174 28 40 174 28 40 174 28 40 174 28 40 174 28 40 174 28 40 174 28 40 174 28 40 174 28 40 174 28 40 174 28 40 174 28 40 174 28 40 174 28 40 174 28 40 174 28 40 174 28 40 174 28 40 174 28 40 174 28 40 174 28 40 174 28 40 174 28 40 174 28 40 174 28 40 174 28 40 174 28 40 174 28 40 174 28 40 174 28 40 174 28 40 174 28 40 174 28 40 174 28 40 174 28 40 174 28 40 174 28 40 174 28 40 174 28 40 174 28 40 174 28 40 174 28 40 174 28 40 174 28 40 174 28 40 174 28 40 174 28 40 174 28 40 174 28 40 174 28 40 174 28 40 174 28 40 174 28 40 174 28 40 174 28 40 174 28 40 174 28 40 174 28 40 174 28 40 174 28 40 174 28 40 174 28 40 174 28 40 174 28 40 174 28 40 174 28 40 174 28 40 174 28 40 174 28 40 174 28 40 174 28 40 174 28 40 174 28 40 174 28 40 174 28 40 174 28 40 174 28 40 174 28 40 174 28 40 174 28 40 174 28 40 174 28 40 174 28 40 174 28 40 174 28 40 174 28 40 174 28 40 174 28 40 174 28 40 174 28 40 174 28 40 174 28 40 174 28 40 174 28 40 174 28 40 174 28 40 174 28 40 174 28 40 174 28 40 174 28 40 174 28 40 174 28 40 174 28 40 174 28 40 174 28 40 174 28 40 174 28 40 174 28 40 174 28 40 174 28 40 174 28 40 174 28 40 174 28 40 174 28 40 174 28 40 174 28 40 174 28 40 174 28 40 174 28 40 174 28 40 174 28 40 174 28 40 174 28 40 174 28 40 174 28 40 174 28 40 174 28 40 174 28 40 174 28 40 174 28 40 174 28 40 174 28 40 174 28 40 174 28 40 174 28 40 174 28 40 174 28 40 174 28 40 174 28 40 174 28 40 174 28 40 174 28 40 174 28 40 174 28 40 174 28 40 174 28 40 174 28 40 174 28 40 174 28 40 174 28 40 174 28 40 174 28 40 174 28 40 174 28 40 174 28 40 174 28 40 174 28 40 174 28 40 174 28 40 174 28 40 174 28 40 174 28 40 174 28 40 174 28 40 174 28 40 174 28 40 174 28 40 174 28 40 174 28 40 174 28 40 174 28 40 174 28 40 174 28 40 174 28 40 174 28 40 174 28 40 174 28 40 174 28 40 174 28 40 174 28 40 174 28 40 174 28 40 174 28 40 174 28 40 174 28 40 174 28 40 174 28 40 174 28 40 174 28 40 174 28 40 174 28 40 174 28 40 174 28 40 174 28 40 174 28 40 174 28 40 174 28 40 174 28 40 174 28 40 174 28 40 174 28 40 174 28 40 174 28 40 174 28 40 174 28 40 174 28 40 174 28 40 174 28 40 174 28 40 174 28 40 174 28 40 174 28 40 174 28 40 174 28 40 174 28 40 174 28 40 174 28 40 174 28 40 174 28 40 174 28 40 174 28 40 174 28 40 174 28 40 174 28 40 174 28 40 174 28 40 174 28 40 174 28 40 174 28 40 174 28 40 174 28 40 174 28 40 174 28 40 174 28 40 174 28 40 174 28 40 174 28 40 174 28 40 174 28 40 174 28 40 174 28 40 174 28 40 174 28 40 174 28 40 174 28 40 174 28 40 174 28 40 174 28 40 174 28 40 174 28 40 174 28 40 174 28 40 174 28 40 174 28 40 174 28 40 174 28 40 174 28 40 174 28 40 174 28 40 174 28 40 174 28 40 174 28 40 174 28 40 174 28 40 174 28 40 174 28 40 174 28 40 
174 28 40 174 28 40 174 28 40 174 28 40 174 28 40 174 28 40 174 28 40 174 28 40 174 28 40 174 28 40 174 28 40 174 28 40 174 28 40 174 28 40 174 28 40 174 28 40 174 28 40 174 28 40 174 28 40 174 28 40 174 28 40 174 28 40 174 28 40 174 28 40 174 28 40 174 28 40 174 28 40 174 28 40 174 28 40 174 28 40 174 28 40 174 28 40 174 28 40 174 28 40 174 28 40 174 28 40 174 28 40 174 28 40 174 28 40 174 28 40 174 28 40 174 28 40 174 28 40 174 28 40 174 28 40 174 28 40 174 28 40 174 28 40 174 28 40 174 28 40 174 28 40 174 28 40 174 28 40 174 28 40 174 28 40 174 28 40 174 28 40 174 28 40 174 28 40 174 28 40 174 28 40 174 28 40 174 28 40 174 28 40 174 28 40 174 28 40 174 28 40 174 28 40 174 28 40 174 28 40 174 28 40 174 28 40 174 28 40 174 28 40 174 28 40 174 28 40 174 28 40 174 28 40 174 28 40 174 28 40 174 28 40 174 28 40 174 28 40 174 28 40 174 28 40 174 28 40 174 28 40 174 28 40 174 28 40 174 28 40 174 28 40 174 28 40 174 28 40 174 28 40 174 28 40 174 28 40 174 28 40 174 28 40 174 28 40 174 28 40 174 28 40 174 28 40 174 28 40 174 28 40 174 28 40 174 28 40 174 28 40 174 28 40 174 28 40 174 28 40 174 28 40 174 28 40 174 28 40 174 28 40 174 28 40 174 28 40 174 28 40 174 28 40 174 28 40 174 28 40 174 28 40 174 28 40 174 28 40 174 28 40 174 28 40 174 28 40 174 28 40 174 28 40 174 28 40 174 28 40 174 28 40 174 28 40 174 28 40 174 28 40 174 28 40 174 28 40 174 28 40 174 28 40 174 28 40 174 28 40 174 28 40 174 28 40 174 28 40 174 28 40 174 28 40 174 28 40 174 28 40 174 28 40 174 28 40 174 28 40 174 28 40 174 28 40 174 28 40 174 28 40 174 28 40 174 28 40 174 28 40 174 28 40 174 28 40 174 28 40 174 28 40 174 28 40 174 28 40 174 28 40 174 28 40 174 28 40 174 28 40 174 28 40 174 28 40 174 28 40 174 28 40 174 28 40 174 28 40 174 28 40 174 28 40 174 28 40 174 28 40 174 28 40 174 28 40 174 28 40 174 28 40 174 28 40 174 28 40 174 28 40 174 28 40 174 28 40 174 28 40 174 28 40 174 28 40 174 28 40 174 28 40 174 28 40 174 28 40 174 28 40 174 28 40 174 28 40 174 28 40 174 28 40 174 28 40 174 28 40 174 28 40 174 28 40 174 28 40 174 28 40 174 28 40 174 28 40 174 28 40 174 28 40 174 28 40 174 28 40 174 28 40 174 28 40 174 28 40 174 28 40 174 28 40 174 28 40 174 28 40 174 28 40 174 28 40 174 28 40 174 28 40 174 28 40 174 28 40 174 28 40 174 28 40 174 28 40 174 28 40 174 28 40 174 28 40 174 28 40 174 28 40 174 28 40 174 28 40 174 28 40 174 28 40 174 28 40 174 28 40 174 28 40 174 28 40 174 28 40 174 28 40 174 28 40 174 28 40 174 28 40 174 28 40 174 28 40 174 28 40 174 28 40 174 28 40 174 28 40 174 28 40 174 28 40 174 28 40 174 28 40 174 28 40 174 28 40 174 28 40 174 28 40 174 28 40 174 28 40 174 28 40 174 28 40 174 28 40 174 28 40 174 28 40 174 28 40 174 28 40 174 28 40 174 28 40 174 28 40 174 28 40 174 28 40 174 28 40 174 28 40 174 28 40 174 28 40 174 28 40 174 28 40 174 28 40 174 28 40 174 28 40 174 28 40 174 28 40 174 28 40 174 28 40 174 28 40 174 28 40 174 28 40 174 28 40 174 28 40 174 28 40 174 28 40 174 28 40 174 28 40 174 28 40 174 28 40 174 28 40 174 28 40 174 28 40 174 28 40 
174 28 40 174 28 40 174 28 40 174 28 40 174 28 40 174 28 40 174 28 40 174 28 40 174 28 40 174 28 40 174 28 40 174 28 40 174 28 40 174 28 40 174 28 40 174 28 40 174 28 40 174 28 40 174 28 40 174 28 40 174 28 40 174 28 40 174 28 40 174 28 40 174 28 40 174 28 40 174 28 40 174 28 40 174 28 40 174 28 40 174 28 40 174 28 40 174 28 40 174 28 40 174 28 40 174 28 40 174 28 40 174 28 40 174 28 40 174 28 40 174 28 40 174 28 40 174 28 40 174 28 40 174 28 40 174 28 40 174 28 40 174 28 40 174 28 40 174 28 40 174 28 40 174 28 40 174 28 40 174 28 40 174 28 40 174 28 40 174 28 40 174 28 40 174 28 40 174 28 40 174 28 40 174 28 40 174 28 40 174 28 40 174 28 40 174 28 40 174 28 40 174 28 40 174 28 40 174 28 40 174 28 40 174 28 40 174 28 40 174 28 40 174 28 40 174 28 40 174 28 40 174 28 40 174 28 40 174 28 40 174 28 40 174 28 40 174 28 40 174 28 40 174 28 40 174 28 40 174 28 40 174 28 40 174 28 40 174 28 40 174 28 40 174 28 40 174 28 40 174 28 40 174 28 40 174 28 40 174 28 40 174 28 40 174 28 40 174 28 40 174 28 40 174 28 40 174 28 40 174 28 40 174 28 40 174 28 40 174 28 40 174 28 40 174 28 40 174 28 40 174 28 40 174 28 40 174 28 40 174 28 40 174 28 40 174 28 40 174 28 40 174 28 40 174 28 40 174 28 40 174 28 40 174 28 40 174 28 40 174 28 40 174 28 40 174 28 40 174 28 40 174 28 40 174 28 40 174 28 40 174 28 40 174 28 40 174 28 40 174 28 40 174 28 40 174 28 40 174 28 40 174 28 40 174 28 40 174 28 40 174 28 40 174 28 40 174 28 40 174 28 40 174 28 40 174 28 40 174 28 40 174 28 40 174 28 40 174 28 40 174 28 40 174 28 40 174 28 40 174 28 40 174 28 40 174 28 40 174 28 40 174 28 40 174 28 40 174 28 40 174 28 40 174 28 40 174 28 40 174 28 40 174 28 40 174 28 40 174 28 40 174 28 40 174 28 40 174 28 40 174 28 40 174 28 40 174 28 40 174 28 40 174 28 40 174 28 40 174 28 40 174 28 40 174 28 40 174 28 40 174 28 40 174 28 40 174 28 40 174 28 40 174 28 40 174 28 40 174 28 40 174 28 40 174 28 40 174 28 40 174 28 40 174 28 40 174 28 40 174 28 40 174 28 40 174 28 40 174 28 40 174 28 40 174 28 40 174 28 40 174 28 40 174 28 40 174 28 40 174 28 40 174 28 40 174 28 40 174 28 40 174 28 40 174 28 40 174 28 40 174 28 40 174 28 40 174 28 40 174 28 40 174 28 40 174 28 40 174 28 40 174 28 40 174 28 40 174 28 40 174 28 40 174 28 40 174 28 40 174 28 40 174 28 40 174 28 40 174 28 40 174 28 40 174 28 40 174 28 40 174 28 40 174 28 40 174 28 40 174 28 40 174 28 40 174 28 40 174 28 40 174 28 40 174 28 40 174 28 40 174 28 40 174 28 40 174 28 40 174 28 40 174 28 40 174 28 40 174 28 40 174 28 40 174 28 40 174 28 40 174 28 40 174 28 40 174 28 40 174 28 40 174 28 40 174 28 40 174 28 40 174 28 40 174 28 40 174 28 40 174 28 40 174 28 40 174 28 40 174 28 40 174 28 40 174 28 40 174 28 40 174 28 40 174 28 40 174 28 40 174 28 40 174 28 40 174 28 40 174 28 40 174 28 40 174 28 40 174 28 40 174 28 40 174 28 40 174 28 40 174 28 40 174 28 40 174 28 40 174 28 40 174 28 40 174 28 40 174 28 40 174 28 40 174 28 40 174 28 40 174 28 40 174 28 40 174 28 40 174 28 40 174 28 40 174 28 40 174 28 40 174 28 40 174 28 40 174 28 40 
174 28 40 174 28 40 174 28 40 174 28 40 174 28 40 174 28 40 174 28 40 174 28 40 174 28 40 174 28 40 174 28 40 174 28 40 174 28 40 174 28 40 174 28 40 174 28 40 174 28 40 174 28 40 174 28 40 174 28 40 174 28 40 174 28 40 174 28 40 174 28 40 174 28 40 174 28 40 174 28 40 174 28 40 174 28 40 174 28 40 174 28 40 174 28 40 174 28 40 174 28 40 174 28 40 174 28 40 174 28 40 174 28 40 174 28 40 174 28 40 174 28 40 174 28 40 174 28 40 174 28 40 174 28 40 174 28 40 174 28 40 174 28 40 174 28 40 174 28 40 174 28 40 174 28 40 174 28 40 174 28 40 174 28 40 174 28 40 174 28 40 174 28 40 174 28 40 174 28 40 174 28 40 174 28 40 174 28 40 174 28 40 174 28 40 174 28 40 174 28 40 174 28 40 174 28 40 174 28 40 174 28 40 174 28 40 174 28 40 174 28 40 174 28 40 174 28 40 174 28 40 174 28 40 174 28 40 174 28 40 174 28 40 174 28 40 174 28 40 174 28 40 174 28 40 174 28 40 174 28 40 174 28 40 174 28 40 174 28 40 174 28 40 174 28 40 174 28 40 174 28 40 174 28 40 174 28 40 174 28 40 174 28 40 174 28 40 174 28 40 174 28 40 174 28 40 174 28 40 174 28 40 174 28 40 174 28 40 174 28 40 174 28 40 174 28 40 174 28 40 174 28 40 174 28 40 174 28 40 174 28 40 174 28 40 174 28 40 174 28 40 174 28 40 174 28 40 174 28 40 174 28 40 174 28 40 174 28 40 174 28 40 174 28 40 174 28 40 174 28 40 174 28 40 174 28 40 174 28 40 174 28 40 174 28 40 174 28 40 174 28 40 174 28 40 174 28 40 174 28 40 174 28 40 174 28 40 174 28 40 174 28 40 174 28 40 174 28 40 174 28 40 174 28 40 174 28 40 174 28 40 174 28 40 174 28 40 174 28 40 174 28 40 174 28 40 174 28 40 174 28 40 174 28 40 174 28 40 174 28 40 174 28 40 174 28 40 174 28 40 174 28 40 174 28 40 174 28 40 174 28 40 174 28 40 174 28 40 174 28 40 174 28 40 174 28 40 174 28 40 174 28 40 174 28 40 174 28 40 174 28 40 174 28 40 174 28 40 174 28 40 174 28 40 174 28 40 174 28 40 174 28 40 174 28 40 174 28 40 174 28 40 174 28 40 174 28 40 174 28 40 174 28 40 174 28 40 174 28 40 174 28 40 174 28 40 174 28 40 174 28 40 174 28 40 174 28 40 174 28 40 174 28 40 174 28 40 174 28 40 174 28 40 174 28 40 174 28 40 174 28 40 174 28 40 174 28 40 174 28 40 174 28 40 174 28 40 174 28 40 174 28 40 174 28 40 174 28 40 174 28 40 174 28 40 174 28 40 174 28 40 174 28 40 174 28 40 174 28 40 174 28 40 174 28 40 174 28 40 174 28 40 174 28 40 174 28 40 174 28 40 174 28 40 174 28 40 174 28 40 174 28 40 174 28 40 174 28 40 174 28 40 174 28 40 174 28 40 174 28 40 174 28 40 174 28 40 174 28 40 174 28 40 174 28 40 174 28 40 174 28 40 174 28 40 174 28 40 174 28 40 174 28 40 174 28 40 174 28 40 174 28 40 174 28 40 174 28 40 174 28 40 174 28 40 174 28 40 174 28 40 174 28 40 174 28 40 174 28 40 174 28 40 174 28 40 174 28 40 174 28 40 174 28 40 174 28 40 174 28 40 174 28 40 174 28 40 174 28 40 174 28 40 174 28 40 174 28 40 174 28 40 174 28 40 174 28 40 174 28 40 174 28 40 174 28 40 174 28 40 174 28 40 174 28 40 174 28 40 174 28 40 174 28 40 174 28 40 174 28 40 174 28 40 174 28 40 174 28 40 174 28 40 174 28 40 174 28 40 174 28 40 174 28 40 174 28 40 174 28 40 174 28 40 174 28 40 174 28 40 
174 28 40 174 28 40 174 28 40 174 28 40 174 28 40 174 28 40 174 28 40 174 28 40 174 28 40 174 28 40 174 28 40 174 28 40 174 28 40 174 28 40 174 28 40 174 28 40 174 28 40 174 28 40 174 28 40 174 28 40 174 28 40 174 28 40 174 28 40 174 28 40 174 28 40 174 28 40 174 28 40 174 28 40 174 28 40 174 28 40 174 28 40 174 28 40 174 28 40 174 28 40 174 28 40 174 28 40 174 28 40 174 28 40 174 28 40 174 28 40 174 28 40 174 28 40 174 28 40 174 28 40 174 28 40 174 28 40 174 28 40 174 28 40 174 28 40 174 28 40 174 28 40 174 28 40 174 28 40 174 28 40 174 28 40 174 28 40 174 28 40 174 28 40 174 28 40 174 28 40 174 28 40 174 28 40 174 28 40 174 28 40 174 28 40 174 28 40 174 28 40 174 28 40 174 28 40 174 28 40 174 28 40 174 28 40 174 28 40 174 28 40 174 28 40 174 28 40 174 28 40 174 28 40 174 28 40 174 28 40 174 28 40 174 28 40 174 28 40 174 28 40 174 28 40 174 28 40 174 28 40 174 28 40 174 28 40 174 28 40 174 28 40 174 28 40 174 28 40 174 28 40 174 28 40 174 28 40 174 28 40 174 28 40 174 28 40 174 28 40 174 28 40 174 28 40 174 28 40 174 28 40 174 28 40 174 28 40 174 28 40 174 28 40 174 28 40 174 28 40 174 28 40 174 28 40 174 28 40 174 28 40 174 28 40 174 28 40 174 28 40 174 28 40 174 28 40 174 28 40 174 28 40 174 28 40 174 28 40 174 28 40 174 28 40 174 28 40 174 28 40 174 28 40 174 28 40 174 28 40 174 28 40 174 28 40 174 28 40 174 28 40 174 28 40 174 28 40 174 28 40 174 28 40 174 28 40 174 28 40 174 28 40 174 28 40 174 28 40 174 28 40 174 28 40 174 28 40 174 28 40 174 28 40 174 28 40 174 28 40 174 28 40 174 28 40 174 28 40 174 28 40 174 28 40 174 28 40 174 28 40 174 28 40 174 28 40 174 28 40 174 28 40 174 28 40 174 28 40 174 28 40 174 28 40 174 28 40 174 28 40 174 28 40 174 28 40 174 28 40 174 28 40 174 28 40 174 28 40 174 28 40 174 28 40 174 28 40 174 28 40 174 28 40 174 28 40 174 28 40 174 28 40 174 28 40 174 28 40 174 28 40 174 28 40 174 28 40 174 28 40 174 28 40 174 28 40 174 28 40 174 28 40 174 28 40 174 28 40 174 28 40 174 28 40 174 28 40 174 28 40 174 28 40 174 28 40 174 28 40 174 28 40 174 28 40 174 28 40 174 28 40 174 28 40 174 28 40 174 28 40 174 28 40 174 28 40 174 28 40 174 28 40 174 28 40 174 28 40 174 28 40 174 28 40 174 28 40 174 28 40 174 28 40 174 28 40 174 28 40 174 28 40 174 28 40 174 28 40 174 28 40 174 28 40 174 28 40 174 28 40 174 28 40 174 28 40 174 28 40 174 28 40 174 28 40 174 28 40 174 28 40 174 28 40 174 28 40 174 28 40 174 28 40 174 28 40 174 28 40 174 28 40 174 28 40 174 28 40 174 28 40 174 28 40 174 28 40 174 28 40 174 28 40 174 28 40 174 28 40 174 28 40 174 28 40 174 28 40 174 28 40 174 28 40 174 28 40 174 28 40 174 28 40 174 28 40 174 28 40 174 28 40 174 28 40 174 28 40 174 28 40 174 28 40 174 28 40 174 28 40 174 28 40 174 28 40 174 28 40 174 28 40 174 28 40 174 28 40 174 28 40 174 28 40 174 28 40 174 28 40 174 28 40 174 28 40 174 28 40 174 28 40 174 28 40 174 28 40 174 28 40 174 28 40 174 28 40 174 28 40 174 28 40 174 28 40 174 28 40 174 28 40 174 28 40 174 28 40 174 28 40 174 28 40 174 28 40 174 28 40 174 28 40 174 28 40 174 28 40 
174 28 40 174 28 40 174 28 40 174 28 40 174 28 40 174 28 40 174 28 40 174 28 40 174 28 40 174 28 40 174 28 40 174 28 40 174 28 40 174 28 40 174 28 40 174 28 40 174 28 40 174 28 40 174 28 40 174 28 40 174 28 40 174 28 40 174 28 40 174 28 40 174 28 40 174 28 40 174 28 40 174 28 40 174 28 40 174 28 40 174 28 40 174 28 40 174 28 40 174 28 40 174 28 40 174 28 40 174 28 40 174 28 40 174 28 40 174 28 40 174 28 40 174 28 40 174 28 40 174 28 40 174 28 40 174 28 40 174 28 40 174 28 40 174 28 40 174 28 40 174 28 40 174 28 40 174 28 40 174 28 40 174 28 40 174 28 40 174 28 40 174 28 40 174 28 40 174 28 40 174 28 40 174 28 40 174 28 40 174 28 40 174 28 40 174 28 40 174 28 40 174 28 40 174 28 40 174 28 40 174 28 40 174 28 40 174 28 40 174 28 40 174 28 40 174 28 40 174 28 40 174 28 40 174 28 40 174 28 40 174 28 40 174 28 40 174 28 40 174 28 40 174 28 40 174 28 40 174 28 40 174 28 40 174 28 40 174 28 40 174 28 40 174 28 40 174 28 40 174 28 40 174 28 40 174 28 40 174 28 40 174 28 40 174 28 40 174 28 40 174 28 40 174 28 40 174 28 40 174 28 40 174 28 40 174 28 40 174 28 40 174 28 40 174 28 40 174 28 40 174 28 40 174 28 40 174 28 40 174 28 40 174 28 40 174 28 40 174 28 40 174 28 40 174 28 40 174 28 40 174 28 40 174 28 40 174 28 40 174 28 40 174 28 40 174 28 40 174 28 40 174 28 40 174 28 40 174 28 40 174 28 40 174 28 40 174 28 40 174 28 40 174 28 40 174 28 40 174 28 40 174 28 40 174 28 40 174 28 40 174 28 40 174 28 40 174 28 40 174 28 40 174 28 40 174 28 40 174 28 40 174 28 40 174 28 40 174 28 40 174 28 40 174 28 40 174 28 40 174 28 40 174 28 40 174 28 40 174 28 40 174 28 40 174 28 40 174 28 40 174 28 40 174 28 40 174 28 40 174 28 40 174 28 40 174 28 40 174 28 40 174 28 40 174 28 40 174 28 40 174 28 40 174 28 40 174 28 40 174 28 40 174 28 40 174 28 40 174 28 40 174 28 40 174 28 40 174 28 40 174 28 40 174 28 40 174 28 40 174 28 40 174 28 40 174 28 40 174 28 40 174 28 40 174 28 40 174 28 40 174 28 40 174 28 40 174 28 40 174 28 40 174 28 40 174 28 40 174 28 40 174 28 40 174 28 40 174 28 40 174 28 40 174 28 40 174 28 40 174 28 40 174 28 40 174 28 40 174 28 40 174 28 40 174 28 40 174 28 40 174 28 40 174 28 40 174 28 40 174 28 40 174 28 40 174 28 40 174 28 40 174 28 40 174 28 40 174 28 40 174 28 40 174 28 40 174 28 40 174 28 40 174 28 40 174 28 40 174 28 40 174 28 40 174 28 40 174 28 40 174 28 40 174 28 40 174 28 40 174 28 40 174 28 40 174 28 40 174 28 40 174 28 40 174 28 40 174 28 40 174 28 40 174 28 40 174 28 40 174 28 40 174 28 40 174 28 40 174 28 40 174 28 40 174 28 40 174 28 40 174 28 40 174 28 40 174 28 40 174 28 40 174 28 40 174 28 40 174 28 40 174 28 40 174 28 40 174 28 40 174 28 40 174 28 40 174 28 40 174 28 40 174 28 40 174 28 40 174 28 40 174 28 40 174 28 40 174 28 40 174 28 40 174 28 40 174 28 40 174 28 40 174 28 40 174 28 40 174 28 40 174 28 40 174 28 40 174 28 40 174 28 40 174 28 40 174 28 40 174 28 40 174 28 40 174 28 40 174 28 40 174 28 40 174 28 40 174 28 40 174 28 40 174 28 40 174 28 40 174 28 40 174 28 40 174 28 40 174 28 40 174 28 40 174 28 40 174 28 40 
174 28 40 174 28 40 174 28 40 174 28 40 174 28 40 174 28 40 174 28 40 174 28 40 174 28 40 174 28 40 174 28 40 174 28 40 174 28 40 174 28 40 174 28 40 174 28 40 174 28 40 174 28 40 174 28 40 174 28 40 174 28 40 174 28 40 174 28 40 174 28 40 174 28 40 174 28 40 174 28 40 174 28 40 174 28 40 174 28 40 174 28 40 174 28 40 174 28 40 174 28 40 174 28 40 174 28 40 174 28 40 174 28 40 174 28 40 174 28 40 174 28 40 174 28 40 174 28 40 174 28 40 174 28 40 174 28 40 174 28 40 174 28 40 174 28 40 174 28 40 174 28 40 174 28 40 174 28 40 174 28 40 174 28 40 174 28 40 174 28 40 174 28 40 174 28 40 174 28 40 174 28 40 174 28 40 174 28 40 174 28 40 174 28 40 174 28 40 174 28 40 174 28 40 174 28 40 174 28 40 174 28 40 174 28 40 174 28 40 174 28 40 174 28 40 174 28 40 174 28 40 174 28 40 174 28 40 174 28 40 174 28 40 174 28 40 174 28 40 174 28 40 174 28 40 174 28 40 174 28 40 174 28 40 174 28 40 174 28 40 174 28 40 174 28 40 174 28 40 174 28 40 174 28 40 174 28 40 174 28 40 174 28 40 174 28 40 174 28 40 174 28 40 174 28 40 174 28 40 174 28 40 174 28 40 174 28 40 174 28 40 174 28 40 174 28 40 174 28 40 174 28 40 174 28 40 174 28 40 174 28 40 174 28 40 174 28 40 174 28 40 174 28 40 174 28 40 174 28 40 174 28 40 174 28 40 174 28 40 174 28 40 174 28 40 174 28 40 174 28 40 174 28 40 174 28 40 174 28 40 174 28 40 174 28 40 174 28 40 174 28 40 174 28 40 174 28 40 174 28 40 174 28 40 174 28 40 174 28 40 174 28 40 174 28 40 174 28 40 174 28 40 174 28 40 174 28 40 174 28 40 174 28 40 174 28 40 174 28 40 174 28 40 174 28 40 174 28 40 174 28 40 174 28 40 174 28 40 174 28 40 174 28 40 174 28 40 174 28 40 174 28 40 174 28 40 174 28 40 174 28 40 174 28 40 174 28 40 174 28 40 174 28 40 174 28 40 174 28 40 174 28 40 174 28 40 174 28 40 174 28 40 174 28 40 174 28 40 174 28 40 174 28 40 174 28 40 174 28 40 174 28 40 174 28 40 174 28 40 174 28 40 174 28 40 174 28 40 174 28 40 174 28 40 174 28 40 174 28 40 174 28 40 174 28 40 174 28 40 174 28 40 174 28 40 174 28 40 174 28 40 174 28 40 174 28 40 174 28 40 174 28 40 174 28 40 174 28 40 174 28 40 174 28 40 174 28 40 174 28 40 174 28 40 174 28 40 174 28 40 174 28 40 174 28 40 174 28 40 174 28 40 174 28 40 174 28 40 174 28 40 174 28 40 174 28 40 174 28 40 174 28 40 174 28 40 174 28 40 174 28 40 174 28 40 174 28 40 174 28 40 174 28 40 174 28 40 174 28 40 174 28 40 174 28 40 174 28 40 174 28 40 174 28 40 174 28 40 174 28 40 174 28 40 174 28 40 174 28 40 174 28 40 174 28 40 174 28 40 174 28 40 174 28 40 174 28 40 174 28 40 174 28 40 174 28 40 174 28 40 174 28 40 174 28 40 174 28 40 174 28 40 174 28 40 174 28 40 174 28 40 174 28 40 174 28 40 174 28 40 174 28 40 174 28 40 174 28 40 174 28 40 174 28 40 174 28 40 174 28 40 174 28 40 174 28 40 174 28 40 174 28 40 174 28 40 174 28 40 174 28 40 174 28 40 174 28 40 174 28 40 174 28 40 174 28 40 174 28 40 174 28 40 174 28 40 174 28 40 174 28 40 174 28 40 174 28 40 174 28 40 174 28 40 174 28 40 174 28 40 174 28 40 174 28 40 174 28 40 174 28 40 174 28 40 174 28 40 174 28 40 174 28 40 174 28 40 174 28 40 
174 28 40 174 28 40 174 28 40 174 28 40 174 28 40 174 28 40 174 28 40 174 28 40 174 28 40 174 28 40 174 28 40 174 28 40 174 28 40 174 28 40 174 28 40 174 28 40 174 28 40 174 28 40 174 28 40 174 28 40 174 28 40 174 28 40 174 28 40 174 28 40 174 28 40 174 28 40 174 28 40 174 28 40 174 28 40 174 28 40 174 28 40 174 28 40 174 28 40 174 28 40 174 28 40 174 28 40 174 28 40 174 28 40 174 28 40 174 28 40 174 28 40 174 28 40 174 28 40 174 28 40 174 28 40 174 28 40 174 28 40 174 28 40 174 28 40 174 28 40 174 28 40 174 28 40 174 28 40 174 28 40 174 28 40 174 28 40 174 28 40 174 28 40 174 28 40 174 28 40 174 28 40 174 28 40 174 28 40 174 28 40 174 28 40 174 28 40 174 28 40 174 28 40 174 28 40 174 28 40 174 28 40 174 28 40 174 28 40 174 28 40 174 28 40 174 28 40 174 28 40 174 28 40 174 28 40 174 28 40 174 28 40 174 28 40 174 28 40 174 28 40 174 28 40 174 28 40 174 28 40 174 28 40 174 28 40 174 28 40 174 28 40 174 28 40 174 28 40 174 28 40 174 28 40 174 28 40 174 28 40 174 28 40 174 28 40 174 28 40 174 28 40 174 28 40 174 28 40 174 28 40 174 28 40 174 28 40 174 28 40 174 28 40 174 28 40 174 28 40 174 28 40 174 28 40 174 28 40 174 28 40 174 28 40 174 28 40 174 28 40 174 28 40 174 28 40 174 28 40 174 28 40 174 28 40 174 28 40 174 28 40 174 28 40 174 28 40 174 28 40 174 28 40 174 28 40 174 28 40 174 28 40 174 28 40 174 28 40 174 28 40 174 28 40 174 28 40 174 28 40 174 28 40 174 28 40 174 28 40 174 28 40 174 28 40 174 28 40 174 28 40 174 28 40 174 28 40 174 28 40 174 28 40 174 28 40 174 28 40 174 28 40 174 28 40 174 28 40 174 28 40 174 28 40 174 28 40 174 28 40 174 28 40 174 28 40 174 28 40 174 28 40 174 28 40 174 28 40 174 28 40 174 28 40 174 28 40 174 28 40 174 28 40 174 28 40 174 28 40 174 28 40 174 28 40 174 28 40 174 28 40 174 28 40 174 28 40 174 28 40 174 28 40 174 28 40 174 28 40 174 28 40 174 28 40 174 28 40 174 28 40 174 28 40 174 28 40 174 28 40 174 28 40 174 28 40 174 28 40 174 28 40 174 28 40 174 28 40 174 28 40 174 28 40 174 28 40 174 28 40 174 28 40 174 28 40 174 28 40 174 28 40 174 28 40 174 28 40 174 28 40 174 28 40 174 28 40 174 28 40 174 28 40 174 28 40 174 28 40 174 28 40 174 28 40 174 28 40 174 28 40 174 28 40 174 28 40 174 28 40 174 28 40 174 28 40 174 28 40 174 28 40 174 28 40 174 28 40 174 28 40 174 28 40 174 28 40 174 28 40 174 28 40 174 28 40 174 28 40 174 28 40 174 28 40 174 28 40 174 28 40 174 28 40 174 28 40 174 28 40 174 28 40 174 28 40 174 28 40 174 28 40 174 28 40 174 28 40 174 28 40 174 28 40 174 28 40 174 28 40 174 28 40 174 28 40 174 28 40 174 28 40 174 28 40 174 28 40 174 28 40 174 28 40 174 28 40 174 28 40 174 28 40 174 28 40 174 28 40 174 28 40 174 28 40 174 28 40 174 28 40 174 28 40 174 28 40 174 28 40 174 28 40 174 28 40 174 28 40 174 28 40 174 28 40 174 28 40 174 28 40 174 28 40 174 28 40 174 28 40 174 28 40 174 28 40 174 28 40 174 28 40 174 28 40 174 28 40 174 28 40 174 28 40 174 28 40 174 28 40 174 28 40 174 28 40 174 28 40 174 28 40 174 28 40 174 28 40 174 28 40 174 28 40 174 28 40 174 28 40 174 28 40 174 28 40 174 28 40 
174 28 40 174 28 40 174 28 40 174 28 40 174 28 40 174 28 40 174 28 40 174 28 40 174 28 40 174 28 40 174 28 40 174 28 40 174 28 40 174 28 40 174 28 40 174 28 40 174 28 40 174 28 40 174 28 40 174 28 40 174 28 40 174 28 40 174 28 40 174 28 40 174 28 40 174 28 40 174 28 40 174 28 40 174 28 40 174 28 40 174 28 40 174 28 40 174 28 40 174 28 40 174 28 40 174 28 40 174 28 40 174 28 40 174 28 40 174 28 40 174 28 40 174 28 40 174 28 40 174 28 40 174 28 40 174 28 40 174 28 40 174 28 40 174 28 40 174 28 40 174 28 40 174 28 40 174 28 40 174 28 40 174 28 40 174 28 40 174 28 40 174 28 40 174 28 40 174 28 40 174 28 40 174 28 40 174 28 40 174 28 40 174 28 40 174 28 40 174 28 40 174 28 40 174 28 40 174 28 40 174 28 40 174 28 40 174 28 40 174 28 40 174 28 40 174 28 40 174 28 40 174 28 40 174 28 40 174 28 40 174 28 40 174 28 40 174 28 40 174 28 40 174 28 40 174 28 40 174 28 40 174 28 40 174 28 40 174 28 40 174 28 40 174 28 40 174 28 40 174 28 40 174 28 40 174 28 40 174 28 40 174 28 40 174 28 40 174 28 40 174 28 40 174 28 40 174 28 40 174 28 40 174 28 40 174 28 40 174 28 40 174 28 40 174 28 40 174 28 40 174 28 40 174 28 40 174 28 40 174 28 40 174 28 40 174 28 40 174 28 40 174 28 40 174 28 40 174 28 40 174 28 40 174 28 40 174 28 40 174 28 40 174 28 40 174 28 40 174 28 40 174 28 40 174 28 40 174 28 40 174 28 40 174 28 40 174 28 40 174 28 40 174 28 40 174 28 40 174 28 40 174 28 40 174 28 40 174 28 40 174 28 40 174 28 40 174 28 40 174 28 40 174 28 40 174 28 40 174 28 40 174 28 40 174 28 40 174 28 40 174 28 40 174 28 40 174 28 40 174 28 40 174 28 40 174 28 40 174 28 40 174 28 40 174 28 40 174 28 40 174 28 40 174 28 40 174 28 40 174 28 40 174 28 40 174 28 40 174 28 40 174 28 40 174 28 40 174 28 40 174 28 40 174 28 40 174 28 40 174 28 40 174 28 40 174 28 40 174 28 40 174 28 40 174 28 40 174 28 40 174 28 40 174 28 40 174 28 40 174 28 40 174 28 40 174 28 40 174 28 40 174 28 40 174 28 40 174 28 40 174 28 40 174 28 40 174 28 40 174 28 40 174 28 40 174 28 40 174 28 40 174 28 40 174 28 40 174 28 40 174 28 40 174 28 40 174 28 40 174 28 40 174 28 40 174 28 40 174 28 40 174 28 40 174 28 40 174 28 40 174 28 40 174 28 40 174 28 40 174 28 40 174 28 40 174 28 40 174 28 40 174 28 40 174 28 40 174 28 40 174 28 40 174 28 40 174 28 40 174 28 40 174 28 40 174 28 40 174 28 40 174 28 40 174 28 40 174 28 40 174 28 40 174 28 40 174 28 40 174 28 40 174 28 40 174 28 40 174 28 40 174 28 40 174 28 40 174 28 40 174 28 40 174 28 40 174 28 40 174 28 40 174 28 40 174 28 40 174 28 40 174 28 40 174 28 40 174 28 40 174 28 40 174 28 40 174 28 40 174 28 40 174 28 40 174 28 40 174 28 40 174 28 40 174 28 40 174 28 40 174 28 40 174 28 40 174 28 40 174 28 40 174 28 40 174 28 40 174 28 40 174 28 40 174 28 40 174 28 40 174 28 40 174 28 40 174 28 40 174 28 40 174 28 40 174 28 40 174 28 40 174 28 40 174 28 40 174 28 40 174 28 40 174 28 40 174 28 40 174 28 40 174 28 40 174 28 40 174 28 40 174 28 40 174 28 40 174 28 40 174 28 40 174 28 40 174 28 40 174 28 40 174 28 40 174 28 40 174 28 40 174 28 40 174 28 40 174 28 40 
174 28 40 174 28 40 174 28 40 174 28 40 174 28 40 174 28 40 174 28 40 174 28 40 174 28 40 174 28 40 174 28 40 174 28 40 174 28 40 174 28 40 174 28 40 174 28 40 174 28 40 174 28 40 174 28 40 174 28 40 174 28 40 174 28 40 174 28 40 174 28 40 174 28 40 174 28 40 174 28 40 174 28 40 174 28 40 174 28 40 174 28 40 174 28 40 174 28 40 174 28 40 174 28 40 174 28 40 174 28 40 174 28 40 174 28 40 174 28 40 174 28 40 174 28 40 174 28 40 174 28 40 174 28 40 174 28 40 174 28 40 174 28 40 174 28 40 174 28 40 174 28 40 174 28 40 174 28 40 174 28 40 174 28 40 174 28 40 174 28 40 174 28 40 174 28 40 174 28 40 174 28 40 174 28 40 174 28 40 174 28 40 174 28 40 174 28 40 174 28 40 174 28 40 174 28 40 174 28 40 174 28 40 174 28 40 174 28 40 174 28 40 174 28 40 174 28 40 174 28 40 174 28 40 174 28 40 174 28 40 174 28 40 174 28 40 174 28 40 174 28 40 174 28 40 174 28 40 174 28 40 174 28 40 174 28 40 174 28 40 174 28 40 174 28 40 174 28 40 174 28 40 174 28 40 174 28 40 174 28 40 174 28 40 174 28 40 174 28 40 174 28 40 174 28 40 174 28 40 174 28 40 174 28 40 174 28 40 174 28 40 174 28 40 174 28 40 174 28 40 174 28 40 174 28 40 174 28 40 174 28 40 174 28 40 174 28 40 174 28 40 174 28 40 174 28 40 174 28 40 174 28 40 174 28 40 174 28 40 174 28 40 174 28 40 174 28 40 174 28 40 174 28 40 174 28 40 174 28 40 174 28 40 174 28 40 174 28 40 174 28 40 174 28 40 174 28 40 174 28 40 174 28 40 174 28 40 174 28 40 174 28 40 174 28 40 174 28 40 174 28 40 174 28 40 174 28 40 174 28 40 174 28 40 174 28 40 174 28 40 174 28 40 174 28 40 174 28 40 174 28 40 174 28 40 174 28 40 174 28 40 174 28 40 174 28 40 174 28 40 174 28 40 174 28 40 174 28 40 174 28 40 174 28 40 174 28 40 174 28 40 174 28 40 174 28 40 174 28 40 174 28 40 174 28 40 174 28 40 174 28 40 174 28 40 174 28 40 174 28 40 174 28 40 174 28 40 174 28 40 174 28 40 174 28 40 174 28 40 174 28 40 174 28 40 174 28 40 174 28 40 174 28 40 174 28 40 174 28 40 174 28 40 174 28 40 174 28 40 174 28 40 174 28 40 174 28 40 174 28 40 174 28 40 174 28 40 174 28 40 174 28 40 174 28 40 174 28 40 174 28 40 174 28 40 174 28 40 174 28 40 174 28 40 174 28 40 174 28 40 174 28 40 174 28 40 174 28 40 174 28 40 174 28 40 174 28 40 174 28 40 174 28 40 174 28 40 174 28 40 174 28 40 174 28 40 174 28 40 174 28 40 174 28 40 174 28 40 174 28 40 174 28 40 174 28 40 174 28 40 174 28 40 174 28 40 174 28 40 174 28 40 174 28 40 174 28 40 174 28 40 174 28 40 174 28 40 174 28 40 174 28 40 174 28 40 174 28 40 174 28 40 174 28 40 174 28 40 174 28 40 174 28 40 174 28 40 174 28 40 174 28 40 174 28 40 174 28 40 174 28 40 174 28 40 174 28 40 174 28 40 174 28 40 174 28 40 174 28 40 174 28 40 174 28 40 174 28 40 174 28 40 174 28 40 174 28 40 174 28 40 174 28 40 174 28 40 174 28 40 174 28 40 174 28 40 174 28 40 174 28 40 174 28 40 174 28 40 174 28 40 174 28 40 174 28 40 174 28 40 174 28 40 174 28 40 174 28 40 174 28 40 174 28 40 174 28 40 174 28 40 174 28 40 174 28 40 174 28 40 174 28 40 174 28 40 174 28 40 174 28 40 174 28 40 174 28 40 174 28 40 174 28 40 174 28 40 174 28 40 
174 28 40 174 28 40 174 28 40 174 28 40 174 28 40 174 28 40 174 28 40 174 28 40 174 28 40 174 28 40 174 28 40 174 28 40 174 28 40 174 28 40 174 28 40 174 28 40 174 28 40 174 28 40 174 28 40 174 28 40 174 28 40 174 28 40 174 28 40 174 28 40 174 28 40 174 28 40 174 28 40 174 28 40 174 28 40 174 28 40 174 28 40 174 28 40 174 28 40 174 28 40 174 28 40 174 28 40 174 28 40 174 28 40 174 28 40 174 28 40 174 28 40 174 28 40 174 28 40 174 28 40 174 28 40 174 28 40 174 28 40 174 28 40 174 28 40 174 28 40 174 28 40 174 28 40 174 28 40 174 28 40 174 28 40 174 28 40 174 28 40 174 28 40 174 28 40 174 28 40 174 28 40 174 28 40 174 28 40 174 28 40 174 28 40 174 28 40 174 28 40 174 28 40 174 28 40 174 28 40 174 28 40 174 28 40 174 28 40 174 28 40 174 28 40 174 28 40 174 28 40 174 28 40 174 28 40 174 28 40 174 28 40 174 28 40 174 28 40 174 28 40 174 28 40 174 28 40 174 28 40 174 28 40 174 28 40 174 28 40 174 28 40 174 28 40 174 28 40 174 28 40 174 28 40 174 28 40 174 28 40 174 28 40 174 28 40 174 28 40 174 28 40 174 28 40 174 28 40 174 28 40 174 28 40 174 28 40 174 28 40 174 28 40 174 28 40 174 28 40 174 28 40 174 28 40 174 28 40 174 28 40 174 28 40 174 28 40 174 28 40 174 28 40 174 28 40 174 28 40 174 28 40 174 28 40 174 28 40 174 28 40 174 28 40 174 28 40 174 28 40 174 28 40 174 28 40 174 28 40 174 28 40 174 28 40 174 28 40 174 28 40 174 28 40 174 28 40 174 28 40 174 28 40 174 28 40 174 28 40 174 28 40 174 28 40 174 28 40 174 28 40 174 28 40 174 28 40 174 28 40 174 28 40 174 28 40 174 28 40 174 28 40 174 28 40 174 28 40 174 28 40 174 28 40 174 28 40 174 28 40 174 28 40 174 28 40 174 28 40 174 28 40 174 28 40 174 28 40 174 28 40 174 28 40 174 28 40 174 28 40 174 28 40 174 28 40 174 28 40 174 28 40 174 28 40 174 28 40 174 28 40 174 28 40 174 28 40 174 28 40 174 28 40 174 28 40 174 28 40 174 28 40 174 28 40 174 28 40 174 28 40 174 28 40 174 28 40 174 28 40 174 28 40 174 28 40 174 28 40 174 28 40 174 28 40 174 28 40 174 28 40 174 28 40 174 28 40 174 28 40 174 28 40 174 28 40 174 28 40 174 28 40 174 28 40 174 28 40 174 28 40 174 28 40 174 28 40 174 28 40 174 28 40 174 28 40 174 28 40 174 28 40 174 28 40 174 28 40 174 28 40 174 28 40 174 28 40 174 28 40 174 28 40 174 28 40 174 28 40 174 28 40 174 28 40 174 28 40 174 28 40 174 28 40 174 28 40 174 28 40 174 28 40 174 28 40 174 28 40 174 28 40 174 28 40 174 28 40 174 28 40 174 28 40 174 28 40 174 28 40 174 28 40 174 28 40 174 28 40 174 28 40 174 28 40 174 28 40 174 28 40 174 28 40 174 28 40 174 28 40 174 28 40 174 28 40 174 28 40 174 28 40 174 28 40 174 28 40 174 28 40 174 28 40 174 28 40 174 28 40 174 28 40 174 28 40 174 28 40 174 28 40 174 28 40 174 28 40 174 28 40 174 28 40 174 28 40 174 28 40 174 28 40 174 28 40 174 28 40 174 28 40 174 28 40 174 28 40 174 28 40 174 28 40 174 28 40 174 28 40 174 28 40 174 28 40 174 28 40 174 28 40 174 28 40 174 28 40 174 28 40 174 28 40 174 28 40 174 28 40 174 28 40 174 28 40 174 28 40 174 28 40 174 28 40 174 28 40 174 28 40 174 28 40 174 28 40 174 28 40 174 28 40 174 28 40 174 28 40 
174 28 40 174 28 40 174 28 40 174 28 40 174 28 40 174 28 40 174 28 40 174 28 40 174 28 40 174 28 40 174 28 40 174 28 40 174 28 40 174 28 40 174 28 40 174 28 40 174 28 40 174 28 40 174 28 40 174 28 40 174 28 40 174 28 40 174 28 40 174 28 40 174 28 40 174 28 40 174 28 40 174 28 40 174 28 40 174 28 40 174 28 40 174 28 40 174 28 40 174 28 40 174 28 40 174 28 40 174 28 40 174 28 40 174 28 40 174 28 40 174 28 40 174 28 40 174 28 40 174 28 40 174 28 40 174 28 40 174 28 40 174 28 40 174 28 40 174 28 40 174 28 40 174 28 40 174 28 40 174 28 40 174 28 40 174 28 40 174 28 40 174 28 40 174 28 40 174 28 40 174 28 40 174 28 40 174 28 40 174 28 40 174 28 40 174 28 40 174 28 40 174 28 40 174 28 40 174 28 40 174 28 40 174 28 40 174 28 40 174 28 40 174 28 40 174 28 40 174 28 40 174 28 40 174 28 40 174 28 40 174 28 40 174 28 40 174 28 40 174 28 40 174 28 40 174 28 40 174 28 40 174 28 40 174 28 40 174 28 40 174 28 40 174 28 40 174 28 40 174 28 40 174 28 40 174 28 40 174 28 40 174 28 40 174 28 40 174 28 40 174 28 40 174 28 40 174 28 40 174 28 40 174 28 40 174 28 40 174 28 40 174 28 40 174 28 40 174 28 40 174 28 40 174 28 40 174 28 40 174 28 40 174 28 40 174 28 40 174 28 40 174 28 40 174 28 40 174 28 40 174 28 40 174 28 40 174 28 40 174 28 40 174 28 40 174 28 40 174 28 40 174 28 40 174 28 40 174 28 40 174 28 40 174 28 40 174 28 40 174 28 40 174 28 40 174 28 40 174 28 40 174 28 40 174 28 40 174 28 40 174 28 40 174 28 40 174 28 40 174 28 40 174 28 40 174 28 40 174 28 40 174 28 40 174 28 40 174 28 40 174 28 40 174 28 40 174 28 40 174 28 40 174 28 40 174 28 40 174 28 40 174 28 40 174 28 40 174 28 40 174 28 40 174 28 40 174 28 40 174 28 40 174 28 40 174 28 40 174 28 40 174 28 40 174 28 40 174 28 40 174 28 40 174 28 40 174 28 40 174 28 40 174 28 40 174 28 40 174 28 40 174 28 40 174 28 40 174 28 40 174 28 40 174 28 40 174 28 40 174 28 40 174 28 40 174 28 40 174 28 40 174 28 40 174 28 40 174 28 40 174 28 40 174 28 40 174 28 40 174 28 40 174 28 40 174 28 40 174 28 40 174 28 40 174 28 40 174 28 40 174 28 40 174 28 40 174 28 40 174 28 40 174 28 40 174 28 40 174 28 40 174 28 40 174 28 40 174 28 40 174 28 40 174 28 40 174 28 40 174 28 40 174 28 40 174 28 40 174 28 40 174 28 40 174 28 40 174 28 40 174 28 40 174 28 40 174 28 40 174 28 40 174 28 40 174 28 40 174 28 40 174 28 40 174 28 40 174 28 40 174 28 40 174 28 40 174 28 40 174 28 40 174 28 40 174 28 40 174 28 40 174 28 40 174 28 40 174 28 40 174 28 40 174 28 40 174 28 40 174 28 40 174 28 40 174 28 40 174 28 40 174 28 40 174 28 40 174 28 40 174 28 40 174 28 40 174 28 40 174 28 40 174 28 40 174 28 40 174 28 40 174 28 40 174 28 40 174 28 40 174 28 40 174 28 40 174 28 40 174 28 40 174 28 40 174 28 40 174 28 40 174 28 40 174 28 40 174 28 40 174 28 40 174 28 40 174 28 40 174 28 40 174 28 40 174 28 40 174 28 40 174 28 40 174 28 40 174 28 40 174 28 40 174 28 40 174 28 40 174 28 40 174 28 40 174 28 40 174 28 40 174 28 40 174 28 40 174 28 40 174 28 40 174 28 40 174 28 40 174 28 40 174 28 40 174 28 40 174 28 40 174 28 40 174 28 40 174 28 40 
174 28 40 174 28 40 174 28 40 174 28 40 174 28 40 174 28 40 174 28 40 174 28 40 174 28 40 174 28 40 174 28 40 174 28 40 174 28 40 174 28 40 174 28 40 174 28 40 174 28 40 174 28 40 174 28 40 174 28 40 174 28 40 174 28 40 174 28 40 174 28 40 174 28 40 174 28 40 174 28 40 174 28 40 174 28 40 174 28 40 174 28 40 174 28 40 174 28 40 174 28 40 174 28 40 174 28 40 174 28 40 174 28 40 174 28 40 174 28 40 174 28 40 174 28 40 174 28 40 174 28 40 174 28 40 174 28 40 174 28 40 174 28 40 174 28 40 174 28 40 174 28 40 174 28 40 174 28 40 174 28 40 174 28 40 174 28 40 174 28 40 174 28 40 174 28 40 174 28 40 174 28 40 174 28 40 174 28 40 174 28 40 174 28 40 174 28 40 174 28 40 174 28 40 174 28 40 174 28 40 174 28 40 174 28 40 174 28 40 174 28 40 174 28 40 174 28 40 174 28 40 174 28 40 174 28 40 174 28 40 174 28 40 174 28 40 174 28 40 174 28 40 174 28 40 174 28 40 174 28 40 174 28 40 174 28 40 174 28 40 174 28 40 174 28 40 174 28 40 174 28 40 174 28 40 174 28 40 174 28 40 174 28 40 174 28 40 174 28 40 174 28 40 174 28 40 174 28 40 174 28 40 174 28 40 174 28 40 174 28 40 174 28 40 174 28 40 174 28 40 174 28 40 174 28 40 174 28 40 174 28 40 174 28 40 174 28 40 174 28 40 174 28 40 174 28 40 174 28 40 174 28 40 174 28 40 174 28 40 174 28 40 174 28 40 174 28 40 174 28 40 174 28 40 174 28 40 174 28 40 174 28 40 174 28 40 174 28 40 174 28 40 174 28 40 174 28 40 174 28 40 174 28 40 174 28 40 174 28 40 174 28 40 174 28 40 174 28 40 174 28 40 174 28 40 174 28 40 174 28 40 174 28 40 174 28 40 174 28 40 174 28 40 174 28 40 174 28 40 174 28 40 174 28 40 174 28 40 174 28 40 174 28 40 174 28 40 174 28 40 174 28 40 174 28 40 174 28 40 174 28 40 174 28 40 174 28 40 174 28 40 174 28 40 174 28 40 174 28 40 174 28 40 174 28 40 174 28 40 174 28 40 174 28 40 174 28 40 174 28 40 174 28 40 174 28 40 174 28 40 174 28 40 174 28 40 174 28 40 174 28 40 174 28 40 174 28 40 174 28 40 174 28 40 174 28 40 174 28 40 174 28 40 174 28 40 174 28 40 174 28 40 174 28 40 174 28 40 174 28 40 174 28 40 174 28 40 174 28 40 174 28 40 174 28 40 174 28 40 174 28 40 174 28 40 174 28 40 174 28 40 174 28 40 174 28 40 174 28 40 174 28 40 174 28 40 174 28 40 174 28 40 174 28 40 174 28 40 174 28 40 174 28 40 174 28 40 174 28 40 174 28 40 174 28 40 174 28 40 174 28 40 174 28 40 174 28 40 174 28 40 174 28 40 174 28 40 174 28 40 174 28 40 174 28 40 174 28 40 174 28 40 174 28 40 174 28 40 174 28 40 174 28 40 174 28 40 174 28 40 174 28 40 174 28 40 174 28 40 174 28 40 174 28 40 174 28 40 174 28 40 174 28 40 174 28 40 174 28 40 174 28 40 174 28 40 174 28 40 174 28 40 174 28 40 174 28 40 174 28 40 174 28 40 174 28 40 174 28 40 174 28 40 174 28 40 174 28 40 174 28 40 174 28 40 174 28 40 174 28 40 174 28 40 174 28 40 174 28 40 174 28 40 174 28 40 174 28 40 174 28 40 174 28 40 174 28 40 174 28 40 174 28 40 174 28 40 174 28 40 174 28 40 174 28 40 174 28 40 174 28 40 174 28 40 174 28 40 174 28 40 174 28 40 174 28 40 174 28 40 174 28 40 174 28 40 174 28 40 174 28 40 174 28 40 174 28 40 174 28 40 174 28 40 174 28 40 174 28 40 
174 28 40 174 28 40 174 28 40 174 28 40 174 28 40 174 28 40 174 28 40 174 28 40 174 28 40 174 28 40 174 28 40 174 28 40 174 28 40 174 28 40 174 28 40 174 28 40 174 28 40 174 28 40 174 28 40 174 28 40 174 28 40 174 28 40 174 28 40 174 28 40 174 28 40 174 28 40 174 28 40 174 28 40 174 28 40 174 28 40 174 28 40 174 28 40 174 28 40 174 28 40 174 28 40 174 28 40 174 28 40 174 28 40 174 28 40 174 28 40 174 28 40 174 28 40 174 28 40 174 28 40 174 28 40 174 28 40 174 28 40 174 28 40 174 28 40 174 28 40 174 28 40 174 28 40 174 28 40 174 28 40 174 28 40 174 28 40 174 28 40 174 28 40 174 28 40 174 28 40 174 28 40 174 28 40 174 28 40 174 28 40 174 28 40 174 28 40 174 28 40 174 28 40 174 28 40 174 28 40 174 28 40 174 28 40 174 28 40 174 28 40 174 28 40 174 28 40 174 28 40 174 28 40 174 28 40 174 28 40 174 28 40 174 28 40 174 28 40 174 28 40 174 28 40 174 28 40 174 28 40 174 28 40 174 28 40 174 28 40 174 28 40 174 28 40 174 28 40 174 28 40 174 28 40 174 28 40 174 28 40 174 28 40 174 28 40 174 28 40 174 28 40 174 28 40 174 28 40 174 28 40 174 28 40 174 28 40 174 28 40 174 28 40 174 28 40 174 28 40 174 28 40 174 28 40 174 28 40 174 28 40 174 28 40 174 28 40 174 28 40 174 28 40 174 28 40 174 28 40 174 28 40 174 28 40 174 28 40 174 28 40 174 28 40 174 28 40 174 28 40 174 28 40 174 28 40 174 28 40 174 28 40 174 28 40 174 28 40 174 28 40 174 28 40 174 28 40 174 28 40 174 28 40 174 28 40 174 28 40 174 28 40 174 28 40 174 28 40 174 28 40 174 28 40 174 28 40 174 28 40 174 28 40 174 28 40 174 28 40 174 28 40 174 28 40 174 28 40 174 28 40 174 28 40 174 28 40 174 28 40 174 28 40 174 28 40 174 28 40 174 28 40 174 28 40 174 28 40 174 28 40 174 28 40 174 28 40 174 28 40 174 28 40 174 28 40 174 28 40 174 28 40 174 28 40 174 28 40 174 28 40 174 28 40 174 28 40 174 28 40 174 28 40 174 28 40 174 28 40 174 28 40 174 28 40 174 28 40 174 28 40 174 28 40 174 28 40 174 28 40 174 28 40 174 28 40 174 28 40 174 28 40 174 28 40 174 28 40 174 28 40 174 28 40 174 28 40 174 28 40 174 28 40 174 28 40 174 28 40 174 28 40 174 28 40 174 28 40 174 28 40 174 28 40 174 28 40 174 28 40 174 28 40 174 28 40 174 28 40 174 28 40 174 28 40 174 28 40 174 28 40 174 28 40 174 28 40 174 28 40 174 28 40 174 28 40 174 28 40 174 28 40 174 28 40 174 28 40 174 28 40 174 28 40 174 28 40 174 28 40 174 28 40 174 28 40 174 28 40 174 28 40 174 28 40 174 28 40 174 28 40 174 28 40 174 28 40 174 28 40 174 28 40 174 28 40 174 28 40 174 28 40 174 28 40 174 28 40 174 28 40 174 28 40 174 28 40 174 28 40 174 28 40 174 28 40 174 28 40 174 28 40 174 28 40 174 28 40 174 28 40 174 28 40 174 28 40 174 28 40 174 28 40 174 28 40 174 28 40 174 28 40 174 28 40 174 28 40 174 28 40 174 28 40 174 28 40 174 28 40 174 28 40 174 28 40 174 28 40 174 28 40 174 28 40 174 28 40 174 28 40 174 28 40 174 28 40 174 28 40 174 28 40 174 28 40 174 28 40 174 28 40 174 28 40 174 28 40 174 28 40 174 28 40 174 28 40 174 28 40 174 28 40 174 28 40 174 28 40 174 28 40 174 28 40 174 28 40 174 28 40 174 28 40 174 28 40 174 28 40 174 28 40 174 28 40 174 28 40 
174 28 40 174 28 40 174 28 40 174 28 40 174 28 40 174 28 40 174 28 40 174 28 40 174 28 40 174 28 40 174 28 40 174 28 40 174 28 40 174 28 40 174 28 40 174 28 40 174 28 40 174 28 40 174 28 40 174 28 40 174 28 40 174 28 40 174 28 40 174 28 40 174 28 40 174 28 40 174 28 40 174 28 40 174 28 40 174 28 40 174 28 40 174 28 40 174 28 40 174 28 40 174 28 40 174 28 40 174 28 40 174 28 40 174 28 40 174 28 40 174 28 40 174 28 40 174 28 40 174 28 40 174 28 40 174 28 40 174 28 40 174 28 40 174 28 40 174 28 40 174 28 40 174 28 40 174 28 40 174 28 40 174 28 40 174 28 40 174 28 40 174 28 40 174 28 40 174 28 40 174 28 40 174 28 40 174 28 40 174 28 40 174 28 40 174 28 40 174 28 40 174 28 40 174 28 40 174 28 40 174 28 40 174 28 40 174 28 40 174 28 40 174 28 40 174 28 40 174 28 40 174 28 40 174 28 40 174 28 40 174 28 40 174 28 40 174 28 40 174 28 40 174 28 40 174 28 40 174 28 40 174 28 40 174 28 40 174 28 40 174 28 40 174 28 40 174 28 40 174 28 40 174 28 40 174 28 40 174 28 40 174 28 40 174 28 40 174 28 40 174 28 40 174 28 40 174 28 40 174 28 40 174 28 40 174 28 40 174 28 40 174 28 40 174 28 40 174 28 40 174 28 40 174 28 40 174 28 40 174 28 40 174 28 40 174 28 40 174 28 40 174 28 40 174 28 40 174 28 40 174 28 40 174 28 40 174 28 40 174 28 40 174 28 40 174 28 40 174 28 40 174 28 40 174 28 40 174 28 40 174 28 40 174 28 40 174 28 40 174 28 40 174 28 40 174 28 40 174 28 40 174 28 40 174 28 40 174 28 40 174 28 40 174 28 40 174 28 40 174 28 40 174 28 40 174 28 40 174 28 40 174 28 40 174 28 40 174 28 40 174 28 40 174 28 40 174 28 40 174 28 40 174 28 40 174 28 40 174 28 40 174 28 40 174 28 40 174 28 40 174 28 40 174 28 40 174 28 40 174 28 40 174 28 40 174 28 40 174 28 40 174 28 40 174 28 40 174 28 40 174 28 40 174 28 40 174 28 40 174 28 40 174 28 40 174 28 40 174 28 40 174 28 40 174 28 40 174 28 40 174 28 40 174 28 40 174 28 40 174 28 40 174 28 40 174 28 40 174 28 40 174 28 40 174 28 40 174 28 40 174 28 40 174 28 40 174 28 40 174 28 40 174 28 40 174 28 40 174 28 40 174 28 40 174 28 40 174 28 40 174 28 40 174 28 40 174 28 40 174 28 40 174 28 40 174 28 40 174 28 40 174 28 40 174 28 40 174 28 40 174 28 40 174 28 40 174 28 40 174 28 40 174 28 40 174 28 40 174 28 40 174 28 40 174 28 40 174 28 40 174 28 40 174 28 40 174 28 40 174 28 40 174 28 40 174 28 40 174 28 40 174 28 40 174 28 40 174 28 40 174 28 40 174 28 40 174 28 40 174 28 40 174 28 40 174 28 40 174 28 40 174 28 40 174 28 40 174 28 40 174 28 40 174 28 40 174 28 40 174 28 40 174 28 40 174 28 40 174 28 40 174 28 40 174 28 40 174 28 40 174 28 40 174 28 40 174 28 40 174 28 40 174 28 40 174 28 40 174 28 40 174 28 40 174 28 40 174 28 40 174 28 40 174 28 40 174 28 40 174 28 40 174 28 40 174 28 40 174 28 40 174 28 40 174 28 40 174 28 40 174 28 40 174 28 40 174 28 40 174 28 40 174 28 40 174 28 40 174 28 40 174 28 40 174 28 40 174 28 40 174 28 40 174 28 40 174 28 40 174 28 40 174 28 40 174 28 40 174 28 40 174 28 40 174 28 40 174 28 40 174 28 40 174 28 40 174 28 40 174 28 40 174 28 40 174 28 40 174 28 40 174 28 40 174 28 40 174 28 40 
174 28 40 174 28 40 174 28 40 174 28 40 174 28 40 174 28 40 174 28 40 174 28 40 174 28 40 174 28 40 174 28 40 174 28 40 174 28 40 174 28 40 174 28 40 174 28 40 174 28 40 174 28 40 174 28 40 174 28 40 174 28 40 174 28 40 174 28 40 174 28 40 174 28 40 174 28 40 174 28 40 174 28 40 174 28 40 174 28 40 174 28 40 174 28 40 174 28 40 174 28 40 174 28 40 174 28 40 174 28 40 174 28 40 174 28 40 174 28 40 174 28 40 174 28 40 174 28 40 174 28 40 174 28 40 174 28 40 174 28 40 174 28 40 174 28 40 174 28 40 174 28 40 174 28 40 174 28 40 174 28 40 174 28 40 174 28 40 174 28 40 174 28 40 174 28 40 174 28 40 174 28 40 174 28 40 174 28 40 174 28 40 174 28 40 174 28 40 174 28 40 174 28 40 174 28 40 174 28 40 174 28 40 174 28 40 174 28 40 174 28 40 174 28 40 174 28 40 174 28 40 174 28 40 174 28 40 174 28 40 174 28 40 174 28 40 174 28 40 174 28 40 174 28 40 174 28 40 174 28 40 174 28 40 174 28 40 174 28 40 174 28 40 174 28 40 174 28 40 174 28 40 174 28 40 174 28 40 174 28 40 174 28 40 174 28 40 174 28 40 174 28 40 174 28 40 174 28 40 174 28 40 174 28 40 174 28 40 174 28 40 174 28 40 174 28 40 174 28 40 174 28 40 174 28 40 174 28 40 174 28 40 174 28 40 174 28 40 174 28 40 174 28 40 174 28 40 174 28 40 174 28 40 174 28 40 174 28 40 174 28 40 174 28 40 174 28 40 174 28 40 174 28 40 174 28 40 174 28 40 174 28 40 174 28 40 174 28 40 174 28 40 174 28 40 174 28 40 174 28 40 174 28 40 174 28 40 174 28 40 174 28 40 174 28 40 174 28 40 174 28 40 174 28 40 174 28 40 174 28 40 174 28 40 174 28 40 174 28 40 174 28 40 174 28 40 174 28 40 174 28 40 174 28 40 174 28 40 174 28 40 174 28 40 174 28 40 174 28 40 174 28 40 174 28 40 174 28 40 174 28 40 174 28 40 174 28 40 174 28 40 174 28 40 174 28 40 174 28 40 174 28 40 174 28 40 174 28 40 174 28 40 174 28 40 174 28 40 174 28 40 174 28 40 174 28 40 174 28 40 174 28 40 174 28 40 174 28 40 174 28 40 174 28 40 174 28 40 174 28 40 174 28 40 174 28 40 174 28 40 174 28 40 174 28 40 174 28 40 174 28 40 174 28 40 174 28 40 174 28 40 174 28 40 174 28 40 174 28 40 174 28 40 174 28 40 174 28 40 174 28 40 174 28 40 174 28 40 174 28 40 174 28 40 174 28 40 174 28 40 174 28 40 174 28 40 174 28 40 174 28 40 174 28 40 174 28 40 174 28 40 174 28 40 174 28 40 174 28 40 174 28 40 174 28 40 174 28 40 174 28 40 174 28 40 174 28 40 174 28 40 174 28 40 174 28 40 174 28 40 174 28 40 174 28 40 174 28 40 174 28 40 174 28 40 174 28 40 174 28 40 174 28 40 174 28 40 174 28 40 174 28 40 174 28 40 174 28 40 174 28 40 174 28 40 174 28 40 174 28 40 174 28 40 174 28 40 174 28 40 174 28 40 174 28 40 174 28 40 174 28 40 174 28 40 174 28 40 174 28 40 174 28 40 174 28 40 174 28 40 174 28 40 174 28 40 174 28 40 174 28 40 174 28 40 174 28 40 174 28 40 174 28 40 174 28 40 174 28 40 174 28 40 174 28 40 174 28 40 174 28 40 174 28 40 174 28 40 174 28 40 174 28 40 174 28 40 174 28 40 174 28 40 174 28 40 174 28 40 174 28 40 174 28 40 174 28 40 174 28 40 174 28 40 174 28 40 174 28 40 174 28 40 174 28 40 174 28 40 174 28 40 174 28 40 174 28 40 174 28 40 174 28 40 174 28 40 174 28 40 
174 28 40 174 28 40 174 28 40 174 28 40 174 28 40 174 28 40 174 28 40 174 28 40 174 28 40 174 28 40 174 28 40 174 28 40 174 28 40 174 28 40 174 28 40 174 28 40 174 28 40 174 28 40 174 28 40 174 28 40 174 28 40 174 28 40 174 28 40 174 28 40 174 28 40 174 28 40 174 28 40 174 28 40 174 28 40 174 28 40 174 28 40 174 28 40 174 28 40 174 28 40 174 28 40 174 28 40 174 28 40 174 28 40 174 28 40 174 28 40 174 28 40 174 28 40 174 28 40 174 28 40 174 28 40 174 28 40 174 28 40 174 28 40 174 28 40 174 28 40 174 28 40 174 28 40 174 28 40 174 28 40 174 28 40 174 28 40 174 28 40 174 28 40 174 28 40 174 28 40 174 28 40 174 28 40 174 28 40 174 28 40 174 28 40 174 28 40 174 28 40 174 28 40 174 28 40 174 28 40 174 28 40 174 28 40 174 28 40 174 28 40 174 28 40 174 28 40 174 28 40 174 28 40 174 28 40 174 28 40 174 28 40 174 28 40 174 28 40 174 28 40 174 28 40 174 28 40 174 28 40 174 28 40 174 28 40 174 28 40 174 28 40 174 28 40 174 28 40 174 28 40 174 28 40 174 28 40 174 28 40 174 28 40 174 28 40 174 28 40 174 28 40 174 28 40 174 28 40 174 28 40 174 28 40 174 28 40 174 28 40 174 28 40 174 28 40 174 28 40 174 28 40 174 28 40 174 28 40 174 28 40 174 28 40 174 28 40 174 28 40 174 28 40 174 28 40 174 28 40 174 28 40 174 28 40 174 28 40 174 28 40 174 28 40 174 28 40 174 28 40 174 28 40 174 28 40 174 28 40 174 28 40 174 28 40 174 28 40 174 28 40 174 28 40 174 28 40 174 28 40 174 28 40 174 28 40 174 28 40 174 28 40 174 28 40 174 28 40 174 28 40 174 28 40 174 28 40 174 28 40 174 28 40 174 28 40 174 28 40 174 28 40 174 28 40 174 28 40 174 28 40 174 28 40 174 28 40 174 28 40 174 28 40 174 28 40 174 28 40 174 28 40 174 28 40 174 28 40 174 28 40 174 28 40 174 28 40 174 28 40 174 28 40 174 28 40 174 28 40 174 28 40 174 28 40 174 28 40 174 28 40 174 28 40 174 28 40 174 28 40 174 28 40 174 28 40 174 28 40 174 28 40 174 28 40 174 28 40 174 28 40 174 28 40 174 28 40 174 28 40 174 28 40 174 28 40 174 28 40 174 28 40 174 28 40 174 28 40 174 28 40 174 28 40 174 28 40 174 28 40 174 28 40 174 28 40 174 28 40 174 28 40 174 28 40 174 28 40 174 28 40 174 28 40 174 28 40 174 28 40 174 28 40 174 28 40 174 28 40 174 28 40 174 28 40 174 28 40 174 28 40 174 28 40 174 28 40 174 28 40 174 28 40 174 28 40 174 28 40 174 28 40 174 28 40 174 28 40 174 28 40 174 28 40 174 28 40 174 28 40 174 28 40 174 28 40 174 28 40 174 28 40 174 28 40 174 28 40 174 28 40 174 28 40 174 28 40 174 28 40 174 28 40 174 28 40 174 28 40 174 28 40 174 28 40 174 28 40 174 28 40 174 28 40 174 28 40 174 28 40 174 28 40 174 28 40 174 28 40 174 28 40 174 28 40 174 28 40 174 28 40 174 28 40 174 28 40 174 28 40 174 28 40 174 28 40 174 28 40 174 28 40 174 28 40 174 28 40 174 28 40 174 28 40 174 28 40 174 28 40 174 28 40 174 28 40 174 28 40 174 28 40 174 28 40 174 28 40 174 28 40 174 28 40 174 28 40 174 28 40 174 28 40 174 28 40 174 28 40 174 28 40 174 28 40 174 28 40 174 28 40 174 28 40 174 28 40 174 28 40 174 28 40 174 28 40 174 28 40 174 28 40 174 28 40 174 28 40 174 28 40 174 28 40 174 28 40 174 28 40 174 28 40 174 28 40 174 28 40 
174 28 40 174 28 40 174 28 40 174 28 40 174 28 40 174 28 40 174 28 40 174 28 40 174 28 40 174 28 40 174 28 40 174 28 40 174 28 40 174 28 40 174 28 40 174 28 40 174 28 40 174 28 40 174 28 40 174 28 40 174 28 40 174 28 40 174 28 40 174 28 40 174 28 40 174 28 40 174 28 40 174 28 40 174 28 40 174 28 40 174 28 40 174 28 40 174 28 40 174 28 40 174 28 40 174 28 40 174 28 40 174 28 40 174 28 40 174 28 40 174 28 40 174 28 40 174 28 40 174 28 40 174 28 40 174 28 40 174 28 40 174 28 40 174 28 40 174 28 40 174 28 40 174 28 40 174 28 40 174 28 40 174 28 40 174 28 40 174 28 40 174 28 40 174 28 40 174 28 40 174 28 40 174 28 40 174 28 40 174 28 40 174 28 40 174 28 40 174 28 40 174 28 40 174 28 40 174 28 40 174 28 40 174 28 40 174 28 40 174 28 40 174 28 40 174 28 40 174 28 40 174 28 40 174 28 40 174 28 40 174 28 40 174 28 40 174 28 40 174 28 40 174 28 40 174 28 40 174 28 40 174 28 40 174 28 40 174 28 40 174 28 40 174 28 40 174 28 40 174 28 40 174 28 40 174 28 40 174 28 40 174 28 40 174 28 40 174 28 40 174 28 40 174 28 40 174 28 40 174 28 40 174 28 40 174 28 40 174 28 40 174 28 40 174 28 40 174 28 40 174 28 40 174 28 40 174 28 40 174 28 40 174 28 40 174 28 40 174 28 40 174 28 40 174 28 40 174 28 40 174 28 40 174 28 40 174 28 40 174 28 40 174 28 40 174 28 40 174 28 40 174 28 40 174 28 40 174 28 40 174 28 40 174 28 40 174 28 40 174 28 40 174 28 40 174 28 40 174 28 40 174 28 40 174 28 40 174 28 40 174 28 40 174 28 40 174 28 40 174 28 40 174 28 40 174 28 40 174 28 40 174 28 40 174 28 40 174 28 40 174 28 40 174 28 40 174 28 40 174 28 40 174 28 40 174 28 40 174 28 40 174 28 40 174 28 40 174 28 40 174 28 40 174 28 40 174 28 40 174 28 40 174 28 40 174 28 40 174 28 40 174 28 40 174 28 40 174 28 40 174 28 40 174 28 40 174 28 40 174 28 40 174 28 40 174 28 40 174 28 40 174 28 40 174 28 40 174 28 40 174 28 40 174 28 40 174 28 40 174 28 40 174 28 40 174 28 40 174 28 40 174 28 40 174 28 40 174 28 40 174 28 40 174 28 40 174 28 40 174 28 40 174 28 40 174 28 40 174 28 40 174 28 40 174 28 40 174 28 40 174 28 40 174 28 40 174 28 40 174 28 40 174 28 40 174 28 40 174 28 40 174 28 40 174 28 40 174 28 40 174 28 40 174 28 40 174 28 40 174 28 40 174 28 40 174 28 40 174 28 40 174 28 40 174 28 40 174 28 40 174 28 40 174 28 40 174 28 40 174 28 40 174 28 40 174 28 40 174 28 40 174 28 40 174 28 40 174 28 40 174 28 40 174 28 40 174 28 40 174 28 40 174 28 40 174 28 40 174 28 40 174 28 40 174 28 40 174 28 40 174 28 40 174 28 40 174 28 40 174 28 40 174 28 40 174 28 40 174 28 40 174 28 40 174 28 40 174 28 40 174 28 40 174 28 40 174 28 40 174 28 40 174 28 40 174 28 40 174 28 40 174 28 40 174 28 40 174 28 40 174 28 40 174 28 40 174 28 40 174 28 40 174 28 40 174 28 40 174 28 40 174 28 40 174 28 40 174 28 40 174 28 40 174 28 40 174 28 40 174 28 40 174 28 40 174 28 40 174 28 40 174 28 40 174 28 40 174 28 40 174 28 40 174 28 40 174 28 40 174 28 40 174 28 40 174 28 40 174 28 40 174 28 40 174 28 40 174 28 40 174 28 40 174 28 40 174 28 40 174 28 40 174 28 40 174 28 40 174 28 40 174 28 40 174 28 40 174 28 40 
174 28 40 174 28 40 174 28 40 174 28 40 174 28 40 174 28 40 174 28 40 174 28 40 174 28 40 174 28 40 174 28 40 174 28 40 174 28 40 174 28 40 174 28 40 174 28 40 174 28 40 174 28 40 174 28 40 174 28 40 174 28 40 174 28 40 174 28 40 174 28 40 174 28 40 174 28 40 174 28 40 174 28 40 174 28 40 174 28 40 174 28 40 174 28 40 174 28 40 174 28 40 174 28 40 174 28 40 174 28 40 174 28 40 174 28 40 174 28 40 174 28 40 174 28 40 174 28 40 174 28 40 174 28 40 174 28 40 174 28 40 174 28 40 174 28 40 174 28 40 174 28 40 174 28 40 174 28 40 174 28 40 174 28 40 174 28 40 174 28 40 174 28 40 174 28 40 174 28 40 174 28 40 174 28 40 174 28 40 174 28 40 174 28 40 174 28 40 174 28 40 174 28 40 174 28 40 174 28 40 174 28 40 174 28 40 174 28 40 174 28 40 174 28 40 174 28 40 174 28 40 174 28 40 174 28 40 174 28 40 174 28 40 174 28 40 174 28 40 174 28 40 174 28 40 174 28 40 174 28 40 174 28 40 174 28 40 174 28 40 174 28 40 174 28 40 174 28 40 174 28 40 174 28 40 174 28 40 174 28 40 174 28 40 174 28 40 174 28 40 174 28 40 174 28 40 174 28 40 174 28 40 174 28 40 174 28 40 174 28 40 174 28 40 174 28 40 174 28 40 174 28 40 174 28 40 174 28 40 174 28 40 174 28 40 174 28 40 174 28 40 174 28 40 174 28 40 174 28 40 174 28 40 174 28 40 174 28 40 174 28 40 174 28 40 174 28 40 174 28 40 174 28 40 174 28 40 174 28 40 174 28 40 174 28 40 174 28 40 174 28 40 174 28 40 174 28 40 174 28 40 174 28 40 174 28 40 174 28 40 174 28 40 174 28 40 174 28 40 174 28 40 174 28 40 174 28 40 174 28 40 174 28 40 174 28 40 174 28 40 174 28 40 174 28 40 174 28 40 174 28 40 174 28 40 174 28 40 174 28 40 174 28 40 174 28 40 174 28 40 174 28 40 174 28 40 174 28 40 174 28 40 174 28 40 174 28 40 174 28 40 174 28 40 174 28 40 174 28 40 174 28 40 174 28 40 174 28 40 174 28 40 174 28 40 174 28 40 174 28 40 174 28 40 174 28 40 174 28 40 174 28 40 174 28 40 174 28 40 174 28 40 174 28 40 174 28 40 174 28 40 174 28 40 174 28 40 174 28 40 174 28 40 174 28 40 174 28 40 174 28 40 174 28 40 174 28 40 174 28 40 174 28 40 174 28 40 174 28 40 174 28 40 174 28 40 174 28 40 174 28 40 174 28 40 174 28 40 174 28 40 174 28 40 174 28 40 174 28 40 174 28 40 174 28 40 174 28 40 174 28 40 174 28 40 174 28 40 174 28 40 174 28 40 174 28 40 174 28 40 174 28 40 174 28 40 174 28 40 174 28 40 174 28 40 174 28 40 174 28 40 174 28 40 174 28 40 174 28 40 174 28 40 174 28 40 174 28 40 174 28 40 174 28 40 174 28 40 174 28 40 174 28 40 174 28 40 174 28 40 174 28 40 174 28 40 174 28 40 174 28 40 174 28 40 174 28 40 174 28 40 174 28 40 174 28 40 174 28 40 174 28 40 174 28 40 174 28 40 174 28 40 174 28 40 174 28 40 174 28 40 174 28 40 174 28 40 174 28 40 174 28 40 174 28 40 174 28 40 174 28 40 174 28 40 174 28 40 174 28 40 174 28 40 174 28 40 174 28 40 174 28 40 174 28 40 174 28 40 174 28 40 174 28 40 174 28 40 174 28 40 174 28 40 174 28 40 174 28 40 174 28 40 174 28 40 174 28 40 174 28 40 174 28 40 174 28 40 174 28 40 174 28 40 174 28 40 174 28 40 174 28 40 174 28 40 174 28 40 174 28 40 174 28 40 174 28 40 174 28 40 174 28 40 174 28 40 174 28 40 
255 255 255 255 255 255 255 255 255 255 255 255 255 255 255 255 255 255 255 255 255 255 255 255 255 255 255 255 255 255 255 255 255 255 255 255 255 255 255 255 255 255 255 255 255 255 255 255 255 255 255 255 255 255 255 255 255 255 255 255 255 255 255 255 255 255 255 255 255 255 255 255 255 255 255 255 255 255 255 255 255 255 255 255 255 255 255 255 255 255 255 255 255 255 255 255 255 255 255 255 255 255 255 255 255 255 255 255 255 255 255 255 255 255 255 255 255 255 255 255 255 255 255 255 255 255 255 255 255 255 255 255 255 255 255 255 255 255 255 255 255 255 255 255 255 255 255 255 255 255 255 255 255 255 255 255 255 255 255 255 255 255 255 255 255 255 255 255 255 255 255 255 255 255 255 255 255 255 255 255 255 255 255 255 255 255 255 255 255 255 255 255 255 255 255 255 255 255 255 255 255 255 255 255 255 255 255 255 255 255 255 255 255 255 255 255 255 255 255 255 255 255 255 255 255 255 255 255 255 255 255 255 255 255 255 255 255 255 255 255 255 255 255 255 255 255 255 255 255 255 255 255 255 255 255 255 255 255 255 255 255 255 255 255 255 255 255 255 255 255 255 255 255 255 255 255 255 255 255 255 255 255 255 255 255 255 255 255 255 255 255 255 255 255 255 255 255 255 255 255 255 255 255 255 255 255 255 255 255 255 255 255 255 255 255 255 255 255 255 255 255 255 255 255 255 255 255 255 255 255 255 255 255 255 255 255 255 255 255 255 255 255 255 255 255 255 255 255 255 255 255 255 255 255 255 255 255 255 255 255 255 255 255 255 255 255 255 255 255 255 255 255 255 255 255 255 255 255 255 255 255 255 255 255 255 255 255 255 255 255 255 255 255 255 255 255 255 255 255 255 255 255 255 255 255 255 255 255 255 255 255 255 255 255 255 255 255 255 255 255 255 255 255 255 255 255 255 255 255 255 255 255 255 255 255 255 255 255 255 255 255 255 255 255 255 255 255 255 255 255 255 255 255 255 255 255 255 255 255 255 255 255 255 255 255 255 255 255 255 255 255 255 255 255 255 255 255 255 255 255 255 255 255 255 255 255 255 255 255 255 255 255 255 255 255 255 255 255 255 255 255 255 255 255 255 255 255 255 255 255 255 255 255 255 255 255 255 255 255 255 255 255 255 255 255 255 255 255 255 255 255 255 255 255 255 255 255 255 255 255 255 255 255 255 255 255 255 255 255 255 255 255 255 255 255 255 255 255 255 255 255 255 255 255 255 255 255 255 255 255 255 255 255 255 255 255 255 255 255 255 255 255 255 255 255 255 255 255 255 255 255 255 255 255 255 255 255 255 255 255 255 255 255 255 255 255 255 255 255 255 255 255 255 255 255 255 255 255 255 255 255 255 255 255 255 255 255 255 255 255 255 255 255 255 255 255 255 255 255 255 255 255 255 255 255 255 255 255 255 255 255 255 255 255 255 255 255 255 255 255 255 255 255 255 255 255 255 255 255 255 255 255 255 255 255 255 255 255 255 255 255 255 255 255 255 255 255 255 255 255 255 255 255 255 255 255 255 255 255 255 255 255 255 255 255 255 255 255 255 255 255 255 255 255 255 255 255 255 255 255 255 255 255 255 255 255 255 255 255 255 255 255 255 255 255 255 255 255 255 255 255 255 255 255 255 255 255 255 255 255 255 255 255 255 255 255 255 255 255 255 255 255 255 255 255 255 255 255 255 255 255 255 255 255 255 255 255 255 255 255 255 255 255 255 255 255 255 255 255 255 255 255 255 255 255 255 255 255 255 255 255 255 255 255 255 255 255 255 255 255 255 255 255 255 255 255 255 255 255 255 255 255 255 255 255 255 255 255 255 255 255 255 255 255 255 255 255 255 255 255 255 255 255 255 255 255 255 255 255 255 255 255 255 255 255 255 255 255 255 255 255 255 255 255 255 255 255 255 255 255 255 255 255 255 255 255 255 255 255 255 255 255 255 255 255 255 255 255 255 255 255 255 255 255 255 255 255 255 255 255 
255 255 255 255 255 255 255 255 255 255 255 255 255 255 255 255 255 255 255 255 255 255 255 255 255 255 255 255 255 255 255 255 255 255 255 255 255 255 255 255 255 255 255 255 255 255 255 255 255 255 255 255 255 255 255 255 255 255 255 255 255 255 255 255 255 255 255 255 255 255 255 255 255 255 255 255 255 255 255 255 255 255 255 255 255 255 255 255 255 255 255 255 255 255 255 255 255 255 255 255 255 255 255 255 255 255 255 255 255 255 255 255 255 255 255 255 255 255 255 255 255 255 255 255 255 255 255 255 255 255 255 255 255 255 255 255 255 255 255 255 255 255 255 255 255 255 255 255 255 255 255 255 255 255 255 255 255 255 255 255 255 255 255 255 255 255 255 255 255 255 255 255 255 255 255 255 255 255 255 255 255 255 255 255 255 255 255 255 255 255 255 255 255 255 255 255 255 255 255 255 255 255 255 255 255 255 255 255 255 255 255 255 255 255 255 255 255 255 255 255 255 255 255 255 255 255 255 255 255 255 255 255 255 255 255 255 255 255 255 255 255 255 255 255 255 255 255 255 255 255 255 255 255 255 255 255 255 255 255 255 255 255 255 255 255 255 255 255 255 255 255 255 255 255 255 255 255 255 255 255 255 255 255 255 255 255 255 255 255 255 255 255 255 255 255 255 255 255 255 255 255 255 255 255 255 255 255 255 255 255 255 255 255 255 255 255 255 255 255 255 255 255 255 255 255 255 255 255 255 255 255 255 255 255 255 255 255 255 255 255 255 255 255 255 255 255 255 255 255 255 255 255 255 255 255 255 255 255 255 255 255 255 255 255 255 255 255 255 255 255 255 255 255 255 255 255 255 255 255 255 255 255 255 255 255 255 255 255 255 255 255 255 255 255 255 255 255 255 255 255 255 255 255 255 255 255 255 255 255 255 255 255 255 255 255 255 255 255 255 255 255 255 255 255 255 255 255 255 255 255 255 255 255 255 255 255 255 255 255 255 255 255 255 255 255 255 255 255 255 255 255 255 255 255 255 255 255 255 255 255 255 255 255 255 255 255 255 255 255 255 255 255 255 255 255 255 255 255 255 255 255 255 255 255 255 255 255 255 255 255 255 255 255 255 255 255 255 255 255 255 255 255 255 255 255 255 255 255 255 255 255 255 255 255 255 255 255 255 255 255 255 255 255 255 255 255 255 255 255 255 255 255 255 255 255 255 255 255 255 255 255 255 255 255 255 255 255 255 255 255 255 255 255 255 255 255 255 255 255 255 255 255 255 255 255 255 255 255 255 255 255 255 255 255 255 255 255 255 255 255 255 255 255 255 255 255 255 255 255 255 255 255 255 255 255 255 255 255 255 255 255 255 255 255 255 255 255 255 255 255 255 255 255 255 255 255 255 255 255 255 255 255 255 255 255 255 255 255 255 255 255 255 255 255 255 255 255 255 255 255 255 255 255 255 255 255 255 255 255 255 255 255 255 255 255 255 255 255 255 255 255 255 255 255 255 255 255 255 255 255 255 255 255 255 255 255 255 255 255 255 255 255 255 255 255 255 255 255 255 255 255 255 255 255 255 255 255 255 255 255 255 255 255 255 255 255 255 255 255 255 255 255 255 255 255 255 255 255 255 255 255 255 255 255 255 255 255 255 255 255 255 255 255 255 255 255 255 255 255 255 255 255 255 255 255 255 255 255 255 255 255 255 255 255 255 255 255 255 255 255 255 255 255 255 255 255 255 255 255 255 255 255 255 255 255 255 255 255 255 255 255 255 255 255 255 255 255 255 255 255 255 255 255 255 255 255 255 255 255 255 255 255 255 255 255 255 255 255 255 255 255 255 255 255 255 255 255 255 255 255 255 255 255 255 255 255 255 255 255 255 255 255 255 255 255 255 255 255 255 255 255 255 255 255 255 255 255 255 255 255 255 255 255 255 255 255 255 255 255 255 255 255 255 255 255 255 255 255 255 255 255 255 255 255 255 255 255 255 255 255 255 255 255 255 255 255 255 255 255 255 255 255 255 255 255 255 255 255 255 255 
255 255 255 255 255 255 255 255 255 255 255 255 255 255 255 255 255 255 255 255 255 255 255 255 255 255 255 255 255 255 255 255 255 255 255 255 255 255 255 255 255 255 255 255 255 255 255 255 255 255 255 255 255 255 255 255 255 255 255 255 255 255 255 255 255 255 255 255 255 255 255 255 255 255 255 255 255 255 255 255 255 255 255 255 255 255 255 255 255 255 255 255 255 255 255 255 255 255 255 255 255 255 255 255 255 255 255 255 255 255 255 255 255 255 255 255 255 255 255 255 255 255 255 255 255 255 255 255 255 255 255 255 255 255 255 255 255 255 255 255 255 255 255 255 255 255 255 255 255 255 255 255 255 255 255 255 255 255 255 255 255 255 255 255 255 255 255 255 255 255 255 255 255 255 255 255 255 255 255 255 255 255 255 255 255 255 255 255 255 255 255 255 255 255 255 255 255 255 255 255 255 255 255 255 255 255 255 255 255 255 255 255 255 255 255 255 255 255 255 255 255 255 255 255 255 255 255 255 255 255 255 255 255 255 255 255 255 255 255 255 255 255 255 255 255 255 255 255 255 255 255 255 255 255 255 255 255 255 255 255 255 255 255 255 255 255 255 255 255 255 255 255 255 255 255 255 255 255 255 255 255 255 255 255 255 255 255 255 255 255 255 255 255 255 255 255 255 255 255 255 255 255 255 255 255 255 255 255 255 255 255 255 255 255 255 255 255 255 255 255 255 255 255 255 255 255 255 255 255 255 255 255 255 255 255 255 255 255 255 255 255 255 255 255 255 255 255 255 255 255 255 255 255 255 255 255 255 255 255 255 255 255 255 255 255 255 255 255 255 255 255 255 255 255 255 255 255 255 255 255 255 255 255 255 255 255 255 255 255 255 255 255 255 255 255 255 255 255 255 255 255 255 255 255 255 255 255 255 255 255 255 255 255 255 255 255 255 255 255 255 255 255 255 255 255 255 255 255 255 255 255 255 255 255 255 255 255 255 255 255 255 255 255 255 255 255 255 255 255 255 255 255 255 255 255 255 255 255 255 255 255 255 255 255 255 255 255 255 255 255 255 255 255 255 255 255 255 255 255 255 255 255 255 255 255 255 255 255 255 255 255 255 255 255 255 255 255 255 255 255 255 255 255 255 255 255 255 255 255 255 255 255 255 255 255 255 255 255 255 255 255 255 255 255 255 255 255 255 255 255 255 255 255 255 255 255 255 255 255 255 255 255 255 255 255 255 255 255 255 255 255 255 255 255 255 255 255 255 255 255 255 255 255 255 255 255 255 255 255 255 255 255 255 255 255 255 255 255 255 255 255 255 255 255 255 255 255 255 255 255 255 255 255 255 255 255 255 255 255 255 255 255 255 255 255 255 255 255 255 255 255 255 255 255 255 255 255 255 255 255 255 255 255 255 255 255 255 255 255 255 255 255 255 255 255 255 255 255 255 255 255 255 255 255 255 255 255 255 255 255 255 255 255 255 255 255 255 255 255 255 255 255 255 255 255 255 255 255 255 255 255 255 255 255 255 255 255 255 255 255 255 255 255 255 255 255 255 255 255 255 255 255 255 255 255 255 255 255 255 255 255 255 255 255 255 255 255 255 255 255 255 255 255 255 255 255 255 255 255 255 255 255 255 255 255 255 255 255 255 255 255 255 255 255 255 255 255 255 255 255 255 255 255 255 255 255 255 255 255 255 255 255 255 255 255 255 255 255 255 255 255 255 255 255 255 255 255 255 255 255 255 255 255 255 255 255 255 255 255 255 255 255 255 255 255 255 255 255 255 255 255 255 255 255 255 255 255 255 255 255 255 255 255 255 255 255 255 255 255 255 255 255 255 255 255 255 255 255 255 255 255 255 255 255 255 255 255 255 255 255 255 255 255 255 255 255 255 255 255 255 255 255 255 255 255 255 255 255 255 255 255 255 255 255 255 255 255 255 255 255 255 255 255 255 255 255 255 255 255 255 255 255 255 255 255 255 255 255 255 255 255 255 255 255 255 255 255 255 255 255 255 255 255 255 255 255 255 255 255 255 
255 255 255 255 255 255 255 255 255 255 255 255 255 255 255 255 255 255 255 255 255 255 255 255 255 255 255 255 255 255 255 255 255 255 255 255 255 255 255 255 255 255 255 255 255 255 255 255 255 255 255 255 255 255 255 255 255 255 255 255 255 255 255 255 255 255 255 255 255 255 255 255 255 255 255 255 255 255 255 255 255 255 255 255 255 255 255 255 255 255 255 255 255 255 255 255 255 255 255 255 255 255 255 255 255 255 255 255 255 255 255 255 255 255 255 255 255 255 255 255 255 255 255 255 255 255 255 255 255 255 255 255 255 255 255 255 255 255 255 255 255 255 255 255 255 255 255 255 255 255 255 255 255 255 255 255 255 255 255 255 255 255 255 255 255 255 255 255 255 255 255 255 255 255 255 255 255 255 255 255 255 255 255 255 255 255 255 255 255 255 255 255 255 255 255 255 255 255 255 255 255 255 255 255 255 255 255 255 255 255 255 255 255 255 255 255 255 255 255 255 255 255 255 255 255 255 255 255 255 255 255 255 255 255 255 255 255 255 255 255 255 255 255 255 255 255 255 255 255 255 255 255 255 255 255 255 255 255 255 255 255 255 255 255 255 255 255 255 255 255 255 255 255 255 255 255 255 255 255 255 255 255 255 255 255 255 255 255 255 255 255 255 255 255 255 255 255 255 255 255 255 255 255 255 255 255 255 255 255 255 255 255 255 255 255 255 255 255 255 255 255 255 255 255 255 255 255 255 255 255 255 255 255 255 255 255 255 255 255 255 255 255 255 255 255 255 255 255 255 255 255 255 255 255 255 255 255 255 255 255 255 255 255 255 255 255 255 255 255 255 255 255 255 255 255 255 255 255 255 255 255 255 255 255 255 255 255 255 255 255 255 255 255 255 255 255 255 255 255 255 255 255 255 255 255 255 255 255 255 255 255 255 255 255 255 255 255 255 255 255 255 255 255 255 255 255 255 255 255 255 255 255 255 255 255 255 255 255 255 255 255 255 255 255 255 255 255 255 255 255 255 255 255 255 255 255 255 255 255 255 255 255 255 255 255 255 255 255 255 255 255 255 255 255 255 255 255 255 255 255 255 255 255 255 255 255 255 255 255 255 255 255 255 255 255 255 255 255 255 255 255 255 255 255 255 255 255 255 255 255 255 255 255 255 255 255 255 255 255 255 255 255 255 255 255 255 255 255 255 255 255 255 255 255 255 255 255 255 255 255 255 255 255 255 255 255 255 255 255 255 255 255 255 255 255 255 255 255 255 255 255 255 255 255 255 255 255 255 255 255 255 255 255 255 255 255 255 255 255 255 255 255 255 255 255 255 255 255 255 255 255 255 255 255 255 255 255 255 255 255 255 255 255 255 255 255 255 255 255 255 255 255 255 255 255 255 255 255 255 255 255 255 255 255 255 255 255 255 255 255 255 255 255 255 255 255 255 255 255 255 255 255 255 255 255 255 255 255 255 255 255 255 255 255 255 255 255 255 255 255 255 255 255 255 255 255 255 255 255 255 255 255 255 255 255 255 255 255 255 255 255 255 255 255 255 255 255 255 255 255 255 255 255 255 255 255 255 255 255 255 255 255 255 255 255 255 255 255 255 255 255 255 255 255 255 255 255 255 255 255 255 255 255 255 255 255 255 255 255 255 255 255 255 255 255 255 255 255 255 255 255 255 255 255 255 255 255 255 255 255 255 255 255 255 255 255 255 255 255 255 255 255 255 255 255 255 255 255 255 255 255 255 255 255 255 255 255 255 255 255 255 255 255 255 255 255 255 255 255 255 255 255 255 255 255 255 255 255 255 255 255 255 255 255 255 255 255 255 255 255 255 255 255 255 255 255 255 255 255 255 255 255 255 255 255 255 255 255 255 255 255 255 255 255 255 255 255 255 255 255 255 255 255 255 255 255 255 255 255 255 255 255 255 255 255 255 255 255 255 255 255 255 255 255 255 255 255 255 255 255 255 255 255 255 255 255 255 255 255 255 255 255 255 255 255 255 255 255 255 255 255 255 255 255 255 255 255 255 255 255 
255 255 255 255 255 255 255 255 255 255 255 255 255 255 255 255 255 255 255 255 255 255 255 255 255 255 255 255 255 255 255 255 255 255 255 255 255 255 255 255 255 255 255 255 255 255 255 255 255 255 255 255 255 255 255 255 255 255 255 255 255 255 255 255 255 255 255 255 255 255 255 255 255 255 255 255 255 255 255 255 255 255 255 255 255 255 255 255 255 255 255 255 255 255 255 255 255 255 255 255 255 255 255 255 255 255 255 255 255 255 255 255 255 255 255 255 255 255 255 255 255 255 255 255 255 255 255 255 255 255 255 255 255 255 255 255 255 255 255 255 255 255 255 255 255 255 255 255 255 255 255 255 255 255 255 255 255 255 255 255 255 255 255 255 255 255 255 255 255 255 255 255 255 255 255 255 255 255 255 255 255 255 255 255 255 255 255 255 255 255 255 255 255 255 255 255 255 255 255 255 255 255 255 255 255 255 255 255 255 255 255 255 255 255 255 255 255 255 255 255 255 255 255 255 255 255 255 255 255 255 255 255 255 255 255 255 255 255 255 255 255 255 255 255 255 255 255 255 255 255 255 255 255 255 255 255 255 255 255 255 255 255 255 255 255 255 255 255 255 255 255 255 255 255 255 255 255 255 255 255 255 255 255 255 255 255 255 255 255 255 255 255 255 255 255 255 255 255 255 255 255 255 255 255 255 255 255 255 255 255 255 255 255 255 255 255 255 255 255 255 255 255 255 255 255 255 255 255 255 255 255 255 255 255 255 255 255 255 255 255 255 255 255 255 255 255 255 255 255 255 255 255 255 255 255 255 255 255 255 255 255 255 255 255 255 255 255 255 255 255 255 255 255 255 255 255 255 255 255 255 255 255 255 255 255 255 255 255 255 255 255 255 255 255 255 255 255 255 255 255 255 255 255 255 255 255 255 255 255 255 255 255 255 255 255 255 255 255 255 255 255 255 255 255 255 255 255 255 255 255 255 255 255 255 255 255 255 255 255 255 255 255 255 255 255 255 255 255 255 255 255 255 255 255 255 255 255 255 255 255 255 255 255 255 255 255 255 255 255 255 255 255 255 255 255 255 255 255 255 255 255 255 255 255 255 255 255 255 255 255 255 255 255 255 255 255 255 255 255 255 255 255 255 255 255 255 255 255 255 255 255 255 255 255 255 255 255 255 255 255 255 255 255 255 255 255 255 255 255 255 255 255 255 255 255 255 255 255 255 255 255 255 255 255 255 255 255 255 255 255 255 255 255 255 255 255 255 255 255 255 255 255 255 255 255 255 255 255 255 255 255 255 255 255 255 255 255 255 255 255 255 255 255 255 255 255 255 255 255 255 255 255 255 255 255 255 255 255 255 255 255 255 255 255 255 255 255 255 255 255 255 255 255 255 255 255 255 255 255 255 255 255 255 255 255 255 255 255 255 255 255 255 255 255 255 255 255 255 255 255 255 255 255 255 255 255 255 255 255 255 255 255 255 255 255 255 255 255 255 255 255 255 255 255 255 255 255 255 255 255 255 255 255 255 255 255 255 255 255 255 255 255 255 255 255 255 255 255 255 255 255 255 255 255 255 255 255 255 255 255 255 255 255 255 255 255 255 255 255 255 255 255 255 255 255 255 255 255 255 255 255 255 255 255 255 255 255 255 255 255 255 255 255 255 255 255 255 255 255 255 255 255 255 255 255 255 255 255 255 255 255 255 255 255 255 255 255 255 255 255 255 255 255 255 255 255 255 255 255 255 255 255 255 255 255 255 255 255 255 255 255 255 255 255 255 255 255 255 255 255 255 255 255 255 255 255 255 255 255 255 255 255 255 255 255 255 255 255 255 255 255 255 255 255 255 255 255 255 255 255 255 255 255 255 255 255 255 255 255 255 255 255 255 255 255 255 255 255 255 255 255 255 255 255 255 255 255 255 255 255 255 255 255 255 255 255 255 255 255 255 255 255 255 255 255 255 255 255 255 255 255 255 255 255 255 255 255 255 255 255 255 255 255 255 255 255 255 255 255 255 255 255 255 255 255 255 255 255 255 255 
255 255 255 255 255 255 255 255 255 255 255 255 255 255 255 255 255 255 255 255 255 255 255 255 255 255 255 255 255 255 255 255 255 255 255 255 255 255 255 255 255 255 255 255 255 255 255 255 255 255 255 255 255 255 255 255 255 255 255 255 255 255 255 255 255 255 255 255 255 255 255 255 255 255 255 255 255 255 255 255 255 255 255 255 255 255 255 255 255 255 255 255 255 255 255 255 255 255 255 255 255 255 255 255 255 255 255 255 255 255 255 255 255 255 255 255 255 255 255 255 255 255 255 255 255 255 255 255 255 255 255 255 255 255 255 255 255 255 255 255 255 255 255 255 255 255 255 255 255 255 255 255 255 255 255 255 255 255 255 255 255 255 255 255 255 255 255 255 255 255 255 255 255 255 255 255 255 255 255 255 255 255 255 255 255 255 255 255 255 255 255 255 255 255 255 255 255 255 255 255 255 255 255 255 255 255 255 255 255 255 255 255 255 255 255 255 255 255 255 255 255 255 255 255 255 255 255 255 255 255 255 255 255 255 255 255 255 255 255 255 255 255 255 255 255 255 255 255 255 255 255 255 255 255 255 255 255 255 255 255 255 255 255 255 255 255 255 255 255 255 255 255 255 255 255 255 255 255 255 255 255 255 255 255 255 255 255 255 255 255 255 255 255 255 255 255 255 255 255 255 255 255 255 255 255 255 255 255 255 255 255 255 255 255 255 255 255 255 255 255 255 255 255 255 255 255 255 255 255 255 255 255 255 255 255 255 255 255 255 255 255 255 255 255 255 255 255 255 255 255 255 255 255 255 255 255 255 255 255 255 255 255 255 255 255 255 255 255 255 255 255 255 255 255 255 255 255 255 255 255 255 255 255 255 255 255 255 255 255 255 255 255 255 255 255 255 255 255 255 255 255 255 255 255 255 255 255 255 255 255 255 255 255 255 255 255 255 255 255 255 255 255 255 255 255 255 255 255 255 255 255 255 255 255 255 255 255 255 255 255 255 255 255 255 255 255 255 255 255 255 255 255 255 255 255 255 255 255 255 255 255 255 255 255 255 255 255 255 255 255 255 255 255 255 255 255 255 255 255 255 255 255 255 255 255 255 255 255 255 255 255 255 255 255 255 255 255 255 255 255 255 255 255 255 255 255 255 255 255 255 255 255 255 255 255 255 255 255 255 255 255 255 255 255 255 255 255 255 255 255 255 255 255 255 255 255 255 255 255 255 255 255 255 255 255 255 255 255 255 255 255 255 255 255 255 255 255 255 255 255 255 255 255 255 255 255 255 255 255 255 255 255 255 255 255 255 255 255 255 255 255 255 255 255 255 255 255 255 255 255 255 255 255 255 255 255 255 255 255 255 255 255 255 255 255 255 255 255 255 255 255 255 255 255 255 255 255 255 255 255 255 255 255 255 255 255 255 255 255 255 255 255 255 255 255 255 255 255 255 255 255 255 255 255 255 255 255 255 255 255 255 255 255 255 255 255 255 255 255 255 255 255 255 255 255 255 255 255 255 255 255 255 255 255 255 255 255 255 255 255 255 255 255 255 255 255 255 255 255 255 255 255 255 255 255 255 255 255 255 255 255 255 255 255 255 255 255 255 255 255 255 255 255 255 255 255 255 255 255 255 255 255 255 255 255 255 255 255 255 255 255 255 255 255 255 255 255 255 255 255 255 255 255 255 255 255 255 255 255 255 255 255 255 255 255 255 255 255 255 255 255 255 255 255 255 255 255 255 255 255 255 255 255 255 255 255 255 255 255 255 255 255 255 255 255 255 255 255 255 255 255 255 255 255 255 255 255 255 255 255 255 255 255 255 255 255 255 255 255 255 255 255 255 255 255 255 255 255 255 255 255 255 255 255 255 255 255 255 255 255 255 255 255 255 255 255 255 255 255 255 255 255 255 255 255 255 255 255 255 255 255 255 255 255 255 255 255 255 255 255 255 255 255 255 255 255 255 255 255 255 255 255 255 255 255 255 255 255 255 255 255 255 255 255 255 255 255 255 255 255 255 255 255 255 255 255 255 255 255 255 
255 255 255 255 255 255 255 255 255 255 255 255 255 255 255 255 255 255 255 255 255 255 255 255 255 255 255 255 255 255 255 255 255 255 255 255 255 255 255 255 255 255 255 255 255 255 255 255 255 255 255 255 255 255 255 255 255 255 255 255 255 255 255 255 255 255 255 255 255 255 255 255 255 255 255 255 255 255 255 255 255 255 255 255 255 255 255 255 255 255 255 255 255 255 255 255 255 255 255 255 255 255 255 255 255 255 255 255 255 255 255 255 255 255 255 255 255 255 255 255 255 255 255 255 255 255 255 255 255 255 255 255 255 255 255 255 255 255 255 255 255 255 255 255 255 255 255 255 255 255 255 255 255 255 255 255 255 255 255 255 255 255 255 255 255 255 255 255 255 255 255 255 255 255 255 255 255 255 255 255 255 255 255 255 255 255 255 255 255 255 255 255 255 255 255 255 255 255 255 255 255 255 255 255 255 255 255 255 255 255 255 255 255 255 255 255 255 255 255 255 255 255 255 255 255 255 255 255 255 255 255 255 255 255 255 255 255 255 255 255 255 255 255 255 255 255 255 255 255 255 255 255 255 255 255 255 255 255 255 255 255 255 255 255 255 255 255 255 255 255 255 255 255 255 255 255 255 255 255 255 255 255 255 255 255 255 255 255 255 255 255 255 255 255 255 255 255 255 255 255 255 255 255 255 255 255 255 255 255 255 255 255 255 255 255 255 255 255 255 255 255 255 255 255 255 255 255 255 255 255 255 255 255 255 255 255 255 255 255 255 255 255 255 255 255 255 255 255 255 255 255 255 255 255 255 255 255 255 255 255 255 255 255 255 255 255 255 255 255 255 255 255 255 255 255 255 255 255 255 255 255 255 255 255 255 255 255 255 255 255 255 255 255 255 255 255 255 255 255 255 255 255 255 255 255 255 255 255 255 255 255 255 255 255 255 255 255 255 255 255 255 255 255 255 255 255 255 255 255 255 255 255 255 255 255 255 255 255 255 255 255 255 255 255 255 255 255 255 255 255 255 255 255 255 255 255 255 255 255 255 255 255 255 255 255 255 255 255 255 255 255 255 255 255 255 255 255 255 255 255 255 255 255 255 255 255 255 255 255 255 255 255 255 255 255 255 255 255 255 255 255 255 255 255 255 255 255 255 255 255 255 255 255 255 255 255 255 255 255 255 255 255 255 255 255 255 255 255 255 255 255 255 255 255 255 255 255 255 255 255 255 255 255 255 255 255 255 255 255 255 255 255 255 255 255 255 255 255 255 255 255 255 255 255 255 255 255 255 255 255 255 255 255 255 255 255 255 255 255 255 255 255 255 255 255 255 255 255 255 255 255 255 255 255 255 255 255 255 255 255 255 255 255 255 255 255 255 255 255 255 255 255 255 255 255 255 255 255 255 255 255 255 255 255 255 255 255 255 255 255 255 255 255 255 255 255 255 255 255 255 255 255 255 255 255 255 255 255 255 255 255 255 255 255 255 255 255 255 255 255 255 255 255 255 255 255 255 255 255 255 255 255 255 255 255 255 255 255 255 255 255 255 255 255 255 255 255 255 255 255 255 255 255 255 255 255 255 255 255 255 255 255 255 255 255 255 255 255 255 255 255 255 255 255 255 255 255 255 255 255 255 255 255 255 255 255 255 255 255 255 255 255 255 255 255 255 255 255 255 255 255 255 255 255 255 255 255 255 255 255 255 255 255 255 255 255 255 255 255 255 255 255 255 255 255 255 255 255 255 255 255 255 255 255 255 255 255 255 255 255 255 255 255 255 255 255 255 255 255 255 255 255 255 255 255 255 255 255 255 255 255 255 255 255 255 255 255 255 255 255 255 255 255 255 255 255 255 255 255 255 255 255 255 255 255 255 255 255 255 255 255 255 255 255 255 255 255 255 255 255 255 255 255 255 255 255 255 255 255 255 255 255 255 255 255 255 255 255 255 255 255 255 255 255 255 255 255 255 255 255 255 255 255 255 255 255 255 255 255 255 255 255 255 255 255 255 255 255 255 255 255 255 255 255 255 255 255 255 255 255 
255 255 255 255 255 255 255 255 255 255 255 255 255 255 255 255 255 255 255 255 255 255 255 255 255 255 255 255 255 255 255 255 255 255 255 255 255 255 255 255 255 255 255 255 255 255 255 255 255 255 255 255 255 255 255 255 255 255 255 255 255 255 255 255 255 255 255 255 255 255 255 255 255 255 255 255 255 255 255 255 255 255 255 255 255 255 255 255 255 255 255 255 255 255 255 255 255 255 255 255 255 255 255 255 255 255 255 255 255 255 255 255 255 255 255 255 255 255 255 255 255 255 255 255 255 255 255 255 255 255 255 255 255 255 255 255 255 255 255 255 255 255 255 255 255 255 255 255 255 255 255 255 255 255 255 255 255 255 255 255 255 255 255 255 255 255 255 255 255 255 255 255 255 255 255 255 255 255 255 255 255 255 255 255 255 255 255 255 255 255 255 255 255 255 255 255 255 255 255 255 255 255 255 255 255 255 255 255 255 255 255 255 255 255 255 255 255 255 255 255 255 255 255 255 255 255 255 255 255 255 255 255 255 255 255 255 255 255 255 255 255 255 255 255 255 255 255 255 255 255 255 255 255 255 255 255 255 255 255 255 255 255 255 255 255 255 255 255 255 255 255 255 255 255 255 255 255 255 255 255 255 255 255 255 255 255 255 255 255 255 255 255 255 255 255 255 255 255 255 255 255 255 255 255 255 255 255 255 255 255 255 255 255 255 255 255 255 255 255 255 255 255 255 255 255 255 255 255 255 255 255 255 255 255 255 255 255 255 255 255 255 255 255 255 255 255 255 255 255 255 255 255 255 255 255 255 255 255 255 255 255 255 255 255 255 255 255 255 255 255 255 255 255 255 255 255 255 255 255 255 255 255 255 255 255 255 255 255 255 255 255 255 255 255 255 255 255 255 255 255 255 255 255 255 255 255 255 255 255 255 255 255 255 255 255 255 255 255 255 255 255 255 255 255 255 255 255 255 255 255 255 255 255 255 255 255 255 255 255 255 255 255 255 255 255 255 255 255 255 255 255 255 255 255 255 255 255 255 255 255 255 255 255 255 255 255 255 255 255 255 255 255 255 255 255 255 255 255 255 255 255 255 255 255 255 255 255 255 255 255 255 255 255 255 255 255 255 255 255 255 255 255 255 255 255 255 255 255 255 255 255 255 255 255 255 255 255 255 255 255 255 255 255 255 255 255 255 255 255 255 255 255 255 255 255 255 255 255 255 255 255 255 255 255 255 255 255 255 255 255 255 255 255 255 255 255 255 255 255 255 255 255 255 255 255 255 255 255 255 255 255 255 255 255 255 255 255 255 255 255 255 255 255 255 255 255 255 255 255 255 255 255 255 255 255 255 255 255 255 255 255 255 255 255 255 255 255 255 255 255 255 255 255 255 255 255 255 255 255 255 255 255 255 255 255 255 255 255 255 255 255 255 255 255 255 255 255 255 255 255 255 255 255 255 255 255 255 255 255 255 255 255 255 255 255 255 255 255 255 255 255 255 255 255 255 255 255 255 255 255 255 255 255 255 255 255 255 255 255 255 255 255 255 255 255 255 255 255 255 255 255 255 255 255 255 255 255 255 255 255 255 255 255 255 255 255 255 255 255 255 255 255 255 255 255 255 255 255 255 255 255 255 255 255 255 255 255 255 255 255 255 255 255 255 255 255 255 255 255 255 255 255 255 255 255 255 255 255 255 255 255 255 255 255 255 255 255 255 255 255 255 255 255 255 255 255 255 255 255 255 255 255 255 255 255 255 255 255 255 255 255 255 255 255 255 255 255 255 255 255 255 255 255 255 255 255 255 255 255 255 255 255 255 255 255 255 255 255 255 255 255 255 255 255 255 255 255 255 255 255 255 255 255 255 255 255 255 255 255 255 255 255 255 255 255 255 255 255 255 255 255 255 255 255 255 255 255 255 255 255 255 255 255 255 255 255 255 255 255 255 255 255 255 255 255 255 255 255 255 255 255 255 255 255 255 255 255 255 255 255 255 255 255 255 255 255 255 255 255 255 255 255 255 255 255 255 255 255 255 255 
255 255 255 255 255 255 255 255 255 255 255 255 255 255 255 255 255 255 255 255 255 255 255 255 255 255 255 255 255 255 255 255 255 255 255 255 255 255 255 255 255 255 255 255 255 255 255 255 255 255 255 255 255 255 255 255 255 255 255 255 255 255 255 255 255 255 255 255 255 255 255 255 255 255 255 255 255 255 255 255 255 255 255 255 255 255 255 255 255 255 255 255 255 255 255 255 255 255 255 255 255 255 255 255 255 255 255 255 255 255 255 255 255 255 255 255 255 255 255 255 255 255 255 255 255 255 255 255 255 255 255 255 255 255 255 255 255 255 255 255 255 255 255 255 255 255 255 255 255 255 255 255 255 255 255 255 255 255 255 255 255 255 255 255 255 255 255 255 255 255 255 255 255 255 255 255 255 255 255 255 255 255 255 255 255 255 255 255 255 255 255 255 255 255 255 255 255 255 255 255 255 255 255 255 255 255 255 255 255 255 255 255 255 255 255 255 255 255 255 255 255 255 255 255 255 255 255 255 255 255 255 255 255 255 255 255 255 255 255 255 255 255 255 255 255 255 255 255 255 255 255 255 255 255 255 255 255 255 255 255 255 255 255 255 255 255 255 255 255 255 255 255 255 255 255 255 255 255 255 255 255 255 255 255 255 255 255 255 255 255 255 255 255 255 255 255 255 255 255 255 255 255 255 255 255 255 255 255 255 255 255 255 255 255 255 255 255 255 255 255 255 255 255 255 255 255 255 255 255 255 255 255 255 255 255 255 255 255 255 255 255 255 255 255 255 255 255 255 255 255 255 255 255 255 255 255 255 255 255 255 255 255 255 255 255 255 255 255 255 255 255 255 255 255 255 255 255 255 255 255 255 255 255 255 255 255 255 255 255 255 255 255 255 255 255 255 255 255 255 255 255 255 255 255 255 255 255 255 255 255 255 255 255 255 255 255 255 255 255 255 255 255 255 255 255 255 255 255 255 255 255 255 255 255 255 255 255 255 255 255 255 255 255 255 255 255 255 255 255 255 255 255 255 255 255 255 255 255 255 255 255 255 255 255 255 255 255 255 255 255 255 255 255 255 255 255 255 255 255 255 255 255 255 255 255 255 255 255 255 255 255 255 255 255 255 255 255 255 255 255 255 255 255 255 255 255 255 255 255 255 255 255 255 255 255 255 255 255 255 255 255 255 255 255 255 255 255 255 255 255 255 255 255 255 255 255 255 255 255 255 255 255 255 255 255 255 255 255 255 255 255 255 255 255 255 255 255 255 255 255 255 255 255 255 255 255 255 255 255 255 255 255 255 255 255 255 255 255 255 255 255 255 255 255 255 255 255 255 255 255 255 255 255 255 255 255 255 255 255 255 255 255 255 255 255 255 255 255 255 255 255 255 255 255 255 255 255 255 255 255 255 255 255 255 255 255 255 255 255 255 255 255 255 255 255 255 255 255 255 255 255 255 255 255 255 255 255 255 255 255 255 255 255 255 255 255 255 255 255 255 255 255 255 255 255 255 255 255 255 255 255 255 255 255 255 255 255 255 255 255 255 255 255 255 255 255 255 255 255 255 255 255 255 255 255 255 255 255 255 255 255 255 255 255 255 255 255 255 255 255 255 255 255 255 255 255 255 255 255 255 255 255 255 255 255 255 255 255 255 255 255 255 255 255 255 255 255 255 255 255 255 255 255 255 255 255 255 255 255 255 255 255 255 255 255 255 255 255 255 255 255 255 255 255 255 255 255 255 255 255 255 255 255 255 255 255 255 255 255 255 255 255 255 255 255 255 255 255 255 255 255 255 255 255 255 255 255 255 255 255 255 255 255 255 255 255 255 255 255 255 255 255 255 255 255 255 255 255 255 255 255 255 255 255 255 255 255 255 255 255 255 255 255 255 255 255 255 255 255 255 255 255 255 255 255 255 255 255 255 255 255 255 255 255 255 255 255 255 255 255 255 255 255 255 255 255 255 255 255 255 255 255 255 255 255 255 255 255 255 255 255 255 255 255 255 255 255 255 255 255 255 255 255 255 255 255 255 255 255 255 
255 255 255 255 255 255 255 255 255 255 255 255 255 255 255 255 255 255 255 255 255 255 255 255 255 255 255 255 255 255 255 255 255 255 255 255 255 255 255 255 255 255 255 255 255 255 255 255 255 255 255 255 255 255 255 255 255 255 255 255 255 255 255 255 255 255 255 255 255 255 255 255 255 255 255 255 255 255 255 255 255 255 255 255 255 255 255 255 255 255 255 255 255 255 255 255 255 255 255 255 255 255 255 255 255 255 255 255 255 255 255 255 255 255 255 255 255 255 255 255 255 255 255 255 255 255 255 255 255 255 255 255 255 255 255 255 255 255 255 255 255 255 255 255 255 255 255 255 255 255 255 255 255 255 255 255 255 255 255 255 255 255 255 255 255 255 255 255 255 255 255 255 255 255 255 255 255 255 255 255 255 255 255 255 255 255 255 255 255 255 255 255 255 255 255 255 255 255 255 255 255 255 255 255 255 255 255 255 255 255 255 255 255 255 255 255 255 255 255 255 255 255 255 255 255 255 255 255 255 255 255 255 255 255 255 255 255 255 255 255 255 255 255 255 255 255 255 255 255 255 255 255 255 255 255 255 255 255 255 255 255 255 255 255 255 255 255 255 255 255 255 255 255 255 255 255 255 255 255 255 255 255 255 255 255 255 255 255 255 255 255 255 255 255 255 255 255 255 255 255 255 255 255 255 255 255 255 255 255 255 255 255 255 255 255 255 255 255 255 255 255 255 255 255 255 255 255 255 255 255 255 255 255 255 255 255 255 255 255 255 255 255 255 255 255 255 255 255 255 255 255 255 255 255 255 255 255 255 255 255 255 255 255 255 255 255 255 255 255 255 255 255 255 255 255 255 255 255 255 255 255 255 255 255 255 255 255 255 255 255 255 255 255 255 255 255 255 255 255 255 255 255 255 255 255 255 255 255 255 255 255 255 255 255 255 255 255 255 255 255 255 255 255 255 255 255 255 255 255 255 255 255 255 255 255 255 255 255 255 255 255 255 255 255 255 255 255 255 255 255 255 255 255 255 255 255 255 255 255 255 255 255 255 255 255 255 255 255 255 255 255 255 255 255 255 255 255 255 255 255 255 255 255 255 255 255 255 255 255 255 255 255 255 255 255 255 255 255 255 255 255 255 255 255 255 255 255 255 255 255 255 255 255 255 255 255 255 255 255 255 255 255 255 255 255 255 255 255 255 255 255 255 255 255 255 255 255 255 255 255 255 255 255 255 255 255 255 255 255 255 255 255 255 255 255 255 255 255 255 255 255 255 255 255 255 255 255 255 255 255 255 255 255 255 255 255 255 255 255 255 255 255 255 255 255 255 255 255 255 255 255 255 255 255 255 255 255 255 255 255 255 255 255 255 255 255 255 255 255 255 255 255 255 255 255 255 255 255 255 255 255 255 255 255 255 255 255 255 255 255 255 255 255 255 255 255 255 255 255 255 255 255 255 255 255 255 255 255 255 255 255 255 255 255 255 255 255 255 255 255 255 255 255 255 255 255 255 255 255 255 255 255 255 255 255 255 255 255 255 255 255 255 255 255 255 255 255 255 255 255 255 255 255 255 255 255 255 255 255 255 255 255 255 255 255 255 255 255 255 255 255 255 255 255 255 255 255 255 255 255 255 255 255 255 255 255 255 255 255 255 255 255 255 255 255 255 255 255 255 255 255 255 255 255 255 255 255 255 255 255 255 255 255 255 255 255 255 255 255 255 255 255 255 255 255 255 255 255 255 255 255 255 255 255 255 255 255 255 255 255 255 255 255 255 255 255 255 255 255 255 255 255 255 255 255 255 255 255 255 255 255 255 255 255 255 255 255 255 255 255 255 255 255 255 255 255 255 255 255 255 255 255 255 255 255 255 255 255 255 255 255 255 255 255 255 255 255 255 255 255 255 255 255 255 255 255 255 255 255 255 255 255 255 255 255 255 255 255 255 255 255 255 255 255 255 255 255 255 255 255 255 255 255 255 255 255 255 255 255 255 255 255 255 255 255 255 255 255 255 255 255 255 255 255 255 255 255 255 255 255 
255 255 255 255 255 255 255 255 255 255 255 255 255 255 255 255 255 255 255 255 255 255 255 255 255 255 255 255 255 255 255 255 255 255 255 255 255 255 255 255 255 255 255 255 255 255 255 255 255 255 255 255 255 255 255 255 255 255 255 255 255 255 255 255 255 255 255 255 255 255 255 255 255 255 255 255 255 255 255 255 255 255 255 255 255 255 255 255 255 255 255 255 255 255 255 255 255 255 255 255 255 255 255 255 255 255 255 255 255 255 255 255 255 255 255 255 255 255 255 255 255 255 255 255 255 255 255 255 255 255 255 255 255 255 255 255 255 255 255 255 255 255 255 255 255 255 255 255 255 255 255 255 255 255 255 255 255 255 255 255 255 255 255 255 255 255 255 255 255 255 255 255 255 255 255 255 255 255 255 255 255 255 255 255 255 255 255 255 255 255 255 255 255 255 255 255 255 255 255 255 255 255 255 255 255 255 255 255 255 255 255 255 255 255 255 255 255 255 255 255 255 255 255 255 255 255 255 255 255 255 255 255 255 255 255 255 255 255 255 255 255 255 255 255 255 255 255 255 255 255 255 255 255 255 255 255 255 255 255 255 255 255 255 255 255 255 255 255 255 255 255 255 255 255 255 255 255 255 255 255 255 255 255 255 255 255 255 255 255 255 255 255 255 255 255 255 255 255 255 255 255 255 255 255 255 255 255 255 255 255 255 255 255 255 255 255 255 255 255 255 255 255 255 255 255 255 255 255 255 255 255 255 255 255 255 255 255 255 255 255 255 255 255 255 255 255 255 255 255 255 255 255 255 255 255 255 255 255 255 255 255 255 255 255 255 255 255 255 255 255 255 255 255 255 255 255 255 255 255 255 255 255 255 255 255 255 255 255 255 255 255 255 255 255 255 255 255 255 255 255 255 255 255 255 255 255 255 255 255 255 255 255 255 255 255 255 255 255 255 255 255 255 255 255 255 255 255 255 255 255 255 255 255 255 255 255 255 255 255 255 255 255 255 255 255 255 255 255 255 255 255 255 255 255 255 255 255 255 255 255 255 255 255 255 255 255 255 255 255 255 255 255 255 255 255 255 255 255 255 255 255 255 255 255 255 255 255 255 255 255 255 255 255 255 255 255 255 255 255 255 255 255 255 255 255 255 255 255 255 255 255 255 255 255 255 255 255 255 255 255 255 255 255 255 255 255 255 255 255 255 255 255 255 255 255 255 255 255 255 255 255 255 255 255 255 255 255 255 255 255 255 255 255 255 255 255 255 255 255 255 255 255 255 255 255 255 255 255 255 255 255 255 255 255 255 255 255 255 255 255 255 255 255 255 255 255 255 255 255 255 255 255 255 255 255 255 255 255 255 255 255 255 255 255 255 255 255 255 255 255 255 255 255 255 255 255 255 255 255 255 255 255 255 255 255 255 255 255 255 255 255 255 255 255 255 255 255 255 255 255 255 255 255 255 255 255 255 255 255 255 255 255 255 255 255 255 255 255 255 255 255 255 255 255 255 255 255 255 255 255 255 255 255 255 255 255 255 255 255 255 255 255 255 255 255 255 255 255 255 255 255 255 255 255 255 255 255 255 255 255 255 255 255 255 255 255 255 255 255 255 255 255 255 255 255 255 255 255 255 255 255 255 255 255 255 255 255 255 255 255 255 255 255 255 255 255 255 255 255 255 255 255 255 255 255 255 255 255 255 255 255 255 255 255 255 255 255 255 255 255 255 255 255 255 255 255 255 255 255 255 255 255 255 255 255 255 255 255 255 255 255 255 255 255 255 255 255 255 255 255 255 255 255 255 255 255 255 255 255 255 255 255 255 255 255 255 255 255 255 255 255 255 255 255 255 255 255 255 255 255 255 255 255 255 255 255 255 255 255 255 255 255 255 255 255 255 255 255 255 255 255 255 255 255 255 255 255 255 255 255 255 255 255 255 255 255 255 255 255 255 255 255 255 255 255 255 255 255 255 255 255 255 255 255 255 255 255 255 255 255 255 255 255 255 255 255 255 255 255 255 255 255 255 255 255 255 255 255 255 255 
255 255 255 255 255 255 255 255 255 255 255 255 255 255 255 255 255 255 255 255 255 255 255 255 255 255 255 255 255 255 255 255 255 255 255 255 255 255 255 255 255 255 255 255 255 255 255 255 255 255 255 255 255 255 255 255 255 255 255 255 255 255 255 255 255 255 255 255 255 255 255 255 255 255 255 255 255 255 255 255 255 255 255 255 255 255 255 255 255 255 255 255 255 255 255 255 255 255 255 255 255 255 255 255 255 255 255 255 255 255 255 255 255 255 255 255 255 255 255 255 255 255 255 255 255 255 255 255 255 255 255 255 255 255 255 255 255 255 255 255 255 255 255 255 255 255 255 255 255 255 255 255 255 255 255 255 255 255 255 255 255 255 255 255 255 255 255 255 255 255 255 255 255 255 255 255 255 255 255 255 255 255 255 255 255 255 255 255 255 255 255 255 255 255 255 255 255 255 255 255 255 255 255 255 255 255 255 255 255 255 255 255 255 255 255 255 255 255 255 255 255 255 255 255 255 255 255 255 255 255 255 255 255 255 255 255 255 255 255 255 255 255 255 255 255 255 255 255 255 255 255 255 255 255 255 255 255 255 255 255 255 255 255 255 255 255 255 255 255 255 255 255 255 255 255 255 255 255 255 255 255 255 255 255 255 255 255 255 255 255 255 255 255 255 255 255 255 255 255 255 255 255 255 255 255 255 255 255 255 255 255 255 255 255 255 255 255 255 255 255 255 255 255 255 255 255 255 255 255 255 255 255 255 255 255 255 255 255 255 255 255 255 255 255 255 255 255 255 255 255 255 255 255 255 255 255 255 255 255 255 255 255 255 255 255 255 255 255 255 255 255 255 255 255 255 255 255 255 255 255 255 255 255 255 255 255 255 255 255 255 255 255 255 255 255 255 255 255 255 255 255 255 255 255 255 255 255 255 255 255 255 255 255 255 255 255 255 255 255 255 255 255 255 255 255 255 255 255 255 255 255 255 255 255 255 255 255 255 255 255 255 255 255 255 255 255 255 255 255 255 255 255 255 255 255 255 255 255 255 255 255 255 255 255 255 255 255 255 255 255 255 255 255 255 255 255 255 255 255 255 255 255 255 255 255 255 255 255 255 255 255 255 255 255 255 255 255 255 255 255 255 255 255 255 255 255 255 255 255 255 255 255 255 255 255 255 255 255 255 255 255 255 255 255 255 255 255 255 255 255 255 255 255 255 255 255 255 255 255 255 255 255 255 255 255 255 255 255 255 255 255 255 255 255 255 255 255 255 255 255 255 255 255 255 255 255 255 255 255 255 255 255 255 255 255 255 255 255 255 255 255 255 255 255 255 255 255 255 255 255 255 255 255 255 255 255 255 255 255 255 255 255 255 255 255 255 255 255 255 255 255 255 255 255 255 255 255 255 255 255 255 255 255 255 255 255 255 255 255 255 255 255 255 255 255 255 255 255 255 255 255 255 255 255 255 255 255 255 255 255 255 255 255 255 255 255 255 255 255 255 255 255 255 255 255 255 255 255 255 255 255 255 255 255 255 255 255 255 255 255 255 255 255 255 255 255 255 255 255 255 255 255 255 255 255 255 255 255 255 255 255 255 255 255 255 255 255 255 255 255 255 255 255 255 255 255 255 255 255 255 255 255 255 255 255 255 255 255 255 255 255 255 255 255 255 255 255 255 255 255 255 255 255 255 255 255 255 255 255 255 255 255 255 255 255 255 255 255 255 255 255 255 255 255 255 255 255 255 255 255 255 255 255 255 255 255 255 255 255 255 255 255 255 255 255 255 255 255 255 255 255 255 255 255 255 255 255 255 255 255 255 255 255 255 255 255 255 255 255 255 255 255 255 255 255 255 255 255 255 255 255 255 255 255 255 255 255 255 255 255 255 255 255 255 255 255 255 255 255 255 255 255 255 255 255 255 255 255 255 255 255 255 255 255 255 255 255 255 255 255 255 255 255 255 255 255 255 255 255 255 255 255 255 255 255 255 255 255 255 255 255 255 255 255 255 255 255 255 255 255 255 255 255 255 255 255 255 255 255 255 
255 255 255 255 255 255 255 255 255 255 255 255 255 255 255 255 255 255 255 255 255 255 255 255 255 255 255 255 255 255 255 255 255 255 255 255 255 255 255 255 255 255 255 255 255 255 255 255 255 255 255 255 255 255 255 255 255 255 255 255 255 255 255 255 255 255 255 255 255 255 255 255 255 255 255 255 255 255 255 255 255 255 255 255 255 255 255 255 255 255 255 255 255 255 255 255 255 255 255 255 255 255 255 255 255 255 255 255 255 255 255 255 255 255 255 255 255 255 255 255 255 255 255 255 255 255 255 255 255 255 255 255 255 255 255 255 255 255 255 255 255 255 255 255 255 255 255 255 255 255 255 255 255 255 255 255 255 255 255 255 255 255 255 255 255 255 255 255 255 255 255 255 255 255 255 255 255 255 255 255 255 255 255 255 255 255 255 255 255 255 255 255 255 255 255 255 255 255 255 255 255 255 255 255 255 255 255 255 255 255 255 255 255 255 255 255 255 255 255 255 255 255 255 255 255 255 255 255 255 255 255 255 255 255 255 255 255 255 255 255 255 255 255 255 255 255 255 255 255 255 255 255 255 255 255 255 255 255 255 255 255 255 255 255 255 255 255 255 255 255 255 255 255 255 255 255 255 255 255 255 255 255 255 255 255 255 255 255 255 255 255 255 255 255 255 255 255 255 255 255 255 255 255 255 255 255 255 255 255 255 255 255 255 255 255 255 255 255 255 255 255 255 255 255 255 255 255 255 255 255 255 255 255 255 255 255 255 255 255 255 255 255 255 255 255 255 255 255 255 255 255 255 255 255 255 255 255 255 255 255 255 255 255 255 255 255 255 255 255 255 255 255 255 255 255 255 255 255 255 255 255 255 255 255 255 255 255 255 255 255 255 255 255 255 255 255 255 255 255 255 255 255 255 255 255 255 255 255 255 255 255 255 255 255 255 255 255 255 255 255 255 255 255 255 255 255 255 255 255 255 255 255 255 255 255 255 255 255 255 255 255 255 255 255 255 255 255 255 255 255 255 255 255 255 255 255 255 255 255 255 255 255 255 255 255 255 255 255 255 255 255 255 255 255 255 255 255 255 255 255 255 255 255 255 255 255 255 255 255 255 255 255 255 255 255 255 255 255 255 255 255 255 255 255 255 255 255 255 255 255 255 255 255 255 255 255 255 255 255 255 255 255 255 255 255 255 255 255 255 255 255 255 255 255 255 255 255 255 255 255 255 255 255 255 255 255 255 255 255 255 255 255 255 255 255 255 255 255 255 255 255 255 255 255 255 255 255 255 255 255 255 255 255 255 255 255 255 255 255 255 255 255 255 255 255 255 255 255 255 255 255 255 255 255 255 255 255 255 255 255 255 255 255 255 255 255 255 255 255 255 255 255 255 255 255 255 255 255 255 255 255 255 255 255 255 255 255 255 255 255 255 255 255 255 255 255 255 255 255 255 255 255 255 255 255 255 255 255 255 255 255 255 255 255 255 255 255 255 255 255 255 255 255 255 255 255 255 255 255 255 255 255 255 255 255 255 255 255 255 255 255 255 255 255 255 255 255 255 255 255 255 255 255 255 255 255 255 255 255 255 255 255 255 255 255 255 255 255 255 255 255 255 255 255 255 255 255 255 255 255 255 255 255 255 255 255 255 255 255 255 255 255 255 255 255 255 255 255 255 255 255 255 255 255 255 255 255 255 255 255 255 255 255 255 255 255 255 255 255 255 255 255 255 255 255 255 255 255 255 255 255 255 255 255 255 255 255 255 255 255 255 255 255 255 255 255 255 255 255 255 255 255 255 255 255 255 255 255 255 255 255 255 255 255 255 255 255 255 255 255 255 255 255 255 255 255 255 255 255 255 255 255 255 255 255 255 255 255 255 255 255 255 255 255 255 255 255 255 255 255 255 255 255 255 255 255 255 255 255 255 255 255 255 255 255 255 255 255 255 255 255 255 255 255 255 255 255 255 255 255 255 255 255 255 255 255 255 255 255 255 255 255 255 255 255 255 255 255 255 255 255 255 255 255 255 255 255 255 255 255 
255 255 255 255 255 255 255 255 255 255 255 255 255 255 255 255 255 255 255 255 255 255 255 255 255 255 255 255 255 255 255 255 255 255 255 255 255 255 255 255 255 255 255 255 255 255 255 255 255 255 255 255 255 255 255 255 255 255 255 255 255 255 255 255 255 255 255 255 255 255 255 255 255 255 255 255 255 255 255 255 255 255 255 255 255 255 255 255 255 255 255 255 255 255 255 255 255 255 255 255 255 255 255 255 255 255 255 255 255 255 255 255 255 255 255 255 255 255 255 255 255 255 255 255 255 255 255 255 255 255 255 255 255 255 255 255 255 255 255 255 255 255 255 255 255 255 255 255 255 255 255 255 255 255 255 255 255 255 255 255 255 255 255 255 255 255 255 255 255 255 255 255 255 255 255 255 255 255 255 255 255 255 255 255 255 255 255 255 255 255 255 255 255 255 255 255 255 255 255 255 255 255 255 255 255 255 255 255 255 255 255 255 255 255 255 255 255 255 255 255 255 255 255 255 255 255 255 255 255 255 255 255 255 255 255 255 255 255 255 255 255 255 255 255 255 255 255 255 255 255 255 255 255 255 255 255 255 255 255 255 255 255 255 255 255 255 255 255 255 255 255 255 255 255 255 255 255 255 255 255 255 255 255 255 255 255 255 255 255 255 255 255 255 255 255 255 255 255 255 255 255 255 255 255 255 255 255 255 255 255 255 255 255 255 255 255 255 255 255 255 255 255 255 255 255 255 255 255 255 255 255 255 255 255 255 255 255 255 255 255 255 255 255 255 255 255 255 255 255 255 255 255 255 255 255 255 255 255 255 255 255 255 255 255 255 255 255 255 255 255 255 255 255 255 255 255 255 255 255 255 255 255 255 255 255 255 255 255 255 255 255 255 255 255 255 255 255 255 255 255 255 255 255 255 255 255 255 255 255 255 255 255 255 255 255 255 255 255 255 255 255 255 255 255 255 255 255 255 255 255 255 255 255 255 255 255 255 255 255 255 255 255 255 255 255 255 255 255 255 255 255 255 255 255 255 255 255 255 255 255 255 255 255 255 255 255 255 255 255 255 255 255 255 255 255 255 255 255 255 255 255 255 255 255 255 255 255 255 255 255 255 255 255 255 255 255 255 255 255 255 255 255 255 255 255 255 255 255 255 255 255 255 255 255 255 255 255 255 255 255 255 255 255 255 255 255 255 255 255 255 255 255 255 255 255 255 255 255 255 255 255 255 255 255 255 255 255 255 255 255 255 255 255 255 255 255 255 255 255 255 255 255 255 255 255 255 255 255 255 255 255 255 255 255 255 255 255 255 255 255 255 255 255 255 255 255 255 255 255 255 255 255 255 255 255 255 255 255 255 255 255 255 255 255 255 255 255 255 255 255 255 255 255 255 255 255 255 255 255 255 255 255 255 255 255 255 255 255 255 255 255 255 255 255 255 255 255 255 255 255 255 255 255 255 255 255 255 255 255 255 255 255 255 255 255 255 255 255 255 255 255 255 255 255 255 255 255 255 255 255 255 255 255 255 255 255 255 255 255 255 255 255 255 255 255 255 255 255 255 255 255 255 255 255 255 255 255 255 255 255 255 255 255 255 255 255 255 255 255 255 255 255 255 255 255 255 255 255 255 255 255 255 255 255 255 255 255 255 255 255 255 255 255 255 255 255 255 255 255 255 255 255 255 255 255 255 255 255 255 255 255 255 255 255 255 255 255 255 255 255 255 255 255 255 255 255 255 255 255 255 255 255 255 255 255 255 255 255 255 255 255 255 255 255 255 255 255 255 255 255 255 255 255 255 255 255 255 255 255 255 255 255 255 255 255 255 255 255 255 255 255 255 255 255 255 255 255 255 255 255 255 255 255 255 255 255 255 255 255 255 255 255 255 255 255 255 255 255 255 255 255 255 255 255 255 255 255 255 255 255 255 255 255 255 255 255 255 255 255 255 255 255 255 255 255 255 255 255 255 255 255 255 255 255 255 255 255 255 255 255 255 255 255 255 255 255 255 255 255 255 255 255 255 255 255 255 255 255 255 255 
255 255 255 255 255 255 255 255 255 255 255 255 255 255 255 255 255 255 255 255 255 255 255 255 255 255 255 255 255 255 255 255 255 255 255 255 255 255 255 255 255 255 255 255 255 255 255 255 255 255 255 255 255 255 255 255 255 255 255 255 255 255 255 255 255 255 255 255 255 255 255 255 255 255 255 255 255 255 255 255 255 255 255 255 255 255 255 255 255 255 255 255 255 255 255 255 255 255 255 255 255 255 255 255 255 255 255 255 255 255 255 255 255 255 255 255 255 255 255 255 255 255 255 255 255 255 255 255 255 255 255 255 255 255 255 255 255 255 255 255 255 255 255 255 255 255 255 255 255 255 255 255 255 255 255 255 255 255 255 255 255 255 255 255 255 255 255 255 255 255 255 255 255 255 255 255 255 255 255 255 255 255 255 255 255 255 255 255 255 255 255 255 255 255 255 255 255 255 255 255 255 255 255 255 255 255 255 255 255 255 255 255 255 255 255 255 255 255 255 255 255 255 255 255 255 255 255 255 255 255 255 255 255 255 255 255 255 255 255 255 255 255 255 255 255 255 255 255 255 255 255 255 255 255 255 255 255 255 255 255 255 255 255 255 255 255 255 255 255 255 255 255 255 255 255 255 255 255 255 255 255 255 255 255 255 255 255 255 255 255 255 255 255 255 255 255 255 255 255 255 255 255 255 255 255 255 255 255 255 255 255 255 255 255 255 255 255 255 255 255 255 255 255 255 255 255 255 255 255 255 255 255 255 255 255 255 255 255 255 255 255 255 255 255 255 255 255 255 255 255 255 255 255 255 255 255 255 255 255 255 255 255 255 255 255 255 255 255 255 255 255 255 255 255 255 255 255 255 255 255 255 255 255 255 255 255 255 255 255 255 255 255 255 255 255 255 255 255 255 255 255 255 255 255 255 255 255 255 255 255 255 255 255 255 255 255 255 255 255 255 255 255 255 255 255 255 255 255 255 255 255 255 255 255 255 255 255 255 255 255 255 255 255 255 255 255 255 255 255 255 255 255 255 255 255 255 255 255 255 255 255 255 255 255 255 255 255 255 255 255 255 255 255 255 255 255 255 255 255 255 255 255 255 255 255 255 255 255 255 255 255 255 255 255 255 255 255 255 255 255 255 255 255 255 255 255 255 255 255 255 255 255 255 255 255 255 255 255 255 255 255 255 255 255 255 255 255 255 255 255 255 255 255 255 255 255 255 255 255 255 255 255 255 255 255 255 255 255 255 255 255 255 255 255 255 255 255 255 255 255 255 255 255 255 255 255 255 255 255 255 255 255 255 255 255 255 255 255 255 255 255 255 255 255 255 255 255 255 255 255 255 255 255 255 255 255 255 255 255 255 255 255 255 255 255 255 255 255 255 255 255 255 255 255 255 255 255 255 255 255 255 255 255 255 255 255 255 255 255 255 255 255 255 255 255 255 255 255 255 255 255 255 255 255 255 255 255 255 255 255 255 255 255 255 255 255 255 255 255 255 255 255 255 255 255 255 255 255 255 255 255 255 255 255 255 255 255 255 255 255 255 255 255 255 255 255 255 255 255 255 255 255 255 255 255 255 255 255 255 255 255 255 255 255 255 255 255 255 255 255 255 255 255 255 255 255 255 255 255 255 255 255 255 255 255 255 255 255 255 255 255 255 255 255 255 255 255 255 255 255 255 255 255 255 255 255 255 255 255 255 255 255 255 255 255 255 255 255 255 255 255 255 255 255 255 255 255 255 255 255 255 255 255 255 255 255 255 255 255 255 255 255 255 255 255 255 255 255 255 255 255 255 255 255 255 255 255 255 255 255 255 255 255 255 255 255 255 255 255 255 255 255 255 255 255 255 255 255 255 255 255 255 255 255 255 255 255 255 255 255 255 255 255 255 255 255 255 255 255 255 255 255 255 255 255 255 255 255 255 255 255 255 255 255 255 255 255 255 255 255 255 255 255 255 255 255 255 255 255 255 255 255 255 255 255 255 255 255 255 255 255 255 255 255 255 255 255 255 255 255 255 255 255 255 255 255 255 255 255 255 
255 255 255 255 255 255 255 255 255 255 255 255 255 255 255 255 255 255 255 255 255 255 255 255 255 255 255 255 255 255 255 255 255 255 255 255 255 255 255 255 255 255 255 255 255 255 255 255 255 255 255 255 255 255 255 255 255 255 255 255 255 255 255 255 255 255 255 255 255 255 255 255 255 255 255 255 255 255 255 255 255 255 255 255 255 255 255 255 255 255 255 255 255 255 255 255 255 255 255 255 255 255 255 255 255 255 255 255 255 255 255 255 255 255 255 255 255 255 255 255 255 255 255 255 255 255 255 255 255 255 255 255 255 255 255 255 255 255 255 255 255 255 255 255 255 255 255 255 255 255 255 255 255 255 255 255 255 255 255 255 255 255 255 255 255 255 255 255 255 255 255 255 255 255 255 255 255 255 255 255 255 255 255 255 255 255 255 255 255 255 255 255 255 255 255 255 255 255 255 255 255 255 255 255 255 255 255 255 255 255 255 255 255 255 255 255 255 255 255 255 255 255 255 255 255 255 255 255 255 255 255 255 255 255 255 255 255 255 255 255 255 255 255 255 255 255 255 255 255 255 255 255 255 255 255 255 255 255 255 255 255 255 255 255 255 255 255 255 255 255 255 255 255 255 255 255 255 255 255 255 255 255 255 255 255 255 255 255 255 255 255 255 255 255 255 255 255 255 255 255 255 255 255 255 255 255 255 255 255 255 255 255 255 255 255 255 255 255 255 255 255 255 255 255 255 255 255 255 255 255 255 255 255 255 255 255 255 255 255 255 255 255 255 255 255 255 255 255 255 255 255 255 255 255 255 255 255 255 255 255 255 255 255 255 255 255 255 255 255 255 255 255 255 255 255 255 255 255 255 255 255 255 255 255 255 255 255 255 255 255 255 255 255 255 255 255 255 255 255 255 255 255 255 255 255 255 255 255 255 255 255 255 255 255 255 255 255 255 255 255 255 255 255 255 255 255 255 255 255 255 255 255 255 255 255 255 255 255 255 255 255 255 255 255 255 255 255 255 255 255 255 255 255 255 255 255 255 255 255 255 255 255 255 255 255 255 255 255 255 255 255 255 255 255 255 255 255 255 255 255 255 255 255 255 255 255 255 255 255 255 255 255 255 255 255 255 255 255 255 255 255 255 255 255 255 255 255 255 255 255 255 255 255 255 255 255 255 255 255 255 255 255 255 255 255 255 255 255 255 255 255 255 255 255 255 255 255 255 255 255 255 255 255 255 255 255 255 255 255 255 255 255 255 255 255 255 255 255 255 255 255 255 255 255 255 255 255 255 255 255 255 255 255 255 255 255 255 255 255 255 255 255 255 255 255 255 255 255 255 255 255 255 255 255 255 255 255 255 255 255 255 255 255 255 255 255 255 255 255 255 255 255 255 255 255 255 255 255 255 255 255 255 255 255 255 255 255 255 255 255 255 255 255 255 255 255 255 255 255 255 255 255 255 255 255 255 255 255 255 255 255 255 255 255 255 255 255 255 255 255 255 255 255 255 255 255 255 255 255 255 255 255 255 255 255 255 255 255 255 255 255 255 255 255 255 255 255 255 255 255 255 255 255 255 255 255 255 255 255 255 255 255 255 255 255 255 255 255 255 255 255 255 255 255 255 255 255 255 255 255 255 255 255 255 255 255 255 255 255 255 255 255 255 255 255 255 255 255 255 255 255 255 255 255 255 255 255 255 255 255 255 255 255 255 255 255 255 255 255 255 255 255 255 255 255 255 255 255 255 255 255 255 255 255 255 255 255 255 255 255 255 255 255 255 255 255 255 255 255 255 255 255 255 255 255 255 255 255 255 255 255 255 255 255 255 255 255 255 255 255 255 255 255 255 255 255 255 255 255 255 255 255 255 255 255 255 255 255 255 255 255 255 255 255 255 255 255 255 255 255 255 255 255 255 255 255 255 255 255 255 255 255 255 255 255 255 255 255 255 255 255 255 255 255 255 255 255 255 255 255 255 255 255 255 255 255 255 255 255 255 255 255 255 255 255 255 255 255 255 255 255 255 255 255 255 255 255 255 255 255 
255 255 255 255 255 255 255 255 255 255 255 255 255 255 255 255 255 255 255 255 255 255 255 255 255 255 255 255 255 255 255 255 255 255 255 255 255 255 255 255 255 255 255 255 255 255 255 255 255 255 255 255 255 255 255 255 255 255 255 255 255 255 255 255 255 255 255 255 255 255 255 255 255 255 255 255 255 255 255 255 255 255 255 255 255 255 255 255 255 255 255 255 255 255 255 255 255 255 255 255 255 255 255 255 255 255 255 255 255 255 255 255 255 255 255 255 255 255 255 255 255 255 255 255 255 255 255 255 255 255 255 255 255 255 255 255 255 255 255 255 255 255 255 255 255 255 255 255 255 255 255 255 255 255 255 255 255 255 255 255 255 255 255 255 255 255 255 255 255 255 255 255 255 255 255 255 255 255 255 255 255 255 255 255 255 255 255 255 255 255 255 255 255 255 255 255 255 255 255 255 255 255 255 255 255 255 255 255 255 255 255 255 255 255 255 255 255 255 255 255 255 255 255 255 255 255 255 255 255 255 255 255 255 255 255 255 255 255 255 255 255 255 255 255 255 255 255 255 255 255 255 255 255 255 255 255 255 255 255 255 255 255 255 255 255 255 255 255 255 255 255 255 255 255 255 255 255 255 255 255 255 255 255 255 255 255 255 255 255 255 255 255 255 255 255 255 255 255 255 255 255 255 255 255 255 255 255 255 255 255 255 255 255 255 255 255 255 255 255 255 255 255 255 255 255 255 255 255 255 255 255 255 255 255 255 255 255 255 255 255 255 255 255 255 255 255 255 255 255 255 255 255 255 255 255 255 255 255 255 255 255 255 255 255 255 255 255 255 255 255 255 255 255 255 255 255 255 255 255 255 255 255 255 255 255 255 255 255 255 255 255 255 255 255 255 255 255 255 255 255 255 255 255 255 255 255 255 255 255 255 255 255 255 255 255 255 255 255 255 255 255 255 255 255 255 255 255 255 255 255 255 255 255 255 255 255 255 255 255 255 255 255 255 255 255 255 255 255 255 255 255 255 255 255 255 255 255 255 255 255 255 255 255 255 255 255 255 255 255 255 255 255 255 255 255 255 255 255 255 255 255 255 255 255 255 255 255 255 255 255 255 255 255 255 255 255 255 255 255 255 255 255 255 255 255 255 255 255 255 255 255 255 255 255 255 255 255 255 255 255 255 255 255 255 255 255 255 255 255 255 255 255 255 255 255 255 255 255 255 255 255 255 255 255 255 255 255 255 255 255 255 255 255 255 255 255 255 255 255 255 255 255 255 255 255 255 255 255 255 255 255 255 255 255 255 255 255 255 255 255 255 255 255 255 255 255 255 255 255 255 255 255 255 255 255 255 255 255 255 255 255 255 255 255 255 255 255 255 255 255 255 255 255 255 255 255 255 255 255 255 255 255 255 255 255 255 255 255 255 255 255 255 255 255 255 255 255 255 255 255 255 255 255 255 255 255 255 255 255 255 255 255 255 255 255 255 255 255 255 255 255 255 255 255 255 255 255 255 255 255 255 255 255 255 255 255 255 255 255 255 255 255 255 255 255 255 255 255 255 255 255 255 255 255 255 255 255 255 255 255 255 255 255 255 255 255 255 255 255 255 255 255 255 255 255 255 255 255 255 255 255 255 255 255 255 255 255 255 255 255 255 255 255 255 255 255 255 255 255 255 255 255 255 255 255 255 255 255 255 255 255 255 255 255 255 255 255 255 255 255 255 255 255 255 255 255 255 255 255 255 255 255 255 255 255 255 255 255 255 255 255 255 255 255 255 255 255 255 255 255 255 255 255 255 255 255 255 255 255 255 255 255 255 255 255 255 255 255 255 255 255 255 255 255 255 255 255 255 255 255 255 255 255 255 255 255 255 255 255 255 255 255 255 255 255 255 255 255 255 255 255 255 255 255 255 255 255 255 255 255 255 255 255 255 255 255 255 255 255 255 255 255 255 255 255 255 255 255 255 255 255 255 255 255 255 255 255 255 255 255 255 255 255 255 255 255 255 255 255 255 255 255 255 255 255 255 255 255 255 255 
255 255 255 255 255 255 255 255 255 255 255 255 255 255 255 255 255 255 255 255 255 255 255 255 255 255 255 255 255 255 255 255 255 255 255 255 255 255 255 255 255 255 255 255 255 255 255 255 255 255 255 255 255 255 255 255 255 255 255 255 255 255 255 255 255 255 255 255 255 255 255 255 255 255 255 255 255 255 255 255 255 255 255 255 255 255 255 255 255 255 255 255 255 255 255 255 255 255 255 255 255 255 255 255 255 255 255 255 255 255 255 255 255 255 255 255 255 255 255 255 255 255 255 255 255 255 255 255 255 255 255 255 255 255 255 255 255 255 255 255 255 255 255 255 255 255 255 255 255 255 255 255 255 255 255 255 255 255 255 255 255 255 255 255 255 255 255 255 255 255 255 255 255 255 255 255 255 255 255 255 255 255 255 255 255 255 255 255 255 255 255 255 255 255 255 255 255 255 255 255 255 255 255 255 255 255 255 255 255 255 255 255 255 255 255 255 255 255 255 255 255 255 255 255 255 255 255 255 255 255 255 255 255 255 255 255 255 255 255 255 255 255 255 255 255 255 255 255 255 255 255 255 255 255 255 255 255 255 255 255 255 255 255 255 255 255 255 255 255 255 255 255 255 255 255 255 255 255 255 255 255 255 255 255 255 255 255 255 255 255 255 255 255 255 255 255 255 255 255 255 255 255 255 255 255 255 255 255 255 255 255 255 255 255 255 255 255 255 255 255 255 255 255 255 255 255 255 255 255 255 255 255 255 255 255 255 255 255 255 255 255 255 255 255 255 255 255 255 255 255 255 255 255 255 255 255 255 255 255 255 255 255 255 255 255 255 255 255 255 255 255 255 255 255 255 255 255 255 255 255 255 255 255 255 255 255 255 255 255 255 255 255 255 255 255 255 255 255 255 255 255 255 255 255 255 255 255 255 255 255 255 255 255 255 255 255 255 255 255 255 255 255 255 255 255 255 255 255 255 255 255 255 255 255 255 255 255 255 255 255 255 255 255 255 255 255 255 255 255 255 255 255 255 255 255 255 255 255 255 255 255 255 255 255 255 255 255 255 255 255 255 255 255 255 255 255 255 255 255 255 255 255 255 255 255 255 255 255 255 255 255 255 255 255 255 255 255 255 255 255 255 255 255 255 255 255 255 255 255 255 255 255 255 255 255 255 255 255 255 255 255 255 255 255 255 255 255 255 255 255 255 255 255 255 255 255 255 255 255 255 255 255 255 255 255 255 255 255 255 255 255 255 255 255 255 255 255 255 255 255 255 255 255 255 255 255 255 255 255 255 255 255 255 255 255 255 255 255 255 255 255 255 255 255 255 255 255 255 255 255 255 255 255 255 255 255 255 255 255 255 255 255 255 255 255 255 255 255 255 255 255 255 255 255 255 255 255 255 255 255 255 255 255 255 255 255 255 255 255 255 255 255 255 255 255 255 255 255 255 255 255 255 255 255 255 255 255 255 255 255 255 255 255 255 255 255 255 255 255 255 255 255 255 255 255 255 255 255 255 255 255 255 255 255 255 255 255 255 255 255 255 255 255 255 255 255 255 255 255 255 255 255 255 255 255 255 255 255 255 255 255 255 255 255 255 255 255 255 255 255 255 255 255 255 255 255 255 255 255 255 255 255 255 255 255 255 255 255 255 255 255 255 255 255 255 255 255 255 255 255 255 255 255 255 255 255 255 255 255 255 255 255 255 255 255 255 255 255 255 255 255 255 255 255 255 255 255 255 255 255 255 255 255 255 255 255 255 255 255 255 255 255 255 255 255 255 255 255 255 255 255 255 255 255 255 255 255 255 255 255 255 255 255 255 255 255 255 255 255 255 255 255 255 255 255 255 255 255 255 255 255 255 255 255 255 255 255 255 255 255 255 255 255 255 255 255 255 255 255 255 255 255 255 255 255 255 255 255 255 255 255 255 255 255 255 255 255 255 255 255 255 255 255 255 255 255 255 255 255 255 255 255 255 255 255 255 255 255 255 255 255 255 255 255 255 255 255 255 255 255 255 255 255 255 255 255 255 255 255 255 
255 255 255 255 255 255 255 255 255 255 255 255 255 255 255 255 255 255 255 255 255 255 255 255 255 255 255 255 255 255 255 255 255 255 255 255 255 255 255 255 255 255 255 255 255 255 255 255 255 255 255 255 255 255 255 255 255 255 255 255 255 255 255 255 255 255 255 255 255 255 255 255 255 255 255 255 255 255 255 255 255 255 255 255 255 255 255 255 255 255 255 255 255 255 255 255 255 255 255 255 255 255 255 255 255 255 255 255 255 255 255 255 255 255 255 255 255 255 255 255 255 255 255 255 255 255 255 255 255 255 255 255 255 255 255 255 255 255 255 255 255 255 255 255 255 255 255 255 255 255 255 255 255 255 255 255 255 255 255 255 255 255 255 255 255 255 255 255 255 255 255 255 255 255 255 255 255 255 255 255 255 255 255 255 255 255 255 255 255 255 255 255 255 255 255 255 255 255 255 255 255 255 255 255 255 255 255 255 255 255 255 255 255 255 255 255 255 255 255 255 255 255 255 255 255 255 255 255 255 255 255 255 255 255 255 255 255 255 255 255 255 255 255 255 255 255 255 255 255 255 255 255 255 255 255 255 255 255 255 255 255 255 255 255 255 255 255 255 255 255 255 255 255 255 255 255 255 255 255 255 255 255 255 255 255 255 255 255 255 255 255 255 255 255 255 255 255 255 255 255 255 255 255 255 255 255 255 255 255 255 255 255 255 255 255 255 255 255 255 255 255 255 255 255 255 255 255 255 255 255 255 255 255 255 255 255 255 255 255 255 255 255 255 255 255 255 255 255 255 255 255 255 255 255 255 255 255 255 255 255 255 255 255 255 255 255 255 255 255 255 255 255 255 255 255 255 255 255 255 255 255 255 255 255 255 255 255 255 255 255 255 255 255 255 255 255 255 255 255 255 255 255 255 255 255 255 255 255 255 255 255 255 255 255 255 255 255 255 255 255 255 255 255 255 255 255 255 255 255 255 255 255 255 255 255 255 255 255 255 255 255 255 255 255 255 255 255 255 255 255 255 255 255 255 255 255 255 255 255 255 255 255 255 255 255 255 255 255 255 255 255 255 255 255 255 255 255 255 255 255 255 255 255 255 255 255 255 255 255 255 255 255 255 255 255 255 255 255 255 255 255 255 255 255 255 255 255 255 255 255 255 255 255 255 255 255 255 255 255 255 255 255 255 255 255 255 255 255 255 255 255 255 255 255 255 255 255 255 255 255 255 255 255 255 255 255 255 255 255 255 255 255 255 255 255 255 255 255 255 255 255 255 255 255 255 255 255 255 255 255 255 255 255 255 255 255 255 255 255 255 255 255 255 255 255 255 255 255 255 255 255 255 255 255 255 255 255 255 255 255 255 255 255 255 255 255 255 255 255 255 255 255 255 255 255 255 255 255 255 255 255 255 255 255 255 255 255 255 255 255 255 255 255 255 255 255 255 255 255 255 255 255 255 255 255 255 255 255 255 255 255 255 255 255 255 255 255 255 255 255 255 255 255 255 255 255 255 255 255 255 255 255 255 255 255 255 255 255 255 255 255 255 255 255 255 255 255 255 255 255 255 255 255 255 255 255 255 255 255 255 255 255 255 255 255 255 255 255 255 255 255 255 255 255 255 255 255 255 255 255 255 255 255 255 255 255 255 255 255 255 255 255 255 255 255 255 255 255 255 255 255 255 255 255 255 255 255 255 255 255 255 255 255 255 255 255 255 255 255 255 255 255 255 255 255 255 255 255 255 255 255 255 255 255 255 255 255 255 255 255 255 255 255 255 255 255 255 255 255 255 255 255 255 255 255 255 255 255 255 255 255 255 255 255 255 255 255 255 255 255 255 255 255 255 255 255 255 255 255 255 255 255 255 255 255 255 255 255 255 255 255 255 255 255 255 255 255 255 255 255 255 255 255 255 255 255 255 255 255 255 255 255 255 255 255 255 255 255 255 255 255 255 255 255 255 255 255 255 255 255 255 255 255 255 255 255 255 255 255 255 255 255 255 255 255 255 255 255 255 255 255 255 255 255 255 255 255 255 255 255 
255 255 255 255 255 255 255 255 255 255 255 255 255 255 255 255 255 255 255 255 255 255 255 255 255 255 255 255 255 255 255 255 255 255 255 255 255 255 255 255 255 255 255 255 255 255 255 255 255 255 255 255 255 255 255 255 255 255 255 255 255 255 255 255 255 255 255 255 255 255 255 255 255 255 255 255 255 255 255 255 255 255 255 255 255 255 255 255 255 255 255 255 255 255 255 255 255 255 255 255 255 255 255 255 255 255 255 255 255 255 255 255 255 255 255 255 255 255 255 255 255 255 255 255 255 255 255 255 255 255 255 255 255 255 255 255 255 255 255 255 255 255 255 255 255 255 255 255 255 255 255 255 255 255 255 255 255 255 255 255 255 255 255 255 255 255 255 255 255 255 255 255 255 255 255 255 255 255 255 255 255 255 255 255 255 255 255 255 255 255 255 255 255 255 255 255 255 255 255 255 255 255 255 255 255 255 255 255 255 255 255 255 255 255 255 255 255 255 255 255 255 255 255 255 255 255 255 255 255 255 255 255 255 255 255 255 255 255 255 255 255 255 255 255 255 255 255 255 255 255 255 255 255 255 255 255 255 255 255 255 255 255 255 255 255 255 255 255 255 255 255 255 255 255 255 255 255 255 255 255 255 255 255 255 255 255 255 255 255 255 255 255 255 255 255 255 255 255 255 255 255 255 255 255 255 255 255 255 255 255 255 255 255 255 255 255 255 255 255 255 255 255 255 255 255 255 255 255 255 255 255 255 255 255 255 255 255 255 255 255 255 255 255 255 255 255 255 255 255 255 255 255 255 255 255 255 255 255 255 255 255 255 255 255 255 255 255 255 255 255 255 255 255 255 255 255 255 255 255 255 255 255 255 255 255 255 255 255 255 255 255 255 255 255 255 255 255 255 255 255 255 255 255 255 255 255 255 255 255 255 255 255 255 255 255 255 255 255 255 255 255 255 255 255 255 255 255 255 255 255 255 255 255 255 255 255 255 255 255 255 255 255 255 255 255 255 255 255 255 255 255 255 255 255 255 255 255 255 255 255 255 255 255 255 255 255 255 255 255 255 255 255 255 255 255 255 255 255 255 255 255 255 255 255 255 255 255 255 255 255 255 255 255 255 255 255 255 255 255 255 255 255 255 255 255 255 255 255 255 255 255 255 255 255 255 255 255 255 255 255 255 255 255 255 255 255 255 255 255 255 255 255 255 255 255 255 255 255 255 255 255 255 255 255 255 255 255 255 255 255 255 255 255 255 255 255 255 255 255 255 255 255 255 255 255 255 255 255 255 255 255 255 255 255 255 255 255 255 255 255 255 255 255 255 255 255 255 255 255 255 255 255 255 255 255 255 255 255 255 255 255 255 255 255 255 255 255 255 255 255 255 255 255 255 255 255 255 255 255 255 255 255 255 255 255 255 255 255 255 255 255 255 255 255 255 255 255 255 255 255 255 255 255 255 255 255 255 255 255 255 255 255 255 255 255 255 255 255 255 255 255 255 255 255 255 255 255 255 255 255 255 255 255 255 255 255 255 255 255 255 255 255 255 255 255 255 255 255 255 255 255 255 255 255 255 255 255 255 255 255 255 255 255 255 255 255 255 255 255 255 255 255 255 255 255 255 255 255 255 255 255 255 255 255 255 255 255 255 255 255 255 255 255 255 255 255 255 255 255 255 255 255 255 255 255 255 255 255 255 255 255 255 255 255 255 255 255 255 255 255 255 255 255 255 255 255 255 255 255 255 255 255 255 255 255 255 255 255 255 255 255 255 255 255 255 255 255 255 255 255 255 255 255 255 255 255 255 255 255 255 255 255 255 255 255 255 255 255 255 255 255 255 255 255 255 255 255 255 255 255 255 255 255 255 255 255 255 255 255 255 255 255 255 255 255 255 255 255 255 255 255 255 255 255 255 255 255 255 255 255 255 255 255 255 255 255 255 255 255 255 255 255 255 255 255 255 255 255 255 255 255 255 255 255 255 255 255 255 255 255 255 255 255 255 255 255 255 255 255 255 255 255 255 255 255 255 255 255 255 255 
255 255 255 255 255 255 255 255 255 255 255 255 255 255 255 255 255 255 255 255 255 255 255 255 255 255 255 255 255 255 255 255 255 255 255 255 255 255 255 255 255 255 255 255 255 255 255 255 255 255 255 255 255 255 255 255 255 255 255 255 255 255 255 255 255 255 255 255 255 255 255 255 255 255 255 255 255 255 255 255 255 255 255 255 255 255 255 255 255 255 255 255 255 255 255 255 255 255 255 255 255 255 255 255 255 255 255 255 255 255 255 255 255 255 255 255 255 255 255 255 255 255 255 255 255 255 255 255 255 255 255 255 255 255 255 255 255 255 255 255 255 255 255 255 255 255 255 255 255 255 255 255 255 255 255 255 255 255 255 255 255 255 255 255 255 255 255 255 255 255 255 255 255 255 255 255 255 255 255 255 255 255 255 255 255 255 255 255 255 255 255 255 255 255 255 255 255 255 255 255 255 255 255 255 255 255 255 255 255 255 255 255 255 255 255 255 255 255 255 255 255 255 255 255 255 255 255 255 255 255 255 255 255 255 255 255 255 255 255 255 255 255 255 255 255 255 255 255 255 255 255 255 255 255 255 255 255 255 255 255 255 255 255 255 255 255 255 255 255 255 255 255 255 255 255 255 255 255 255 255 255 255 255 255 255 255 255 255 255 255 255 255 255 255 255 255 255 255 255 255 255 255 255 255 255 255 255 255 255 255 255 255 255 255 255 255 255 255 255 255 255 255 255 255 255 255 255 255 255 255 255 255 255 255 255 255 255 255 255 255 255 255 255 255 255 255 255 255 255 255 255 255 255 255 255 255 255 255 255 255 255 255 255 255 255 255 255 255 255 255 255 255 255 255 255 255 255 255 255 255 255 255 255 255 255 255 255 255 255 255 255 255 255 255 255 255 255 255 255 255 255 255 255 255 255 255 255 255 255 255 255 255 255 255 255 255 255 255 255 255 255 255 255 255 255 255 255 255 255 255 255 255 255 255 255 255 255 255 255 255 255 255 255 255 255 255 255 255 255 255 255 255 255 255 255 255 255 255 255 255 255 255 255 255 255 255 255 255 255 255 255 255 255 255 255 255 255 255 255 255 255 255 255 255 255 255 255 255 255 255 255 255 255 255 255 255 255 255 255 255 255 255 255 255 255 255 255 255 255 255 255 255 255 255 255 255 255 255 255 255 255 255 255 255 255 255 255 255 255 255 255 255 255 255 255 255 255 255 255 255 255 255 255 255 255 255 255 255 255 255 255 255 255 255 255 255 255 255 255 255 255 255 255 255 255 255 255 255 255 255 255 255 255 255 255 255 255 255 255 255 255 255 255 255 255 255 255 255 255 255 255 255 255 255 255 255 255 255 255 255 255 255 255 255 255 255 255 255 255 255 255 255 255 255 255 255 255 255 255 255 255 255 255 255 255 255 255 255 255 255 255 255 255 255 255 255 255 255 255 255 255 255 255 255 255 255 255 255 255 255 255 255 255 255 255 255 255 255 255 255 255 255 255 255 255 255 255 255 255 255 255 255 255 255 255 255 255 255 255 255 255 255 255 255 255 255 255 255 255 255 255 255 255 255 255 255 255 255 255 255 255 255 255 255 255 255 255 255 255 255 255 255 255 255 255 255 255 255 255 255 255 255 255 255 255 255 255 255 255 255 255 255 255 255 255 255 255 255 255 255 255 255 255 255 255 255 255 255 255 255 255 255 255 255 255 255 255 255 255 255 255 255 255 255 255 255 255 255 255 255 255 255 255 255 255 255 255 255 255 255 255 255 255 255 255 255 255 255 255 255 255 255 255 255 255 255 255 255 255 255 255 255 255 255 255 255 255 255 255 255 255 255 255 255 255 255 255 255 255 255 255 255 255 255 255 255 255 255 255 255 255 255 255 255 255 255 255 255 255 255 255 255 255 255 255 255 255 255 255 255 255 255 255 255 255 255 255 255 255 255 255 255 255 255 255 255 255 255 255 255 255 255 255 255 255 255 255 255 255 255 255 255 255 255 255 255 255 255 255 255 255 255 255 255 255 255 255 255 255 255 
255 255 255 255 255 255 255 255 255 255 255 255 255 255 255 255 255 255 255 255 255 255 255 255 255 255 255 255 255 255 255 255 255 255 255 255 255 255 255 255 255 255 255 255 255 255 255 255 255 255 255 255 255 255 255 255 255 255 255 255 255 255 255 255 255 255 255 255 255 255 255 255 255 255 255 255 255 255 255 255 255 255 255 255 255 255 255 255 255 255 255 255 255 255 255 255 255 255 255 255 255 255 255 255 255 255 255 255 255 255 255 255 255 255 255 255 255 255 255 255 255 255 255 255 255 255 255 255 255 255 255 255 255 255 255 255 255 255 255 255 255 255 255 255 255 255 255 255 255 255 255 255 255 255 255 255 255 255 255 255 255 255 255 255 255 255 255 255 255 255 255 255 255 255 255 255 255 255 255 255 255 255 255 255 255 255 255 255 255 255 255 255 255 255 255 255 255 255 255 255 255 255 255 255 255 255 255 255 255 255 255 255 255 255 255 255 255 255 255 255 255 255 255 255 255 255 255 255 255 255 255 255 255 255 255 255 255 255 255 255 255 255 255 255 255 255 255 255 255 255 255 255 255 255 255 255 255 255 255 255 255 255 255 255 255 255 255 255 255 255 255 255 255 255 255 255 255 255 255 255 255 255 255 255 255 255 255 255 255 255 255 255 255 255 255 255 255 255 255 255 255 255 255 255 255 255 255 255 255 255 255 255 255 255 255 255 255 255 255 255 255 255 255 255 255 255 255 255 255 255 255 255 255 255 255 255 255 255 255 255 255 255 255 255 255 255 255 255 255 255 255 255 255 255 255 255 255 255 255 255 255 255 255 255 255 255 255 255 255 255 255 255 255 255 255 255 255 255 255 255 255 255 255 255 255 255 255 255 255 255 255 255 255 255 255 255 255 255 255 255 255 255 255 255 255 255 255 255 255 255 255 255 255 255 255 255 255 255 255 255 255 255 255 255 255 255 255 255 255 255 255 255 255 255 255 255 255 255 255 255 255 255 255 255 255 255 255 255 255 255 255 255 255 255 255 255 255 255 255 255 255 255 255 255 255 255 255 255 255 255 255 255 255 255 255 255 255 255 255 255 255 255 255 255 255 255 255 255 255 255 255 255 255 255 255 255 255 255 255 255 255 255 255 255 255 255 255 255 255 255 255 255 255 255 255 255 255 255 255 255 255 255 255 255 255 255 255 255 255 255 255 255 255 255 255 255 255 255 255 255 255 255 255 255 255 255 255 255 255 255 255 255 255 255 255 255 255 255 255 255 255 255 255 255 255 255 255 255 255 255 255 255 255 255 255 255 255 255 255 255 255 255 255 255 255 255 255 255 255 255 255 255 255 255 255 255 255 255 255 255 255 255 255 255 255 255 255 255 255 255 255 255 255 255 255 255 255 255 255 255 255 255 255 255 255 255 255 255 255 255 255 255 255 255 255 255 255 255 255 255 255 255 255 255 255 255 255 255 255 255 255 255 255 255 255 255 255 255 255 255 255 255 255 255 255 255 255 255 255 255 255 255 255 255 255 255 255 255 255 255 255 255 255 255 255 255 255 255 255 255 255 255 255 255 255 255 255 255 255 255 255 255 255 255 255 255 255 255 255 255 255 255 255 255 255 255 255 255 255 255 255 255 255 255 255 255 255 255 255 255 255 255 255 255 255 255 255 255 255 255 255 255 255 255 255 255 255 255 255 255 255 255 255 255 255 255 255 255 255 255 255 255 255 255 255 255 255 255 255 255 255 255 255 255 255 255 255 255 255 255 255 255 255 255 255 255 255 255 255 255 255 255 255 255 255 255 255 255 255 255 255 255 255 255 255 255 255 255 255 255 255 255 255 255 255 255 255 255 255 255 255 255 255 255 255 255 255 255 255 255 255 255 255 255 255 255 255 255 255 255 255 255 255 255 255 255 255 255 255 255 255 255 255 255 255 255 255 255 255 255 255 255 255 255 255 255 255 255 255 255 255 255 255 255 255 255 255 255 255 255 255 255 255 255 255 255 255 255 255 255 255 255 255 255 255 255 255 255 255 255 
255 255 255 255 255 255 255 255 255 255 255 255 255 255 255 255 255 255 255 255 255 255 255 255 255 255 255 255 255 255 255 255 255 255 255 255 255 255 255 255 255 255 255 255 255 255 255 255 255 255 255 255 255 255 255 255 255 255 255 255 255 255 255 255 255 255 255 255 255 255 255 255 255 255 255 255 255 255 255 255 255 255 255 255 255 255 255 255 255 255 255 255 255 255 255 255 255 255 255 255 255 255 255 255 255 255 255 255 255 255 255 255 255 255 255 255 255 255 255 255 255 255 255 255 255 255 255 255 255 255 255 255 255 255 255 255 255 255 255 255 255 255 255 255 255 255 255 255 255 255 255 255 255 255 255 255 255 255 255 255 255 255 255 255 255 255 255 255 255 255 255 255 255 255 255 255 255 255 255 255 255 255 255 255 255 255 255 255 255 255 255 255 255 255 255 255 255 255 255 255 255 255 255 255 255 255 255 255 255 255 255 255 255 255 255 255 255 255 255 255 255 255 255 255 255 255 255 255 255 255 255 255 255 255 255 255 255 255 255 255 255 255 255 255 255 255 255 255 255 255 255 255 255 255 255 255 255 255 255 255 255 255 255 255 255 255 255 255 255 255 255 255 255 255 255 255 255 255 255 255 255 255 255 255 255 255 255 255 255 255 255 255 255 255 255 255 255 255 255 255 255 255 255 255 255 255 255 255 255 255 255 255 255 255 255 255 255 255 255 255 255 255 255 255 255 255 255 255 255 255 255 255 255 255 255 255 255 255 255 255 255 255 255 255 255 255 255 255 255 255 255 255 255 255 255 255 255 255 255 255 255 255 255 255 255 255 255 255 255 255 255 255 255 255 255 255 255 255 255 255 255 255 255 255 255 255 255 255 255 255 255 255 255 255 255 255 255 255 255 255 255 255 255 255 255 255 255 255 255 255 255 255 255 255 255 255 255 255 255 255 255 255 255 255 255 255 255 255 255 255 255 255 255 255 255 255 255 255 255 255 255 255 255 255 255 255 255 255 255 255 255 255 255 255 255 255 255 255 255 255 255 255 255 255 255 255 255 255 255 255 255 255 255 255 255 255 255 255 255 255 255 255 255 255 255 255 255 255 255 255 255 255 255 255 255 255 255 255 255 255 255 255 255 255 255 255 255 255 255 255 255 255 255 255 255 255 255 255 255 255 255 255 255 255 255 255 255 255 255 255 255 255 255 255 255 255 255 255 255 255 255 255 255 255 255 255 255 255 255 255 255 255 255 255 255 255 255 255 255 255 255 255 255 255 255 255 255 255 255 255 255 255 255 255 255 255 255 255 255 255 255 255 255 255 255 255 255 255 255 255 255 255 255 255 255 255 255 255 255 255 255 255 255 255 255 255 255 255 255 255 255 255 255 255 255 255 255 255 255 255 255 255 255 255 255 255 255 255 255 255 255 255 255 255 255 255 255 255 255 255 255 255 255 255 255 255 255 255 255 255 255 255 255 255 255 255 255 255 255 255 255 255 255 255 255 255 255 255 255 255 255 255 255 255 255 255 255 255 255 255 255 255 255 255 255 255 255 255 255 255 255 255 255 255 255 255 255 255 255 255 255 255 255 255 255 255 255 255 255 255 255 255 255 255 255 255 255 255 255 255 255 255 255 255 255 255 255 255 255 255 255 255 255 255 255 255 255 255 255 255 255 255 255 255 255 255 255 255 255 255 255 255 255 255 255 255 255 255 255 255 255 255 255 255 255 255 255 255 255 255 255 255 255 255 255 255 255 255 255 255 255 255 255 255 255 255 255 255 255 255 255 255 255 255 255 255 255 255 255 255 255 255 255 255 255 255 255 255 255 255 255 255 255 255 255 255 255 255 255 255 255 255 255 255 255 255 255 255 255 255 255 255 255 255 255 255 255 255 255 255 255 255 255 255 255 255 255 255 255 255 255 255 255 255 255 255 255 255 255 255 255 255 255 255 255 255 255 255 255 255 255 255 255 255 255 255 255 255 255 255 255 255 255 255 255 255 255 255 255 255 255 255 255 255 255 255 255 255 255 255 
255 255 255 255 255 255 255 255 255 255 255 255 255 255 255 255 255 255 255 255 255 255 255 255 255 255 255 255 255 255 255 255 255 255 255 255 255 255 255 255 255 255 255 255 255 255 255 255 255 255 255 255 255 255 255 255 255 255 255 255 255 255 255 255 255 255 255 255 255 255 255 255 255 255 255 255 255 255 255 255 255 255 255 255 255 255 255 255 255 255 255 255 255 255 255 255 255 255 255 255 255 255 255 255 255 255 255 255 255 255 255 255 255 255 255 255 255 255 255 255 255 255 255 255 255 255 255 255 255 255 255 255 255 255 255 255 255 255 255 255 255 255 255 255 255 255 255 255 255 255 255 255 255 255 255 255 255 255 255 255 255 255 255 255 255 255 255 255 255 255 255 255 255 255 255 255 255 255 255 255 255 255 255 255 255 255 255 255 255 255 255 255 255 255 255 255 255 255 255 255 255 255 255 255 255 255 255 255 255 255 255 255 255 255 255 255 255 255 255 255 255 255 255 255 255 255 255 255 255 255 255 255 255 255 255 255 255 255 255 255 255 255 255 255 255 255 255 255 255 255 255 255 255 255 255 255 255 255 255 255 255 255 255 255 255 255 255 255 255 255 255 255 255 255 255 255 255 255 255 255 255 255 255 255 255 255 255 255 255 255 255 255 255 255 255 255 255 255 255 255 255 255 255 255 255 255 255 255 255 255 255 255 255 255 255 255 255 255 255 255 255 255 255 255 255 255 255 255 255 255 255 255 255 255 255 255 255 255 255 255 255 255 255 255 255 255 255 255 255 255 255 255 255 255 255 255 255 255 255 255 255 255 255 255 255 255 255 255 255 255 255 255 255 255 255 255 255 255 255 255 255 255 255 255 255 255 255 255 255 255 255 255 255 255 255 255 255 255 255 255 255 255 255 255 255 255 255 255 255 255 255 255 255 255 255 255 255 255 255 255 255 255 255 255 255 255 255 255 255 255 255 255 255 255 255 255 255 255 255 255 255 255 255 255 255 255 255 255 255 255 255 255 255 255 255 255 255 255 255 255 255 255 255 255 255 255 255 255 255 255 255 255 255 255 255 255 255 255 255 255 255 255 255 255 255 255 255 255 255 255 255 255 255 255 255 255 255 255 255 255 255 255 255 255 255 255 255 255 255 255 255 255 255 255 255 255 255 255 255 255 255 255 255 255 255 255 255 255 255 255 255 255 255 255 255 255 255 255 255 255 255 255 255 255 255 255 255 255 255 255 255 255 255 255 255 255 255 255 255 255 255 255 255 255 255 255 255 255 255 255 255 255 255 255 255 255 255 255 255 255 255 255 255 255 255 255 255 255 255 255 255 255 255 255 255 255 255 255 255 255 255 255 255 255 255 255 255 255 255 255 255 255 255 255 255 255 255 255 255 255 255 255 255 255 255 255 255 255 255 255 255 255 255 255 255 255 255 255 255 255 255 255 255 255 255 255 255 255 255 255 255 255 255 255 255 255 255 255 255 255 255 255 255 255 255 255 255 255 255 255 255 255 255 255 255 255 255 255 255 255 255 255 255 255 255 255 255 255 255 255 255 255 255 255 255 255 255 255 255 255 255 255 255 255 255 255 255 255 255 255 255 255 255 255 255 255 255 255 255 255 255 255 255 255 255 255 255 255 255 255 255 255 255 255 255 255 255 255 255 255 255 255 255 255 255 255 255 255 255 255 255 255 255 255 255 255 255 255 255 255 255 255 255 255 255 255 255 255 255 255 255 255 255 255 255 255 255 255 255 255 255 255 255 255 255 255 255 255 255 255 255 255 255 255 255 255 255 255 255 255 255 255 255 255 255 255 255 255 255 255 255 255 255 255 255 255 255 255 255 255 255 255 255 255 255 255 255 255 255 255 255 255 255 255 255 255 255 255 255 255 255 255 255 255 255 255 255 255 255 255 255 255 255 255 255 255 255 255 255 255 255 255 255 255 255 255 255 255 255 255 255 255 255 255 255 255 255 255 255 255 255 255 255 255 255 255 255 255 255 255 255 255 255 255 255 255 255 255 255 255 
255 255 255 255 255 255 255 255 255 255 255 255 255 255 255 255 255 255 255 255 255 255 255 255 255 255 255 255 255 255 255 255 255 255 255 255 255 255 255 255 255 255 255 255 255 255 255 255 255 255 255 255 255 255 255 255 255 255 255 255 255 255 255 255 255 255 255 255 255 255 255 255 255 255 255 255 255 255 255 255 255 255 255 255 255 255 255 255 255 255 255 255 255 255 255 255 255 255 255 255 255 255 255 255 255 255 255 255 255 255 255 255 255 255 255 255 255 255 255 255 255 255 255 255 255 255 255 255 255 255 255 255 255 255 255 255 255 255 255 255 255 255 255 255 255 255 255 255 255 255 255 255 255 255 255 255 255 255 255 255 255 255 255 255 255 255 255 255 255 255 255 255 255 255 255 255 255 255 255 255 255 255 255 255 255 255 255 255 255 255 255 255 255 255 255 255 255 255 255 255 255 255 255 255 255 255 255 255 255 255 255 255 255 255 255 255 255 255 255 255 255 255 255 255 255 255 255 255 255 255 255 255 255 255 255 255 255 255 255 255 255 255 255 255 255 255 255 255 255 255 255 255 255 255 255 255 255 255 255 255 255 255 255 255 255 255 255 255 255 255 255 255 255 255 255 255 255 255 255 255 255 255 255 255 255 255 255 255 255 255 255 255 255 255 255 255 255 255 255 255 255 255 255 255 255 255 255 255 255 255 255 255 255 255 255 255 255 255 255 255 255 255 255 255 255 255 255 255 255 255 255 255 255 255 255 255 255 255 255 255 255 255 255 255 255 255 255 255 255 255 255 255 255 255 255 255 255 255 255 255 255 255 255 255 255 255 255 255 255 255 255 255 255 255 255 255 255 255 255 255 255 255 255 255 255 255 255 255 255 255 255 255 255 255 255 255 255 255 255 255 255 255 255 255 255 255 255 255 255 255 255 255 255 255 255 255 255 255 255 255 255 255 255 255 255 255 255 255 255 255 255 255 255 255 255 255 255 255 255 255 255 255 255 255 255 255 255 255 255 255 255 255 255 255 255 255 255 255 255 255 255 255 255 255 255 255 255 255 255 255 255 255 255 255 255 255 255 255 255 255 255 255 255 255 255 255 255 255 255 255 255 255 255 255 255 255 255 255 255 255 255 255 255 255 255 255 255 255 255 255 255 255 255 255 255 255 255 255 255 255 255 255 255 255 255 255 255 255 255 255 255 255 255 255 255 255 255 255 255 255 255 255 255 255 255 255 255 255 255 255 255 255 255 255 255 255 255 255 255 255 255 255 255 255 255 255 255 255 255 255 255 255 255 255 255 255 255 255 255 255 255 255 255 255 255 255 255 255 255 255 255 255 255 255 255 255 255 255 255 255 255 255 255 255 255 255 255 255 255 255 255 255 255 255 255 255 255 255 255 255 255 255 255 255 255 255 255 255 255 255 255 255 255 255 255 255 255 255 255 255 255 255 255 255 255 255 255 255 255 255 255 255 255 255 255 255 255 255 255 255 255 255 255 255 255 255 255 255 255 255 255 255 255 255 255 255 255 255 255 255 255 255 255 255 255 255 255 255 255 255 255 255 255 255 255 255 255 255 255 255 255 255 255 255 255 255 255 255 255 255 255 255 255 255 255 255 255 255 255 255 255 255 255 255 255 255 255 255 255 255 255 255 255 255 255 255 255 255 255 255 255 255 255 255 255 255 255 255 255 255 255 255 255 255 255 255 255 255 255 255 255 255 255 255 255 255 255 255 255 255 255 255 255 255 255 255 255 255 255 255 255 255 255 255 255 255 255 255 255 255 255 255 255 255 255 255 255 255 255 255 255 255 255 255 255 255 255 255 255 255 255 255 255 255 255 255 255 255 255 255 255 255 255 255 255 255 255 255 255 255 255 255 255 255 255 255 255 255 255 255 255 255 255 255 255 255 255 255 255 255 255 255 255 255 255 255 255 255 255 255 255 255 255 255 255 255 255 255 255 255 255 255 255 255 255 255 255 255 255 255 255 255 255 255 255 255 255 255 255 255 255 255 255 255 255 255 255 255 255 255 
255 255 255 255 255 255 255 255 255 255 255 255 255 255 255 255 255 255 255 255 255 255 255 255 255 255 255 255 255 255 255 255 255 255 255 255 255 255 255 255 255 255 255 255 255 255 255 255 255 255 255 255 255 255 255 255 255 255 255 255 255 255 255 255 255 255 255 255 255 255 255 255 255 255 255 255 255 255 255 255 255 255 255 255 255 255 255 255 255 255 255 255 255 255 255 255 255 255 255 255 255 255 255 255 255 255 255 255 255 255 255 255 255 255 255 255 255 255 255 255 255 255 255 255 255 255 255 255 255 255 255 255 255 255 255 255 255 255 255 255 255 255 255 255 255 255 255 255 255 255 255 255 255 255 255 255 255 255 255 255 255 255 255 255 255 255 255 255 255 255 255 255 255 255 255 255 255 255 255 255 255 255 255 255 255 255 255 255 255 255 255 255 255 255 255 255 255 255 255 255 255 255 255 255 255 255 255 255 255 255 255 255 255 255 255 255 255 255 255 255 255 255 255 255 255 255 255 255 255 255 255 255 255 255 255 255 255 255 255 255 255 255 255 255 255 255 255 255 255 255 255 255 255 255 255 255 255 255 255 255 255 255 255 255 255 255 255 255 255 255 255 255 255 255 255 255 255 255 255 255 255 255 255 255 255 255 255 255 255 255 255 255 255 255 255 255 255 255 255 255 255 255 255 255 255 255 255 255 255 255 255 255 255 255 255 255 255 255 255 255 255 255 255 255 255 255 255 255 255 255 255 255 255 255 255 255 255 255 255 255 255 255 255 255 255 255 255 255 255 255 255 255 255 255 255 255 255 255 255 255 255 255 255 255 255 255 255 255 255 255 255 255 255 255 255 255 255 255 255 255 255 255 255 255 255 255 255 255 255 255 255 255 255 255 255 255 255 255 255 255 255 255 255 255 255 255 255 255 255 255 255 255 255 255 255 255 255 255 255 255 255 255 255 255 255 255 255 255 255 255 255 255 255 255 255 255 255 255 255 255 255 255 255 255 255 255 255 255 255 255 255 255 255 255 255 255 255 255 255 255 255 255 255 255 255 255 255 255 255 255 255 255 255 255 255 255 255 255 255 255 255 255 255 255 255 255 255 255 255 255 255 255 255 255 255 255 255 255 255 255 255 255 255 255 255 255 255 255 255 255 255 255 255 255 255 255 255 255 255 255 255 255 255 255 255 255 255 255 255 255 255 255 255 255 255 255 255 255 255 255 255 255 255 255 255 255 255 255 255 255 255 255 255 255 255 255 255 255 255 255 255 255 255 255 255 255 255 255 255 255 255 255 255 255 255 255 255 255 255 255 255 255 255 255 255 255 255 255 255 255 255 255 255 255 255 255 255 255 255 255 255 255 255 255 255 255 255 255 255 255 255 255 255 255 255 255 255 255 255 255 255 255 255 255 255 255 255 255 255 255 255 255 255 255 255 255 255 255 255 255 255 255 255 255 255 255 255 255 255 255 255 255 255 255 255 255 255 255 255 255 255 255 255 255 255 255 255 255 255 255 255 255 255 255 255 255 255 255 255 255 255 255 255 255 255 255 255 255 255 255 255 255 255 255 255 255 255 255 255 255 255 255 255 255 255 255 255 255 255 255 255 255 255 255 255 255 255 255 255 255 255 255 255 255 255 255 255 255 255 255 255 255 255 255 255 255 255 255 255 255 255 255 255 255 255 255 255 255 255 255 255 255 255 255 255 255 255 255 255 255 255 255 255 255 255 255 255 255 255 255 255 255 255 255 255 255 255 255 255 255 255 255 255 255 255 255 255 255 255 255 255 255 255 255 255 255 255 255 255 255 255 255 255 255 255 255 255 255 255 255 255 255 255 255 255 255 255 255 255 255 255 255 255 255 255 255 255 255 255 255 255 255 255 255 255 255 255 255 255 255 255 255 255 255 255 255 255 255 255 255 255 255 255 255 255 255 255 255 255 255 255 255 255 255 255 255 255 255 255 255 255 255 255 255 255 255 255 255 255 255 255 255 255 255 255 255 255 255 255 255 255 255 255 255 255 255 255 255 255 255 
255 255 255 255 255 255 255 255 255 255 255 255 255 255 255 255 255 255 255 255 255 255 255 255 255 255 255 255 255 255 255 255 255 255 255 255 255 255 255 255 255 255 255 255 255 255 255 255 255 255 255 255 255 255 255 255 255 255 255 255 255 255 255 255 255 255 255 255 255 255 255 255 255 255 255 255 255 255 255 255 255 255 255 255 255 255 255 255 255 255 255 255 255 255 255 255 255 255 255 255 255 255 255 255 255 255 255 255 255 255 255 255 255 255 255 255 255 255 255 255 255 255 255 255 255 255 255 255 255 255 255 255 255 255 255 255 255 255 255 255 255 255 255 255 255 255 255 255 255 255 255 255 255 255 255 255 255 255 255 255 255 255 255 255 255 255 255 255 255 255 255 255 255 255 255 255 255 255 255 255 255 255 255 255 255 255 255 255 255 255 255 255 255 255 255 255 255 255 255 255 255 255 255 255 255 255 255 255 255 255 255 255 255 255 255 255 255 255 255 255 255 255 255 255 255 255 255 255 255 255 255 255 255 255 255 255 255 255 255 255 255 255 255 255 255 255 255 255 255 255 255 255 255 255 255 255 255 255 255 255 255 255 255 255 255 255 255 255 255 255 255 255 255 255 255 255 255 255 255 255 255 255 255 255 255 255 255 255 255 255 255 255 255 255 255 255 255 255 255 255 255 255 255 255 255 255 255 255 255 255 255 255 255 255 255 255 255 255 255 255 255 255 255 255 255 255 255 255 255 255 255 255 255 255 255 255 255 255 255 255 255 255 255 255 255 255 255 255 255 255 255 255 255 255 255 255 255 255 255 255 255 255 255 255 255 255 255 255 255 255 255 255 255 255 255 255 255 255 255 255 255 255 255 255 255 255 255 255 255 255 255 255 255 255 255 255 255 255 255 255 255 255 255 255 255 255 255 255 255 255 255 255 255 255 255 255 255 255 255 255 255 255 255 255 255 255 255 255 255 255 255 255 255 255 255 255 255 255 255 255 255 255 255 255 255 255 255 255 255 255 255 255 255 255 255 255 255 255 255 255 255 255 255 255 255 255 255 255 255 255 255 255 255 255 255 255 255 255 255 255 255 255 255 255 255 255 255 255 255 255 255 255 255 255 255 255 255 255 255 255 255 255 255 255 255 255 255 255 255 255 255 255 255 255 255 255 255 255 255 255 255 255 255 255 255 255 255 255 255 255 255 255 255 255 255 255 255 255 255 255 255 255 255 255 255 255 255 255 255 255 255 255 255 255 255 255 255 255 255 255 255 255 255 255 255 255 255 255 255 255 255 255 255 255 255 255 255 255 255 255 255 255 255 255 255 255 255 255 255 255 255 255 255 255 255 255 255 255 255 255 255 255 255 255 255 255 255 255 255 255 255 255 255 255 255 255 255 255 255 255 255 255 255 255 255 255 255 255 255 255 255 255 255 255 255 255 255 255 255 255 255 255 255 255 255 255 255 255 255 255 255 255 255 255 255 255 255 255 255 255 255 255 255 255 255 255 255 255 255 255 255 255 255 255 255 255 255 255 255 255 255 255 255 255 255 255 255 255 255 255 255 255 255 255 255 255 255 255 255 255 255 255 255 255 255 255 255 255 255 255 255 255 255 255 255 255 255 255 255 255 255 255 255 255 255 255 255 255 255 255 255 255 255 255 255 255 255 255 255 255 255 255 255 255 255 255 255 255 255 255 255 255 255 255 255 255 255 255 255 255 255 255 255 255 255 255 255 255 255 255 255 255 255 255 255 255 255 255 255 255 255 255 255 255 255 255 255 255 255 255 255 255 255 255 255 255 255 255 255 255 255 255 255 255 255 255 255 255 255 255 255 255 255 255 255 255 255 255 255 255 255 255 255 255 255 255 255 255 255 255 255 255 255 255 255 255 255 255 255 255 255 255 255 255 255 255 255 255 255 255 255 255 255 255 255 255 255 255 255 255 255 255 255 255 255 255 255 255 255 255 255 255 255 255 255 255 255 255 255 255 255 255 255 255 255 255 255 255 255 255 255 255 255 255 255 255 255 255 255 255 
255 255 255 255 255 255 255 255 255 255 255 255 255 255 255 255 255 255 255 255 255 255 255 255 255 255 255 255 255 255 255 255 255 255 255 255 255 255 255 255 255 255 255 255 255 255 255 255 255 255 255 255 255 255 255 255 255 255 255 255 255 255 255 255 255 255 255 255 255 255 255 255 255 255 255 255 255 255 255 255 255 255 255 255 255 255 255 255 255 255 255 255 255 255 255 255 255 255 255 255 255 255 255 255 255 255 255 255 255 255 255 255 255 255 255 255 255 255 255 255 255 255 255 255 255 255 255 255 255 255 255 255 255 255 255 255 255 255 255 255 255 255 255 255 255 255 255 255 255 255 255 255 255 255 255 255 255 255 255 255 255 255 255 255 255 255 255 255 255 255 255 255 255 255 255 255 255 255 255 255 255 255 255 255 255 255 255 255 255 255 255 255 255 255 255 255 255 255 255 255 255 255 255 255 255 255 255 255 255 255 255 255 255 255 255 255 255 255 255 255 255 255 255 255 255 255 255 255 255 255 255 255 255 255 255 255 255 255 255 255 255 255 255 255 255 255 255 255 255 255 255 255 255 255 255 255 255 255 255 255 255 255 255 255 255 255 255 255 255 255 255 255 255 255 255 255 255 255 255 255 255 255 255 255 255 255 255 255 255 255 255 255 255 255 255 255 255 255 255 255 255 255 255 255 255 255 255 255 255 255 255 255 255 255 255 255 255 255 255 255 255 255 255 255 255 255 255 255 255 255 255 255 255 255 255 255 255 255 255 255 255 255 255 255 255 255 255 255 255 255 255 255 255 255 255 255 255 255 255 255 255 255 255 255 255 255 255 255 255 255 255 255 255 255 255 255 255 255 255 255 255 255 255 255 255 255 255 255 255 255 255 255 255 255 255 255 255 255 255 255 255 255 255 255 255 255 255 255 255 255 255 255 255 255 255 255 255 255 255 255 255 255 255 255 255 255 255 255 255 255 255 255 255 255 255 255 255 255 255 255 255 255 255 255 255 255 255 255 255 255 255 255 255 255 255 255 255 255 255 255 255 255 255 255 255 255 255 255 255 255 255 255 255 255 255 255 255 255 255 255 255 255 255 255 255 255 255 255 255 255 255 255 255 255 255 255 255 255 255 255 255 255 255 255 255 255 255 255 255 255 255 255 255 255 255 255 255 255 255 255 255 255 255 255 255 255 255 255 255 255 255 255 255 255 255 255 255 255 255 255 255 255 255 255 255 255 255 255 255 255 255 255 255 255 255 255 255 255 255 255 255 255 255 255 255 255 255 255 255 255 255 255 255 255 255 255 255 255 255 255 255 255 255 255 255 255 255 255 255 255 255 255 255 255 255 255 255 255 255 255 255 255 255 255 255 255 255 255 255 255 255 255 255 255 255 255 255 255 255 255 255 255 255 255 255 255 255 255 255 255 255 255 255 255 255 255 255 255 255 255 255 255 255 255 255 255 255 255 255 255 255 255 255 255 255 255 255 255 255 255 255 255 255 255 255 255 255 255 255 255 255 255 255 255 255 255 255 255 255 255 255 255 255 255 255 255 255 255 255 255 255 255 255 255 255 255 255 255 255 255 255 255 255 255 255 255 255 255 255 255 255 255 255 255 255 255 255 255 255 255 255 255 255 255 255 255 255 255 255 255 255 255 255 255 255 255 255 255 255 255 255 255 255 255 255 255 255 255 255 255 255 255 255 255 255 255 255 255 255 255 255 255 255 255 255 255 255 255 255 255 255 255 255 255 255 255 255 255 255 255 255 255 255 255 255 255 255 255 255 255 255 255 255 255 255 255 255 255 255 255 255 255 255 255 255 255 255 255 255 255 255 255 255 255 255 255 255 255 255 255 255 255 255 255 255 255 255 255 255 255 255 255 255 255 255 255 255 255 255 255 255 255 255 255 255 255 255 255 255 255 255 255 255 255 255 255 255 255 255 255 255 255 255 255 255 255 255 255 255 255 255 255 255 255 255 255 255 255 255 255 255 255 255 255 255 255 255 255 255 255 255 255 255 255 255 255 255 255 255 255 
255 255 255 255 255 255 255 255 255 255 255 255 255 255 255 255 255 255 255 255 255 255 255 255 255 255 255 255 255 255 255 255 255 255 255 255 255 255 255 255 255 255 255 255 255 255 255 255 255 255 255 255 255 255 255 255 255 255 255 255 255 255 255 255 255 255 255 255 255 255 255 255 255 255 255 255 255 255 255 255 255 255 255 255 255 255 255 255 255 255 255 255 255 255 255 255 255 255 255 255 255 255 255 255 255 255 255 255 255 255 255 255 255 255 255 255 255 255 255 255 255 255 255 255 255 255 255 255 255 255 255 255 255 255 255 255 255 255 255 255 255 255 255 255 255 255 255 255 255 255 255 255 255 255 255 255 255 255 255 255 255 255 255 255 255 255 255 255 255 255 255 255 255 255 255 255 255 255 255 255 255 255 255 255 255 255 255 255 255 255 255 255 255 255 255 255 255 255 255 255 255 255 255 255 255 255 255 255 255 255 255 255 255 255 255 255 255 255 255 255 255 255 255 255 255 255 255 255 255 255 255 255 255 255 255 255 255 255 255 255 255 255 255 255 255 255 255 255 255 255 255 255 255 255 255 255 255 255 255 255 255 255 255 255 255 255 255 255 255 255 255 255 255 255 255 255 255 255 255 255 255 255 255 255 255 255 255 255 255 255 255 255 255 255 255 255 255 255 255 255 255 255 255 255 255 255 255 255 255 255 255 255 255 255 255 255 255 255 255 255 255 255 255 255 255 255 255 255 255 255 255 255 255 255 255 255 255 255 255 255 255 255 255 255 255 255 255 255 255 255 255 255 255 255 255 255 255 255 255 255 255 255 255 255 255 255 255 255 255 255 255 255 255 255 255 255 255 255 255 255 255 255 255 255 255 255 255 255 255 255 255 255 255 255 255 255 255 255 255 255 255 255 255 255 255 255 255 255 255 255 255 255 255 255 255 255 255 255 255 255 255 255 255 255 255 255 255 255 255 255 255 255 255 255 255 255 255 255 255 255 255 255 255 255 255 255 255 255 255 255 255 255 255 255 255 255 255 255 255 255 255 255 255 255 255 255 255 255 255 255 255 255 255 255 255 255 255 255 255 255 255 255 255 255 255 255 255 255 255 255 255 255 255 255 255 255 255 255 255 255 255 255 255 255 255 255 255 255 255 255 255 255 255 255 255 255 255 255 255 255 255 255 255 255 255 255 255 255 255 255 255 255 255 255 255 255 255 255 255 255 255 255 255 255 255 255 255 255 255 255 255 255 255 255 255 255 255 255 255 255 255 255 255 255 255 255 255 255 255 255 255 255 255 255 255 255 255 255 255 255 255 255 255 255 255 255 255 255 255 255 255 255 255 255 255 255 255 255 255 255 255 255 255 255 255 255 255 255 255 255 255 255 255 255 255 255 255 255 255 255 255 255 255 255 255 255 255 255 255 255 255 255 255 255 255 255 255 255 255 255 255 255 255 255 255 255 255 255 255 255 255 255 255 255 255 255 255 255 255 255 255 255 255 255 255 255 255 255 255 255 255 255 255 255 255 255 255 255 255 255 255 255 255 255 255 255 255 255 255 255 255 255 255 255 255 255 255 255 255 255 255 255 255 255 255 255 255 255 255 255 255 255 255 255 255 255 255 255 255 255 255 255 255 255 255 255 255 255 255 255 255 255 255 255 255 255 255 255 255 255 255 255 255 255 255 255 255 255 255 255 255 255 255 255 255 255 255 255 255 255 255 255 255 255 255 255 255 255 255 255 255 255 255 255 255 255 255 255 255 255 255 255 255 255 255 255 255 255 255 255 255 255 255 255 255 255 255 255 255 255 255 255 255 255 255 255 255 255 255 255 255 255 255 255 255 255 255 255 255 255 255 255 255 255 255 255 255 255 255 255 255 255 255 255 255 255 255 255 255 255 255 255 255 255 255 255 255 255 255 255 255 255 255 255 255 255 255 255 255 255 255 255 255 255 255 255 255 255 255 255 255 255 255 255 255 255 255 255 255 255 255 255 255 255 255 255 255 255 255 255 255 255 255 255 255 255 255 255 255 255 
255 255 255 255 255 255 255 255 255 255 255 255 255 255 255 255 255 255 255 255 255 255 255 255 255 255 255 255 255 255 255 255 255 255 255 255 255 255 255 255 255 255 255 255 255 255 255 255 255 255 255 255 255 255 255 255 255 255 255 255 255 255 255 255 255 255 255 255 255 255 255 255 255 255 255 255 255 255 255 255 255 255 255 255 255 255 255 255 255 255 255 255 255 255 255 255 255 255 255 255 255 255 255 255 255 255 255 255 255 255 255 255 255 255 255 255 255 255 255 255 255 255 255 255 255 255 255 255 255 255 255 255 255 255 255 255 255 255 255 255 255 255 255 255 255 255 255 255 255 255 255 255 255 255 255 255 255 255 255 255 255 255 255 255 255 255 255 255 255 255 255 255 255 255 255 255 255 255 255 255 255 255 255 255 255 255 255 255 255 255 255 255 255 255 255 255 255 255 255 255 255 255 255 255 255 255 255 255 255 255 255 255 255 255 255 255 255 255 255 255 255 255 255 255 255 255 255 255 255 255 255 255 255 255 255 255 255 255 255 255 255 255 255 255 255 255 255 255 255 255 255 255 255 255 255 255 255 255 255 255 255 255 255 255 255 255 255 255 255 255 255 255 255 255 255 255 255 255 255 255 255 255 255 255 255 255 255 255 255 255 255 255 255 255 255 255 255 255 255 255 255 255 255 255 255 255 255 255 255 255 255 255 255 255 255 255 255 255 255 255 255 255 255 255 255 255 255 255 255 255 255 255 255 255 255 255 255 255 255 255 255 255 255 255 255 255 255 255 255 255 255 255 255 255 255 255 255 255 255 255 255 255 255 255 255 255 255 255 255 255 255 255 255 255 255 255 255 255 255 255 255 255 255 255 255 255 255 255 255 255 255 255 255 255 255 255 255 255 255 255 255 255 255 255 255 255 255 255 255 255 255 255 255 255 255 255 255 255 255 255 255 255 255 255 255 255 255 255 255 255 255 255 255 255 255 255 255 255 255 255 255 255 255 255 255 255 255 255 255 255 255 255 255 255 255 255 255 255 255 255 255 255 255 255 255 255 255 255 255 255 255 255 255 255 255 255 255 255 255 255 255 255 255 255 255 255 255 255 255 255 255 255 255 255 255 255 255 255 255 255 255 255 255 255 255 255 255 255 255 255 255 255 255 255 255 255 255 255 255 255 255 255 255 255 255 255 255 255 255 255 255 255 255 255 255 255 255 255 255 255 255 255 255 255 255 255 255 255 255 255 255 255 255 255 255 255 255 255 255 255 255 255 255 255 255 255 255 255 255 255 255 255 255 255 255 255 255 255 255 255 255 255 255 255 255 255 255 255 255 255 255 255 255 255 255 255 255 255 255 255 255 255 255 255 255 255 255 255 255 255 255 255 255 255 255 255 255 255 255 255 255 255 255 255 255 255 255 255 255 255 255 255 255 255 255 255 255 255 255 255 255 255 255 255 255 255 255 255 255 255 255 255 255 255 255 255 255 255 255 255 255 255 255 255 255 255 255 255 255 255 255 255 255 255 255 255 255 255 255 255 255 255 255 255 255 255 255 255 255 255 255 255 255 255 255 255 255 255 255 255 255 255 255 255 255 255 255 255 255 255 255 255 255 255 255 255 255 255 255 255 255 255 255 255 255 255 255 255 255 255 255 255 255 255 255 255 255 255 255 255 255 255 255 255 255 255 255 255 255 255 255 255 255 255 255 255 255 255 255 255 255 255 255 255 255 255 255 255 255 255 255 255 255 255 255 255 255 255 255 255 255 255 255 255 255 255 255 255 255 255 255 255 255 255 255 255 255 255 255 255 255 255 255 255 255 255 255 255 255 255 255 255 255 255 255 255 255 255 255 255 255 255 255 255 255 255 255 255 255 255 255 255 255 255 255 255 255 255 255 255 255 255 255 255 255 255 255 255 255 255 255 255 255 255 255 255 255 255 255 255 255 255 255 255 255 255 255 255 255 255 255 255 255 255 255 255 255 255 255 255 255 255 255 255 255 255 255 255 255 255 255 255 255 255 255 255 255 255 255 255 
255 255 255 255 255 255 255 255 255 255 255 255 255 255 255 255 255 255 255 255 255 255 255 255 255 255 255 255 255 255 255 255 255 255 255 255 255 255 255 255 255 255 255 255 255 255 255 255 255 255 255 255 255 255 255 255 255 255 255 255 255 255 255 255 255 255 255 255 255 255 255 255 255 255 255 255 255 255 255 255 255 255 255 255 255 255 255 255 255 255 255 255 255 255 255 255 255 255 255 255 255 255 255 255 255 255 255 255 255 255 255 255 255 255 255 255 255 255 255 255 255 255 255 255 255 255 255 255 255 255 255 255 255 255 255 255 255 255 255 255 255 255 255 255 255 255 255 255 255 255 255 255 255 255 255 255 255 255 255 255 255 255 255 255 255 255 255 255 255 255 255 255 255 255 255 255 255 255 255 255 255 255 255 255 255 255 255 255 255 255 255 255 255 255 255 255 255 255 255 255 255 255 255 255 255 255 255 255 255 255 255 255 255 255 255 255 255 255 255 255 255 255 255 255 255 255 255 255 255 255 255 255 255 255 255 255 255 255 255 255 255 255 255 255 255 255 255 255 255 255 255 255 255 255 255 255 255 255 255 255 255 255 255 255 255 255 255 255 255 255 255 255 255 255 255 255 255 255 255 255 255 255 255 255 255 255 255 255 255 255 255 255 255 255 255 255 255 255 255 255 255 255 255 255 255 255 255 255 255 255 255 255 255 255 255 255 255 255 255 255 255 255 255 255 255 255 255 255 255 255 255 255 255 255 255 255 255 255 255 255 255 255 255 255 255 255 255 255 255 255 255 255 255 255 255 255 255 255 255 255 255 255 255 255 255 255 255 255 255 255 255 255 255 255 255 255 255 255 255 255 255 255 255 255 255 255 255 255 255 255 255 255 255 255 255 255 255 255 255 255 255 255 255 255 255 255 255 255 255 255 255 255 255 255 255 255 255 255 255 255 255 255 255 255 255 255 255 255 255 255 255 255 255 255 255 255 255 255 255 255 255 255 255 255 255 255 255 255 255 255 255 255 255 255 255 255 255 255 255 255 255 255 255 255 255 255 255 255 255 255 255 255 255 255 255 255 255 255 255 255 255 255 255 255 255 255 255 255 255 255 255 255 255 255 255 255 255 255 255 255 255 255 255 255 255 255 255 255 255 255 255 255 255 255 255 255 255 255 255 255 255 255 255 255 255 255 255 255 255 255 255 255 255 255 255 255 255 255 255 255 255 255 255 255 255 255 255 255 255 255 255 255 255 255 255 255 255 255 255 255 255 255 255 255 255 255 255 255 255 255 255 255 255 255 255 255 255 255 255 255 255 255 255 255 255 255 255 255 255 255 255 255 255 255 255 255 255 255 255 255 255 255 255 255 255 255 255 255 255 255 255 255 255 255 255 255 255 255 255 255 255 255 255 255 255 255 255 255 255 255 255 255 255 255 255 255 255 255 255 255 255 255 255 255 255 255 255 255 255 255 255 255 255 255 255 255 255 255 255 255 255 255 255 255 255 255 255 255 255 255 255 255 255 255 255 255 255 255 255 255 255 255 255 255 255 255 255 255 255 255 255 255 255 255 255 255 255 255 255 255 255 255 255 255 255 255 255 255 255 255 255 255 255 255 255 255 255 255 255 255 255 255 255 255 255 255 255 255 255 255 255 255 255 255 255 255 255 255 255 255 255 255 255 255 255 255 255 255 255 255 255 255 255 255 255 255 255 255 255 255 255 255 255 255 255 255 255 255 255 255 255 255 255 255 255 255 255 255 255 255 255 255 255 255 255 255 255 255 255 255 255 255 255 255 255 255 255 255 255 255 255 255 255 255 255 255 255 255 255 255 255 255 255 255 255 255 255 255 255 255 255 255 255 255 255 255 255 255 255 255 255 255 255 255 255 255 255 255 255 255 255 255 255 255 255 255 255 255 255 255 255 255 255 255 255 255 255 255 255 255 255 255 255 255 255 255 255 255 255 255 255 255 255 255 255 255 255 255 255 255 255 255 255 255 255 255 255 255 255 255 255 255 255 255 255 255 255 255 255 255 
255 255 255 255 255 255 255 255 255 255 255 255 255 255 255 255 255 255 255 255 255 255 255 255 255 255 255 255 255 255 255 255 255 255 255 255 255 255 255 255 255 255 255 255 255 255 255 255 255 255 255 255 255 255 255 255 255 255 255 255 255 255 255 255 255 255 255 255 255 255 255 255 255 255 255 255 255 255 255 255 255 255 255 255 255 255 255 255 255 255 255 255 255 255 255 255 255 255 255 255 255 255 255 255 255 255 255 255 255 255 255 255 255 255 255 255 255 255 255 255 255 255 255 255 255 255 255 255 255 255 255 255 255 255 255 255 255 255 255 255 255 255 255 255 255 255 255 255 255 255 255 255 255 255 255 255 255 255 255 255 255 255 255 255 255 255 255 255 255 255 255 255 255 255 255 255 255 255 255 255 255 255 255 255 255 255 255 255 255 255 255 255 255 255 255 255 255 255 255 255 255 255 255 255 255 255 255 255 255 255 255 255 255 255 255 255 255 255 255 255 255 255 255 255 255 255 255 255 255 255 255 255 255 255 255 255 255 255 255 255 255 255 255 255 255 255 255 255 255 255 255 255 255 255 255 255 255 255 255 255 255 255 255 255 255 255 255 255 255 255 255 255 255 255 255 255 255 255 255 255 255 255 255 255 255 255 255 255 255 255 255 255 255 255 255 255 255 255 255 255 255 255 255 255 255 255 255 255 255 255 255 255 255 255 255 255 255 255 255 255 255 255 255 255 255 255 255 255 255 255 255 255 255 255 255 255 255 255 255 255 255 255 255 255 255 255 255 255 255 255 255 255 255 255 255 255 255 255 255 255 255 255 255 255 255 255 255 255 255 255 255 255 255 255 255 255 255 255 255 255 255 255 255 255 255 255 255 255 255 255 255 255 255 255 255 255 255 255 255 255 255 255 255 255 255 255 255 255 255 255 255 255 255 255 255 255 255 255 255 255 255 255 255 255 255 255 255 255 255 255 255 255 255 255 255 255 255 255 255 255 255 255 255 255 255 255 255 255 255 255 255 255 255 255 255 255 255 255 255 255 255 255 255 255 255 255 255 255 255 255 255 255 255 255 255 255 255 255 255 255 255 255 255 255 255 255 255 255 255 255 255 255 255 255 255 255 255 255 255 255 255 255 255 255 255 255 255 255 255 255 255 255 255 255 255 255 255 255 255 255 255 255 255 255 255 255 255 255 255 255 255 255 255 255 255 255 255 255 255 255 255 255 255 255 255 255 255 255 255 255 255 255 255 255 255 255 255 255 255 255 255 255 255 255 255 255 255 255 255 255 255 255 255 255 255 255 255 255 255 255 255 255 255 255 255 255 255 255 255 255 255 255 255 255 255 255 255 255 255 255 255 255 255 255 255 255 255 255 255 255 255 255 255 255 255 255 255 255 255 255 255 255 255 255 255 255 255 255 255 255 255 255 255 255 255 255 255 255 255 255 255 255 255 255 255 255 255 255 255 255 255 255 255 255 255 255 255 255 255 255 255 255 255 255 255 255 255 255 255 255 255 255 255 255 255 255 255 255 255 255 255 255 255 255 255 255 255 255 255 255 255 255 255 255 255 255 255 255 255 255 255 255 255 255 255 255 255 255 255 255 255 255 255 255 255 255 255 255 255 255 255 255 255 255 255 255 255 255 255 255 255 255 255 255 255 255 255 255 255 255 255 255 255 255 255 255 255 255 255 255 255 255 255 255 255 255 255 255 255 255 255 255 255 255 255 255 255 255 255 255 255 255 255 255 255 255 255 255 255 255 255 255 255 255 255 255 255 255 255 255 255 255 255 255 255 255 255 255 255 255 255 255 255 255 255 255 255 255 255 255 255 255 255 255 255 255 255 255 255 255 255 255 255 255 255 255 255 255 255 255 255 255 255 255 255 255 255 255 255 255 255 255 255 255 255 255 255 255 255 255 255 255 255 255 255 255 255 255 255 255 255 255 255 255 255 255 255 255 255 255 255 255 255 255 255 255 255 255 255 255 255 255 255 255 255 255 255 255 255 255 255 255 255 255 255 255 255 255 255 255 
255 255 255 255 255 255 255 255 255 255 255 255 255 255 255 255 255 255 255 255 255 255 255 255 255 255 255 255 255 255 255 255 255 255 255 255 255 255 255 255 255 255 255 255 255 255 255 255 255 255 255 255 255 255 255 255 255 255 255 255 255 255 255 255 255 255 255 255 255 255 255 255 255 255 255 255 255 255 255 255 255 255 255 255 255 255 255 255 255 255 255 255 255 255 255 255 255 255 255 255 255 255 255 255 255 255 255 255 255 255 255 255 255 255 255 255 255 255 255 255 255 255 255 255 255 255 255 255 255 255 255 255 255 255 255 255 255 255 255 255 255 255 255 255 255 255 255 255 255 255 255 255 255 255 255 255 255 255 255 255 255 255 255 255 255 255 255 255 255 255 255 255 255 255 255 255 255 255 255 255 255 255 255 255 255 255 255 255 255 255 255 255 255 255 255 255 255 255 255 255 255 255 255 255 255 255 255 255 255 255 255 255 255 255 255 255 255 255 255 255 255 255 255 255 255 255 255 255 255 255 255 255 255 255 255 255 255 255 255 255 255 255 255 255 255 255 255 255 255 255 255 255 255 255 255 255 255 255 255 255 255 255 255 255 255 255 255 255 255 255 255 255 255 255 255 255 255 255 255 255 255 255 255 255 255 255 255 255 255 255 255 255 255 255 255 255 255 255 255 255 255 255 255 255 255 255 255 255 255 255 255 255 255 255 255 255 255 255 255 255 255 255 255 255 255 255 255 255 255 255 255 255 255 255 255 255 255 255 255 255 255 255 255 255 255 255 255 255 255 255 255 255 255 255 255 255 255 255 255 255 255 255 255 255 255 255 255 255 255 255 255 255 255 255 255 255 255 255 255 255 255 255 255 255 255 255 255 255 255 255 255 255 255 255 255 255 255 255 255 255 255 255 255 255 255 255 255 255 255 255 255 255 255 255 255 255 255 255 255 255 255 255 255 255 255 255 255 255 255 255 255 255 255 255 255 255 255 255 255 255 255 255 255 255 255 255 255 255 255 255 255 255 255 255 255 255 255 255 255 255 255 255 255 255 255 255 255 255 255 255 255 255 255 255 255 255 255 255 255 255 255 255 255 255 255 255 255 255 255 255 255 255 255 255 255 255 255 255 255 255 255 255 255 255 255 255 255 255 255 255 255 255 255 255 255 255 255 255 255 255 255 255 255 255 255 255 255 255 255 255 255 255 255 255 255 255 255 255 255 255 255 255 255 255 255 255 255 255 255 255 255 255 255 255 255 255 255 255 255 255 255 255 255 255 255 255 255 255 255 255 255 255 255 255 255 255 255 255 255 255 255 255 255 255 255 255 255 255 255 255 255 255 255 255 255 255 255 255 255 255 255 255 255 255 255 255 255 255 255 255 255 255 255 255 255 255 255 255 255 255 255 255 255 255 255 255 255 255 255 255 255 255 255 255 255 255 255 255 255 255 255 255 255 255 255 255 255 255 255 255 255 255 255 255 255 255 255 255 255 255 255 255 255 255 255 255 255 255 255 255 255 255 255 255 255 255 255 255 255 255 255 255 255 255 255 255 255 255 255 255 255 255 255 255 255 255 255 255 255 255 255 255 255 255 255 255 255 255 255 255 255 255 255 255 255 255 255 255 255 255 255 255 255 255 255 255 255 255 255 255 255 255 255 255 255 255 255 255 255 255 255 255 255 255 255 255 255 255 255 255 255 255 255 255 255 255 255 255 255 255 255 255 255 255 255 255 255 255 255 255 255 255 255 255 255 255 255 255 255 255 255 255 255 255 255 255 255 255 255 255 255 255 255 255 255 255 255 255 255 255 255 255 255 255 255 255 255 255 255 255 255 255 255 255 255 255 255 255 255 255 255 255 255 255 255 255 255 255 255 255 255 255 255 255 255 255 255 255 255 255 255 255 255 255 255 255 255 255 255 255 255 255 255 255 255 255 255 255 255 255 255 255 255 255 255 255 255 255 255 255 255 255 255 255 255 255 255 255 255 255 255 255 255 255 255 255 255 255 255 255 255 255 255 255 255 255 255 255 255 255 
255 255 255 255 255 255 255 255 255 255 255 255 255 255 255 255 255 255 255 255 255 255 255 255 255 255 255 255 255 255 255 255 255 255 255 255 255 255 255 255 255 255 255 255 255 255 255 255 255 255 255 255 255 255 255 255 255 255 255 255 255 255 255 255 255 255 255 255 255 255 255 255 255 255 255 255 255 255 255 255 255 255 255 255 255 255 255 255 255 255 255 255 255 255 255 255 255 255 255 255 255 255 255 255 255 255 255 255 255 255 255 255 255 255 255 255 255 255 255 255 255 255 255 255 255 255 255 255 255 255 255 255 255 255 255 255 255 255 255 255 255 255 255 255 255 255 255 255 255 255 255 255 255 255 255 255 255 255 255 255 255 255 255 255 255 255 255 255 255 255 255 255 255 255 255 255 255 255 255 255 255 255 255 255 255 255 255 255 255 255 255 255 255 255 255 255 255 255 255 255 255 255 255 255 255 255 255 255 255 255 255 255 255 255 255 255 255 255 255 255 255 255 255 255 255 255 255 255 255 255 255 255 255 255 255 255 255 255 255 255 255 255 255 255 255 255 255 255 255 255 255 255 255 255 255 255 255 255 255 255 255 255 255 255 255 255 255 255 255 255 255 255 255 255 255 255 255 255 255 255 255 255 255 255 255 255 255 255 255 255 255 255 255 255 255 255 255 255 255 255 255 255 255 255 255 255 255 255 255 255 255 255 255 255 255 255 255 255 255 255 255 255 255 255 255 255 255 255 255 255 255 255 255 255 255 255 255 255 255 255 255 255 255 255 255 255 255 255 255 255 255 255 255 255 255 255 255 255 255 255 255 255 255 255 255 255 255 255 255 255 255 255 255 255 255 255 255 255 255 255 255 255 255 255 255 255 255 255 255 255 255 255 255 255 255 255 255 255 255 255 255 255 255 255 255 255 255 255 255 255 255 255 255 255 255 255 255 255 255 255 255 255 255 255 255 255 255 255 255 255 255 255 255 255 255 255 255 255 255 255 255 255 255 255 255 255 255 255 255 255 255 255 255 255 255 255 255 255 255 255 255 255 255 255 255 255 255 255 255 255 255 255 255 255 255 255 255 255 255 255 255 255 255 255 255 255 255 255 255 255 255 255 255 255 255 255 255 255 255 255 255 255 255 255 255 255 255 255 255 255 255 255 255 255 255 255 255 255 255 255 255 255 255 255 255 255 255 255 255 255 255 255 255 255 255 255 255 255 255 255 255 255 255 255 255 255 255 255 255 255 255 255 255 255 255 255 255 255 255 255 255 255 255 255 255 255 255 255 255 255 255 255 255 255 255 255 255 255 255 255 255 255 255 255 255 255 255 255 255 255 255 255 255 255 255 255 255 255 255 255 255 255 255 255 255 255 255 255 255 255 255 255 255 255 255 255 255 255 255 255 255 255 255 255 255 255 255 255 255 255 255 255 255 255 255 255 255 255 255 255 255 255 255 255 255 255 255 255 255 255 255 255 255 255 255 255 255 255 255 255 255 255 255 255 255 255 255 255 255 255 255 255 255 255 255 255 255 255 255 255 255 255 255 255 255 255 255 255 255 255 255 255 255 255 255 255 255 255 255 255 255 255 255 255 255 255 255 255 255 255 255 255 255 255 255 255 255 255 255 255 255 255 255 255 255 255 255 255 255 255 255 255 255 255 255 255 255 255 255 255 255 255 255 255 255 255 255 255 255 255 255 255 255 255 255 255 255 255 255 255 255 255 255 255 255 255 255 255 255 255 255 255 255 255 255 255 255 255 255 255 255 255 255 255 255 255 255 255 255 255 255 255 255 255 255 255 255 255 255 255 255 255 255 255 255 255 255 255 255 255 255 255 255 255 255 255 255 255 255 255 255 255 255 255 255 255 255 255 255 255 255 255 255 255 255 255 255 255 255 255 255 255 255 255 255 255 255 255 255 255 255 255 255 255 255 255 255 255 255 255 255 255 255 255 255 255 255 255 255 255 255 255 255 255 255 255 255 255 255 255 255 255 255 255 255 255 255 255 255 255 255 255 255 255 255 255 255 255 255 255 
255 255 255 255 255 255 255 255 255 255 255 255 255 255 255 255 255 255 255 255 255 255 255 255 255 255 255 255 255 255 255 255 255 255 255 255 255 255 255 255 255 255 255 255 255 255 255 255 255 255 255 255 255 255 255 255 255 255 255 255 255 255 255 255 255 255 255 255 255 255 255 255 255 255 255 255 255 255 255 255 255 255 255 255 255 255 255 255 255 255 255 255 255 255 255 255 255 255 255 255 255 255 255 255 255 255 255 255 255 255 255 255 255 255 255 255 255 255 255 255 255 255 255 255 255 255 255 255 255 255 255 255 255 255 255 255 255 255 255 255 255 255 255 255 255 255 255 255 255 255 255 255 255 255 255 255 255 255 255 255 255 255 255 255 255 255 255 255 255 255 255 255 255 255 255 255 255 255 255 255 255 255 255 255 255 255 255 255 255 255 255 255 255 255 255 255 255 255 255 255 255 255 255 255 255 255 255 255 255 255 255 255 255 255 255 255 255 255 255 255 255 255 255 255 255 255 255 255 255 255 255 255 255 255 255 255 255 255 255 255 255 255 255 255 255 255 255 255 255 255 255 255 255 255 255 255 255 255 255 255 255 255 255 255 255 255 255 255 255 255 255 255 255 255 255 255 255 255 255 255 255 255 255 255 255 255 255 255 255 255 255 255 255 255 255 255 255 255 255 255 255 255 255 255 255 255 255 255 255 255 255 255 255 255 255 255 255 255 255 255 255 255 255 255 255 255 255 255 255 255 255 255 255 255 255 255 255 255 255 255 255 255 255 255 255 255 255 255 255 255 255 255 255 255 255 255 255 255 255 255 255 255 255 255 255 255 255 255 255 255 255 255 255 255 255 255 255 255 255 255 255 255 255 255 255 255 255 255 255 255 255 255 255 255 255 255 255 255 255 255 255 255 255 255 255 255 255 255 255 255 255 255 255 255 255 255 255 255 255 255 255 255 255 255 255 255 255 255 255 255 255 255 255 255 255 255 255 255 255 255 255 255 255 255 255 255 255 255 255 255 255 255 255 255 255 255 255 255 255 255 255 255 255 255 255 255 255 255 255 255 255 255 255 255 255 255 255 255 255 255 255 255 255 255 255 255 255 255 255 255 255 255 255 255 255 255 255 255 255 255 255 255 255 255 255 255 255 255 255 255 255 255 255 255 255 255 255 255 255 255 255 255 255 255 255 255 255 255 255 255 255 255 255 255 255 255 255 255 255 255 255 255 255 255 255 255 255 255 255 255 255 255 255 255 255 255 255 255 255 255 255 255 255 255 255 255 255 255 255 255 255 255 255 255 255 255 255 255 255 255 255 255 255 255 255 255 255 255 255 255 255 255 255 255 255 255 255 255 255 255 255 255 255 255 255 255 255 255 255 255 255 255 255 255 255 255 255 255 255 255 255 255 255 255 255 255 255 255 255 255 255 255 255 255 255 255 255 255 255 255 255 255 255 255 255 255 255 255 255 255 255 255 255 255 255 255 255 255 255 255 255 255 255 255 255 255 255 255 255 255 255 255 255 255 255 255 255 255 255 255 255 255 255 255 255 255 255 255 255 255 255 255 255 255 255 255 255 255 255 255 255 255 255 255 255 255 255 255 255 255 255 255 255 255 255 255 255 255 255 255 255 255 255 255 255 255 255 255 255 255 255 255 255 255 255 255 255 255 255 255 255 255 255 255 255 255 255 255 255 255 255 255 255 255 255 255 255 255 255 255 255 255 255 255 255 255 255 255 255 255 255 255 255 255 255 255 255 255 255 255 255 255 255 255 255 255 255 255 255 255 255 255 255 255 255 255 255 255 255 255 255 255 255 255 255 255 255 255 255 255 255 255 255 255 255 255 255 255 255 255 255 255 255 255 255 255 255 255 255 255 255 255 255 255 255 255 255 255 255 255 255 255 255 255 255 255 255 255 255 255 255 255 255 255 255 255 255 255 255 255 255 255 255 255 255 255 255 255 255 255 255 255 255 255 255 255 255 255 255 255 255 255 255 255 255 255 255 255 255 255 255 255 255 255 255 255 255 255 255 255 
255 255 255 255 255 255 255 255 255 255 255 255 255 255 255 255 255 255 255 255 255 255 255 255 255 255 255 255 255 255 255 255 255 255 255 255 255 255 255 255 255 255 255 255 255 255 255 255 255 255 255 255 255 255 255 255 255 255 255 255 255 255 255 255 255 255 255 255 255 255 255 255 255 255 255 255 255 255 255 255 255 255 255 255 255 255 255 255 255 255 255 255 255 255 255 255 255 255 255 255 255 255 255 255 255 255 255 255 255 255 255 255 255 255 255 255 255 255 255 255 255 255 255 255 255 255 255 255 255 255 255 255 255 255 255 255 255 255 255 255 255 255 255 255 255 255 255 255 255 255 255 255 255 255 255 255 255 255 255 255 255 255 255 255 255 255 255 255 255 255 255 255 255 255 255 255 255 255 255 255 255 255 255 255 255 255 255 255 255 255 255 255 255 255 255 255 255 255 255 255 255 255 255 255 255 255 255 255 255 255 255 255 255 255 255 255 255 255 255 255 255 255 255 255 255 255 255 255 255 255 255 255 255 255 255 255 255 255 255 255 255 255 255 255 255 255 255 255 255 255 255 255 255 255 255 255 255 255 255 255 255 255 255 255 255 255 255 255 255 255 255 255 255 255 255 255 255 255 255 255 255 255 255 255 255 255 255 255 255 255 255 255 255 255 255 255 255 255 255 255 255 255 255 255 255 255 255 255 255 255 255 255 255 255 255 255 255 255 255 255 255 255 255 255 255 255 255 255 255 255 255 255 255 255 255 255 255 255 255 255 255 255 255 255 255 255 255 255 255 255 255 255 255 255 255 255 255 255 255 255 255 255 255 255 255 255 255 255 255 255 255 255 255 255 255 255 255 255 255 255 255 255 255 255 255 255 255 255 255 255 255 255 255 255 255 255 255 255 255 255 255 255 255 255 255 255 255 255 255 255 255 255 255 255 255 255 255 255 255 255 255 255 255 255 255 255 255 255 255 255 255 255 255 255 255 255 255 255 255 255 255 255 255 255 255 255 255 255 255 255 255 255 255 255 255 255 255 255 255 255 255 255 255 255 255 255 255 255 255 255 255 255 255 255 255 255 255 255 255 255 255 255 255 255 255 255 255 255 255 255 255 255 255 255 255 255 255 255 255 255 255 255 255 255 255 255 255 255 255 255 255 255 255 255 255 255 255 255 255 255 255 255 255 255 255 255 255 255 255 255 255 255 255 255 255 255 255 255 255 255 255 255 255 255 255 255 255 255 255 255 255 255 255 255 255 255 255 255 255 255 255 255 255 255 255 255 255 255 255 255 255 255 255 255 255 255 255 255 255 255 255 255 255 255 255 255 255 255 255 255 255 255 255 255 255 255 255 255 255 255 255 255 255 255 255 255 255 255 255 255 255 255 255 255 255 255 255 255 255 255 255 255 255 255 255 255 255 255 255 255 255 255 255 255 255 255 255 255 255 255 255 255 255 255 255 255 255 255 255 255 255 255 255 255 255 255 255 255 255 255 255 255 255 255 255 255 255 255 255 255 255 255 255 255 255 255 255 255 255 255 255 255 255 255 255 255 255 255 255 255 255 255 255 255 255 255 255 255 255 255 255 255 255 255 255 255 255 255 255 255 255 255 255 255 255 255 255 255 255 255 255 255 255 255 255 255 255 255 255 255 255 255 255 255 255 255 255 255 255 255 255 255 255 255 255 255 255 255 255 255 255 255 255 255 255 255 255 255 255 255 255 255 255 255 255 255 255 255 255 255 255 255 255 255 255 255 255 255 255 255 255 255 255 255 255 255 255 255 255 255 255 255 255 255 255 255 255 255 255 255 255 255 255 255 255 255 255 255 255 255 255 255 255 255 255 255 255 255 255 255 255 255 255 255 255 255 255 255 255 255 255 255 255 255 255 255 255 255 255 255 255 255 255 255 255 255 255 255 255 255 255 255 255 255 255 255 255 255 255 255 255 255 255 255 255 255 255 255 255 255 255 255 255 255 255 255 255 255 255 255 255 255 255 255 255 255 255 255 255 255 255 255 255 255 255 255 255 255 255 255 
255 255 255 255 255 255 255 255 255 255 255 255 255 255 255 255 255 255 255 255 255 255 255 255 255 255 255 255 255 255 255 255 255 255 255 255 255 255 255 255 255 255 255 255 255 255 255 255 255 255 255 255 255 255 255 255 255 255 255 255 255 255 255 255 255 255 255 255 255 255 255 255 255 255 255 255 255 255 255 255 255 255 255 255 255 255 255 255 255 255 255 255 255 255 255 255 255 255 255 255 255 255 255 255 255 255 255 255 255 255 255 255 255 255 255 255 255 255 255 255 255 255 255 255 255 255 255 255 255 255 255 255 255 255 255 255 255 255 255 255 255 255 255 255 255 255 255 255 255 255 255 255 255 255 255 255 255 255 255 255 255 255 255 255 255 255 255 255 255 255 255 255 255 255 255 255 255 255 255 255 255 255 255 255 255 255 255 255 255 255 255 255 255 255 255 255 255 255 255 255 255 255 255 255 255 255 255 255 255 255 255 255 255 255 255 255 255 255 255 255 255 255 255 255 255 255 255 255 255 255 255 255 255 255 255 255 255 255 255 255 255 255 255 255 255 255 255 255 255 255 255 255 255 255 255 255 255 255 255 255 255 255 255 255 255 255 255 255 255 255 255 255 255 255 255 255 255 255 255 255 255 255 255 255 255 255 255 255 255 255 255 255 255 255 255 255 255 255 255 255 255 255 255 255 255 255 255 255 255 255 255 255 255 255 255 255 255 255 255 255 255 255 255 255 255 255 255 255 255 255 255 255 255 255 255 255 255 255 255 255 255 255 255 255 255 255 255 255 255 255 255 255 255 255 255 255 255 255 255 255 255 255 255 255 255 255 255 255 255 255 255 255 255 255 255 255 255 255 255 255 255 255 255 255 255 255 255 255 255 255 255 255 255 255 255 255 255 255 255 255 255 255 255 255 255 255 255 255 255 255 255 255 255 255 255 255 255 255 255 255 255 255 255 255 255 255 255 255 255 255 255 255 255 255 255 255 255 255 255 255 255 255 255 255 255 255 255 255 255 255 255 255 255 255 255 255 255 255 255 255 255 255 255 255 255 255 255 255 255 255 255 255 255 255 255 255 255 255 255 255 255 255 255 255 255 255 255 255 255 255 255 255 255 255 255 255 255 255 255 255 255 255 255 255 255 255 255 255 255 255 255 255 255 255 255 255 255 255 255 255 255 255 255 255 255 255 255 255 255 255 255 255 255 255 255 255 255 255 255 255 255 255 255 255 255 255 255 255 255 255 255 255 255 255 255 255 255 255 255 255 255 255 255 255 255 255 255 255 255 255 255 255 255 255 255 255 255 255 255 255 255 255 255 255 255 255 255 255 255 255 255 255 255 255 255 255 255 255 255 255 255 255 255 255 255 255 255 255 255 255 255 255 255 255 255 255 255 255 255 255 255 255 255 255 255 255 255 255 255 255 255 255 255 255 255 255 255 255 255 255 255 255 255 255 255 255 255 255 255 255 255 255 255 255 255 255 255 255 255 255 255 255 255 255 255 255 255 255 255 255 255 255 255 255 255 255 255 255 255 255 255 255 255 255 255 255 255 255 255 255 255 255 255 255 255 255 255 255 255 255 255 255 255 255 255 255 255 255 255 255 255 255 255 255 255 255 255 255 255 255 255 255 255 255 255 255 255 255 255 255 255 255 255 255 255 255 255 255 255 255 255 255 255 255 255 255 255 255 255 255 255 255 255 255 255 255 255 255 255 255 255 255 255 255 255 255 255 255 255 255 255 255 255 255 255 255 255 255 255 255 255 255 255 255 255 255 255 255 255 255 255 255 255 255 255 255 255 255 255 255 255 255 255 255 255 255 255 255 255 255 255 255 255 255 255 255 255 255 255 255 255 255 255 255 255 255 255 255 255 255 255 255 255 255 255 255 255 255 255 255 255 255 255 255 255 255 255 255 255 255 255 255 255 255 255 255 255 255 255 255 255 255 255 255 255 255 255 255 255 255 255 255 255 255 255 255 255 255 255 255 255 255 255 255 255 255 255 255 255 255 255 255 255 255 255 255 255 255 255 255 
255 255 255 255 255 255 255 255 255 255 255 255 255 255 255 255 255 255 255 255 255 255 255 255 255 255 255 255 255 255 255 255 255 255 255 255 255 255 255 255 255 255 255 255 255 255 255 255 255 255 255 255 255 255 255 255 255 255 255 255 255 255 255 255 255 255 255 255 255 255 255 255 255 255 255 255 255 255 255 255 255 255 255 255 255 255 255 255 255 255 255 255 255 255 255 255 255 255 255 255 255 255 255 255 255 255 255 255 255 255 255 255 255 255 255 255 255 255 255 255 255 255 255 255 255 255 255 255 255 255 255 255 255 255 255 255 255 255 255 255 255 255 255 255 255 255 255 255 255 255 255 255 255 255 255 255 255 255 255 255 255 255 255 255 255 255 255 255 255 255 255 255 255 255 255 255 255 255 255 255 255 255 255 255 255 255 255 255 255 255 255 255 255 255 255 255 255 255 255 255 255 255 255 255 255 255 255 255 255 255 255 255 255 255 255 255 255 255 255 255 255 255 255 255 255 255 255 255 255 255 255 255 255 255 255 255 255 255 255 255 255 255 255 255 255 255 255 255 255 255 255 255 255 255 255 255 255 255 255 255 255 255 255 255 255 255 255 255 255 255 255 255 255 255 255 255 255 255 255 255 255 255 255 255 255 255 255 255 255 255 255 255 255 255 255 255 255 255 255 255 255 255 255 255 255 255 255 255 255 255 255 255 255 255 255 255 255 255 255 255 255 255 255 255 255 255 255 255 255 255 255 255 255 255 255 255 255 255 255 255 255 255 255 255 255 255 255 255 255 255 255 255 255 255 255 255 255 255 255 255 255 255 255 255 255 255 255 255 255 255 255 255 255 255 255 255 255 255 255 255 255 255 255 255 255 255 255 255 255 255 255 255 255 255 255 255 255 255 255 255 255 255 255 255 255 255 255 255 255 255 255 255 255 255 255 255 255 255 255 255 255 255 255 255 255 255 255 255 255 255 255 255 255 255 255 255 255 255 255 255 255 255 255 255 255 255 255 255 255 255 255 255 255 255 255 255 255 255 255 255 255 255 255 255 255 255 255 255 255 255 255 255 255 255 255 255 255 255 255 255 255 255 255 255 255 255 255 255 255 255 255 255 255 255 255 255 255 255 255 255 255 255 255 255 255 255 255 255 255 255 255 255 255 255 255 255 255 255 255 255 255 255 255 255 255 255 255 255 255 255 255 255 255 255 255 255 255 255 255 255 255 255 255 255 255 255 255 255 255 255 255 255 255 255 255 255 255 255 255 255 255 255 255 255 255 255 255 255 255 255 255 255 255 255 255 255 255 255 255 255 255 255 255 255 255 255 255 255 255 255 255 255 255 255 255 255 255 255 255 255 255 255 255 255 255 255 255 255 255 255 255 255 255 255 255 255 255 255 255 255 255 255 255 255 255 255 255 255 255 255 255 255 255 255 255 255 255 255 255 255 255 255 255 255 255 255 255 255 255 255 255 255 255 255 255 255 255 255 255 255 255 255 255 255 255 255 255 255 255 255 255 255 255 255 255 255 255 255 255 255 255 255 255 255 255 255 255 255 255 255 255 255 255 255 255 255 255 255 255 255 255 255 255 255 255 255 255 255 255 255 255 255 255 255 255 255 255 255 255 255 255 255 255 255 255 255 255 255 255 255 255 255 255 255 255 255 255 255 255 255 255 255 255 255 255 255 255 255 255 255 255 255 255 255 255 255 255 255 255 255 255 255 255 255 255 255 255 255 255 255 255 255 255 255 255 255 255 255 255 255 255 255 255 255 255 255 255 255 255 255 255 255 255 255 255 255 255 255 255 255 255 255 255 255 255 255 255 255 255 255 255 255 255 255 255 255 255 255 255 255 255 255 255 255 255 255 255 255 255 255 255 255 255 255 255 255 255 255 255 255 255 255 255 255 255 255 255 255 255 255 255 255 255 255 255 255 255 255 255 255 255 255 255 255 255 255 255 255 255 255 255 255 255 255 255 255 255 255 255 255 255 255 255 255 255 255 255 255 255 255 255 255 255 255 255 255 255 255 255 255 
255 255 255 255 255 255 255 255 255 255 255 255 255 255 255 255 255 255 255 255 255 255 255 255 255 255 255 255 255 255 255 255 255 255 255 255 255 255 255 255 255 255 255 255 255 255 255 255 255 255 255 255 255 255 255 255 255 255 255 255 255 255 255 255 255 255 255 255 255 255 255 255 255 255 255 255 255 255 255 255 255 255 255 255 255 255 255 255 255 255 255 255 255 255 255 255 255 255 255 255 255 255 255 255 255 255 255 255 255 255 255 255 255 255 255 255 255 255 255 255 255 255 255 255 255 255 255 255 255 255 255 255 255 255 255 255 255 255 255 255 255 255 255 255 255 255 255 255 255 255 255 255 255 255 255 255 255 255 255 255 255 255 255 255 255 255 255 255 255 255 255 255 255 255 255 255 255 255 255 255 255 255 255 255 255 255 255 255 255 255 255 255 255 255 255 255 255 255 255 255 255 255 255 255 255 255 255 255 255 255 255 255 255 255 255 255 255 255 255 255 255 255 255 255 255 255 255 255 255 255 255 255 255 255 255 255 255 255 255 255 255 255 255 255 255 255 255 255 255 255 255 255 255 255 255 255 255 255 255 255 255 255 255 255 255 255 255 255 255 255 255 255 255 255 255 255 255 255 255 255 255 255 255 255 255 255 255 255 255 255 255 255 255 255 255 255 255 255 255 255 255 255 255 255 255 255 255 255 255 255 255 255 255 255 255 255 255 255 255 255 255 255 255 255 255 255 255 255 255 255 255 255 255 255 255 255 255 255 255 255 255 255 255 255 255 255 255 255 255 255 255 255 255 255 255 255 255 255 255 255 255 255 255 255 255 255 255 255 255 255 255 255 255 255 255 255 255 255 255 255 255 255 255 255 255 255 255 255 255 255 255 255 255 255 255 255 255 255 255 255 255 255 255 255 255 255 255 255 255 255 255 255 255 255 255 255 255 255 255 255 255 255 255 255 255 255 255 255 255 255 255 255 255 255 255 255 255 255 255 255 255 255 255 255 255 255 255 255 255 255 255 255 255 255 255 255 255 255 255 255 255 255 255 255 255 255 255 255 255 255 255 255 255 255 255 255 255 255 255 255 255 255 255 255 255 255 255 255 255 255 255 255 255 255 255 255 255 255 255 255 255 255 255 255 255 255 255 255 255 255 255 255 255 255 255 255 255 255 255 255 255 255 255 255 255 255 255 255 255 255 255 255 255 255 255 255 255 255 255 255 255 255 255 255 255 255 255 255 255 255 255 255 255 255 255 255 255 255 255 255 255 255 255 255 255 255 255 255 255 255 255 255 255 255 255 255 255 255 255 255 255 255 255 255 255 255 255 255 255 255 255 255 255 255 255 255 255 255 255 255 255 255 255 255 255 255 255 255 255 255 255 255 255 255 255 255 255 255 255 255 255 255 255 255 255 255 255 255 255 255 255 255 255 255 255 255 255 255 255 255 255 255 255 255 255 255 255 255 255 255 255 255 255 255 255 255 255 255 255 255 255 255 255 255 255 255 255 255 255 255 255 255 255 255 255 255 255 255 255 255 255 255 255 255 255 255 255 255 255 255 255 255 255 255 255 255 255 255 255 255 255 255 255 255 255 255 255 255 255 255 255 255 255 255 255 255 255 255 255 255 255 255 255 255 255 255 255 255 255 255 255 255 255 255 255 255 255 255 255 255 255 255 255 255 255 255 255 255 255 255 255 255 255 255 255 255 255 255 255 255 255 255 255 255 255 255 255 255 255 255 255 255 255 255 255 255 255 255 255 255 255 255 255 255 255 255 255 255 255 255 255 255 255 255 255 255 255 255 255 255 255 255 255 255 255 255 255 255 255 255 255 255 255 255 255 255 255 255 255 255 255 255 255 255 255 255 255 255 255 255 255 255 255 255 255 255 255 255 255 255 255 255 255 255 255 255 255 255 255 255 255 255 255 255 255 255 255 255 255 255 255 255 255 255 255 255 255 255 255 255 255 255 255 255 255 255 255 255 255 255 255 255 255 255 255 255 255 255 255 255 255 255 255 255 255 255 255 255 255 255 
255 255 255 255 255 255 255 255 255 255 255 255 255 255 255 255 255 255 255 255 255 255 255 255 255 255 255 255 255 255 255 255 255 255 255 255 255 255 255 255 255 255 255 255 255 255 255 255 255 255 255 255 255 255 255 255 255 255 255 255 255 255 255 255 255 255 255 255 255 255 255 255 255 255 255 255 255 255 255 255 255 255 255 255 255 255 255 255 255 255 255 255 255 255 255 255 255 255 255 255 255 255 255 255 255 255 255 255 255 255 255 255 255 255 255 255 255 255 255 255 255 255 255 255 255 255 255 255 255 255 255 255 255 255 255 255 255 255 255 255 255 255 255 255 255 255 255 255 255 255 255 255 255 255 255 255 255 255 255 255 255 255 255 255 255 255 255 255 255 255 255 255 255 255 255 255 255 255 255 255 255 255 255 255 255 255 255 255 255 255 255 255 255 255 255 255 255 255 255 255 255 255 255 255 255 255 255 255 255 255 255 255 255 255 255 255 255 255 255 255 255 255 255 255 255 255 255 255 255 255 255 255 255 255 255 255 255 255 255 255 255 255 255 255 255 255 255 255 255 255 255 255 255 255 255 255 255 255 255 255 255 255 255 255 255 255 255 255 255 255 255 255 255 255 255 255 255 255 255 255 255 255 255 255 255 255 255 255 255 255 255 255 255 255 255 255 255 255 255 255 255 255 255 255 255 255 255 255 255 255 255 255 255 255 255 255 255 255 255 255 255 255 255 255 255 255 255 255 255 255 255 255 255 255 255 255 255 255 255 255 255 255 255 255 255 255 255 255 255 255 255 255 255 255 255 255 255 255 255 255 255 255 255 255 255 255 255 255 255 255 255 255 255 255 255 255 255 255 255 255 255 255 255 255 255 255 255 255 255 255 255 255 255 255 255 255 255 255 255 255 255 255 255 255 255 255 255 255 255 255 255 255 255 255 255 255 255 255 255 255 255 255 255 255 255 255 255 255 255 255 255 255 255 255 255 255 255 255 255 255 255 255 255 255 255 255 255 255 255 255 255 255 255 255 255 255 255 255 255 255 255 255 255 255 255 255 255 255 255 255 255 255 255 255 255 255 255 255 255 255 255 255 255 255 255 255 255 255 255 255 255 255 255 255 255 255 255 255 255 255 255 255 255 255 255 255 255 255 255 255 255 255 255 255 255 255 255 255 255 255 255 255 255 255 255 255 255 255 255 255 255 255 255 255 255 255 255 255 255 255 255 255 255 255 255 255 255 255 255 255 255 255 255 255 255 255 255 255 255 255 255 255 255 255 255 255 255 255 255 255 255 255 255 255 255 255 255 255 255 255 255 255 255 255 255 255 255 255 255 255 255 255 255 255 255 255 255 255 255 255 255 255 255 255 255 255 255 255 255 255 255 255 255 255 255 255 255 255 255 255 255 255 255 255 255 255 255 255 255 255 255 255 255 255 255 255 255 255 255 255 255 255 255 255 255 255 255 255 255 255 255 255 255 255 255 255 255 255 255 255 255 255 255 255 255 255 255 255 255 255 255 255 255 255 255 255 255 255 255 255 255 255 255 255 255 255 255 255 255 255 255 255 255 255 255 255 255 255 255 255 255 255 255 255 255 255 255 255 255 255 255 255 255 255 255 255 255 255 255 255 255 255 255 255 255 255 255 255 255 255 255 255 255 255 255 255 255 255 255 255 255 255 255 255 255 255 255 255 255 255 255 255 255 255 255 255 255 255 255 255 255 255 255 255 255 255 255 255 255 255 255 255 255 255 255 255 255 255 255 255 255 255 255 255 255 255 255 255 255 255 255 255 255 255 255 255 255 255 255 255 255 255 255 255 255 255 255 255 255 255 255 255 255 255 255 255 255 255 255 255 255 255 255 255 255 255 255 255 255 255 255 255 255 255 255 255 255 255 255 255 255 255 255 255 255 255 255 255 255 255 255 255 255 255 255 255 255 255 255 255 255 255 255 255 255 255 255 255 255 255 255 255 255 255 255 255 255 255 255 255 255 255 255 255 255 255 255 255 255 255 255 255 255 255 255 255 255 255 255 255 
255 255 255 255 255 255 255 255 255 255 255 255 255 255 255 255 255 255 255 255 255 255 255 255 255 255 255 255 255 255 255 255 255 255 255 255 255 255 255 255 255 255 255 255 255 255 255 255 255 255 255 255 255 255 255 255 255 255 255 255 255 255 255 255 255 255 255 255 255 255 255 255 255 255 255 255 255 255 255 255 255 255 255 255 255 255 255 255 255 255 255 255 255 255 255 255 255 255 255 255 255 255 255 255 255 255 255 255 255 255 255 255 255 255 255 255 255 255 255 255 255 255 255 255 255 255 255 255 255 255 255 255 255 255 255 255 255 255 255 255 255 255 255 255 255 255 255 255 255 255 255 255 255 255 255 255 255 255 255 255 255 255 255 255 255 255 255 255 255 255 255 255 255 255 255 255 255 255 255 255 255 255 255 255 255 255 255 255 255 255 255 255 255 255 255 255 255 255 255 255 255 255 255 255 255 255 255 255 255 255 255 255 255 255 255 255 255 255 255 255 255 255 255 255 255 255 255 255 255 255 255 255 255 255 255 255 255 255 255 255 255 255 255 255 255 255 255 255 255 255 255 255 255 255 255 255 255 255 255 255 255 255 255 255 255 255 255 255 255 255 255 255 255 255 255 255 255 255 255 255 255 255 255 255 255 255 255 255 255 255 255 255 255 255 255 255 255 255 255 255 255 255 255 255 255 255 255 255 255 255 255 255 255 255 255 255 255 255 255 255 255 255 255 255 255 255 255 255 255 255 255 255 255 255 255 255 255 255 255 255 255 255 255 255 255 255 255 255 255 255 255 255 255 255 255 255 255 255 255 255 255 255 255 255 255 255 255 255 255 255 255 255 255 255 255 255 255 255 255 255 255 255 255 255 255 255 255 255 255 255 255 255 255 255 255 255 255 255 255 255 255 255 255 255 255 255 255 255 255 255 255 255 255 255 255 255 255 255 255 255 255 255 255 255 255 255 255 255 255 255 255 255 255 255 255 255 255 255 255 255 255 255 255 255 255 255 255 255 255 255 255 255 255 255 255 255 255 255 255 255 255 255 255 255 255 255 255 255 255 255 255 255 255 255 255 255 255 255 255 255 255 255 255 255 255 255 255 255 255 255 255 255 255 255 255 255 255 255 255 255 255 255 255 255 255 255 255 255 255 255 255 255 255 255 255 255 255 255 255 255 255 255 255 255 255 255 255 255 255 255 255 255 255 255 255 255 255 255 255 255 255 255 255 255 255 255 255 255 255 255 255 255 255 255 255 255 255 255 255 255 255 255 255 255 255 255 255 255 255 255 255 255 255 255 255 255 255 255 255 255 255 255 255 255 255 255 255 255 255 255 255 255 255 255 255 255 255 255 255 255 255 255 255 255 255 255 255 255 255 255 255 255 255 255 255 255 255 255 255 255 255 255 255 255 255 255 255 255 255 255 255 255 255 255 255 255 255 255 255 255 255 255 255 255 255 255 255 255 255 255 255 255 255 255 255 255 255 255 255 255 255 255 255 255 255 255 255 255 255 255 255 255 255 255 255 255 255 255 255 255 255 255 255 255 255 255 255 255 255 255 255 255 255 255 255 255 255 255 255 255 255 255 255 255 255 255 255 255 255 255 255 255 255 255 255 255 255 255 255 255 255 255 255 255 255 255 255 255 255 255 255 255 255 255 255 255 255 255 255 255 255 255 255 255 255 255 255 255 255 255 255 255 255 255 255 255 255 255 255 255 255 255 255 255 255 255 255 255 255 255 255 255 255 255 255 255 255 255 255 255 255 255 255 255 255 255 255 255 255 255 255 255 255 255 255 255 255 255 255 255 255 255 255 255 255 255 255 255 255 255 255 255 255 255 255 255 255 255 255 255 255 255 255 255 255 255 255 255 255 255 255 255 255 255 255 255 255 255 255 255 255 255 255 255 255 255 255 255 255 255 255 255 255 255 255 255 255 255 255 255 255 255 255 255 255 255 255 255 255 255 255 255 255 255 255 255 255 255 255 255 255 255 255 255 255 255 255 255 255 255 255 255 255 255 255 255 255 255 255 255 
255 255 255 255 255 255 255 255 255 255 255 255 255 255 255 255 255 255 255 255 255 255 255 255 255 255 255 255 255 255 255 255 255 255 255 255 255 255 255 255 255 255 255 255 255 255 255 255 255 255 255 255 255 255 255 255 255 255 255 255 255 255 255 255 255 255 255 255 255 255 255 255 255 255 255 255 255 255 255 255 255 255 255 255 255 255 255 255 255 255 255 255 255 255 255 255 255 255 255 255 255 255 255 255 255 255 255 255 255 255 255 255 255 255 255 255 255 255 255 255 255 255 255 255 255 255 255 255 255 255 255 255 255 255 255 255 255 255 255 255 255 255 255 255 255 255 255 255 255 255 255 255 255 255 255 255 255 255 255 255 255 255 255 255 255 255 255 255 255 255 255 255 255 255 255 255 255 255 255 255 255 255 255 255 255 255 255 255 255 255 255 255 255 255 255 255 255 255 255 255 255 255 255 255 255 255 255 255 255 255 255 255 255 255 255 255 255 255 255 255 255 255 255 255 255 255 255 255 255 255 255 255 255 255 255 255 255 255 255 255 255 255 255 255 255 255 255 255 255 255 255 255 255 255 255 255 255 255 255 255 255 255 255 255 255 255 255 255 255 255 255 255 255 255 255 255 255 255 255 255 255 255 255 255 255 255 255 255 255 255 255 255 255 255 255 255 255 255 255 255 255 255 255 255 255 255 255 255 255 255 255 255 255 255 255 255 255 255 255 255 255 255 255 255 255 255 255 255 255 255 255 255 255 255 255 255 255 255 255 255 255 255 255 255 255 255 255 255 255 255 255 255 255 255 255 255 255 255 255 255 255 255 255 255 255 255 255 255 255 255 255 255 255 255 255 255 255 255 255 255 255 255 255 255 255 255 255 255 255 255 255 255 255 255 255 255 255 255 255 255 255 255 255 255 255 255 255 255 255 255 255 255 255 255 255 255 255 255 255 255 255 255 255 255 255 255 255 255 255 255 255 255 255 255 255 255 255 255 255 255 255 255 255 255 255 255 255 255 255 255 255 255 255 255 255 255 255 255 255 255 255 255 255 255 255 255 255 255 255 255 255 255 255 255 255 255 255 255 255 255 255 255 255 255 255 255 255 255 255 255 255 255 255 255 255 255 255 255 255 255 255 255 255 255 255 255 255 255 255 255 255 255 255 255 255 255 255 255 255 255 255 255 255 255 255 255 255 255 255 255 255 255 255 255 255 255 255 255 255 255 255 255 255 255 255 255 255 255 255 255 255 255 255 255 255 255 255 255 255 255 255 255 255 255 255 255 255 255 255 255 255 255 255 255 255 255 255 255 255 255 255 255 255 255 255 255 255 255 255 255 255 255 255 255 255 255 255 255 255 255 255 255 255 255 255 255 255 255 255 255 255 255 255 255 255 255 255 255 255 255 255 255 255 255 255 255 255 255 255 255 255 255 255 255 255 255 255 255 255 255 255 255 255 255 255 255 255 255 255 255 255 255 255 255 255 255 255 255 255 255 255 255 255 255 255 255 255 255 255 255 255 255 255 255 255 255 255 255 255 255 255 255 255 255 255 255 255 255 255 255 255 255 255 255 255 255 255 255 255 255 255 255 255 255 255 255 255 255 255 255 255 255 255 255 255 255 255 255 255 255 255 255 255 255 255 255 255 255 255 255 255 255 255 255 255 255 255 255 255 255 255 255 255 255 255 255 255 255 255 255 255 255 255 255 255 255 255 255 255 255 255 255 255 255 255 255 255 255 255 255 255 255 255 255 255 255 255 255 255 255 255 255 255 255 255 255 255 255 255 255 255 255 255 255 255 255 255 255 255 255 255 255 255 255 255 255 255 255 255 255 255 255 255 255 255 255 255 255 255 255 255 255 255 255 255 255 255 255 255 255 255 255 255 255 255 255 255 255 255 255 255 255 255 255 255 255 255 255 255 255 255 255 255 255 255 255 255 255 255 255 255 255 255 255 255 255 255 255 255 255 255 255 255 255 255 255 255 255 255 255 255 255 255 255 255 255 255 255 255 255 255 255 255 255 255 255 255 255 255 255 
255 255 255 255 255 255 255 255 255 255 255 255 255 255 255 255 255 255 255 255 255 255 255 255 255 255 255 255 255 255 255 255 255 255 255 255 255 255 255 255 255 255 255 255 255 255 255 255 255 255 255 255 255 255 255 255 255 255 255 255 255 255 255 255 255 255 255 255 255 255 255 255 255 255 255 255 255 255 255 255 255 255 255 255 255 255 255 255 255 255 255 255 255 255 255 255 255 255 255 255 255 255 255 255 255 255 255 255 255 255 255 255 255 255 255 255 255 255 255 255 255 255 255 255 255 255 255 255 255 255 255 255 255 255 255 255 255 255 255 255 255 255 255 255 255 255 255 255 255 255 255 255 255 255 255 255 255 255 255 255 255 255 255 255 255 255 255 255 255 255 255 255 255 255 255 255 255 255 255 255 255 255 255 255 255 255 255 255 255 255 255 255 255 255 255 255 255 255 255 255 255 255 255 255 255 255 255 255 255 255 255 255 255 255 255 255 255 255 255 255 255 255 255 255 255 255 255 255 255 255 255 255 255 255 255 255 255 255 255 255 255 255 255 255 255 255 255 255 255 255 255 255 255 255 255 255 255 255 255 255 255 255 255 255 255 255 255 255 255 255 255 255 255 255 255 255 255 255 255 255 255 255 255 255 255 255 255 255 255 255 255 255 255 255 255 255 255 255 255 255 255 255 255 255 255 255 255 255 255 255 255 255 255 255 255 255 255 255 255 255 255 255 255 255 255 255 255 255 255 255 255 255 255 255 255 255 255 255 255 255 255 255 255 255 255 255 255 255 255 255 255 255 255 255 255 255 255 255 255 255 255 255 255 255 255 255 255 255 255 255 255 255 255 255 255 255 255 255 255 255 255 255 255 255 255 255 255 255 255 255 255 255 255 255 255 255 255 255 255 255 255 255 255 255 255 255 255 255 255 255 255 255 255 255 255 255 255 255 255 255 255 255 255 255 255 255 255 255 255 255 255 255 255 255 255 255 255 255 255 255 255 255 255 255 255 255 255 255 255 255 255 255 255 255 255 255 255 255 255 255 255 255 255 255 255 255 255 255 255 255 255 255 255 255 255 255 255 255 255 255 255 255 255 255 255 255 255 255 255 255 255 255 255 255 255 255 255 255 255 255 255 255 255 255 255 255 255 255 255 255 255 255 255 255 255 255 255 255 255 255 255 255 255 255 255 255 255 255 255 255 255 255 255 255 255 255 255 255 255 255 255 255 255 255 255 255 255 255 255 255 255 255 255 255 255 255 255 255 255 255 255 255 255 255 255 255 255 255 255 255 255 255 255 255 255 255 255 255 255 255 255 255 255 255 255 255 255 255 255 255 255 255 255 255 255 255 255 255 255 255 255 255 255 255 255 255 255 255 255 255 255 255 255 255 255 255 255 255 255 255 255 255 255 255 255 255 255 255 255 255 255 255 255 255 255 255 255 255 255 255 255 255 255 255 255 255 255 255 255 255 255 255 255 255 255 255 255 255 255 255 255 255 255 255 255 255 255 255 255 255 255 255 255 255 255 255 255 255 255 255 255 255 255 255 255 255 255 255 255 255 255 255 255 255 255 255 255 255 255 255 255 255 255 255 255 255 255 255 255 255 255 255 255 255 255 255 255 255 255 255 255 255 255 255 255 255 255 255 255 255 255 255 255 255 255 255 255 255 255 255 255 255 255 255 255 255 255 255 255 255 255 255 255 255 255 255 255 255 255 255 255 255 255 255 255 255 255 255 255 255 255 255 255 255 255 255 255 255 255 255 255 255 255 255 255 255 255 255 255 255 255 255 255 255 255 255 255 255 255 255 255 255 255 255 255 255 255 255 255 255 255 255 255 255 255 255 255 255 255 255 255 255 255 255 255 255 255 255 255 255 255 255 255 255 255 255 255 255 255 255 255 255 255 255 255 255 255 255 255 255 255 255 255 255 255 255 255 255 255 255 255 255 255 255 255 255 255 255 255 255 255 255 255 255 255 255 255 255 255 255 255 255 255 255 255 255 255 255 255 255 255 255 255 255 255 255 255 255 255 255 
255 255 255 255 255 255 255 255 255 255 255 255 255 255 255 255 255 255 255 255 255 255 255 255 255 255 255 255 255 255 255 255 255 255 255 255 255 255 255 255 255 255 255 255 255 255 255 255 255 255 255 255 255 255 255 255 255 255 255 255 255 255 255 255 255 255 255 255 255 255 255 255 255 255 255 255 255 255 255 255 255 255 255 255 255 255 255 255 255 255 255 255 255 255 255 255 255 255 255 255 255 255 255 255 255 255 255 255 255 255 255 255 255 255 255 255 255 255 255 255 255 255 255 255 255 255 255 255 255 255 255 255 255 255 255 255 255 255 255 255 255 255 255 255 255 255 255 255 255 255 255 255 255 255 255 255 255 255 255 255 255 255 255 255 255 255 255 255 255 255 255 255 255 255 255 255 255 255 255 255 255 255 255 255 255 255 255 255 255 255 255 255 255 255 255 255 255 255 255 255 255 255 255 255 255 255 255 255 255 255 255 255 255 255 255 255 255 255 255 255 255 255 255 255 255 255 255 255 255 255 255 255 255 255 255 255 255 255 255 255 255 255 255 255 255 255 255 255 255 255 255 255 255 255 255 255 255 255 255 255 255 255 255 255 255 255 255 255 255 255 255 255 255 255 255 255 255 255 255 255 255 255 255 255 255 255 255 255 255 255 255 255 255 255 255 255 255 255 255 255 255 255 255 255 255 255 255 255 255 255 255 255 255 255 255 255 255 255 255 255 255 255 255 255 255 255 255 255 255 255 255 255 255 255 255 255 255 255 255 255 255 255 255 255 255 255 255 255 255 255 255 255 255 255 255 255 255 255 255 255 255 255 255 255 255 255 255 255 255 255 255 255 255 255 255 255 255 255 255 255 255 255 255 255 255 255 255 255 255 255 255 255 255 255 255 255 255 255 255 255 255 255 255 255 255 255 255 255 255 255 255 255 255 255 255 255 255 255 255 255 255 255 255 255 255 255 255 255 255 255 255 255 255 255 255 255 255 255 255 255 255 255 255 255 255 255 255 255 255 255 255 255 255 255 255 255 255 255 255 255 255 255 255 255 255 255 255 255 255 255 255 255 255 255 255 255 255 255 255 255 255 255 255 255 255 255 255 255 255 255 255 255 255 255 255 255 255 255 255 255 255 255 255 255 255 255 255 255 255 255 255 255 255 255 255 255 255 255 255 255 255 255 255 255 255 255 255 255 255 255 255 255 255 255 255 255 255 255 255 255 255 255 255 255 255 255 255 255 255 255 255 255 255 255 255 255 255 255 255 255 255 255 255 255 255 255 255 255 255 255 255 255 255 255 255 255 255 255 255 255 255 255 255 255 255 255 255 255 255 255 255 255 255 255 255 255 255 255 255 255 255 255 255 255 255 255 255 255 255 255 255 255 255 255 255 255 255 255 255 255 255 255 255 255 255 255 255 255 255 255 255 255 255 255 255 255 255 255 255 255 255 255 255 255 255 255 255 255 255 255 255 255 255 255 255 255 255 255 255 255 255 255 255 255 255 255 255 255 255 255 255 255 255 255 255 255 255 255 255 255 255 255 255 255 255 255 255 255 255 255 255 255 255 255 255 255 255 255 255 255 255 255 255 255 255 255 255 255 255 255 255 255 255 255 255 255 255 255 255 255 255 255 255 255 255 255 255 255 255 255 255 255 255 255 255 255 255 255 255 255 255 255 255 255 255 255 255 255 255 255 255 255 255 255 255 255 255 255 255 255 255 255 255 255 255 255 255 255 255 255 255 255 255 255 255 255 255 255 255 255 255 255 255 255 255 255 255 255 255 255 255 255 255 255 255 255 255 255 255 255 255 255 255 255 255 255 255 255 255 255 255 255 255 255 255 255 255 255 255 255 255 255 255 255 255 255 255 255 255 255 255 255 255 255 255 255 255 255 255 255 255 255 255 255 255 255 255 255 255 255 255 255 255 255 255 255 255 255 255 255 255 255 255 255 255 255 255 255 255 255 255 255 255 255 255 255 255 255 255 255 255 255 255 255 255 255 255 255 255 255 255 255 255 255 255 255 255 255 255 255 
255 255 255 255 255 255 255 255 255 255 255 255 255 255 255 255 255 255 255 255 255 255 255 255 255 255 255 255 255 255 255 255 255 255 255 255 255 255 255 255 255 255 255 255 255 255 255 255 255 255 255 255 255 255 255 255 255 255 255 255 255 255 255 255 255 255 255 255 255 255 255 255 255 255 255 255 255 255 255 255 255 255 255 255 255 255 255 255 255 255 255 255 255 255 255 255 255 255 255 255 255 255 255 255 255 255 255 255 255 255 255 255 255 255 255 255 255 255 255 255 255 255 255 255 255 255 255 255 255 255 255 255 255 255 255 255 255 255 255 255 255 255 255 255 255 255 255 255 255 255 255 255 255 255 255 255 255 255 255 255 255 255 255 255 255 255 255 255 255 255 255 255 255 255 255 255 255 255 255 255 255 255 255 255 255 255 255 255 255 255 255 255 255 255 255 255 255 255 255 255 255 255 255 255 255 255 255 255 255 255 255 255 255 255 255 255 255 255 255 255 255 255 255 255 255 255 255 255 255 255 255 255 255 255 255 255 255 255 255 255 255 255 255 255 255 255 255 255 255 255 255 255 255 255 255 255 255 255 255 255 255 255 255 255 255 255 255 255 255 255 255 255 255 255 255 255 255 255 255 255 255 255 255 255 255 255 255 255 255 255 255 255 255 255 255 255 255 255 255 255 255 255 255 255 255 255 255 255 255 255 255 255 255 255 255 255 255 255 255 255 255 255 255 255 255 255 255 255 255 255 255 255 255 255 255 255 255 255 255 255 255 255 255 255 255 255 255 255 255 255 255 255 255 255 255 255 255 255 255 255 255 255 255 255 255 255 255 255 255 255 255 255 255 255 255 255 255 255 255 255 255 255 255 255 255 255 255 255 255 255 255 255 255 255 255 255 255 255 255 255 255 255 255 255 255 255 255 255 255 255 255 255 255 255 255 255 255 255 255 255 255 255 255 255 255 255 255 255 255 255 255 255 255 255 255 255 255 255 255 255 255 255 255 255 255 255 255 255 255 255 255 255 255 255 255 255 255 255 255 255 255 255 255 255 255 255 255 255 255 255 255 255 255 255 255 255 255 255 255 255 255 255 255 255 255 255 255 255 255 255 255 255 255 255 255 255 255 255 255 255 255 255 255 255 255 255 255 255 255 255 255 255 255 255 255 255 255 255 255 255 255 255 255 255 255 255 255 255 255 255 255 255 255 255 255 255 255 255 255 255 255 255 255 255 255 255 255 255 255 255 255 255 255 255 255 255 255 255 255 255 255 255 255 255 255 255 255 255 255 255 255 255 255 255 255 255 255 255 255 255 255 255 255 255 255 255 255 255 255 255 255 255 255 255 255 255 255 255 255 255 255 255 255 255 255 255 255 255 255 255 255 255 255 255 255 255 255 255 255 255 255 255 255 255 255 255 255 255 255 255 255 255 255 255 255 255 255 255 255 255 255 255 255 255 255 255 255 255 255 255 255 255 255 255 255 255 255 255 255 255 255 255 255 255 255 255 255 255 255 255 255 255 255 255 255 255 255 255 255 255 255 255 255 255 255 255 255 255 255 255 255 255 255 255 255 255 255 255 255 255 255 255 255 255 255 255 255 255 255 255 255 255 255 255 255 255 255 255 255 255 255 255 255 255 255 255 255 255 255 255 255 255 255 255 255 255 255 255 255 255 255 255 255 255 255 255 255 255 255 255 255 255 255 255 255 255 255 255 255 255 255 255 255 255 255 255 255 255 255 255 255 255 255 255 255 255 255 255 255 255 255 255 255 255 255 255 255 255 255 255 255 255 255 255 255 255 255 255 255 255 255 255 255 255 255 255 255 255 255 255 255 255 255 255 255 255 255 255 255 255 255 255 255 255 255 255 255 255 255 255 255 255 255 255 255 255 255 255 255 255 255 255 255 255 255 255 255 255 255 255 255 255 255 255 255 255 255 255 255 255 255 255 255 255 255 255 255 255 255 255 255 255 255 255 255 255 255 255 255 255 255 255 255 255 255 255 255 255 255 255 255 255 255 255 255 255 255 255 255 255 
255 255 255 255 255 255 255 255 255 255 255 255 255 255 255 255 255 255 255 255 255 255 255 255 255 255 255 255 255 255 255 255 255 255 255 255 255 255 255 255 255 255 255 255 255 255 255 255 255 255 255 255 255 255 255 255 255 255 255 255 255 255 255 255 255 255 255 255 255 255 255 255 255 255 255 255 255 255 255 255 255 255 255 255 255 255 255 255 255 255 255 255 255 255 255 255 255 255 255 255 255 255 255 255 255 255 255 255 255 255 255 255 255 255 255 255 255 255 255 255 255 255 255 255 255 255 255 255 255 255 255 255 255 255 255 255 255 255 255 255 255 255 255 255 255 255 255 255 255 255 255 255 255 255 255 255 255 255 255 255 255 255 255 255 255 255 255 255 255 255 255 255 255 255 255 255 255 255 255 255 255 255 255 255 255 255 255 255 255 255 255 255 255 255 255 255 255 255 255 255 255 255 255 255 255 255 255 255 255 255 255 255 255 255 255 255 255 255 255 255 255 255 255 255 255 255 255 255 255 255 255 255 255 255 255 255 255 255 255 255 255 255 255 255 255 255 255 255 255 255 255 255 255 255 255 255 255 255 255 255 255 255 255 255 255 255 255 255 255 255 255 255 255 255 255 255 255 255 255 255 255 255 255 255 255 255 255 255 255 255 255 255 255 255 255 255 255 255 255 255 255 255 255 255 255 255 255 255 255 255 255 255 255 255 255 255 255 255 255 255 255 255 255 255 255 255 255 255 255 255 255 255 255 255 255 255 255 255 255 255 255 255 255 255 255 255 255 255 255 255 255 255 255 255 255 255 255 255 255 255 255 255 255 255 255 255 255 255 255 255 255 255 255 255 255 255 255 255 255 255 255 255 255 255 255 255 255 255 255 255 255 255 255 255 255 255 255 255 255 255 255 255 255 255 255 255 255 255 255 255 255 255 255 255 255 255 255 255 255 255 255 255 255 255 255 255 255 255 255 255 255 255 255 255 255 255 255 255 255 255 255 255 255 255 255 255 255 255 255 255 255 255 255 255 255 255 255 255 255 255 255 255 255 255 255 255 255 255 255 255 255 255 255 255 255 255 255 255 255 255 255 255 255 255 255 255 255 255 255 255 255 255 255 255 255 255 255 255 255 255 255 255 255 255 255 255 255 255 255 255 255 255 255 255 255 255 255 255 255 255 255 255 255 255 255 255 255 255 255 255 255 255 255 255 255 255 255 255 255 255 255 255 255 255 255 255 255 255 255 255 255 255 255 255 255 255 255 255 255 255 255 255 255 255 255 255 255 255 255 255 255 255 255 255 255 255 255 255 255 255 255 255 255 255 255 255 255 255 255 255 255 255 255 255 255 255 255 255 255 255 255 255 255 255 255 255 255 255 255 255 255 255 255 255 255 255 255 255 255 255 255 255 255 255 255 255 255 255 255 255 255 255 255 255 255 255 255 255 255 255 255 255 255 255 255 255 255 255 255 255 255 255 255 255 255 255 255 255 255 255 255 255 255 255 255 255 255 255 255 255 255 255 255 255 255 255 255 255 255 255 255 255 255 255 255 255 255 255 255 255 255 255 255 255 255 255 255 255 255 255 255 255 255 255 255 255 255 255 255 255 255 255 255 255 255 255 255 255 255 255 255 255 255 255 255 255 255 255 255 255 255 255 255 255 255 255 255 255 255 255 255 255 255 255 255 255 255 255 255 255 255 255 255 255 255 255 255 255 255 255 255 255 255 255 255 255 255 255 255 255 255 255 255 255 255 255 255 255 255 255 255 255 255 255 255 255 255 255 255 255 255 255 255 255 255 255 255 255 255 255 255 255 255 255 255 255 255 255 255 255 255 255 255 255 255 255 255 255 255 255 255 255 255 255 255 255 255 255 255 255 255 255 255 255 255 255 255 255 255 255 255 255 255 255 255 255 255 255 255 255 255 255 255 255 255 255 255 255 255 255 255 255 255 255 255 255 255 255 255 255 255 255 255 255 255 255 255 255 255 255 255 255 255 255 255 255 255 255 255 255 255 255 255 255 255 255 255 255 255 255 
255 255 255 255 255 255 255 255 255 255 255 255 255 255 255 255 255 255 255 255 255 255 255 255 255 255 255 255 255 255 255 255 255 255 255 255 255 255 255 255 255 255 255 255 255 255 255 255 255 255 255 255 255 255 255 255 255 255 255 255 255 255 255 255 255 255 255 255 255 255 255 255 255 255 255 255 255 255 255 255 255 255 255 255 255 255 255 255 255 255 255 255 255 255 255 255 255 255 255 255 255 255 255 255 255 255 255 255 255 255 255 255 255 255 255 255 255 255 255 255 255 255 255 255 255 255 255 255 255 255 255 255 255 255 255 255 255 255 255 255 255 255 255 255 255 255 255 255 255 255 255 255 255 255 255 255 255 255 255 255 255 255 255 255 255 255 255 255 255 255 255 255 255 255 255 255 255 255 255 255 255 255 255 255 255 255 255 255 255 255 255 255 255 255 255 255 255 255 255 255 255 255 255 255 255 255 255 255 255 255 255 255 255 255 255 255 255 255 255 255 255 255 255 255 255 255 255 255 255 255 255 255 255 255 255 255 255 255 255 255 255 255 255 255 255 255 255 255 255 255 255 255 255 255 255 255 255 255 255 255 255 255 255 255 255 255 255 255 255 255 255 255 255 255 255 255 255 255 255 255 255 255 255 255 255 255 255 255 255 255 255 255 255 255 255 255 255 255 255 255 255 255 255 255 255 255 255 255 255 255 255 255 255 255 255 255 255 255 255 255 255 255 255 255 255 255 255 255 255 255 255 255 255 255 255 255 255 255 255 255 255 255 255 255 255 255 255 255 255 255 255 255 255 255 255 255 255 255 255 255 255 255 255 255 255 255 255 255 255 255 255 255 255 255 255 255 255 255 255 255 255 255 255 255 255 255 255 255 255 255 255 255 255 255 255 255 255 255 255 255 255 255 255 255 255 255 255 255 255 255 255 255 255 255 255 255 255 255 255 255 255 255 255 255 255 255 255 255 255 255 255 255 255 255 255 255 255 255 255 255 255 255 255 255 255 255 255 255 255 255 255 255 255 255 255 255 255 255 255 255 255 255 255 255 255 255 255 255 255 255 255 255 255 255 255 255 255 255 255 255 255 255 255 255 255 255 255 255 255 255 255 255 255 255 255 255 255 255 255 255 255 255 255 255 255 255 255 255 255 255 255 255 255 255 255 255 255 255 255 255 255 255 255 255 255 255 255 255 255 255 255 255 255 255 255 255 255 255 255 255 255 255 255 255 255 255 255 255 255 255 255 255 255 255 255 255 255 255 255 255 255 255 255 255 255 255 255 255 255 255 255 255 255 255 255 255 255 255 255 255 255 255 255 255 255 255 255 255 255 255 255 255 255 255 255 255 255 255 255 255 255 255 255 255 255 255 255 255 255 255 255 255 255 255 255 255 255 255 255 255 255 255 255 255 255 255 255 255 255 255 255 255 255 255 255 255 255 255 255 255 255 255 255 255 255 255 255 255 255 255 255 255 255 255 255 255 255 255 255 255 255 255 255 255 255 255 255 255 255 255 255 255 255 255 255 255 255 255 255 255 255 255 255 255 255 255 255 255 255 255 255 255 255 255 255 255 255 255 255 255 255 255 255 255 255 255 255 255 255 255 255 255 255 255 255 255 255 255 255 255 255 255 255 255 255 255 255 255 255 255 255 255 255 255 255 255 255 255 255 255 255 255 255 255 255 255 255 255 255 255 255 255 255 255 255 255 255 255 255 255 255 255 255 255 255 255 255 255 255 255 255 255 255 255 255 255 255 255 255 255 255 255 255 255 255 255 255 255 255 255 255 255 255 255 255 255 255 255 255 255 255 255 255 255 255 255 255 255 255 255 255 255 255 255 255 255 255 255 255 255 255 255 255 255 255 255 255 255 255 255 255 255 255 255 255 255 255 255 255 255 255 255 255 255 255 255 255 255 255 255 255 255 255 255 255 255 255 255 255 255 255 255 255 255 255 255 255 255 255 255 255 255 255 255 255 255 255 255 255 255 255 255 255 255 255 255 255 255 255 255 255 255 255 255 255 255 255 255 255 255 
255 255 255 255 255 255 255 255 255 255 255 255 255 255 255 255 255 255 255 255 255 255 255 255 255 255 255 255 255 255 255 255 255 255 255 255 255 255 255 255 255 255 255 255 255 255 255 255 255 255 255 255 255 255 255 255 255 255 255 255 255 255 255 255 255 255 255 255 255 255 255 255 255 255 255 255 255 255 255 255 255 255 255 255 255 255 255 255 255 255 255 255 255 255 255 255 255 255 255 255 255 255 255 255 255 255 255 255 255 255 255 255 255 255 255 255 255 255 255 255 255 255 255 255 255 255 255 255 255 255 255 255 255 255 255 255 255 255 255 255 255 255 255 255 255 255 255 255 255 255 255 255 255 255 255 255 255 255 255 255 255 255 255 255 255 255 255 255 255 255 255 255 255 255 255 255 255 255 255 255 255 255 255 255 255 255 255 255 255 255 255 255 255 255 255 255 255 255 255 255 255 255 255 255 255 255 255 255 255 255 255 255 255 255 255 255 255 255 255 255 255 255 255 255 255 255 255 255 255 255 255 255 255 255 255 255 255 255 255 255 255 255 255 255 255 255 255 255 255 255 255 255 255 255 255 255 255 255 255 255 255 255 255 255 255 255 255 255 255 255 255 255 255 255 255 255 255 255 255 255 255 255 255 255 255 255 255 255 255 255 255 255 255 255 255 255 255 255 255 255 255 255 255 255 255 255 255 255 255 255 255 255 255 255 255 255 255 255 255 255 255 255 255 255 255 255 255 255 255 255 255 255 255 255 255 255 255 255 255 255 255 255 255 255 255 255 255 255 255 255 255 255 255 255 255 255 255 255 255 255 255 255 255 255 255 255 255 255 255 255 255 255 255 255 255 255 255 255 255 255 255 255 255 255 255 255 255 255 255 255 255 255 255 255 255 255 255 255 255 255 255 255 255 255 255 255 255 255 255 255 255 255 255 255 255 255 255 255 255 255 255 255 255 255 255 255 255 255 255 255 255 255 255 255 255 255 255 255 255 255 255 255 255 255 255 255 255 255 255 255 255 255 255 255 255 255 255 255 255 255 255 255 255 255 255 255 255 255 255 255 255 255 255 255 255 255 255 255 255 255 255 255 255 255 255 255 255 255 255 255 255 255 255 255 255 255 255 255 255 255 255 255 255 255 255 255 255 255 255 255 255 255 255 255 255 255 255 255 255 255 255 255 255 255 255 255 255 255 255 255 255 255 255 255 255 255 255 255 255 255 255 255 255 255 255 255 255 255 255 255 255 255 255 255 255 255 255 255 255 255 255 255 255 255 255 255 255 255 255 255 255 255 255 255 255 255 255 255 255 255 255 255 255 255 255 255 255 255 255 255 255 255 255 255 255 255 255 255 255 255 255 255 255 255 255 255 255 255 255 255 255 255 255 255 255 255 255 255 255 255 255 255 255 255 255 255 255 255 255 255 255 255 255 255 255 255 255 255 255 255 255 255 255 255 255 255 255 255 255 255 255 255 255 255 255 255 255 255 255 255 255 255 255 255 255 255 255 255 255 255 255 255 255 255 255 255 255 255 255 255 255 255 255 255 255 255 255 255 255 255 255 255 255 255 255 255 255 255 255 255 255 255 255 255 255 255 255 255 255 255 255 255 255 255 255 255 255 255 255 255 255 255 255 255 255 255 255 255 255 255 255 255 255 255 255 255 255 255 255 255 255 255 255 255 255 255 255 255 255 255 255 255 255 255 255 255 255 255 255 255 255 255 255 255 255 255 255 255 255 255 255 255 255 255 255 255 255 255 255 255 255 255 255 255 255 255 255 255 255 255 255 255 255 255 255 255 255 255 255 255 255 255 255 255 255 255 255 255 255 255 255 255 255 255 255 255 255 255 255 255 255 255 255 255 255 255 255 255 255 255 255 255 255 255 255 255 255 255 255 255 255 255 255 255 255 255 255 255 255 255 255 255 255 255 255 255 255 255 255 255 255 255 255 255 255 255 255 255 255 255 255 255 255 255 255 255 255 255 255 255 255 255 255 255 255 255 255 255 255 255 255 255 255 255 255 255 255 255 255 255 
255 255 255 255 255 255 255 255 255 255 255 255 255 255 255 255 255 255 255 255 255 255 255 255 255 255 255 255 255 255 255 255 255 255 255 255 255 255 255 255 255 255 255 255 255 255 255 255 255 255 255 255 255 255 255 255 255 255 255 255 255 255 255 255 255 255 255 255 255 255 255 255 255 255 255 255 255 255 255 255 255 255 255 255 255 255 255 255 255 255 255 255 255 255 255 255 255 255 255 255 255 255 255 255 255 255 255 255 255 255 255 255 255 255 255 255 255 255 255 255 255 255 255 255 255 255 255 255 255 255 255 255 255 255 255 255 255 255 255 255 255 255 255 255 255 255 255 255 255 255 255 255 255 255 255 255 255 255 255 255 255 255 255 255 255 255 255 255 255 255 255 255 255 255 255 255 255 255 255 255 255 255 255 255 255 255 255 255 255 255 255 255 255 255 255 255 255 255 255 255 255 255 255 255 255 255 255 255 255 255 255 255 255 255 255 255 255 255 255 255 255 255 255 255 255 255 255 255 255 255 255 255 255 255 255 255 255 255 255 255 255 255 255 255 255 255 255 255 255 255 255 255 255 255 255 255 255 255 255 255 255 255 255 255 255 255 255 255 255 255 255 255 255 255 255 255 255 255 255 255 255 255 255 255 255 255 255 255 255 255 255 255 255 255 255 255 255 255 255 255 255 255 255 255 255 255 255 255 255 255 255 255 255 255 255 255 255 255 255 255 255 255 255 255 255 255 255 255 255 255 255 255 255 255 255 255 255 255 255 255 255 255 255 255 255 255 255 255 255 255 255 255 255 255 255 255 255 255 255 255 255 255 255 255 255 255 255 255 255 255 255 255 255 255 255 255 255 255 255 255 255 255 255 255 255 255 255 255 255 255 255 255 255 255 255 255 255 255 255 255 255 255 255 255 255 255 255 255 255 255 255 255 255 255 255 255 255 255 255 255 255 255 255 255 255 255 255 255 255 255 255 255 255 255 255 255 255 255 255 255 255 255 255 255 255 255 255 255 255 255 255 255 255 255 255 255 255 255 255 255 255 255 255 255 255 255 255 255 255 255 255 255 255 255 255 255 255 255 255 255 255 255 255 255 255 255 255 255 255 255 255 255 255 255 255 255 255 255 255 255 255 255 255 255 255 255 255 255 255 255 255 255 255 255 255 255 255 255 255 255 255 255 255 255 255 255 255 255 255 255 255 255 255 255 255 255 255 255 255 255 255 255 255 255 255 255 255 255 255 255 255 255 255 255 255 255 255 255 255 255 255 255 255 255 255 255 255 255 255 255 255 255 255 255 255 255 255 255 255 255 255 255 255 255 255 255 255 255 255 255 255 255 255 255 255 255 255 255 255 255 255 255 255 255 255 255 255 255 255 255 255 255 255 255 255 255 255 255 255 255 255 255 255 255 255 255 255 255 255 255 255 255 255 255 255 255 255 255 255 255 255 255 255 255 255 255 255 255 255 255 255 255 255 255 255 255 255 255 255 255 255 255 255 255 255 255 255 255 255 255 255 255 255 255 255 255 255 255 255 255 255 255 255 255 255 255 255 255 255 255 255 255 255 255 255 255 255 255 255 255 255 255 255 255 255 255 255 255 255 255 255 255 255 255 255 255 255 255 255 255 255 255 255 255 255 255 255 255 255 255 255 255 255 255 255 255 255 255 255 255 255 255 255 255 255 255 255 255 255 255 255 255 255 255 255 255 255 255 255 255 255 255 255 255 255 255 255 255 255 255 255 255 255 255 255 255 255 255 255 255 255 255 255 255 255 255 255 255 255 255 255 255 255 255 255 255 255 255 255 255 255 255 255 255 255 255 255 255 255 255 255 255 255 255 255 255 255 255 255 255 255 255 255 255 255 255 255 255 255 255 255 255 255 255 255 255 255 255 255 255 255 255 255 255 255 255 255 255 255 255 255 255 255 255 255 255 255 255 255 255 255 255 255 255 255 255 255 255 255 255 255 255 255 255 255 255 255 255 255 255 255 255 255 255 255 255 255 255 255 255 255 255 255 255 255 255 255 255 255 255 
255 255 255 255 255 255 255 255 255 255 255 255 255 255 255 255 255 255 255 255 255 255 255 255 255 255 255 255 255 255 255 255 255 255 255 255 255 255 255 255 255 255 255 255 255 255 255 255 255 255 255 255 255 255 255 255 255 255 255 255 255 255 255 255 255 255 255 255 255 255 255 255 255 255 255 255 255 255 255 255 255 255 255 255 255 255 255 255 255 255 255 255 255 255 255 255 255 255 255 255 255 255 255 255 255 255 255 255 255 255 255 255 255 255 255 255 255 255 255 255 255 255 255 255 255 255 255 255 255 255 255 255 255 255 255 255 255 255 255 255 255 255 255 255 255 255 255 255 255 255 255 255 255 255 255 255 255 255 255 255 255 255 255 255 255 255 255 255 255 255 255 255 255 255 255 255 255 255 255 255 255 255 255 255 255 255 255 255 255 255 255 255 255 255 255 255 255 255 255 255 255 255 255 255 255 255 255 255 255 255 255 255 255 255 255 255 255 255 255 255 255 255 255 255 255 255 255 255 255 255 255 255 255 255 255 255 255 255 255 255 255 255 255 255 255 255 255 255 255 255 255 255 255 255 255 255 255 255 255 255 255 255 255 255 255 255 255 255 255 255 255 255 255 255 255 255 255 255 255 255 255 255 255 255 255 255 255 255 255 255 255 255 255 255 255 255 255 255 255 255 255 255 255 255 255 255 255 255 255 255 255 255 255 255 255 255 255 255 255 255 255 255 255 255 255 255 255 255 255 255 255 255 255 255 255 255 255 255 255 255 255 255 255 255 255 255 255 255 255 255 255 255 255 255 255 255 255 255 255 255 255 255 255 255 255 255 255 255 255 255 255 255 255 255 255 255 255 255 255 255 255 255 255 255 255 255 255 255 255 255 255 255 255 255 255 255 255 255 255 255 255 255 255 255 255 255 255 255 255 255 255 255 255 255 255 255 255 255 255 255 255 255 255 255 255 255 255 255 255 255 255 255 255 255 255 255 255 255 255 255 255 255 255 255 255 255 255 255 255 255 255 255 255 255 255 255 255 255 255 255 255 255 255 255 255 255 255 255 255 255 255 255 255 255 255 255 255 255 255 255 255 255 255 255 255 255 255 255 255 255 255 255 255 255 255 255 255 255 255 255 255 255 255 255 255 255 255 255 255 255 255 255 255 255 255 255 255 255 255 255 255 255 255 255 255 255 255 255 255 255 255 255 255 255 255 255 255 255 255 255 255 255 255 255 255 255 255 255 255 255 255 255 255 255 255 255 255 255 255 255 255 255 255 255 255 255 255 255 255 255 255 255 255 255 255 255 255 255 255 255 255 255 255 255 255 255 255 255 255 255 255 255 255 255 255 255 255 255 255 255 255 255 255 255 255 255 255 255 255 255 255 255 255 255 255 255 255 255 255 255 255 255 255 255 255 255 255 255 255 255 255 255 255 255 255 255 255 255 255 255 255 255 255 255 255 255 255 255 255 255 255 255 255 255 255 255 255 255 255 255 255 255 255 255 255 255 255 255 255 255 255 255 255 255 255 255 255 255 255 255 255 255 255 255 255 255 255 255 255 255 255 255 255 255 255 255 255 255 255 255 255 255 255 255 255 255 255 255 255 255 255 255 255 255 255 255 255 255 255 255 255 255 255 255 255 255 255 255 255 255 255 255 255 255 255 255 255 255 255 255 255 255 255 255 255 255 255 255 255 255 255 255 255 255 255 255 255 255 255 255 255 255 255 255 255 255 255 255 255 255 255 255 255 255 255 255 255 255 255 255 255 255 255 255 255 255 255 255 255 255 255 255 255 255 255 255 255 255 255 255 255 255 255 255 255 255 255 255 255 255 255 255 255 255 255 255 255 255 255 255 255 255 255 255 255 255 255 255 255 255 255 255 255 255 255 255 255 255 255 255 255 255 255 255 255 255 255 255 255 255 255 255 255 255 255 255 255 255 255 255 255 255 255 255 255 255 255 255 255 255 255 255 255 255 255 255 255 255 255 255 255 255 255 255 255 255 255 255 255 255 255 255 255 255 255 255 255 255 255 255 
255 255 255 255 255 255 255 255 255 255 255 255 255 255 255 255 255 255 255 255 255 255 255 255 255 255 255 255 255 255 255 255 255 255 255 255 255 255 255 255 255 255 255 255 255 255 255 255 255 255 255 255 255 255 255 255 255 255 255 255 255 255 255 255 255 255 255 255 255 255 255 255 255 255 255 255 255 255 255 255 255 255 255 255 255 255 255 255 255 255 255 255 255 255 255 255 255 255 255 255 255 255 255 255 255 255 255 255 255 255 255 255 255 255 255 255 255 255 255 255 255 255 255 255 255 255 255 255 255 255 255 255 255 255 255 255 255 255 255 255 255 255 255 255 255 255 255 255 255 255 255 255 255 255 255 255 255 255 255 255 255 255 255 255 255 255 255 255 255 255 255 255 255 255 255 255 255 255 255 255 255 255 255 255 255 255 255 255 255 255 255 255 255 255 255 255 255 255 255 255 255 255 255 255 255 255 255 255 255 255 255 255 255 255 255 255 255 255 255 255 255 255 255 255 255 255 255 255 255 255 255 255 255 255 255 255 255 255 255 255 255 255 255 255 255 255 255 255 255 255 255 255 255 255 255 255 255 255 255 255 255 255 255 255 255 255 255 255 255 255 255 255 255 255 255 255 255 255 255 255 255 255 255 255 255 255 255 255 255 255 255 255 255 255 255 255 255 255 255 255 255 255 255 255 255 255 255 255 255 255 255 255 255 255 255 255 255 255 255 255 255 255 255 255 255 255 255 255 255 255 255 255 255 255 255 255 255 255 255 255 255 255 255 255 255 255 255 255 255 255 255 255 255 255 255 255 255 255 255 255 255 255 255 255 255 255 255 255 255 255 255 255 255 255 255 255 255 255 255 255 255 255 255 255 255 255 255 255 255 255 255 255 255 255 255 255 255 255 255 255 255 255 255 255 255 255 255 255 255 255 255 255 255 255 255 255 255 255 255 255 255 255 255 255 255 255 255 255 255 255 255 255 255 255 255 255 255 255 255 255 255 255 255 255 255 255 255 255 255 255 255 255 255 255 255 255 255 255 255 255 255 255 255 255 255 255 255 255 255 255 255 255 255 255 255 255 255 255 255 255 255 255 255 255 255 255 255 255 255 255 255 255 255 255 255 255 255 255 255 255 255 255 255 255 255 255 255 255 255 255 255 255 255 255 255 255 255 255 255 255 255 255 255 255 255 255 255 255 255 255 255 255 255 255 255 255 255 255 255 255 255 255 255 255 255 255 255 255 255 255 255 255 255 255 255 255 255 255 255 255 255 255 255 255 255 255 255 255 255 255 255 255 255 255 255 255 255 255 255 255 255 255 255 255 255 255 255 255 255 255 255 255 255 255 255 255 255 255 255 255 255 255 255 255 255 255 255 255 255 255 255 255 255 255 255 255 255 255 255 255 255 255 255 255 255 255 255 255 255 255 255 255 255 255 255 255 255 255 255 255 255 255 255 255 255 255 255 255 255 255 255 255 255 255 255 255 255 255 255 255 255 255 255 255 255 255 255 255 255 255 255 255 255 255 255 255 255 255 255 255 255 255 255 255 255 255 255 255 255 255 255 255 255 255 255 255 255 255 255 255 255 255 255 255 255 255 255 255 255 255 255 255 255 255 255 255 255 255 255 255 255 255 255 255 255 255 255 255 255 255 255 255 255 255 255 255 255 255 255 255 255 255 255 255 255 255 255 255 255 255 255 255 255 255 255 255 255 255 255 255 255 255 255 255 255 255 255 255 255 255 255 255 255 255 255 255 255 255 255 255 255 255 255 255 255 255 255 255 255 255 255 255 255 255 255 255 255 255 255 255 255 255 255 255 255 255 255 255 255 255 255 255 255 255 255 255 255 255 255 255 255 255 255 255 255 255 255 255 255 255 255 255 255 255 255 255 255 255 255 255 255 255 255 255 255 255 255 255 255 255 255 255 255 255 255 255 255 255 255 255 255 255 255 255 255 255 255 255 255 255 255 255 255 255 255 255 255 255 255 255 255 255 255 255 255 255 255 255 255 255 255 255 255 255 255 255 255 255 255 255 
255 255 255 255 255 255 255 255 255 255 255 255 255 255 255 255 255 255 255 255 255 255 255 255 255 255 255 255 255 255 255 255 255 255 255 255 255 255 255 255 255 255 255 255 255 255 255 255 255 255 255 255 255 255 255 255 255 255 255 255 255 255 255 255 255 255 255 255 255 255 255 255 255 255 255 255 255 255 255 255 255 255 255 255 255 255 255 255 255 255 255 255 255 255 255 255 255 255 255 255 255 255 255 255 255 255 255 255 255 255 255 255 255 255 255 255 255 255 255 255 255 255 255 255 255 255 255 255 255 255 255 255 255 255 255 255 255 255 255 255 255 255 255 255 255 255 255 255 255 255 255 255 255 255 255 255 255 255 255 255 255 255 255 255 255 255 255 255 255 255 255 255 255 255 255 255 255 255 255 255 255 255 255 255 255 255 255 255 255 255 255 255 255 255 255 255 255 255 255 255 255 255 255 255 255 255 255 255 255 255 255 255 255 255 255 255 255 255 255 255 255 255 255 255 255 255 255 255 255 255 255 255 255 255 255 255 255 255 255 255 255 255 255 255 255 255 255 255 255 255 255 255 255 255 255 255 255 255 255 255 255 255 255 255 255 255 255 255 255 255 255 255 255 255 255 255 255 255 255 255 255 255 255 255 255 255 255 255 255 255 255 255 255 255 255 255 255 255 255 255 255 255 255 255 255 255 255 255 255 255 255 255 255 255 255 255 255 255 255 255 255 255 255 255 255 255 255 255 255 255 255 255 255 255 255 255 255 255 255 255 255 255 255 255 255 255 255 255 255 255 255 255 255 255 255 255 255 255 255 255 255 255 255 255 255 255 255 255 255 255 255 255 255 255 255 255 255 255 255 255 255 255 255 255 255 255 255 255 255 255 255 255 255 255 255 255 255 255 255 255 255 255 255 255 255 255 255 255 255 255 255 255 255 255 255 255 255 255 255 255 255 255 255 255 255 255 255 255 255 255 255 255 255 255 255 255 255 255 255 255 255 255 255 255 255 255 255 255 255 255 255 255 255 255 255 255 255 255 255 255 255 255 255 255 255 255 255 255 255 255 255 255 255 255 255 255 255 255 255 255 255 255 255 255 255 255 255 255 255 255 255 255 255 255 255 255 255 255 255 255 255 255 255 255 255 255 255 255 255 255 255 255 255 255 255 255 255 255 255 255 255 255 255 255 255 255 255 255 255 255 255 255 255 255 255 255 255 255 255 255 255 255 255 255 255 255 255 255 255 255 255 255 255 255 255 255 255 255 255 255 255 255 255 255 255 255 255 255 255 255 255 255 255 255 255 255 255 255 255 255 255 255 255 255 255 255 255 255 255 255 255 255 255 255 255 255 255 255 255 255 255 255 255 255 255 255 255 255 255 255 255 255 255 255 255 255 255 255 255 255 255 255 255 255 255 255 255 255 255 255 255 255 255 255 255 255 255 255 255 255 255 255 255 255 255 255 255 255 255 255 255 255 255 255 255 255 255 255 255 255 255 255 255 255 255 255 255 255 255 255 255 255 255 255 255 255 255 255 255 255 255 255 255 255 255 255 255 255 255 255 255 255 255 255 255 255 255 255 255 255 255 255 255 255 255 255 255 255 255 255 255 255 255 255 255 255 255 255 255 255 255 255 255 255 255 255 255 255 255 255 255 255 255 255 255 255 255 255 255 255 255 255 255 255 255 255 255 255 255 255 255 255 255 255 255 255 255 255 255 255 255 255 255 255 255 255 255 255 255 255 255 255 255 255 255 255 255 255 255 255 255 255 255 255 255 255 255 255 255 255 255 255 255 255 255 255 255 255 255 255 255 255 255 255 255 255 255 255 255 255 255 255 255 255 255 255 255 255 255 255 255 255 255 255 255 255 255 255 255 255 255 255 255 255 255 255 255 255 255 255 255 255 255 255 255 255 255 255 255 255 255 255 255 255 255 255 255 255 255 255 255 255 255 255 255 255 255 255 255 255 255 255 255 255 255 255 255 255 255 255 255 255 255 255 255 255 255 255 255 255 255 255 255 255 255 255 255 255 255 255 
255 255 255 255 255 255 255 255 255 255 255 255 255 255 255 255 255 255 255 255 255 255 255 255 255 255 255 255 255 255 255 255 255 255 255 255 255 255 255 255 255 255 255 255 255 255 255 255 255 255 255 255 255 255 255 255 255 255 255 255 255 255 255 255 255 255 255 255 255 255 255 255 255 255 255 255 255 255 255 255 255 255 255 255 255 255 255 255 255 255 255 255 255 255 255 255 255 255 255 255 255 255 255 255 255 255 255 255 255 255 255 255 255 255 255 255 255 255 255 255 255 255 255 255 255 255 255 255 255 255 255 255 255 255 255 255 255 255 255 255 255 255 255 255 255 255 255 255 255 255 255 255 255 255 255 255 255 255 255 255 255 255 255 255 255 255 255 255 255 255 255 255 255 255 255 255 255 255 255 255 255 255 255 255 255 255 255 255 255 255 255 255 255 255 255 255 255 255 255 255 255 255 255 255 255 255 255 255 255 255 255 255 255 255 255 255 255 255 255 255 255 255 255 255 255 255 255 255 255 255 255 255 255 255 255 255 255 255 255 255 255 255 255 255 255 255 255 255 255 255 255 255 255 255 255 255 255 255 255 255 255 255 255 255 255 255 255 255 255 255 255 255 255 255 255 255 255 255 255 255 255 255 255 255 255 255 255 255 255 255 255 255 255 255 255 255 255 255 255 255 255 255 255 255 255 255 255 255 255 255 255 255 255 255 255 255 255 255 255 255 255 255 255 255 255 255 255 255 255 255 255 255 255 255 255 255 255 255 255 255 255 255 255 255 255 255 255 255 255 255 255 255 255 255 255 255 255 255 255 255 255 255 255 255 255 255 255 255 255 255 255 255 255 255 255 255 255 255 255 255 255 255 255 255 255 255 255 255 255 255 255 255 255 255 255 255 255 255 255 255 255 255 255 255 255 255 255 255 255 255 255 255 255 255 255 255 255 255 255 255 255 255 255 255 255 255 255 255 255 255 255 255 255 255 255 255 255 255 255 255 255 255 255 255 255 255 255 255 255 255 255 255 255 255 255 255 255 255 255 255 255 255 255 255 255 255 255 255 255 255 255 255 255 255 255 255 255 255 255 255 255 255 255 255 255 255 255 255 255 255 255 255 255 255 255 255 255 255 255 255 255 255 255 255 255 255 255 255 255 255 255 255 255 255 255 255 255 255 255 255 255 255 255 255 255 255 255 255 255 255 255 255 255 255 255 255 255 255 255 255 255 255 255 255 255 255 255 255 255 255 255 255 255 255 255 255 255 255 255 255 255 255 255 255 255 255 255 255 255 255 255 255 255 255 255 255 255 255 255 255 255 255 255 255 255 255 255 255 255 255 255 255 255 255 255 255 255 255 255 255 255 255 255 255 255 255 255 255 255 255 255 255 255 255 255 255 255 255 255 255 255 255 255 255 255 255 255 255 255 255 255 255 255 255 255 255 255 255 255 255 255 255 255 255 255 255 255 255 255 255 255 255 255 255 255 255 255 255 255 255 255 255 255 255 255 255 255 255 255 255 255 255 255 255 255 255 255 255 255 255 255 255 255 255 255 255 255 255 255 255 255 255 255 255 255 255 255 255 255 255 255 255 255 255 255 255 255 255 255 255 255 255 255 255 255 255 255 255 255 255 255 255 255 255 255 255 255 255 255 255 255 255 255 255 255 255 255 255 255 255 255 255 255 255 255 255 255 255 255 255 255 255 255 255 255 255 255 255 255 255 255 255 255 255 255 255 255 255 255 255 255 255 255 255 255 255 255 255 255 255 255 255 255 255 255 255 255 255 255 255 255 255 255 255 255 255 255 255 255 255 255 255 255 255 255 255 255 255 255 255 255 255 255 255 255 255 255 255 255 255 255 255 255 255 255 255 255 255 255 255 255 255 255 255 255 255 255 255 255 255 255 255 255 255 255 255 255 255 255 255 255 255 255 255 255 255 255 255 255 255 255 255 255 255 255 255 255 255 255 255 255 255 255 255 255 255 255 255 255 255 255 255 255 255 255 255 255 255 255 255 255 255 255 255 255 255 255 255 255 255 
255 255 255 255 255 255 255 255 255 255 255 255 255 255 255 255 255 255 255 255 255 255 255 255 255 255 255 255 255 255 255 255 255 255 255 255 255 255 255 255 255 255 255 255 255 255 255 255 255 255 255 255 255 255 255 255 255 255 255 255 255 255 255 255 255 255 255 255 255 255 255 255 255 255 255 255 255 255 255 255 255 255 255 255 255 255 255 255 255 255 255 255 255 255 255 255 255 255 255 255 255 255 255 255 255 255 255 255 255 255 255 255 255 255 255 255 255 255 255 255 255 255 255 255 255 255 255 255 255 255 255 255 255 255 255 255 255 255 255 255 255 255 255 255 255 255 255 255 255 255 255 255 255 255 255 255 255 255 255 255 255 255 255 255 255 255 255 255 255 255 255 255 255 255 255 255 255 255 255 255 255 255 255 255 255 255 255 255 255 255 255 255 255 255 255 255 255 255 255 255 255 255 255 255 255 255 255 255 255 255 255 255 255 255 255 255 255 255 255 255 255 255 255 255 255 255 255 255 255 255 255 255 255 255 255 255 255 255 255 255 255 255 255 255 255 255 255 255 255 255 255 255 255 255 255 255 255 255 255 255 255 255 255 255 255 255 255 255 255 255 255 255 255 255 255 255 255 255 255 255 255 255 255 255 255 255 255 255 255 255 255 255 255 255 255 255 255 255 255 255 255 255 255 255 255 255 255 255 255 255 255 255 255 255 255 255 255 255 255 255 255 255 255 255 255 255 255 255 255 255 255 255 255 255 255 255 255 255 255 255 255 255 255 255 255 255 255 255 255 255 255 255 255 255 255 255 255 255 255 255 255 255 255 255 255 255 255 255 255 255 255 255 255 255 255 255 255 255 255 255 255 255 255 255 255 255 255 255 255 255 255 255 255 255 255 255 255 255 255 255 255 255 255 255 255 255 255 255 255 255 255 255 255 255 255 255 255 255 255 255 255 255 255 255 255 255 255 255 255 255 255 255 255 255 255 255 255 255 255 255 255 255 255 255 255 255 255 255 255 255 255 255 255 255 255 255 255 255 255 255 255 255 255 255 255 255 255 255 255 255 255 255 255 255 255 255 255 255 255 255 255 255 255 255 255 255 255 255 255 255 255 255 255 255 255 255 255 255 255 255 255 255 255 255 255 255 255 255 255 255 255 255 255 255 255 255 255 255 255 255 255 255 255 255 255 255 255 255 255 255 255 255 255 255 255 255 255 255 255 255 255 255 255 255 255 255 255 255 255 255 255 255 255 255 255 255 255 255 255 255 255 255 255 255 255 255 255 255 255 255 255 255 255 255 255 255 255 255 255 255 255 255 255 255 255 255 255 255 255 255 255 255 255 255 255 255 255 255 255 255 255 255 255 255 255 255 255 255 255 255 255 255 255 255 255 255 255 255 255 255 255 255 255 255 255 255 255 255 255 255 255 255 255 255 255 255 255 255 255 255 255 255 255 255 255 255 255 255 255 255 255 255 255 255 255 255 255 255 255 255 255 255 255 255 255 255 255 255 255 255 255 255 255 255 255 255 255 255 255 255 255 255 255 255 255 255 255 255 255 255 255 255 255 255 255 255 255 255 255 255 255 255 255 255 255 255 255 255 255 255 255 255 255 255 255 255 255 255 255 255 255 255 255 255 255 255 255 255 255 255 255 255 255 255 255 255 255 255 255 255 255 255 255 255 255 255 255 255 255 255 255 255 255 255 255 255 255 255 255 255 255 255 255 255 255 255 255 255 255 255 255 255 255 255 255 255 255 255 255 255 255 255 255 255 255 255 255 255 255 255 255 255 255 255 255 255 255 255 255 255 255 255 255 255 255 255 255 255 255 255 255 255 255 255 255 255 255 255 255 255 255 255 255 255 255 255 255 255 255 255 255 255 255 255 255 255 255 255 255 255 255 255 255 255 255 255 255 255 255 255 255 255 255 255 255 255 255 255 255 255 255 255 255 255 255 255 255 255 255 255 255 255 255 255 255 255 255 255 255 255 255 255 255 255 255 255 255 255 255 255 255 255 255 255 255 255 255 255 255 255 
255 255 255 255 255 255 255 255 255 255 255 255 255 255 255 255 255 255 255 255 255 255 255 255 255 255 255 255 255 255 255 255 255 255 255 255 255 255 255 255 255 255 255 255 255 255 255 255 255 255 255 255 255 255 255 255 255 255 255 255 255 255 255 255 255 255 255 255 255 255 255 255 255 255 255 255 255 255 255 255 255 255 255 255 255 255 255 255 255 255 255 255 255 255 255 255 255 255 255 255 255 255 255 255 255 255 255 255 255 255 255 255 255 255 255 255 255 255 255 255 255 255 255 255 255 255 255 255 255 255 255 255 255 255 255 255 255 255 255 255 255 255 255 255 255 255 255 255 255 255 255 255 255 255 255 255 255 255 255 255 255 255 255 255 255 255 255 255 255 255 255 255 255 255 255 255 255 255 255 255 255 255 255 255 255 255 255 255 255 255 255 255 255 255 255 255 255 255 255 255 255 255 255 255 255 255 255 255 255 255 255 255 255 255 255 255 255 255 255 255 255 255 255 255 255 255 255 255 255 255 255 255 255 255 255 255 255 255 255 255 255 255 255 255 255 255 255 255 255 255 255 255 255 255 255 255 255 255 255 255 255 255 255 255 255 255 255 255 255 255 255 255 255 255 255 255 255 255 255 255 255 255 255 255 255 255 255 255 255 255 255 255 255 255 255 255 255 255 255 255 255 255 255 255 255 255 255 255 255 255 255 255 255 255 255 255 255 255 255 255 255 255 255 255 255 255 255 255 255 255 255 255 255 255 255 255 255 255 255 255 255 255 255 255 255 255 255 255 255 255 255 255 255 255 255 255 255 255 255 255 255 255 255 255 255 255 255 255 255 255 255 255 255 255 255 255 255 255 255 255 255 255 255 255 255 255 255 255 255 255 255 255 255 255 255 255 255 255 255 255 255 255 255 255 255 255 255 255 255 255 255 255 255 255 255 255 255 255 255 255 255 255 255 255 255 255 255 255 255 255 255 255 255 255 255 255 255 255 255 255 255 255 255 255 255 255 255 255 255 255 255 255 255 255 255 255 255 255 255 255 255 255 255 255 255 255 255 255 255 255 255 255 255 255 255 255 255 255 255 255 255 255 255 255 255 255 255 255 255 255 255 255 255 255 255 255 255 255 255 255 255 255 255 255 255 255 255 255 255 255 255 255 255 255 255 255 255 255 255 255 255 255 255 255 255 255 255 255 255 255 255 255 255 255 255 255 255 255 255 255 255 255 255 255 255 255 255 255 255 255 255 255 255 255 255 255 255 255 255 255 255 255 255 255 255 255 255 255 255 255 255 255 255 255 255 255 255 255 255 255 255 255 255 255 255 255 255 255 255 255 255 255 255 255 255 255 255 255 255 255 255 255 255 255 255 255 255 255 255 255 255 255 255 255 255 255 255 255 255 255 255 255 255 255 255 255 255 255 255 255 255 255 255 255 255 255 255 255 255 255 255 255 255 255 255 255 255 255 255 255 255 255 255 255 255 255 255 255 255 255 255 255 255 255 255 255 255 255 255 255 255 255 255 255 255 255 255 255 255 255 255 255 255 255 255 255 255 255 255 255 255 255 255 255 255 255 255 255 255 255 255 255 255 255 255 255 255 255 255 255 255 255 255 255 255 255 255 255 255 255 255 255 255 255 255 255 255 255 255 255 255 255 255 255 255 255 255 255 255 255 255 255 255 255 255 255 255 255 255 255 255 255 255 255 255 255 255 255 255 255 255 255 255 255 255 255 255 255 255 255 255 255 255 255 255 255 255 255 255 255 255 255 255 255 255 255 255 255 255 255 255 255 255 255 255 255 255 255 255 255 255 255 255 255 255 255 255 255 255 255 255 255 255 255 255 255 255 255 255 255 255 255 255 255 255 255 255 255 255 255 255 255 255 255 255 255 255 255 255 255 255 255 255 255 255 255 255 255 255 255 255 255 255 255 255 255 255 255 255 255 255 255 255 255 255 255 255 255 255 255 255 255 255 255 255 255 255 255 255 255 255 255 255 255 255 255 255 255 255 255 255 255 255 255 255 255 255 255 255 255 
255 255 255 255 255 255 255 255 255 255 255 255 255 255 255 255 255 255 255 255 255 255 255 255 255 255 255 255 255 255 255 255 255 255 255 255 255 255 255 255 255 255 255 255 255 255 255 255 255 255 255 255 255 255 255 255 255 255 255 255 255 255 255 255 255 255 255 255 255 255 255 255 255 255 255 255 255 255 255 255 255 255 255 255 255 255 255 255 255 255 255 255 255 255 255 255 255 255 255 255 255 255 255 255 255 255 255 255 255 255 255 255 255 255 255 255 255 255 255 255 255 255 255 255 255 255 255 255 255 255 255 255 255 255 255 255 255 255 255 255 255 255 255 255 255 255 255 255 255 255 255 255 255 255 255 255 255 255 255 255 255 255 255 255 255 255 255 255 255 255 255 255 255 255 255 255 255 255 255 255 255 255 255 255 255 255 255 255 255 255 255 255 255 255 255 255 255 255 255 255 255 255 255 255 255 255 255 255 255 255 255 255 255 255 255 255 255 255 255 255 255 255 255 255 255 255 255 255 255 255 255 255 255 255 255 255 255 255 255 255 255 255 255 255 255 255 255 255 255 255 255 255 255 255 255 255 255 255 255 255 255 255 255 255 255 255 255 255 255 255 255 255 255 255 255 255 255 255 255 255 255 255 255 255 255 255 255 255 255 255 255 255 255 255 255 255 255 255 255 255 255 255 255 255 255 255 255 255 255 255 255 255 255 255 255 255 255 255 255 255 255 255 255 255 255 255 255 255 255 255 255 255 255 255 255 255 255 255 255 255 255 255 255 255 255 255 255 255 255 255 255 255 255 255 255 255 255 255 255 255 255 255 255 255 255 255 255 255 255 255 255 255 255 255 255 255 255 255 255 255 255 255 255 255 255 255 255 255 255 255 255 255 255 255 255 255 255 255 255 255 255 255 255 255 255 255 255 255 255 255 255 255 255 255 255 255 255 255 255 255 255 255 255 255 255 255 255 255 255 255 255 255 255 255 255 255 255 255 255 255 255 255 255 255 255 255 255 255 255 255 255 255 255 255 255 255 255 255 255 255 255 255 255 255 255 255 255 255 255 255 255 255 255 255 255 255 255 255 255 255 255 255 255 255 255 255 255 255 255 255 255 255 255 255 255 255 255 255 255 255 255 255 255 255 255 255 255 255 255 255 255 255 255 255 255 255 255 255 255 255 255 255 255 255 255 255 255 255 255 255 255 255 255 255 255 255 255 255 255 255 255 255 255 255 255 255 255 255 255 255 255 255 255 255 255 255 255 255 255 255 255 255 255 255 255 255 255 255 255 255 255 255 255 255 255 255 255 255 255 255 255 255 255 255 255 255 255 255 255 255 255 255 255 255 255 255 255 255 255 255 255 255 255 255 255 255 255 255 255 255 255 255 255 255 255 255 255 255 255 255 255 255 255 255 255 255 255 255 255 255 255 255 255 255 255 255 255 255 255 255 255 255 255 255 255 255 255 255 255 255 255 255 255 255 255 255 255 255 255 255 255 255 255 255 255 255 255 255 255 255 255 255 255 255 255 255 255 255 255 255 255 255 255 255 255 255 255 255 255 255 255 255 255 255 255 255 255 255 255 255 255 255 255 255 255 255 255 255 255 255 255 255 255 255 255 255 255 255 255 255 255 255 255 255 255 255 255 255 255 255 255 255 255 255 255 255 255 255 255 255 255 255 255 255 255 255 255 255 255 255 255 255 255 255 255 255 255 255 255 255 255 255 255 255 255 255 255 255 255 255 255 255 255 255 255 255 255 255 255 255 255 255 255 255 255 255 255 255 255 255 255 255 255 255 255 255 255 255 255 255 255 255 255 255 255 255 255 255 255 255 255 255 255 255 255 255 255 255 255 255 255 255 255 255 255 255 255 255 255 255 255 255 255 255 255 255 255 255 255 255 255 255 255 255 255 255 255 255 255 255 255 255 255 255 255 255 255 255 255 255 255 255 255 255 255 255 255 255 255 255 255 255 255 255 255 255 255 255 255 255 255 255 255 255 255 255 255 255 255 255 255 255 255 255 255 255 255 255 255 255 
255 255 255 255 255 255 255 255 255 255 255 255 255 255 255 255 255 255 255 255 255 255 255 255 255 255 255 255 255 255 255 255 255 255 255 255 255 255 255 255 255 255 255 255 255 255 255 255 255 255 255 255 255 255 255 255 255 255 255 255 255 255 255 255 255 255 255 255 255 255 255 255 255 255 255 255 255 255 255 255 255 255 255 255 255 255 255 255 255 255 255 255 255 255 255 255 255 255 255 255 255 255 255 255 255 255 255 255 255 255 255 255 255 255 255 255 255 255 255 255 255 255 255 255 255 255 255 255 255 255 255 255 255 255 255 255 255 255 255 255 255 255 255 255 255 255 255 255 255 255 255 255 255 255 255 255 255 255 255 255 255 255 255 255 255 255 255 255 255 255 255 255 255 255 255 255 255 255 255 255 255 255 255 255 255 255 255 255 255 255 255 255 255 255 255 255 255 255 255 255 255 255 255 255 255 255 255 255 255 255 255 255 255 255 255 255 255 255 255 255 255 255 255 255 255 255 255 255 255 255 255 255 255 255 255 255 255 255 255 255 255 255 255 255 255 255 255 255 255 255 255 255 255 255 255 255 255 255 255 255 255 255 255 255 255 255 255 255 255 255 255 255 255 255 255 255 255 255 255 255 255 255 255 255 255 255 255 255 255 255 255 255 255 255 255 255 255 255 255 255 255 255 255 255 255 255 255 255 255 255 255 255 255 255 255 255 255 255 255 255 255 255 255 255 255 255 255 255 255 255 255 255 255 255 255 255 255 255 255 255 255 255 255 255 255 255 255 255 255 255 255 255 255 255 255 255 255 255 255 255 255 255 255 255 255 255 255 255 255 255 255 255 255 255 255 255 255 255 255 255 255 255 255 255 255 255 255 255 255 255 255 255 255 255 255 255 255 255 255 255 255 255 255 255 255 255 255 255 255 255 255 255 255 255 255 255 255 255 255 255 255 255 255 255 255 255 255 255 255 255 255 255 255 255 255 255 255 255 255 255 255 255 255 255 255 255 255 255 255 255 255 255 255 255 255 255 255 255 255 255 255 255 255 255 255 255 255 255 255 255 255 255 255 255 255 255 255 255 255 255 255 255 255 255 255 255 255 255 255 255 255 255 255 255 255 255 255 255 255 255 255 255 255 255 255 255 255 255 255 255 255 255 255 255 255 255 255 255 255 255 255 255 255 255 255 255 255 255 255 255 255 255 255 255 255 255 255 255 255 255 255 255 255 255 255 255 255 255 255 255 255 255 255 255 255 255 255 255 255 255 255 255 255 255 255 255 255 255 255 255 255 255 255 255 255 255 255 255 255 255 255 255 255 255 255 255 255 255 255 255 255 255 255 255 255 255 255 255 255 255 255 255 255 255 255 255 255 255 255 255 255 255 255 255 255 255 255 255 255 255 255 255 255 255 255 255 255 255 255 255 255 255 255 255 255 255 255 255 255 255 255 255 255 255 255 255 255 255 255 255 255 255 255 255 255 255 255 255 255 255 255 255 255 255 255 255 255 255 255 255 255 255 255 255 255 255 255 255 255 255 255 255 255 255 255 255 255 255 255 255 255 255 255 255 255 255 255 255 255 255 255 255 255 255 255 255 255 255 255 255 255 255 255 255 255 255 255 255 255 255 255 255 255 255 255 255 255 255 255 255 255 255 255 255 255 255 255 255 255 255 255 255 255 255 255 255 255 255 255 255 255 255 255 255 255 255 255 255 255 255 255 255 255 255 255 255 255 255 255 255 255 255 255 255 255 255 255 255 255 255 255 255 255 255 255 255 255 255 255 255 255 255 255 255 255 255 255 255 255 255 255 255 255 255 255 255 255 255 255 255 255 255 255 255 255 255 255 255 255 255 255 255 255 255 255 255 255 255 255 255 255 255 255 255 255 255 255 255 255 255 255 255 255 255 255 255 255 255 255 255 255 255 255 255 255 255 255 255 255 255 255 255 255 255 255 255 255 255 255 255 255 255 255 255 255 255 255 255 255 255 255 255 255 255 255 255 255 255 255 255 255 255 255 255 255 255 255 255 255 255 
255 255 255 255 255 255 255 255 255 255 255 255 255 255 255 255 255 255 255 255 255 255 255 255 255 255 255 255 255 255 255 255 255 255 255 255 255 255 255 255 255 255 255 255 255 255 255 255 255 255 255 255 255 255 255 255 255 255 255 255 255 255 255 255 255 255 255 255 255 255 255 255 255 255 255 255 255 255 255 255 255 255 255 255 255 255 255 255 255 255 255 255 255 255 255 255 255 255 255 255 255 255 255 255 255 255 255 255 255 255 255 255 255 255 255 255 255 255 255 255 255 255 255 255 255 255 255 255 255 255 255 255 255 255 255 255 255 255 255 255 255 255 255 255 255 255 255 255 255 255 255 255 255 255 255 255 255 255 255 255 255 255 255 255 255 255 255 255 255 255 255 255 255 255 255 255 255 255 255 255 255 255 255 255 255 255 255 255 255 255 255 255 255 255 255 255 255 255 255 255 255 255 255 255 255 255 255 255 255 255 255 255 255 255 255 255 255 255 255 255 255 255 255 255 255 255 255 255 255 255 255 255 255 255 255 255 255 255 255 255 255 255 255 255 255 255 255 255 255 255 255 255 255 255 255 255 255 255 255 255 255 255 255 255 255 255 255 255 255 255 255 255 255 255 255 255 255 255 255 255 255 255 255 255 255 255 255 255 255 255 255 255 255 255 255 255 255 255 255 255 255 255 255 255 255 255 255 255 255 255 255 255 255 255 255 255 255 255 255 255 255 255 255 255 255 255 255 255 255 255 255 255 255 255 255 255 255 255 255 255 255 255 255 255 255 255 255 255 255 255 255 255 255 255 255 255 255 255 255 255 255 255 255 255 255 255 255 255 255 255 255 255 255 255 255 255 255 255 255 255 255 255 255 255 255 255 255 255 255 255 255 255 255 255 255 255 255 255 255 255 255 255 255 255 255 255 255 255 255 255 255 255 255 255 255 255 255 255 255 255 255 255 255 255 255 255 255 255 255 255 255 255 255 255 255 255 255 255 255 255 255 255 255 255 255 255 255 255 255 255 255 255 255 255 255 255 255 255 255 255 255 255 255 255 255 255 255 255 255 255 255 255 255 255 255 255 255 255 255 255 255 255 255 255 255 255 255 255 255 255 255 255 255 255 255 255 255 255 255 255 255 255 255 255 255 255 255 255 255 255 255 255 255 255 255 255 255 255 255 255 255 255 255 255 255 255 255 255 255 255 255 255 255 255 255 255 255 255 255 255 255 255 255 255 255 255 255 255 255 255 255 255 255 255 255 255 255 255 255 255 255 255 255 255 255 255 255 255 255 255 255 255 255 255 255 255 255 255 255 255 255 255 255 255 255 255 255 255 255 255 255 255 255 255 255 255 255 255 255 255 255 255 255 255 255 255 255 255 255 255 255 255 255 255 255 255 255 255 255 255 255 255 255 255 255 255 255 255 255 255 255 255 255 255 255 255 255 255 255 255 255 255 255 255 255 255 255 255 255 255 255 255 255 255 255 255 255 255 255 255 255 255 255 255 255 255 255 255 255 255 255 255 255 255 255 255 255 255 255 255 255 255 255 255 255 255 255 255 255 255 255 255 255 255 255 255 255 255 255 255 255 255 255 255 255 255 255 255 255 255 255 255 255 255 255 255 255 255 255 255 255 255 255 255 255 255 255 255 255 255 255 255 255 255 255 255 255 255 255 255 255 255 255 255 255 255 255 255 255 255 255 255 255 255 255 255 255 255 255 255 255 255 255 255 255 255 255 255 255 255 255 255 255 255 255 255 255 255 255 255 255 255 255 255 255 255 255 255 255 255 255 255 255 255 255 255 255 255 255 255 255 255 255 255 255 255 255 255 255 255 255 255 255 255 255 255 255 255 255 255 255 255 255 255 255 255 255 255 255 255 255 255 255 255 255 255 255 255 255 255 255 255 255 255 255 255 255 255 255 255 255 255 255 255 255 255 255 255 255 255 255 255 255 255 255 255 255 255 255 255 255 255 255 255 255 255 255 255 255 255 255 255 255 255 255 255 255 255 255 255 255 255 255 255 255 255 255 255 255 255 
255 255 255 255 255 255 255 255 255 255 255 255 255 255 255 255 255 255 255 255 255 255 255 255 255 255 255 255 255 255 255 255 255 255 255 255 255 255 255 255 255 255 255 255 255 255 255 255 255 255 255 255 255 255 255 255 255 255 255 255 255 255 255 255 255 255 255 255 255 255 255 255 255 255 255 255 255 255 255 255 255 255 255 255 255 255 255 255 255 255 255 255 255 255 255 255 255 255 255 255 255 255 255 255 255 255 255 255 255 255 255 255 255 255 255 255 255 255 255 255 255 255 255 255 255 255 255 255 255 255 255 255 255 255 255 255 255 255 255 255 255 255 255 255 255 255 255 255 255 255 255 255 255 255 255 255 255 255 255 255 255 255 255 255 255 255 255 255 255 255 255 255 255 255 255 255 255 255 255 255 255 255 255 255 255 255 255 255 255 255 255 255 255 255 255 255 255 255 255 255 255 255 255 255 255 255 255 255 255 255 255 255 255 255 255 255 255 255 255 255 255 255 255 255 255 255 255 255 255 255 255 255 255 255 255 255 255 255 255 255 255 255 255 255 255 255 255 255 255 255 255 255 255 255 255 255 255 255 255 255 255 255 255 255 255 255 255 255 255 255 255 255 255 255 255 255 255 255 255 255 255 255 255 255 255 255 255 255 255 255 255 255 255 255 255 255 255 255 255 255 255 255 255 255 255 255 255 255 255 255 255 255 255 255 255 255 255 255 255 255 255 255 255 255 255 255 255 255 255 255 255 255 255 255 255 255 255 255 255 255 255 255 255 255 255 255 255 255 255 255 255 255 255 255 255 255 255 255 255 255 255 255 255 255 255 255 255 255 255 255 255 255 255 255 255 255 255 255 255 255 255 255 255 255 255 255 255 255 255 255 255 255 255 255 255 255 255 255 255 255 255 255 255 255 255 255 255 255 255 255 255 255 255 255 255 255 255 255 255 255 255 255 255 255 255 255 255 255 255 255 255 255 255 255 255 255 255 255 255 255 255 255 255 255 255 255 255 255 255 255 255 255 255 255 255 255 255 255 255 255 255 255 255 255 255 255 255 255 255 255 255 255 255 255 255 255 255 255 255 255 255 255 255 255 255 255 255 255 255 255 255 255 255 255 255 255 255 255 255 255 255 255 255 255 255 255 255 255 255 255 255 255 255 255 255 255 255 255 255 255 255 255 255 255 255 255 255 255 255 255 255 255 255 255 255 255 255 255 255 255 255 255 255 255 255 255 255 255 255 255 255 255 255 255 255 255 255 255 255 255 255 255 255 255 255 255 255 255 255 255 255 255 255 255 255 255 255 255 255 255 255 255 255 255 255 255 255 255 255 255 255 255 255 255 255 255 255 255 255 255 255 255 255 255 255 255 255 255 255 255 255 255 255 255 255 255 255 255 255 255 255 255 255 255 255 255 255 255 255 255 255 255 255 255 255 255 255 255 255 255 255 255 255 255 255 255 255 255 255 255 255 255 255 255 255 255 255 255 255 255 255 255 255 255 255 255 255 255 255 255 255 255 255 255 255 255 255 255 255 255 255 255 255 255 255 255 255 255 255 255 255 255 255 255 255 255 255 255 255 255 255 255 255 255 255 255 255 255 255 255 255 255 255 255 255 255 255 255 255 255 255 255 255 255 255 255 255 255 255 255 255 255 255 255 255 255 255 255 255 255 255 255 255 255 255 255 255 255 255 255 255 255 255 255 255 255 255 255 255 255 255 255 255 255 255 255 255 255 255 255 255 255 255 255 255 255 255 255 255 255 255 255 255 255 255 255 255 255 255 255 255 255 255 255 255 255 255 255 255 255 255 255 255 255 255 255 255 255 255 255 255 255 255 255 255 255 255 255 255 255 255 255 255 255 255 255 255 255 255 255 255 255 255 255 255 255 255 255 255 255 255 255 255 255 255 255 255 255 255 255 255 255 255 255 255 255 255 255 255 255 255 255 255 255 255 255 255 255 255 255 255 255 255 255 255 255 255 255 255 255 255 255 255 255 255 255 255 255 255 255 255 255 255 255 255 255 255 255 255 255 
255 255 255 255 255 255 255 255 255 255 255 255 255 255 255 255 255 255 255 255 255 255 255 255 255 255 255 255 255 255 255 255 255 255 255 255 255 255 255 255 255 255 255 255 255 255 255 255 255 255 255 255 255 255 255 255 255 255 255 255 255 255 255 255 255 255 255 255 255 255 255 255 255 255 255 255 255 255 255 255 255 255 255 255 255 255 255 255 255 255 255 255 255 255 255 255 255 255 255 255 255 255 255 255 255 255 255 255 255 255 255 255 255 255 255 255 255 255 255 255 255 255 255 255 255 255 255 255 255 255 255 255 255 255 255 255 255 255 255 255 255 255 255 255 255 255 255 255 255 255 255 255 255 255 255 255 255 255 255 255 255 255 255 255 255 255 255 255 255 255 255 255 255 255 255 255 255 255 255 255 255 255 255 255 255 255 255 255 255 255 255 255 255 255 255 255 255 255 255 255 255 255 255 255 255 255 255 255 255 255 255 255 255 255 255 255 255 255 255 255 255 255 255 255 255 255 255 255 255 255 255 255 255 255 255 255 255 255 255 255 255 255 255 255 255 255 255 255 255 255 255 255 255 255 255 255 255 255 255 255 255 255 255 255 255 255 255 255 255 255 255 255 255 255 255 255 255 255 255 255 255 255 255 255 255 255 255 255 255 255 255 255 255 255 255 255 255 255 255 255 255 255 255 255 255 255 255 255 255 255 255 255 255 255 255 255 255 255 255 255 255 255 255 255 255 255 255 255 255 255 255 255 255 255 255 255 255 255 255 255 255 255 255 255 255 255 255 255 255 255 255 255 255 255 255 255 255 255 255 255 255 255 255 255 255 255 255 255 255 255 255 255 255 255 255 255 255 255 255 255 255 255 255 255 255 255 255 255 255 255 255 255 255 255 255 255 255 255 255 255 255 255 255 255 255 255 255 255 255 255 255 255 255 255 255 255 255 255 255 255 255 255 255 255 255 255 255 255 255 255 255 255 255 255 255 255 255 255 255 255 255 255 255 255 255 255 255 255 255 255 255 255 255 255 255 255 255 255 255 255 255 255 255 255 255 255 255 255 255 255 255 255 255 255 255 255 255 255 255 255 255 255 255 255 255 255 255 255 255 255 255 255 255 255 255 255 255 255 255 255 255 255 255 255 255 255 255 255 255 255 255 255 255 255 255 255 255 255 255 255 255 255 255 255 255 255 255 255 255 255 255 255 255 255 255 255 255 255 255 255 255 255 255 255 255 255 255 255 255 255 255 255 255 255 255 255 255 255 255 255 255 255 255 255 255 255 255 255 255 255 255 255 255 255 255 255 255 255 255 255 255 255 255 255 255 255 255 255 255 255 255 255 255 255 255 255 255 255 255 255 255 255 255 255 255 255 255 255 255 255 255 255 255 255 255 255 255 255 255 255 255 255 255 255 255 255 255 255 255 255 255 255 255 255 255 255 255 255 255 255 255 255 255 255 255 255 255 255 255 255 255 255 255 255 255 255 255 255 255 255 255 255 255 255 255 255 255 255 255 255 255 255 255 255 255 255 255 255 255 255 255 255 255 255 255 255 255 255 255 255 255 255 255 255 255 255 255 255 255 255 255 255 255 255 255 255 255 255 255 255 255 255 255 255 255 255 255 255 255 255 255 255 255 255 255 255 255 255 255 255 255 255 255 255 255 255 255 255 255 255 255 255 255 255 255 255 255 255 255 255 255 255 255 255 255 255 255 255 255 255 255 255 255 255 255 255 255 255 255 255 255 255 255 255 255 255 255 255 255 255 255 255 255 255 255 255 255 255 255 255 255 255 255 255 255 255 255 255 255 255 255 255 255 255 255 255 255 255 255 255 255 255 255 255 255 255 255 255 255 255 255 255 255 255 255 255 255 255 255 255 255 255 255 255 255 255 255 255 255 255 255 255 255 255 255 255 255 255 255 255 255 255 255 255 255 255 255 255 255 255 255 255 255 255 255 255 255 255 255 255 255 255 255 255 255 255 255 255 255 255 255 255 255 255 255 255 255 255 255 255 255 255 255 255 255 255 255 255 255 255 
255 255 255 255 255 255 255 255 255 255 255 255 255 255 255 255 255 255 255 255 255 255 255 255 255 255 255 255 255 255 255 255 255 255 255 255 255 255 255 255 255 255 255 255 255 255 255 255 255 255 255 255 255 255 255 255 255 255 255 255 255 255 255 255 255 255 255 255 255 255 255 255 255 255 255 255 255 255 255 255 255 255 255 255 255 255 255 255 255 255 255 255 255 255 255 255 255 255 255 255 255 255 255 255 255 255 255 255 255 255 255 255 255 255 255 255 255 255 255 255 255 255 255 255 255 255 255 255 255 255 255 255 255 255 255 255 255 255 255 255 255 255 255 255 255 255 255 255 255 255 255 255 255 255 255 255 255 255 255 255 255 255 255 255 255 255 255 255 255 255 255 255 255 255 255 255 255 255 255 255 255 255 255 255 255 255 255 255 255 255 255 255 255 255 255 255 255 255 255 255 255 255 255 255 255 255 255 255 255 255 255 255 255 255 255 255 255 255 255 255 255 255 255 255 255 255 255 255 255 255 255 255 255 255 255 255 255 255 255 255 255 255 255 255 255 255 255 255 255 255 255 255 255 255 255 255 255 255 255 255 255 255 255 255 255 255 255 255 255 255 255 255 255 255 255 255 255 255 255 255 255 255 255 255 255 255 255 255 255 255 255 255 255 255 255 255 255 255 255 255 255 255 255 255 255 255 255 255 255 255 255 255 255 255 255 255 255 255 255 255 255 255 255 255 255 255 255 255 255 255 255 255 255 255 255 255 255 255 255 255 255 255 255 255 255 255 255 255 255 255 255 255 255 255 255 255 255 255 255 255 255 255 255 255 255 255 255 255 255 255 255 255 255 255 255 255 255 255 255 255 255 255 255 255 255 255 255 255 255 255 255 255 255 255 255 255 255 255 255 255 255 255 255 255 255 255 255 255 255 255 255 255 255 255 255 255 255 255 255 255 255 255 255 255 255 255 255 255 255 255 255 255 255 255 255 255 255 255 255 255 255 255 255 255 255 255 255 255 255 255 255 255 255 255 255 255 255 255 255 255 255 255 255 255 255 255 255 255 255 255 255 255 255 255 255 255 255 255 255 255 255 255 255 255 255 255 255 255 255 255 255 255 255 255 255 255 255 255 255 255 255 255 255 255 255 255 255 255 255 255 255 255 255 255 255 255 255 255 255 255 255 255 255 255 255 255 255 255 255 255 255 255 255 255 255 255 255 255 255 255 255 255 255 255 255 255 255 255 255 255 255 255 255 255 255 255 255 255 255 255 255 255 255 255 255 255 255 255 255 255 255 255 255 255 255 255 255 255 255 255 255 255 255 255 255 255 255 255 255 255 255 255 255 255 255 255 255 255 255 255 255 255 255 255 255 255 255 255 255 255 255 255 255 255 255 255 255 255 255 255 255 255 255 255 255 255 255 255 255 255 255 255 255 255 255 255 255 255 255 255 255 255 255 255 255 255 255 255 255 255 255 255 255 255 255 255 255 255 255 255 255 255 255 255 255 255 255 255 255 255 255 255 255 255 255 255 255 255 255 255 255 255 255 255 255 255 255 255 255 255 255 255 255 255 255 255 255 255 255 255 255 255 255 255 255 255 255 255 255 255 255 255 255 255 255 255 255 255 255 255 255 255 255 255 255 255 255 255 255 255 255 255 255 255 255 255 255 255 255 255 255 255 255 255 255 255 255 255 255 255 255 255 255 255 255 255 255 255 255 255 255 255 255 255 255 255 255 255 255 255 255 255 255 255 255 255 255 255 255 255 255 255 255 255 255 255 255 255 255 255 255 255 255 255 255 255 255 255 255 255 255 255 255 255 255 255 255 255 255 255 255 255 255 255 255 255 255 255 255 255 255 255 255 255 255 255 255 255 255 255 255 255 255 255 255 255 255 255 255 255 255 255 255 255 255 255 255 255 255 255 255 255 255 255 255 255 255 255 255 255 255 255 255 255 255 255 255 255 255 255 255 255 255 255 255 255 255 255 255 255 255 255 255 255 255 255 255 255 255 255 255 255 255 255 255 255 255 255 255 255 
255 255 255 255 255 255 255 255 255 255 255 255 255 255 255 255 255 255 255 255 255 255 255 255 255 255 255 255 255 255 255 255 255 255 255 255 255 255 255 255 255 255 255 255 255 255 255 255 255 255 255 255 255 255 255 255 255 255 255 255 255 255 255 255 255 255 255 255 255 255 255 255 255 255 255 255 255 255 255 255 255 255 255 255 255 255 255 255 255 255 255 255 255 255 255 255 255 255 255 255 255 255 255 255 255 255 255 255 255 255 255 255 255 255 255 255 255 255 255 255 255 255 255 255 255 255 255 255 255 255 255 255 255 255 255 255 255 255 255 255 255 255 255 255 255 255 255 255 255 255 255 255 255 255 255 255 255 255 255 255 255 255 255 255 255 255 255 255 255 255 255 255 255 255 255 255 255 255 255 255 255 255 255 255 255 255 255 255 255 255 255 255 255 255 255 255 255 255 255 255 255 255 255 255 255 255 255 255 255 255 255 255 255 255 255 255 255 255 255 255 255 255 255 255 255 255 255 255 255 255 255 255 255 255 255 255 255 255 255 255 255 255 255 255 255 255 255 255 255 255 255 255 255 255 255 255 255 255 255 255 255 255 255 255 255 255 255 255 255 255 255 255 255 255 255 255 255 255 255 255 255 255 255 255 255 255 255 255 255 255 255 255 255 255 255 255 255 255 255 255 255 255 255 255 255 255 255 255 255 255 255 255 255 255 255 255 255 255 255 255 255 255 255 255 255 255 255 255 255 255 255 255 255 255 255 255 255 255 255 255 255 255 255 255 255 255 255 255 255 255 255 255 255 255 255 255 255 255 255 255 255 255 255 255 255 255 255 255 255 255 255 255 255 255 255 255 255 255 255 255 255 255 255 255 255 255 255 255 255 255 255 255 255 255 255 255 255 255 255 255 255 255 255 255 255 255 255 255 255 255 255 255 255 255 255 255 255 255 255 255 255 255 255 255 255 255 255 255 255 255 255 255 255 255 255 255 255 255 255 255 255 255 255 255 255 255 255 255 255 255 255 255 255 255 255 255 255 255 255 255 255 255 255 255 255 255 255 255 255 255 255 255 255 255 255 255 255 255 255 255 255 255 255 255 255 255 255 255 255 255 255 255 255 255 255 255 255 255 255 255 255 255 255 255 255 255 255 255 255 255 255 255 255 255 255 255 255 255 255 255 255 255 255 255 255 255 255 255 255 255 255 255 255 255 255 255 255 255 255 255 255 255 255 255 255 255 255 255 255 255 255 255 255 255 255 255 255 255 255 255 255 255 255 255 255 255 255 255 255 255 255 255 255 255 255 255 255 255 255 255 255 255 255 255 255 255 255 255 255 255 255 255 255 255 255 255 255 255 255 255 255 255 255 255 255 255 255 255 255 255 255 255 255 255 255 255 255 255 255 255 255 255 255 255 255 255 255 255 255 255 255 255 255 255 255 255 255 255 255 255 255 255 255 255 255 255 255 255 255 255 255 255 255 255 255 255 255 255 255 255 255 255 255 255 255 255 255 255 255 255 255 255 255 255 255 255 255 255 255 255 255 255 255 255 255 255 255 255 255 255 255 255 255 255 255 255 255 255 255 255 255 255 255 255 255 255 255 255 255 255 255 255 255 255 255 255 255 255 255 255 255 255 255 255 255 255 255 255 255 255 255 255 255 255 255 255 255 255 255 255 255 255 255 255 255 255 255 255 255 255 255 255 255 255 255 255 255 255 255 255 255 255 255 255 255 255 255 255 255 255 255 255 255 255 255 255 255 255 255 255 255 255 255 255 255 255 255 255 255 255 255 255 255 255 255 255 255 255 255 255 255 255 255 255 255 255 255 255 255 255 255 255 255 255 255 255 255 255 255 255 255 255 255 255 255 255 255 255 255 255 255 255 255 255 255 255 255 255 255 255 255 255 255 255 255 255 255 255 255 255 255 255 255 255 255 255 255 255 255 255 255 255 255 255 255 255 255 255 255 255 255 255 255 255 255 255 255 255 255 255 255 255 255 255 255 255 255 255 255 255 255 255 255 255 255 255 255 255 255 255 
255 255 255 255 255 255 255 255 255 255 255 255 255 255 255 255 255 255 255 255 255 255 255 255 255 255 255 255 255 255 255 255 255 255 255 255 255 255 255 255 255 255 255 255 255 255 255 255 255 255 255 255 255 255 255 255 255 255 255 255 255 255 255 255 255 255 255 255 255 255 255 255 255 255 255 255 255 255 255 255 255 255 255 255 255 255 255 255 255 255 255 255 255 255 255 255 255 255 255 255 255 255 255 255 255 255 255 255 255 255 255 255 255 255 255 255 255 255 255 255 255 255 255 255 255 255 255 255 255 255 255 255 255 255 255 255 255 255 255 255 255 255 255 255 255 255 255 255 255 255 255 255 255 255 255 255 255 255 255 255 255 255 255 255 255 255 255 255 255 255 255 255 255 255 255 255 255 255 255 255 255 255 255 255 255 255 255 255 255 255 255 255 255 255 255 255 255 255 255 255 255 255 255 255 255 255 255 255 255 255 255 255 255 255 255 255 255 255 255 255 255 255 255 255 255 255 255 255 255 255 255 255 255 255 255 255 255 255 255 255 255 255 255 255 255 255 255 255 255 255 255 255 255 255 255 255 255 255 255 255 255 255 255 255 255 255 255 255 255 255 255 255 255 255 255 255 255 255 255 255 255 255 255 255 255 255 255 255 255 255 255 255 255 255 255 255 255 255 255 255 255 255 255 255 255 255 255 255 255 255 255 255 255 255 255 255 255 255 255 255 255 255 255 255 255 255 255 255 255 255 255 255 255 255 255 255 255 255 255 255 255 255 255 255 255 255 255 255 255 255 255 255 255 255 255 255 255 255 255 255 255 255 255 255 255 255 255 255 255 255 255 255 255 255 255 255 255 255 255 255 255 255 255 255 255 255 255 255 255 255 255 255 255 255 255 255 255 255 255 255 255 255 255 255 255 255 255 255 255 255 255 255 255 255 255 255 255 255 255 255 255 255 255 255 255 255 255 255 255 255 255 255 255 255 255 255 255 255 255 255 255 255 255 255 255 255 255 255 255 255 255 255 255 255 255 255 255 255 255 255 255 255 255 255 255 255 255 255 255 255 255 255 255 255 255 255 255 255 255 255 255 255 255 255 255 255 255 255 255 255 255 255 255 255 255 255 255 255 255 255 255 255 255 255 255 255 255 255 255 255 255 255 255 255 255 255 255 255 255 255 255 255 255 255 255 255 255 255 255 255 255 255 255 255 255 255 255 255 255 255 255 255 255 255 255 255 255 255 255 255 255 255 255 255 255 255 255 255 255 255 255 255 255 255 255 255 255 255 255 255 255 255 255 255 255 255 255 255 255 255 255 255 255 255 255 255 255 255 255 255 255 255 255 255 255 255 255 255 255 255 255 255 255 255 255 255 255 255 255 255 255 255 255 255 255 255 255 255 255 255 255 255 255 255 255 255 255 255 255 255 255 255 255 255 255 255 255 255 255 255 255 255 255 255 255 255 255 255 255 255 255 255 255 255 255 255 255 255 255 255 255 255 255 255 255 255 255 255 255 255 255 255 255 255 255 255 255 255 255 255 255 255 255 255 255 255 255 255 255 255 255 255 255 255 255 255 255 255 255 255 255 255 255 255 255 255 255 255 255 255 255 255 255 255 255 255 255 255 255 255 255 255 255 255 255 255 255 255 255 255 255 255 255 255 255 255 255 255 255 255 255 255 255 255 255 255 255 255 255 255 255 255 255 255 255 255 255 255 255 255 255 255 255 255 255 255 255 255 255 255 255 255 255 255 255 255 255 255 255 255 255 255 255 255 255 255 255 255 255 255 255 255 255 255 255 255 255 255 255 255 255 255 255 255 255 255 255 255 255 255 255 255 255 255 255 255 255 255 255 255 255 255 255 255 255 255 255 255 255 255 255 255 255 255 255 255 255 255 255 255 255 255 255 255 255 255 255 255 255 255 255 255 255 255 255 255 255 255 255 255 255 255 255 255 255 255 255 255 255 255 255 255 255 255 255 255 255 255 255 255 255 255 255 255 255 255 255 255 255 255 255 255 255 255 255 255 255 255 255 255 
255 255 255 255 255 255 255 255 255 255 255 255 255 255 255 255 255 255 255 255 255 255 255 255 255 255 255 255 255 255 255 255 255 255 255 255 255 255 255 255 255 255 255 255 255 255 255 255 255 255 255 255 255 255 255 255 255 255 255 255 255 255 255 255 255 255 255 255 255 255 255 255 255 255 255 255 255 255 255 255 255 255 255 255 255 255 255 255 255 255 255 255 255 255 255 255 255 255 255 255 255 255 255 255 255 255 255 255 255 255 255 255 255 255 255 255 255 255 255 255 255 255 255 255 255 255 255 255 255 255 255 255 255 255 255 255 255 255 255 255 255 255 255 255 255 255 255 255 255 255 255 255 255 255 255 255 255 255 255 255 255 255 255 255 255 255 255 255 255 255 255 255 255 255 255 255 255 255 255 255 255 255 255 255 255 255 255 255 255 255 255 255 255 255 255 255 255 255 255 255 255 255 255 255 255 255 255 255 255 255 255 255 255 255 255 255 255 255 255 255 255 255 255 255 255 255 255 255 255 255 255 255 255 255 255 255 255 255 255 255 255 255 255 255 255 255 255 255 255 255 255 255 255 255 255 255 255 255 255 255 255 255 255 255 255 255 255 255 255 255 255 255 255 255 255 255 255 255 255 255 255 255 255 255 255 255 255 255 255 255 255 255 255 255 255 255 255 255 255 255 255 255 255 255 255 255 255 255 255 255 255 255 255 255 255 255 255 255 255 255 255 255 255 255 255 255 255 255 255 255 255 255 255 255 255 255 255 255 255 255 255 255 255 255 255 255 255 255 255 255 255 255 255 255 255 255 255 255 255 255 255 255 255 255 255 255 255 255 255 255 255 255 255 255 255 255 255 255 255 255 255 255 255 255 255 255 255 255 255 255 255 255 255 255 255 255 255 255 255 255 255 255 255 255 255 255 255 255 255 255 255 255 255 255 255 255 255 255 255 255 255 255 255 255 255 255 255 255 255 255 255 255 255 255 255 255 255 255 255 255 255 255 255 255 255 255 255 255 255 255 255 255 255 255 255 255 255 255 255 255 255 255 255 255 255 255 255 255 255 255 255 255 255 255 255 255 255 255 255 255 255 255 255 255 255 255 255 255 255 255 255 255 255 255 255 255 255 255 255 255 255 255 255 255 255 255 255 255 255 255 255 255 255 255 255 255 255 255 255 255 255 255 255 255 255 255 255 255 255 255 255 255 255 255 255 255 255 255 255 255 255 255 255 255 255 255 255 255 255 255 255 255 255 255 255 255 255 255 255 255 255 255 255 255 255 255 255 255 255 255 255 255 255 255 255 255 255 255 255 255 255 255 255 255 255 255 255 255 255 255 255 255 255 255 255 255 255 255 255 255 255 255 255 255 255 255 255 255 255 255 255 255 255 255 255 255 255 255 255 255 255 255 255 255 255 255 255 255 255 255 255 255 255 255 255 255 255 255 255 255 255 255 255 255 255 255 255 255 255 255 255 255 255 255 255 255 255 255 255 255 255 255 255 255 255 255 255 255 255 255 255 255 255 255 255 255 255 255 255 255 255 255 255 255 255 255 255 255 255 255 255 255 255 255 255 255 255 255 255 255 255 255 255 255 255 255 255 255 255 255 255 255 255 255 255 255 255 255 255 255 255 255 255 255 255 255 255 255 255 255 255 255 255 255 255 255 255 255 255 255 255 255 255 255 255 255 255 255 255 255 255 255 255 255 255 255 255 255 255 255 255 255 255 255 255 255 255 255 255 255 255 255 255 255 255 255 255 255 255 255 255 255 255 255 255 255 255 255 255 255 255 255 255 255 255 255 255 255 255 255 255 255 255 255 255 255 255 255 255 255 255 255 255 255 255 255 255 255 255 255 255 255 255 255 255 255 255 255 255 255 255 255 255 255 255 255 255 255 255 255 255 255 255 255 255 255 255 255 255 255 255 255 255 255 255 255 255 255 255 255 255 255 255 255 255 255 255 255 255 255 255 255 255 255 255 255 255 255 255 255 255 255 255 255 255 255 255 255 255 255 255 255 255 255 255 255 255 255 255 255 
255 255 255 255 255 255 255 255 255 255 255 255 255 255 255 255 255 255 255 255 255 255 255 255 255 255 255 255 255 255 255 255 255 255 255 255 255 255 255 255 255 255 255 255 255 255 255 255 255 255 255 255 255 255 255 255 255 255 255 255 255 255 255 255 255 255 255 255 255 255 255 255 255 255 255 255 255 255 255 255 255 255 255 255 255 255 255 255 255 255 255 255 255 255 255 255 255 255 255 255 255 255 255 255 255 255 255 255 255 255 255 255 255 255 255 255 255 255 255 255 255 255 255 255 255 255 255 255 255 255 255 255 255 255 255 255 255 255 255 255 255 255 255 255 255 255 255 255 255 255 255 255 255 255 255 255 255 255 255 255 255 255 255 255 255 255 255 255 255 255 255 255 255 255 255 255 255 255 255 255 255 255 255 255 255 255 255 255 255 255 255 255 255 255 255 255 255 255 255 255 255 255 255 255 255 255 255 255 255 255 255 255 255 255 255 255 255 255 255 255 255 255 255 255 255 255 255 255 255 255 255 255 255 255 255 255 255 255 255 255 255 255 255 255 255 255 255 255 255 255 255 255 255 255 255 255 255 255 255 255 255 255 255 255 255 255 255 255 255 255 255 255 255 255 255 255 255 255 255 255 255 255 255 255 255 255 255 255 255 255 255 255 255 255 255 255 255 255 255 255 255 255 255 255 255 255 255 255 255 255 255 255 255 255 255 255 255 255 255 255 255 255 255 255 255 255 255 255 255 255 255 255 255 255 255 255 255 255 255 255 255 255 255 255 255 255 255 255 255 255 255 255 255 255 255 255 255 255 255 255 255 255 255 255 255 255 255 255 255 255 255 255 255 255 255 255 255 255 255 255 255 255 255 255 255 255 255 255 255 255 255 255 255 255 255 255 255 255 255 255 255 255 255 255 255 255 255 255 255 255 255 255 255 255 255 255 255 255 255 255 255 255 255 255 255 255 255 255 255 255 255 255 255 255 255 255 255 255 255 255 255 255 255 255 255 255 255 255 255 255 255 255 255 255 255 255 255 255 255 255 255 255 255 255 255 255 255 255 255 255 255 255 255 255 255 255 255 255 255 255 255 255 255 255 255 255 255 255 255 255 255 255 255 255 255 255 255 255 255 255 255 255 255 255 255 255 255 255 255 255 255 255 255 255 255 255 255 255 255 255 255 255 255 255 255 255 255 255 255 255 255 255 255 255 255 255 255 255 255 255 255 255 255 255 255 255 255 255 255 255 255 255 255 255 255 255 255 255 255 255 255 255 255 255 255 255 255 255 255 255 255 255 255 255 255 255 255 255 255 255 255 255 255 255 255 255 255 255 255 255 255 255 255 255 255 255 255 255 255 255 255 255 255 255 255 255 255 255 255 255 255 255 255 255 255 255 255 255 255 255 255 255 255 255 255 255 255 255 255 255 255 255 255 255 255 255 255 255 255 255 255 255 255 255 255 255 255 255 255 255 255 255 255 255 255 255 255 255 255 255 255 255 255 255 255 255 255 255 255 255 255 255 255 255 255 255 255 255 255 255 255 255 255 255 255 255 255 255 255 255 255 255 255 255 255 255 255 255 255 255 255 255 255 255 255 255 255 255 255 255 255 255 255 255 255 255 255 255 255 255 255 255 255 255 255 255 255 255 255 255 255 255 255 255 255 255 255 255 255 255 255 255 255 255 255 255 255 255 255 255 255 255 255 255 255 255 255 255 255 255 255 255 255 255 255 255 255 255 255 255 255 255 255 255 255 255 255 255 255 255 255 255 255 255 255 255 255 255 255 255 255 255 255 255 255 255 255 255 255 255 255 255 255 255 255 255 255 255 255 255 255 255 255 255 255 255 255 255 255 255 255 255 255 255 255 255 255 255 255 255 255 255 255 255 255 255 255 255 255 255 255 255 255 255 255 255 255 255 255 255 255 255 255 255 255 255 255 255 255 255 255 255 255 255 255 255 255 255 255 255 255 255 255 255 255 255 255 255 255 255 255 255 255 255 255 255 255 255 255 255 255 255 255 255 255 255 255 255 255 255 
255 255 255 255 255 255 255 255 255 255 255 255 255 255 255 255 255 255 255 255 255 255 255 255 255 255 255 255 255 255 255 255 255 255 255 255 255 255 255 255 255 255 255 255 255 255 255 255 255 255 255 255 255 255 255 255 255 255 255 255 255 255 255 255 255 255 255 255 255 255 255 255 255 255 255 255 255 255 255 255 255 255 255 255 255 255 255 255 255 255 255 255 255 255 255 255 255 255 255 255 255 255 255 255 255 255 255 255 255 255 255 255 255 255 255 255 255 255 255 255 255 255 255 255 255 255 255 255 255 255 255 255 255 255 255 255 255 255 255 255 255 255 255 255 255 255 255 255 255 255 255 255 255 255 255 255 255 255 255 255 255 255 255 255 255 255 255 255 255 255 255 255 255 255 255 255 255 255 255 255 255 255 255 255 255 255 255 255 255 255 255 255 255 255 255 255 255 255 255 255 255 255 255 255 255 255 255 255 255 255 255 255 255 255 255 255 255 255 255 255 255 255 255 255 255 255 255 255 255 255 255 255 255 255 255 255 255 255 255 255 255 255 255 255 255 255 255 255 255 255 255 255 255 255 255 255 255 255 255 255 255 255 255 255 255 255 255 255 255 255 255 255 255 255 255 255 255 255 255 255 255 255 255 255 255 255 255 255 255 255 255 255 255 255 255 255 255 255 255 255 255 255 255 255 255 255 255 255 255 255 255 255 255 255 255 255 255 255 255 255 255 255 255 255 255 255 255 255 255 255 255 255 255 255 255 255 255 255 255 255 255 255 255 255 255 255 255 255 255 255 255 255 255 255 255 255 255 255 255 255 255 255 255 255 255 255 255 255 255 255 255 255 255 255 255 255 255 255 255 255 255 255 255 255 255 255 255 255 255 255 255 255 255 255 255 255 255 255 255 255 255 255 255 255 255 255 255 255 255 255 255 255 255 255 255 255 255 255 255 255 255 255 255 255 255 255 255 255 255 255 255 255 255 255 255 255 255 255 255 255 255 255 255 255 255 255 255 255 255 255 255 255 255 255 255 255 255 255 255 255 255 255 255 255 255 255 255 255 255 255 255 255 255 255 255 255 255 255 255 255 255 255 255 255 255 255 255 255 255 255 255 255 255 255 255 255 255 255 255 255 255 255 255 255 255 255 255 255 255 255 255 255 255 255 255 255 255 255 255 255 255 255 255 255 255 255 255 255 255 255 255 255 255 255 255 255 255 255 255 255 255 255 255 255 255 255 255 255 255 255 255 255 255 255 255 255 255 255 255 255 255 255 255 255 255 255 255 255 255 255 255 255 255 255 255 255 255 255 255 255 255 255 255 255 255 255 255 255 255 255 255 255 255 255 255 255 255 255 255 255 255 255 255 255 255 255 255 255 255 255 255 255 255 255 255 255 255 255 255 255 255 255 255 255 255 255 255 255 255 255 255 255 255 255 255 255 255 255 255 255 255 255 255 255 255 255 255 255 255 255 255 255 255 255 255 255 255 255 255 255 255 255 255 255 255 255 255 255 255 255 255 255 255 255 255 255 255 255 255 255 255 255 255 255 255 255 255 255 255 255 255 255 255 255 255 255 255 255 255 255 255 255 255 255 255 255 255 255 255 255 255 255 255 255 255 255 255 255 255 255 255 255 255 255 255 255 255 255 255 255 255 255 255 255 255 255 255 255 255 255 255 255 255 255 255 255 255 255 255 255 255 255 255 255 255 255 255 255 255 255 255 255 255 255 255 255 255 255 255 255 255 255 255 255 255 255 255 255 255 255 255 255 255 255 255 255 255 255 255 255 255 255 255 255 255 255 255 255 255 255 255 255 255 255 255 255 255 255 255 255 255 255 255 255 255 255 255 255 255 255 255 255 255 255 255 255 255 255 255 255 255 255 255 255 255 255 255 255 255 255 255 255 255 255 255 255 255 255 255 255 255 255 255 255 255 255 255 255 255 255 255 255 255 255 255 255 255 255 255 255 255 255 255 255 255 255 255 255 255 255 255 255 255 255 255 255 255 255 255 255 255 255 255 255 255 255 255 255 255 255 
33 70 139 33 70 139 33 70 139 33 70 139 33 70 139 33 70 139 33 70 139 33 70 139 33 70 139 33 70 139 33 70 139 33 70 139 33 70 139 33 70 139 33 70 139 33 70 139 33 70 139 33 70 139 33 70 139 33 70 139 33 70 139 33 70 139 33 70 139 33 70 139 33 70 139 33 70 139 33 70 139 33 70 139 33 70 139 33 70 139 33 70 139 33 70 139 33 70 139 33 70 139 33 70 139 33 70 139 33 70 139 33 70 139 33 70 139 33 70 139 33 70 139 33 70 139 33 70 139 33 70 139 33 70 139 33 70 139 33 70 139 33 70 139 33 70 139 33 70 139 33 70 139 33 70 139 33 70 139 33 70 139 33 70 139 33 70 139 33 70 139 33 70 139 33 70 139 33 70 139 33 70 139 33 70 139 33 70 139 33 70 139 33 70 139 33 70 139 33 70 139 33 70 139 33 70 139 33 70 139 33 70 139 33 70 139 33 70 139 33 70 139 33 70 139 33 70 139 33 70 139 33 70 139 33 70 139 33 70 139 33 70 139 33 70 139 33 70 139 33 70 139 33 70 139 33 70 139 33 70 139 33 70 139 33 70 139 33 70 139 33 70 139 33 70 139 33 70 139 33 70 139 33 70 139 33 70 139 33 70 139 33 70 139 33 70 139 33 70 139 33 70 139 33 70 139 33 70 139 33 70 139 33 70 139 33 70 139 33 70 139 33 70 139 33 70 139 33 70 139 33 70 139 33 70 139 33 70 139 33 70 139 33 70 139 33 70 139 33 70 139 33 70 139 33 70 139 33 70 139 33 70 139 33 70 139 33 70 139 33 70 139 33 70 139 33 70 139 33 70 139 33 70 139 33 70 139 33 70 139 33 70 139 33 70 139 33 70 139 33 70 139 33 70 139 33 70 139 33 70 139 33 70 139 33 70 139 33 70 139 33 70 139 33 70 139 33 70 139 33 70 139 33 70 139 33 70 139 33 70 139 33 70 139 33 70 139 33 70 139 33 70 139 33 70 139 33 70 139 33 70 139 33 70 139 33 70 139 33 70 139 33 70 139 33 70 139 33 70 139 33 70 139 33 70 139 33 70 139 33 70 139 33 70 139 33 70 139 33 70 139 33 70 139 33 70 139 33 70 139 33 70 139 33 70 139 33 70 139 33 70 139 33 70 139 33 70 139 33 70 139 33 70 139 33 70 139 33 70 139 33 70 139 33 70 139 33 70 139 33 70 139 33 70 139 33 70 139 33 70 139 33 70 139 33 70 139 33 70 139 33 70 139 33 70 139 33 70 139 33 70 139 33 70 139 33 70 139 33 70 139 33 70 139 33 70 139 33 70 139 33 70 139 33 70 139 33 70 139 33 70 139 33 70 139 33 70 139 33 70 139 33 70 139 33 70 139 33 70 139 33 70 139 33 70 139 33 70 139 33 70 139 33 70 139 33 70 139 33 70 139 33 70 139 33 70 139 33 70 139 33 70 139 33 70 139 33 70 139 33 70 139 33 70 139 33 70 139 33 70 139 33 70 139 33 70 139 33 70 139 33 70 139 33 70 139 33 70 139 33 70 139 33 70 139 33 70 139 33 70 139 33 70 139 33 70 139 33 70 139 33 70 139 33 70 139 33 70 139 33 70 139 33 70 139 33 70 139 33 70 139 33 70 139 33 70 139 33 70 139 33 70 139 33 70 139 33 70 139 33 70 139 33 70 139 33 70 139 33 70 139 33 70 139 33 70 139 33 70 139 33 70 139 33 70 139 33 70 139 33 70 139 33 70 139 33 70 139 33 70 139 33 70 139 33 70 139 33 70 139 33 70 139 33 70 139 33 70 139 33 70 139 33 70 139 33 70 139 33 70 139 33 70 139 33 70 139 33 70 139 33 70 139 33 70 139 33 70 139 33 70 139 33 70 139 33 70 139 33 70 139 33 70 139 33 70 139 33 70 139 33 70 139 33 70 139 33 70 139 33 70 139 33 70 139 33 70 139 33 70 139 33 70 139 33 70 139 33 70 139 
33 70 139 33 70 139 33 70 139 33 70 139 33 70 139 33 70 139 33 70 139 33 70 139 33 70 139 33 70 139 33 70 139 33 70 139 33 70 139 33 70 139 33 70 139 33 70 139 33 70 139 33 70 139 33 70 139 33 70 139 33 70 139 33 70 139 33 70 139 33 70 139 33 70 139 33 70 139 33 70 139 33 70 139 33 70 139 33 70 139 33 70 139 33 70 139 33 70 139 33 70 139 33 70 139 33 70 139 33 70 139 33 70 139 33 70 139 33 70 139 33 70 139 33 70 139 33 70 139 33 70 139 33 70 139 33 70 139 33 70 139 33 70 139 33 70 139 33 70 139 33 70 139 33 70 139 33 70 139 33 70 139 33 70 139 33 70 139 33 70 139 33 70 139 33 70 139 33 70 139 33 70 139 33 70 139 33 70 139 33 70 139 33 70 139 33 70 139 33 70 139 33 70 139 33 70 139 33 70 139 33 70 139 33 70 139 33 70 139 33 70 139 33 70 139 33 70 139 33 70 139 33 70 139 33 70 139 33 70 139 33 70 139 33 70 139 33 70 139 33 70 139 33 70 139 33 70 139 33 70 139 33 70 139 33 70 139 33 70 139 33 70 139 33 70 139 33 70 139 33 70 139 33 70 139 33 70 139 33 70 139 33 70 139 33 70 139 33 70 139 33 70 139 33 70 139 33 70 139 33 70 139 33 70 139 33 70 139 33 70 139 33 70 139 33 70 139 33 70 139 33 70 139 33 70 139 33 70 139 33 70 139 33 70 139 33 70 139 33 70 139 33 70 139 33 70 139 33 70 139 33 70 139 33 70 139 33 70 139 33 70 139 33 70 139 33 70 139 33 70 139 33 70 139 33 70 139 33 70 139 33 70 139 33 70 139 33 70 139 33 70 139 33 70 139 33 70 139 33 70 139 33 70 139 33 70 139 33 70 139 33 70 139 33 70 139 33 70 139 33 70 139 33 70 139 33 70 139 33 70 139 33 70 139 33 70 139 33 70 139 33 70 139 33 70 139 33 70 139 33 70 139 33 70 139 33 70 139 33 70 139 33 70 139 33 70 139 33 70 139 33 70 139 33 70 139 33 70 139 33 70 139 33 70 139 33 70 139 33 70 139 33 70 139 33 70 139 33 70 139 33 70 139 33 70 139 33 70 139 33 70 139 33 70 139 33 70 139 33 70 139 33 70 139 33 70 139 33 70 139 33 70 139 33 70 139 33 70 139 33 70 139 33 70 139 33 70 139 33 70 139 33 70 139 33 70 139 33 70 139 33 70 139 33 70 139 33 70 139 33 70 139 33 70 139 33 70 139 33 70 139 33 70 139 33 70 139 33 70 139 33 70 139 33 70 139 33 70 139 33 70 139 33 70 139 33 70 139 33 70 139 33 70 139 33 70 139 33 70 139 33 70 139 33 70 139 33 70 139 33 70 139 33 70 139 33 70 139 33 70 139 33 70 139 33 70 139 33 70 139 33 70 139 33 70 139 33 70 139 33 70 139 33 70 139 33 70 139 33 70 139 33 70 139 33 70 139 33 70 139 33 70 139 33 70 139 33 70 139 33 70 139 33 70 139 33 70 139 33 70 139 33 70 139 33 70 139 33 70 139 33 70 139 33 70 139 33 70 139 33 70 139 33 70 139 33 70 139 33 70 139 33 70 139 33 70 139 33 70 139 33 70 139 33 70 139 33 70 139 33 70 139 33 70 139 33 70 139 33 70 139 33 70 139 33 70 139 33 70 139 33 70 139 33 70 139 33 70 139 33 70 139 33 70 139 33 70 139 33 70 139 33 70 139 33 70 139 33 70 139 33 70 139 33 70 139 33 70 139 33 70 139 33 70 139 33 70 139 33 70 139 33 70 139 33 70 139 33 70 139 33 70 139 33 70 139 33 70 139 33 70 139 33 70 139 33 70 139 33 70 139 33 70 139 33 70 139 33 70 139 33 70 139 33 70 139 33 70 139 33 70 139 33 70 139 33 70 139 33 70 139 33 70 139 33 70 139 33 70 139 
33 70 139 33 70 139 33 70 139 33 70 139 33 70 139 33 70 139 33 70 139 33 70 139 33 70 139 33 70 139 33 70 139 33 70 139 33 70 139 33 70 139 33 70 139 33 70 139 33 70 139 33 70 139 33 70 139 33 70 139 33 70 139 33 70 139 33 70 139 33 70 139 33 70 139 33 70 139 33 70 139 33 70 139 33 70 139 33 70 139 33 70 139 33 70 139 33 70 139 33 70 139 33 70 139 33 70 139 33 70 139 33 70 139 33 70 139 33 70 139 33 70 139 33 70 139 33 70 139 33 70 139 33 70 139 33 70 139 33 70 139 33 70 139 33 70 139 33 70 139 33 70 139 33 70 139 33 70 139 33 70 139 33 70 139 33 70 139 33 70 139 33 70 139 33 70 139 33 70 139 33 70 139 33 70 139 33 70 139 33 70 139 33 70 139 33 70 139 33 70 139 33 70 139 33 70 139 33 70 139 33 70 139 33 70 139 33 70 139 33 70 139 33 70 139 33 70 139 33 70 139 33 70 139 33 70 139 33 70 139 33 70 139 33 70 139 33 70 139 33 70 139 33 70 139 33 70 139 33 70 139 33 70 139 33 70 139 33 70 139 33 70 139 33 70 139 33 70 139 33 70 139 33 70 139 33 70 139 33 70 139 33 70 139 33 70 139 33 70 139 33 70 139 33 70 139 33 70 139 33 70 139 33 70 139 33 70 139 33 70 139 33 70 139 33 70 139 33 70 139 33 70 139 33 70 139 33 70 139 33 70 139 33 70 139 33 70 139 33 70 139 33 70 139 33 70 139 33 70 139 33 70 139 33 70 139 33 70 139 33 70 139 33 70 139 33 70 139 33 70 139 33 70 139 33 70 139 33 70 139 33 70 139 33 70 139 33 70 139 33 70 139 33 70 139 33 70 139 33 70 139 33 70 139 33 70 139 33 70 139 33 70 139 33 70 139 33 70 139 33 70 139 33 70 139 33 70 139 33 70 139 33 70 139 33 70 139 33 70 139 33 70 139 33 70 139 33 70 139 33 70 139 33 70 139 33 70 139 33 70 139 33 70 139 33 70 139 33 70 139 33 70 139 33 70 139 33 70 139 33 70 139 33 70 139 33 70 139 33 70 139 33 70 139 33 70 139 33 70 139 33 70 139 33 70 139 33 70 139 33 70 139 33 70 139 33 70 139 33 70 139 33 70 139 33 70 139 33 70 139 33 70 139 33 70 139 33 70 139 33 70 139 33 70 139 33 70 139 33 70 139 33 70 139 33 70 139 33 70 139 33 70 139 33 70 139 33 70 139 33 70 139 33 70 139 33 70 139 33 70 139 33 70 139 33 70 139 33 70 139 33 70 139 33 70 139 33 70 139 33 70 139 33 70 139 33 70 139 33 70 139 33 70 139 33 70 139 33 70 139 33 70 139 33 70 139 33 70 139 33 70 139 33 70 139 33 70 139 33 70 139 33 70 139 33 70 139 33 70 139 33 70 139 33 70 139 33 70 139 33 70 139 33 70 139 33 70 139 33 70 139 33 70 139 33 70 139 33 70 139 33 70 139 33 70 139 33 70 139 33 70 139 33 70 139 33 70 139 33 70 139 33 70 139 33 70 139 33 70 139 33 70 139 33 70 139 33 70 139 33 70 139 33 70 139 33 70 139 33 70 139 33 70 139 33 70 139 33 70 139 33 70 139 33 70 139 33 70 139 33 70 139 33 70 139 33 70 139 33 70 139 33 70 139 33 70 139 33 70 139 33 70 139 33 70 139 33 70 139 33 70 139 33 70 139 33 70 139 33 70 139 33 70 139 33 70 139 33 70 139 33 70 139 33 70 139 33 70 139 33 70 139 33 70 139 33 70 139 33 70 139 33 70 139 33 70 139 33 70 139 33 70 139 33 70 139 33 70 139 33 70 139 33 70 139 33 70 139 33 70 139 33 70 139 33 70 139 33 70 139 33 70 139 33 70 139 33 70 139 33 70 139 33 70 139 33 70 139 33 70 139 33 70 139 33 70 139 33 70 139 
33 70 139 33 70 139 33 70 139 33 70 139 33 70 139 33 70 139 33 70 139 33 70 139 33 70 139 33 70 139 33 70 139 33 70 139 33 70 139 33 70 139 33 70 139 33 70 139 33 70 139 33 70 139 33 70 139 33 70 139 33 70 139 33 70 139 33 70 139 33 70 139 33 70 139 33 70 139 33 70 139 33 70 139 33 70 139 33 70 139 33 70 139 33 70 139 33 70 139 33 70 139 33 70 139 33 70 139 33 70 139 33 70 139 33 70 139 33 70 139 33 70 139 33 70 139 33 70 139 33 70 139 33 70 139 33 70 139 33 70 139 33 70 139 33 70 139 33 70 139 33 70 139 33 70 139 33 70 139 33 70 139 33 70 139 33 70 139 33 70 139 33 70 139 33 70 139 33 70 139 33 70 139 33 70 139 33 70 139 33 70 139 33 70 139 33 70 139 33 70 139 33 70 139 33 70 139 33 70 139 33 70 139 33 70 139 33 70 139 33 70 139 33 70 139 33 70 139 33 70 139 33 70 139 33 70 139 33 70 139 33 70 139 33 70 139 33 70 139 33 70 139 33 70 139 33 70 139 33 70 139 33 70 139 33 70 139 33 70 139 33 70 139 33 70 139 33 70 139 33 70 139 33 70 139 33 70 139 33 70 139 33 70 139 33 70 139 33 70 139 33 70 139 33 70 139 33 70 139 33 70 139 33 70 139 33 70 139 33 70 139 33 70 139 33 70 139 33 70 139 33 70 139 33 70 139 33 70 139 33 70 139 33 70 139 33 70 139 33 70 139 33 70 139 33 70 139 33 70 139 33 70 139 33 70 139 33 70 139 33 70 139 33 70 139 33 70 139 33 70 139 33 70 139 33 70 139 33 70 139 33 70 139 33 70 139 33 70 139 33 70 139 33 70 139 33 70 139 33 70 139 33 70 139 33 70 139 33 70 139 33 70 139 33 70 139 33 70 139 33 70 139 33 70 139 33 70 139 33 70 139 33 70 139 33 70 139 33 70 139 33 70 139 33 70 139 33 70 139 33 70 139 33 70 139 33 70 139 33 70 139 33 70 139 33 70 139 33 70 139 33 70 139 33 70 139 33 70 139 33 70 139 33 70 139 33 70 139 33 70 139 33 70 139 33 70 139 33 70 139 33 70 139 33 70 139 33 70 139 33 70 139 33 70 139 33 70 139 33 70 139 33 70 139 33 70 139 33 70 139 33 70 139 33 70 139 33 70 139 33 70 139 33 70 139 33 70 139 33 70 139 33 70 139 33 70 139 33 70 139 33 70 139 33 70 139 33 70 139 33 70 139 33 70 139 33 70 139 33 70 139 33 70 139 33 70 139 33 70 139 33 70 139 33 70 139 33 70 139 33 70 139 33 70 139 33 70 139 33 70 139 33 70 139 33 70 139 33 70 139 33 70 139 33 70 139 33 70 139 33 70 139 33 70 139 33 70 139 33 70 139 33 70 139 33 70 139 33 70 139 33 70 139 33 70 139 33 70 139 33 70 139 33 70 139 33 70 139 33 70 139 33 70 139 33 70 139 33 70 139 33 70 139 33 70 139 33 70 139 33 70 139 33 70 139 33 70 139 33 70 139 33 70 139 33 70 139 33 70 139 33 70 139 33 70 139 33 70 139 33 70 139 33 70 139 33 70 139 33 70 139 33 70 139 33 70 139 33 70 139 33 70 139 33 70 139 33 70 139 33 70 139 33 70 139 33 70 139 33 70 139 33 70 139 33 70 139 33 70 139 33 70 139 33 70 139 33 70 139 33 70 139 33 70 139 33 70 139 33 70 139 33 70 139 33 70 139 33 70 139 33 70 139 33 70 139 33 70 139 33 70 139 33 70 139 33 70 139 33 70 139 33 70 139 33 70 139 33 70 139 33 70 139 33 70 139 33 70 139 33 70 139 33 70 139 33 70 139 33 70 139 33 70 139 33 70 139 33 70 139 33 70 139 33 70 139 33 70 139 33 70 139 33 70 139 33 70 139 33 70 139 33 70 139 33 70 139 33 70 139 
33 70 139 33 70 139 33 70 139 33 70 139 33 70 139 33 70 139 33 70 139 33 70 139 33 70 139 33 70 139 33 70 139 33 70 139 33 70 139 33 70 139 33 70 139 33 70 139 33 70 139 33 70 139 33 70 139 33 70 139 33 70 139 33 70 139 33 70 139 33 70 139 33 70 139 33 70 139 33 70 139 33 70 139 33 70 139 33 70 139 33 70 139 33 70 139 33 70 139 33 70 139 33 70 139 33 70 139 33 70 139 33 70 139 33 70 139 33 70 139 33 70 139 33 70 139 33 70 139 33 70 139 33 70 139 33 70 139 33 70 139 33 70 139 33 70 139 33 70 139 33 70 139 33 70 139 33 70 139 33 70 139 33 70 139 33 70 139 33 70 139 33 70 139 33 70 139 33 70 139 33 70 139 33 70 139 33 70 139 33 70 139 33 70 139 33 70 139 33 70 139 33 70 139 33 70 139 33 70 139 33 70 139 33 70 139 33 70 139 33 70 139 33 70 139 33 70 139 33 70 139 33 70 139 33 70 139 33 70 139 33 70 139 33 70 139 33 70 139 33 70 139 33 70 139 33 70 139 33 70 139 33 70 139 33 70 139 33 70 139 33 70 139 33 70 139 33 70 139 33 70 139 33 70 139 33 70 139 33 70 139 33 70 139 33 70 139 33 70 139 33 70 139 33 70 139 33 70 139 33 70 139 33 70 139 33 70 139 33 70 139 33 70 139 33 70 139 33 70 139 33 70 139 33 70 139 33 70 139 33 70 139 33 70 139 33 70 139 33 70 139 33 70 139 33 70 139 33 70 139 33 70 139 33 70 139 33 70 139 33 70 139 33 70 139 33 70 139 33 70 139 33 70 139 33 70 139 33 70 139 33 70 139 33 70 139 33 70 139 33 70 139 33 70 139 33 70 139 33 70 139 33 70 139 33 70 139 33 70 139 33 70 139 33 70 139 33 70 139 33 70 139 33 70 139 33 70 139 33 70 139 33 70 139 33 70 139 33 70 139 33 70 139 33 70 139 33 70 139 33 70 139 33 70 139 33 70 139 33 70 139 33 70 139 33 70 139 33 70 139 33 70 139 33 70 139 33 70 139 33 70 139 33 70 139 33 70 139 33 70 139 33 70 139 33 70 139 33 70 139 33 70 139 33 70 139 33 70 139 33 70 139 33 70 139 33 70 139 33 70 139 33 70 139 33 70 139 33 70 139 33 70 139 33 70 139 33 70 139 33 70 139 33 70 139 33 70 139 33 70 139 33 70 139 33 70 139 33 70 139 33 70 139 33 70 139 33 70 139 33 70 139 33 70 139 33 70 139 33 70 139 33 70 139 33 70 139 33 70 139 33 70 139 33 70 139 33 70 139 33 70 139 33 70 139 33 70 139 33 70 139 33 70 139 33 70 139 33 70 139 33 70 139 33 70 139 33 70 139 33 70 139 33 70 139 33 70 139 33 70 139 33 70 139 33 70 139 33 70 139 33 70 139 33 70 139 33 70 139 33 70 139 33 70 139 33 70 139 33 70 139 33 70 139 33 70 139 33 70 139 33 70 139 33 70 139 33 70 139 33 70 139 33 70 139 33 70 139 33 70 139 33 70 139 33 70 139 33 70 139 33 70 139 33 70 139 33 70 139 33 70 139 33 70 139 33 70 139 33 70 139 33 70 139 33 70 139 33 70 139 33 70 139 33 70 139 33 70 139 33 70 139 33 70 139 33 70 139 33 70 139 33 70 139 33 70 139 33 70 139 33 70 139 33 70 139 33 70 139 33 70 139 33 70 139 33 70 139 33 70 139 33 70 139 33 70 139 33 70 139 33 70 139 33 70 139 33 70 139 33 70 139 33 70 139 33 70 139 33 70 139 33 70 139 33 70 139 33 70 139 33 70 139 33 70 139 33 70 139 33 70 139 33 70 139 33 70 139 33 70 139 33 70 139 33 70 139 33 70 139 33 70 139 33 70 139 33 70 139 33 70 139 33 70 139 33 70 139 33 70 139 33 70 139 33 70 139 33 70 139 
33 70 139 33 70 139 33 70 139 33 70 139 33 70 139 33 70 139 33 70 139 33 70 139 33 70 139 33 70 139 33 70 139 33 70 139 33 70 139 33 70 139 33 70 139 33 70 139 33 70 139 33 70 139 33 70 139 33 70 139 33 70 139 33 70 139 33 70 139 33 70 139 33 70 139 33 70 139 33 70 139 33 70 139 33 70 139 33 70 139 33 70 139 33 70 139 33 70 139 33 70 139 33 70 139 33 70 139 33 70 139 33 70 139 33 70 139 33 70 139 33 70 139 33 70 139 33 70 139 33 70 139 33 70 139 33 70 139 33 70 139 33 70 139 33 70 139 33 70 139 33 70 139 33 70 139 33 70 139 33 70 139 33 70 139 33 70 139 33 70 139 33 70 139 33 70 139 33 70 139 33 70 139 33 70 139 33 70 139 33 70 139 33 70 139 33 70 139 33 70 139 33 70 139 33 70 139 33 70 139 33 70 139 33 70 139 33 70 139 33 70 139 33 70 139 33 70 139 33 70 139 33 70 139 33 70 139 33 70 139 33 70 139 33 70 139 33 70 139 33 70 139 33 70 139 33 70 139 33 70 139 33 70 139 33 70 139 33 70 139 33 70 139 33 70 139 33 70 139 33 70 139 33 70 139 33 70 139 33 70 139 33 70 139 33 70 139 33 70 139 33 70 139 33 70 139 33 70 139 33 70 139 33 70 139 33 70 139 33 70 139 33 70 139 33 70 139 33 70 139 33 70 139 33 70 139 33 70 139 33 70 139 33 70 139 33 70 139 33 70 139 33 70 139 33 70 139 33 70 139 33 70 139 33 70 139 33 70 139 33 70 139 33 70 139 33 70 139 33 70 139 33 70 139 33 70 139 33 70 139 33 70 139 33 70 139 33 70 139 33 70 139 33 70 139 33 70 139 33 70 139 33 70 139 33 70 139 33 70 139 33 70 139 33 70 139 33 70 139 33 70 139 33 70 139 33 70 139 33 70 139 33 70 139 33 70 139 33 70 139 33 70 139 33 70 139 33 70 139 33 70 139 33 70 139 33 70 139 33 70 139 33 70 139 33 70 139 33 70 139 33 70 139 33 70 139 33 70 139 33 70 139 33 70 139 33 70 139 33 70 139 33 70 139 33 70 139 33 70 139 33 70 139 33 70 139 33 70 139 33 70 139 33 70 139 33 70 139 33 70 139 33 70 139 33 70 139 33 70 139 33 70 139 33 70 139 33 70 139 33 70 139 33 70 139 33 70 139 33 70 139 33 70 139 33 70 139 33 70 139 33 70 139 33 70 139 33 70 139 33 70 139 33 70 139 33 70 139 33 70 139 33 70 139 33 70 139 33 70 139 33 70 139 33 70 139 33 70 139 33 70 139 33 70 139 33 70 139 33 70 139 33 70 139 33 70 139 33 70 139 33 70 139 33 70 139 33 70 139 33 70 139 33 70 139 33 70 139 33 70 139 33 70 139 33 70 139 33 70 139 33 70 139 33 70 139 33 70 139 33 70 139 33 70 139 33 70 139 33 70 139 33 70 139 33 70 139 33 70 139 33 70 139 33 70 139 33 70 139 33 70 139 33 70 139 33 70 139 33 70 139 33 70 139 33 70 139 33 70 139 33 70 139 33 70 139 33 70 139 33 70 139 33 70 139 33 70 139 33 70 139 33 70 139 33 70 139 33 70 139 33 70 139 33 70 139 33 70 139 33 70 139 33 70 139 33 70 139 33 70 139 33 70 139 33 70 139 33 70 139 33 70 139 33 70 139 33 70 139 33 70 139 33 70 139 33 70 139 33 70 139 33 70 139 33 70 139 33 70 139 33 70 139 33 70 139 33 70 139 33 70 139 33 70 139 33 70 139 33 70 139 33 70 139 33 70 139 33 70 139 33 70 139 33 70 139 33 70 139 33 70 139 33 70 139 33 70 139 33 70 139 33 70 139 33 70 139 33 70 139 33 70 139 33 70 139 33 70 139 33 70 139 33 70 139 33 70 139 33 70 139 33 70 139 33 70 139 33 70 139 
33 70 139 33 70 139 33 70 139 33 70 139 33 70 139 33 70 139 33 70 139 33 70 139 33 70 139 33 70 139 33 70 139 33 70 139 33 70 139 33 70 139 33 70 139 33 70 139 33 70 139 33 70 139 33 70 139 33 70 139 33 70 139 33 70 139 33 70 139 33 70 139 33 70 139 33 70 139 33 70 139 33 70 139 33 70 139 33 70 139 33 70 139 33 70 139 33 70 139 33 70 139 33 70 139 33 70 139 33 70 139 33 70 139 33 70 139 33 70 139 33 70 139 33 70 139 33 70 139 33 70 139 33 70 139 33 70 139 33 70 139 33 70 139 33 70 139 33 70 139 33 70 139 33 70 139 33 70 139 33 70 139 33 70 139 33 70 139 33 70 139 33 70 139 33 70 139 33 70 139 33 70 139 33 70 139 33 70 139 33 70 139 33 70 139 33 70 139 33 70 139 33 70 139 33 70 139 33 70 139 33 70 139 33 70 139 33 70 139 33 70 139 33 70 139 33 70 139 33 70 139 33 70 139 33 70 139 33 70 139 33 70 139 33 70 139 33 70 139 33 70 139 33 70 139 33 70 139 33 70 139 33 70 139 33 70 139 33 70 139 33 70 139 33 70 139 33 70 139 33 70 139 33 70 139 33 70 139 33 70 139 33 70 139 33 70 139 33 70 139 33 70 139 33 70 139 33 70 139 33 70 139 33 70 139 33 70 139 33 70 139 33 70 139 33 70 139 33 70 139 33 70 139 33 70 139 33 70 139 33 70 139 33 70 139 33 70 139 33 70 139 33 70 139 33 70 139 33 70 139 33 70 139 33 70 139 33 70 139 33 70 139 33 70 139 33 70 139 33 70 139 33 70 139 33 70 139 33 70 139 33 70 139 33 70 139 33 70 139 33 70 139 33 70 139 33 70 139 33 70 139 33 70 139 33 70 139 33 70 139 33 70 139 33 70 139 33 70 139 33 70 139 33 70 139 33 70 139 33 70 139 33 70 139 33 70 139 33 70 139 33 70 139 33 70 139 33 70 139 33 70 139 33 70 139 33 70 139 33 70 139 33 70 139 33 70 139 33 70 139 33 70 139 33 70 139 33 70 139 33 70 139 33 70 139 33 70 139 33 70 139 33 70 139 33 70 139 33 70 139 33 70 139 33 70 139 33 70 139 33 70 139 33 70 139 33 70 139 33 70 139 33 70 139 33 70 139 33 70 139 33 70 139 33 70 139 33 70 139 33 70 139 33 70 139 33 70 139 33 70 139 33 70 139 33 70 139 33 70 139 33 70 139 33 70 139 33 70 139 33 70 139 33 70 139 33 70 139 33 70 139 33 70 139 33 70 139 33 70 139 33 70 139 33 70 139 33 70 139 33 70 139 33 70 139 33 70 139 33 70 139 33 70 139 33 70 139 33 70 139 33 70 139 33 70 139 33 70 139 33 70 139 33 70 139 33 70 139 33 70 139 33 70 139 33 70 139 33 70 139 33 70 139 33 70 139 33 70 139 33 70 139 33 70 139 33 70 139 33 70 139 33 70 139 33 70 139 33 70 139 33 70 139 33 70 139 33 70 139 33 70 139 33 70 139 33 70 139 33 70 139 33 70 139 33 70 139 33 70 139 33 70 139 33 70 139 33 70 139 33 70 139 33 70 139 33 70 139 33 70 139 33 70 139 33 70 139 33 70 139 33 70 139 33 70 139 33 70 139 33 70 139 33 70 139 33 70 139 33 70 139 33 70 139 33 70 139 33 70 139 33 70 139 33 70 139 33 70 139 33 70 139 33 70 139 33 70 139 33 70 139 33 70 139 33 70 139 33 70 139 33 70 139 33 70 139 33 70 139 33 70 139 33 70 139 33 70 139 33 70 139 33 70 139 33 70 139 33 70 139 33 70 139 33 70 139 33 70 139 33 70 139 33 70 139 33 70 139 33 70 139 33 70 139 33 70 139 33 70 139 33 70 139 33 70 139 33 70 139 33 70 139 33 70 139 33 70 139 33 70 139 33 70 139 33 70 139 33 70 139 
33 70 139 33 70 139 33 70 139 33 70 139 33 70 139 33 70 139 33 70 139 33 70 139 33 70 139 33 70 139 33 70 139 33 70 139 33 70 139 33 70 139 33 70 139 33 70 139 33 70 139 33 70 139 33 70 139 33 70 139 33 70 139 33 70 139 33 70 139 33 70 139 33 70 139 33 70 139 33 70 139 33 70 139 33 70 139 33 70 139 33 70 139 33 70 139 33 70 139 33 70 139 33 70 139 33 70 139 33 70 139 33 70 139 33 70 139 33 70 139 33 70 139 33 70 139 33 70 139 33 70 139 33 70 139 33 70 139 33 70 139 33 70 139 33 70 139 33 70 139 33 70 139 33 70 139 33 70 139 33 70 139 33 70 139 33 70 139 33 70 139 33 70 139 33 70 139 33 70 139 33 70 139 33 70 139 33 70 139 33 70 139 33 70 139 33 70 139 33 70 139 33 70 139 33 70 139 33 70 139 33 70 139 33 70 139 33 70 139 33 70 139 33 70 139 33 70 139 33 70 139 33 70 139 33 70 139 33 70 139 33 70 139 33 70 139 33 70 139 33 70 139 33 70 139 33 70 139 33 70 139 33 70 139 33 70 139 33 70 139 33 70 139 33 70 139 33 70 139 33 70 139 33 70 139 33 70 139 33 70 139 33 70 139 33 70 139 33 70 139 33 70 139 33 70 139 33 70 139 33 70 139 33 70 139 33 70 139 33 70 139 33 70 139 33 70 139 33 70 139 33 70 139 33 70 139 33 70 139 33 70 139 33 70 139 33 70 139 33 70 139 33 70 139 33 70 139 33 70 139 33 70 139 33 70 139 33 70 139 33 70 139 33 70 139 33 70 139 33 70 139 33 70 139 33 70 139 33 70 139 33 70 139 33 70 139 33 70 139 33 70 139 33 70 139 33 70 139 33 70 139 33 70 139 33 70 139 33 70 139 33 70 139 33 70 139 33 70 139 33 70 139 33 70 139 33 70 139 33 70 139 33 70 139 33 70 139 33 70 139 33 70 139 33 70 139 33 70 139 33 70 139 33 70 139 33 70 139 33 70 139 33 70 139 33 70 139 33 70 139 33 70 139 33 70 139 33 70 139 33 70 139 33 70 139 33 70 139 33 70 139 33 70 139 33 70 139 33 70 139 33 70 139 33 70 139 33 70 139 33 70 139 33 70 139 33 70 139 33 70 139 33 70 139 33 70 139 33 70 139 33 70 139 33 70 139 33 70 139 33 70 139 33 70 139 33 70 139 33 70 139 33 70 139 33 70 139 33 70 139 33 70 139 33 70 139 33 70 139 33 70 139 33 70 139 33 70 139 33 70 139 33 70 139 33 70 139 33 70 139 33 70 139 33 70 139 33 70 139 33 70 139 33 70 139 33 70 139 33 70 139 33 70 139 33 70 139 33 70 139 33 70 139 33 70 139 33 70 139 33 70 139 33 70 139 33 70 139 33 70 139 33 70 139 33 70 139 33 70 139 33 70 139 33 70 139 33 70 139 33 70 139 33 70 139 33 70 139 33 70 139 33 70 139 33 70 139 33 70 139 33 70 139 33 70 139 33 70 139 33 70 139 33 70 139 33 70 139 33 70 139 33 70 139 33 70 139 33 70 139 33 70 139 33 70 139 33 70 139 33 70 139 33 70 139 33 70 139 33 70 139 33 70 139 33 70 139 33 70 139 33 70 139 33 70 139 33 70 139 33 70 139 33 70 139 33 70 139 33 70 139 33 70 139 33 70 139 33 70 139 33 70 139 33 70 139 33 70 139 33 70 139 33 70 139 33 70 139 33 70 139 33 70 139 33 70 139 33 70 139 33 70 139 33 70 139 33 70 139 33 70 139 33 70 139 33 70 139 33 70 139 33 70 139 33 70 139 33 70 139 33 70 139 33 70 139 33 70 139 33 70 139 33 70 139 33 70 139 33 70 139 33 70 139 33 70 139 33 70 139 33 70 139 33 70 139 33 70 139 33 70 139 33 70 139 33 70 139 33 70 139 33 70 139 33 70 139 33 70 139 
33 70 139 33 70 139 33 70 139 33 70 139 33 70 139 33 70 139 33 70 139 33 70 139 33 70 139 33 70 139 33 70 139 33 70 139 33 70 139 33 70 139 33 70 139 33 70 139 33 70 139 33 70 139 33 70 139 33 70 139 33 70 139 33 70 139 33 70 139 33 70 139 33 70 139 33 70 139 33 70 139 33 70 139 33 70 139 33 70 139 33 70 139 33 70 139 33 70 139 33 70 139 33 70 139 33 70 139 33 70 139 33 70 139 33 70 139 33 70 139 33 70 139 33 70 139 33 70 139 33 70 139 33 70 139 33 70 139 33 70 139 33 70 139 33 70 139 33 70 139 33 70 139 33 70 139 33 70 139 33 70 139 33 70 139 33 70 139 33 70 139 33 70 139 33 70 139 33 70 139 33 70 139 33 70 139 33 70 139 33 70 139 33 70 139 33 70 139 33 70 139 33 70 139 33 70 139 33 70 139 33 70 139 33 70 139 33 70 139 33 70 139 33 70 139 33 70 139 33 70 139 33 70 139 33 70 139 33 70 139 33 70 139 33 70 139 33 70 139 33 70 139 33 70 139 33 70 139 33 70 139 33 70 139 33 70 139 33 70 139 33 70 139 33 70 139 33 70 139 33 70 139 33 70 139 33 70 139 33 70 139 33 70 139 33 70 139 33 70 139 33 70 139 33 70 139 33 70 139 33 70 139 33 70 139 33 70 139 33 70 139 33 70 139 33 70 139 33 70 139 33 70 139 33 70 139 33 70 139 33 70 139 33 70 139 33 70 139 33 70 139 33 70 139 33 70 139 33 70 139 33 70 139 33 70 139 33 70 139 33 70 139 33 70 139 33 70 139 33 70 139 33 70 139 33 70 139 33 70 139 33 70 139 33 70 139 33 70 139 33 70 139 33 70 139 33 70 139 33 70 139 33 70 139 33 70 139 33 70 139 33 70 139 33 70 139 33 70 139 33 70 139 33 70 139 33 70 139 33 70 139 33 70 139 33 70 139 33 70 139 33 70 139 33 70 139 33 70 139 33 70 139 33 70 139 33 70 139 33 70 139 33 70 139 33 70 139 33 70 139 33 70 139 33 70 139 33 70 139 33 70 139 33 70 139 33 70 139 33 70 139 33 70 139 33 70 139 33 70 139 33 70 139 33 70 139 33 70 139 33 70 139 33 70 139 33 70 139 33 70 139 33 70 139 33 70 139 33 70 139 33 70 139 33 70 139 33 70 139 33 70 139 33 70 139 33 70 139 33 70 139 33 70 139 33 70 139 33 70 139 33 70 139 33 70 139 33 70 139 33 70 139 33 70 139 33 70 139 33 70 139 33 70 139 33 70 139 33 70 139 33 70 139 33 70 139 33 70 139 33 70 139 33 70 139 33 70 139 33 70 139 33 70 139 33 70 139 33 70 139 33 70 139 33 70 139 33 70 139 33 70 139 33 70 139 33 70 139 33 70 139 33 70 139 33 70 139 33 70 139 33 70 139 33 70 139 33 70 139 33 70 139 33 70 139 33 70 139 33 70 139 33 70 139 33 70 139 33 70 139 33 70 139 33 70 139 33 70 139 33 70 139 33 70 139 33 70 139 33 70 139 33 70 139 33 70 139 33 70 139 33 70 139 33 70 139 33 70 139 33 70 139 33 70 139 33 70 139 33 70 139 33 70 139 33 70 139 33 70 139 33 70 139 33 70 139 33 70 139 33 70 139 33 70 139 33 70 139 33 70 139 33 70 139 33 70 139 33 70 139 33 70 139 33 70 139 33 70 139 33 70 139 33 70 139 33 70 139 33 70 139 33 70 139 33 70 139 33 70 139 33 70 139 33 70 139 33 70 139 33 70 139 33 70 139 33 70 139 33 70 139 33 70 139 33 70 139 33 70 139 33 70 139 33 70 139 33 70 139 33 70 139 33 70 139 33 70 139 33 70 139 33 70 139 33 70 139 33 70 139 33 70 139 33 70 139 33 70 139 33 70 139 33 70 139 33 70 139 33 70 139 33 70 139 33 70 139 33 70 139 
33 70 139 33 70 139 33 70 139 33 70 139 33 70 139 33 70 139 33 70 139 33 70 139 33 70 139 33 70 139 33 70 139 33 70 139 33 70 139 33 70 139 33 70 139 33 70 139 33 70 139 33 70 139 33 70 139 33 70 139 33 70 139 33 70 139 33 70 139 33 70 139 33 70 139 33 70 139 33 70 139 33 70 139 33 70 139 33 70 139 33 70 139 33 70 139 33 70 139 33 70 139 33 70 139 33 70 139 33 70 139 33 70 139 33 70 139 33 70 139 33 70 139 33 70 139 33 70 139 33 70 139 33 70 139 33 70 139 33 70 139 33 70 139 33 70 139 33 70 139 33 70 139 33 70 139 33 70 139 33 70 139 33 70 139 33 70 139 33 70 139 33 70 139 33 70 139 33 70 139 33 70 139 33 70 139 33 70 139 33 70 139 33 70 139 33 70 139 33 70 139 33 70 139 33 70 139 33 70 139 33 70 139 33 70 139 33 70 139 33 70 139 33 70 139 33 70 139 33 70 139 33 70 139 33 70 139 33 70 139 33 70 139 33 70 139 33 70 139 33 70 139 33 70 139 33 70 139 33 70 139 33 70 139 33 70 139 33 70 139 33 70 139 33 70 139 33 70 139 33 70 139 33 70 139 33 70 139 33 70 139 33 70 139 33 70 139 33 70 139 33 70 139 33 70 139 33 70 139 33 70 139 33 70 139 33 70 139 33 70 139 33 70 139 33 70 139 33 70 139 33 70 139 33 70 139 33 70 139 33 70 139 33 70 139 33 70 139 33 70 139 33 70 139 33 70 139 33 70 139 33 70 139 33 70 139 33 70 139 33 70 139 33 70 139 33 70 139 33 70 139 33 70 139 33 70 139 33 70 139 33 70 139 33 70 139 33 70 139 33 70 139 33 70 139 33 70 139 33 70 139 33 70 139 33 70 139 33 70 139 33 70 139 33 70 139 33 70 139 33 70 139 33 70 139 33 70 139 33 70 139 33 70 139 33 70 139 33 70 139 33 70 139 33 70 139 33 70 139 33 70 139 33 70 139 33 70 139 33 70 139 33 70 139 33 70 139 33 70 139 33 70 139 33 70 139 33 70 139 33 70 139 33 70 139 33 70 139 33 70 139 33 70 139 33 70 139 33 70 139 33 70 139 33 70 139 33 70 139 33 70 139 33 70 139 33 70 139 33 70 139 33 70 139 33 70 139 33 70 139 33 70 139 33 70 139 33 70 139 33 70 139 33 70 139 33 70 139 33 70 139 33 70 139 33 70 139 33 70 139 33 70 139 33 70 139 33 70 139 33 70 139 33 70 139 33 70 139 33 70 139 33 70 139 33 70 139 33 70 139 33 70 139 33 70 139 33 70 139 33 70 139 33 70 139 33 70 139 33 70 139 33 70 139 33 70 139 33 70 139 33 70 139 33 70 139 33 70 139 33 70 139 33 70 139 33 70 139 33 70 139 33 70 139 33 70 139 33 70 139 33 70 139 33 70 139 33 70 139 33 70 139 33 70 139 33 70 139 33 70 139 33 70 139 33 70 139 33 70 139 33 70 139 33 70 139 33 70 139 33 70 139 33 70 139 33 70 139 33 70 139 33 70 139 33 70 139 33 70 139 33 70 139 33 70 139 33 70 139 33 70 139 33 70 139 33 70 139 33 70 139 33 70 139 33 70 139 33 70 139 33 70 139 33 70 139 33 70 139 33 70 139 33 70 139 33 70 139 33 70 139 33 70 139 33 70 139 33 70 139 33 70 139 33 70 139 33 70 139 33 70 139 33 70 139 33 70 139 33 70 139 33 70 139 33 70 139 33 70 139 33 70 139 33 70 139 33 70 139 33 70 139 33 70 139 33 70 139 33 70 139 33 70 139 33 70 139 33 70 139 33 70 139 33 70 139 33 70 139 33 70 139 33 70 139 33 70 139 33 70 139 33 70 139 33 70 139 33 70 139 33 70 139 33 70 139 33 70 139 33 70 139 33 70 139 33 70 139 33 70 139 33 70 139 33 70 139 33 70 139 
33 70 139 33 70 139 33 70 139 33 70 139 33 70 139 33 70 139 33 70 139 33 70 139 33 70 139 33 70 139 33 70 139 33 70 139 33 70 139 33 70 139 33 70 139 33 70 139 33 70 139 33 70 139 33 70 139 33 70 139 33 70 139 33 70 139 33 70 139 33 70 139 33 70 139 33 70 139 33 70 139 33 70 139 33 70 139 33 70 139 33 70 139 33 70 139 33 70 139 33 70 139 33 70 139 33 70 139 33 70 139 33 70 139 33 70 139 33 70 139 33 70 139 33 70 139 33 70 139 33 70 139 33 70 139 33 70 139 33 70 139 33 70 139 33 70 139 33 70 139 33 70 139 33 70 139 33 70 139 33 70 139 33 70 139 33 70 139 33 70 139 33 70 139 33 70 139 33 70 139 33 70 139 33 70 139 33 70 139 33 70 139 33 70 139 33 70 139 33 70 139 33 70 139 33 70 139 33 70 139 33 70 139 33 70 139 33 70 139 33 70 139 33 70 139 33 70 139 33 70 139 33 70 139 33 70 139 33 70 139 33 70 139 33 70 139 33 70 139 33 70 139 33 70 139 33 70 139 33 70 139 33 70 139 33 70 139 33 70 139 33 70 139 33 70 139 33 70 139 33 70 139 33 70 139 33 70 139 33 70 139 33 70 139 33 70 139 33 70 139 33 70 139 33 70 139 33 70 139 33 70 139 33 70 139 33 70 139 33 70 139 33 70 139 33 70 139 33 70 139 33 70 139 33 70 139 33 70 139 33 70 139 33 70 139 33 70 139 33 70 139 33 70 139 33 70 139 33 70 139 33 70 139 33 70 139 33 70 139 33 70 139 33 70 139 33 70 139 33 70 139 33 70 139 33 70 139 33 70 139 33 70 139 33 70 139 33 70 139 33 70 139 33 70 139 33 70 139 33 70 139 33 70 139 33 70 139 33 70 139 33 70 139 33 70 139 33 70 139 33 70 139 33 70 139 33 70 139 33 70 139 33 70 139 33 70 139 33 70 139 33 70 139 33 70 139 33 70 139 33 70 139 33 70 139 33 70 139 33 70 139 33 70 139 33 70 139 33 70 139 33 70 139 33 70 139 33 70 139 33 70 139 33 70 139 33 70 139 33 70 139 33 70 139 33 70 139 33 70 139 33 70 139 33 70 139 33 70 139 33 70 139 33 70 139 33 70 139 33 70 139 33 70 139 33 70 139 33 70 139 33 70 139 33 70 139 33 70 139 33 70 139 33 70 139 33 70 139 33 70 139 33 70 139 33 70 139 33 70 139 33 70 139 33 70 139 33 70 139 33 70 139 33 70 139 33 70 139 33 70 139 33 70 139 33 70 139 33 70 139 33 70 139 33 70 139 33 70 139 33 70 139 33 70 139 33 70 139 33 70 139 33 70 139 33 70 139 33 70 139 33 70 139 33 70 139 33 70 139 33 70 139 33 70 139 33 70 139 33 70 139 33 70 139 33 70 139 33 70 139 33 70 139 33 70 139 33 70 139 33 70 139 33 70 139 33 70 139 33 70 139 33 70 139 33 70 139 33 70 139 33 70 139 33 70 139 33 70 139 33 70 139 33 70 139 33 70 139 33 70 139 33 70 139 33 70 139 33 70 139 33 70 139 33 70 139 33 70 139 33 70 139 33 70 139 33 70 139 33 70 139 33 70 139 33 70 139 33 70 139 33 70 139 33 70 139 33 70 139 33 70 139 33 70 139 33 70 139 33 70 139 33 70 139 33 70 139 33 70 139 33 70 139 33 70 139 33 70 139 33 70 139 33 70 139 33 70 139 33 70 139 33 70 139 33 70 139 33 70 139 33 70 139 33 70 139 33 70 139 33 70 139 33 70 139 33 70 139 33 70 139 33 70 139 33 70 139 33 70 139 33 70 139 33 70 139 33 70 139 33 70 139 33 70 139 33 70 139 33 70 139 33 70 139 33 70 139 33 70 139 33 70 139 33 70 139 33 70 139 33 70 139 33 70 139 33 70 139 33 70 139 33 70 139 33 70 139 33 70 139 
33 70 139 33 70 139 33 70 139 33 70 139 33 70 139 33 70 139 33 70 139 33 70 139 33 70 139 33 70 139 33 70 139 33 70 139 33 70 139 33 70 139 33 70 139 33 70 139 33 70 139 33 70 139 33 70 139 33 70 139 33 70 139 33 70 139 33 70 139 33 70 139 33 70 139 33 70 139 33 70 139 33 70 139 33 70 139 33 70 139 33 70 139 33 70 139 33 70 139 33 70 139 33 70 139 33 70 139 33 70 139 33 70 139 33 70 139 33 70 139 33 70 139 33 70 139 33 70 139 33 70 139 33 70 139 33 70 139 33 70 139 33 70 139 33 70 139 33 70 139 33 70 139 33 70 139 33 70 139 33 70 139 33 70 139 33 70 139 33 70 139 33 70 139 33 70 139 33 70 139 33 70 139 33 70 139 33 70 139 33 70 139 33 70 139 33 70 139 33 70 139 33 70 139 33 70 139 33 70 139 33 70 139 33 70 139 33 70 139 33 70 139 33 70 139 33 70 139 33 70 139 33 70 139 33 70 139 33 70 139 33 70 139 33 70 139 33 70 139 33 70 139 33 70 139 33 70 139 33 70 139 33 70 139 33 70 139 33 70 139 33 70 139 33 70 139 33 70 139 33 70 139 33 70 139 33 70 139 33 70 139 33 70 139 33 70 139 33 70 139 33 70 139 33 70 139 33 70 139 33 70 139 33 70 139 33 70 139 33 70 139 33 70 139 33 70 139 33 70 139 33 70 139 33 70 139 33 70 139 33 70 139 33 70 139 33 70 139 33 70 139 33 70 139 33 70 139 33 70 139 33 70 139 33 70 139 33 70 139 33 70 139 33 70 139 33 70 139 33 70 139 33 70 139 33 70 139 33 70 139 33 70 139 33 70 139 33 70 139 33 70 139 33 70 139 33 70 139 33 70 139 33 70 139 33 70 139 33 70 139 33 70 139 33 70 139 33 70 139 33 70 139 33 70 139 33 70 139 33 70 139 33 70 139 33 70 139 33 70 139 33 70 139 33 70 139 33 70 139 33 70 139 33 70 139 33 70 139 33 70 139 33 70 139 33 70 139 33 70 139 33 70 139 33 70 139 33 70 139 33 70 139 33 70 139 33 70 139 33 70 139 33 70 139 33 70 139 33 70 139 33 70 139 33 70 139 33 70 139 33 70 139 33 70 139 33 70 139 33 70 139 33 70 139 33 70 139 33 70 139 33 70 139 33 70 139 33 70 139 33 70 139 33 70 139 33 70 139 33 70 139 33 70 139 33 70 139 33 70 139 33 70 139 33 70 139 33 70 139 33 70 139 33 70 139 33 70 139 33 70 139 33 70 139 33 70 139 33 70 139 33 70 139 33 70 139 33 70 139 33 70 139 33 70 139 33 70 139 33 70 139 33 70 139 33 70 139 33 70 139 33 70 139 33 70 139 33 70 139 33 70 139 33 70 139 33 70 139 33 70 139 33 70 139 33 70 139 33 70 139 33 70 139 33 70 139 33 70 139 33 70 139 33 70 139 33 70 139 33 70 139 33 70 139 33 70 139 33 70 139 33 70 139 33 70 139 33 70 139 33 70 139 33 70 139 33 70 139 33 70 139 33 70 139 33 70 139 33 70 139 33 70 139 33 70 139 33 70 139 33 70 139 33 70 139 33 70 139 33 70 139 33 70 139 33 70 139 33 70 139 33 70 139 33 70 139 33 70 139 33 70 139 33 70 139 33 70 139 33 70 139 33 70 139 33 70 139 33 70 139 33 70 139 33 70 139 33 70 139 33 70 139 33 70 139 33 70 139 33 70 139 33 70 139 33 70 139 33 70 139 33 70 139 33 70 139 33 70 139 33 70 139 33 70 139 33 70 139 33 70 139 33 70 139 33 70 139 33 70 139 33 70 139 33 70 139 33 70 139 33 70 139 33 70 139 33 70 139 33 70 139 33 70 139 33 70 139 33 70 139 33 70 139 33 70 139 33 70 139 33 70 139 33 70 139 33 70 139 33 70 139 33 70 139 33 70 139 33 70 139 
33 70 139 33 70 139 33 70 139 33 70 139 33 70 139 33 70 139 33 70 139 33 70 139 33 70 139 33 70 139 33 70 139 33 70 139 33 70 139 33 70 139 33 70 139 33 70 139 33 70 139 33 70 139 33 70 139 33 70 139 33 70 139 33 70 139 33 70 139 33 70 139 33 70 139 33 70 139 33 70 139 33 70 139 33 70 139 33 70 139 33 70 139 33 70 139 33 70 139 33 70 139 33 70 139 33 70 139 33 70 139 33 70 139 33 70 139 33 70 139 33 70 139 33 70 139 33 70 139 33 70 139 33 70 139 33 70 139 33 70 139 33 70 139 33 70 139 33 70 139 33 70 139 33 70 139 33 70 139 33 70 139 33 70 139 33 70 139 33 70 139 33 70 139 33 70 139 33 70 139 33 70 139 33 70 139 33 70 139 33 70 139 33 70 139 33 70 139 33 70 139 33 70 139 33 70 139 33 70 139 33 70 139 33 70 139 33 70 139 33 70 139 33 70 139 33 70 139 33 70 139 33 70 139 33 70 139 33 70 139 33 70 139 33 70 139 33 70 139 33 70 139 33 70 139 33 70 139 33 70 139 33 70 139 33 70 139 33 70 139 33 70 139 33 70 139 33 70 139 33 70 139 33 70 139 33 70 139 33 70 139 33 70 139 33 70 139 33 70 139 33 70 139 33 70 139 33 70 139 33 70 139 33 70 139 33 70 139 33 70 139 33 70 139 33 70 139 33 70 139 33 70 139 33 70 139 33 70 139 33 70 139 33 70 139 33 70 139 33 70 139 33 70 139 33 70 139 33 70 139 33 70 139 33 70 139 33 70 139 33 70 139 33 70 139 33 70 139 33 70 139 33 70 139 33 70 139 33 70 139 33 70 139 33 70 139 33 70 139 33 70 139 33 70 139 33 70 139 33 70 139 33 70 139 33 70 139 33 70 139 33 70 139 33 70 139 33 70 139 33 70 139 33 70 139 33 70 139 33 70 139 33 70 139 33 70 139 33 70 139 33 70 139 33 70 139 33 70 139 33 70 139 33 70 139 33 70 139 33 70 139 33 70 139 33 70 139 33 70 139 33 70 139 33 70 139 33 70 139 33 70 139 33 70 139 33 70 139 33 70 139 33 70 139 33 70 139 33 70 139 33 70 139 33 70 139 33 70 139 33 70 139 33 70 139 33 70 139 33 70 139 33 70 139 33 70 139 33 70 139 33 70 139 33 70 139 33 70 139 33 70 139 33 70 139 33 70 139 33 70 139 33 70 139 33 70 139 33 70 139 33 70 139 33 70 139 33 70 139 33 70 139 33 70 139 33 70 139 33 70 139 33 70 139 33 70 139 33 70 139 33 70 139 33 70 139 33 70 139 33 70 139 33 70 139 33 70 139 33 70 139 33 70 139 33 70 139 33 70 139 33 70 139 33 70 139 33 70 139 33 70 139 33 70 139 33 70 139 33 70 139 33 70 139 33 70 139 33 70 139 33 70 139 33 70 139 33 70 139 33 70 139 33 70 139 33 70 139 33 70 139 33 70 139 33 70 139 33 70 139 33 70 139 33 70 139 33 70 139 33 70 139 33 70 139 33 70 139 33 70 139 33 70 139 33 70 139 33 70 139 33 70 139 33 70 139 33 70 139 33 70 139 33 70 139 33 70 139 33 70 139 33 70 139 33 70 139 33 70 139 33 70 139 33 70 139 33 70 139 33 70 139 33 70 139 33 70 139 33 70 139 33 70 139 33 70 139 33 70 139 33 70 139 33 70 139 33 70 139 33 70 139 33 70 139 33 70 139 33 70 139 33 70 139 33 70 139 33 70 139 33 70 139 33 70 139 33 70 139 33 70 139 33 70 139 33 70 139 33 70 139 33 70 139 33 70 139 33 70 139 33 70 139 33 70 139 33 70 139 33 70 139 33 70 139 33 70 139 33 70 139 33 70 139 33 70 139 33 70 139 33 70 139 33 70 139 33 70 139 33 70 139 33 70 139 33 70 139 33 70 139 33 70 139 33 70 139 33 70 139 
33 70 139 33 70 139 33 70 139 33 70 139 33 70 139 33 70 139 33 70 139 33 70 139 33 70 139 33 70 139 33 70 139 33 70 139 33 70 139 33 70 139 33 70 139 33 70 139 33 70 139 33 70 139 33 70 139 33 70 139 33 70 139 33 70 139 33 70 139 33 70 139 33 70 139 33 70 139 33 70 139 33 70 139 33 70 139 33 70 139 33 70 139 33 70 139 33 70 139 33 70 139 33 70 139 33 70 139 33 70 139 33 70 139 33 70 139 33 70 139 33 70 139 33 70 139 33 70 139 33 70 139 33 70 139 33 70 139 33 70 139 33 70 139 33 70 139 33 70 139 33 70 139 33 70 139 33 70 139 33 70 139 33 70 139 33 70 139 33 70 139 33 70 139 33 70 139 33 70 139 33 70 139 33 70 139 33 70 139 33 70 139 33 70 139 33 70 139 33 70 139 33 70 139 33 70 139 33 70 139 33 70 139 33 70 139 33 70 139 33 70 139 33 70 139 33 70 139 33 70 139 33 70 139 33 70 139 33 70 139 33 70 139 33 70 139 33 70 139 33 70 139 33 70 139 33 70 139 33 70 139 33 70 139 33 70 139 33 70 139 33 70 139 33 70 139 33 70 139 33 70 139 33 70 139 33 70 139 33 70 139 33 70 139 33 70 139 33 70 139 33 70 139 33 70 139 33 70 139 33 70 139 33 70 139 33 70 139 33 70 139 33 70 139 33 70 139 33 70 139 33 70 139 33 70 139 33 70 139 33 70 139 33 70 139 33 70 139 33 70 139 33 70 139 33 70 139 33 70 139 33 70 139 33 70 139 33 70 139 33 70 139 33 70 139 33 70 139 33 70 139 33 70 139 33 70 139 33 70 139 33 70 139 33 70 139 33 70 139 33 70 139 33 70 139 33 70 139 33 70 139 33 70 139 33 70 139 33 70 139 33 70 139 33 70 139 33 70 139 33 70 139 33 70 139 33 70 139 33 70 139 33 70 139 33 70 139 33 70 139 33 70 139 33 70 139 33 70 139 33 70 139 33 70 139 33 70 139 33 70 139 33 70 139 33 70 139 33 70 139 33 70 139 33 70 139 33 70 139 33 70 139 33 70 139 33 70 139 33 70 139 33 70 139 33 70 139 33 70 139 33 70 139 33 70 139 33 70 139 33 70 139 33 70 139 33 70 139 33 70 139 33 70 139 33 70 139 33 70 139 33 70 139 33 70 139 33 70 139 33 70 139 33 70 139 33 70 139 33 70 139 33 70 139 33 70 139 33 70 139 33 70 139 33 70 139 33 70 139 33 70 139 33 70 139 33 70 139 33 70 139 33 70 139 33 70 139 33 70 139 33 70 139 33 70 139 33 70 139 33 70 139 33 70 139 33 70 139 33 70 139 33 70 139 33 70 139 33 70 139 33 70 139 33 70 139 33 70 139 33 70 139 33 70 139 33 70 139 33 70 139 33 70 139 33 70 139 33 70 139 33 70 139 33 70 139 33 70 139 33 70 139 33 70 139 33 70 139 33 70 139 33 70 139 33 70 139 33 70 139 33 70 139 33 70 139 33 70 139 33 70 139 33 70 139 33 70 139 33 70 139 33 70 139 33 70 139 33 70 139 33 70 139 33 70 139 33 70 139 33 70 139 33 70 139 33 70 139 33 70 139 33 70 139 33 70 139 33 70 139 33 70 139 33 70 139 33 70 139 33 70 139 33 70 139 33 70 139 33 70 139 33 70 139 33 70 139 33 70 139 33 70 139 33 70 139 33 70 139 33 70 139 33 70 139 33 70 139 33 70 139 33 70 139 33 70 139 33 70 139 33 70 139 33 70 139 33 70 139 33 70 139 33 70 139 33 70 139 33 70 139 33 70 139 33 70 139 33 70 139 33 70 139 33 70 139 33 70 139 33 70 139 33 70 139 33 70 139 33 70 139 33 70 139 33 70 139 33 70 139 33 70 139 33 70 139 33 70 139 33 70 139 33 70 139 33 70 139 33 70 139 33 70 139 33 70 139 33 70 139 
33 70 139 33 70 139 33 70 139 33 70 139 33 70 139 33 70 139 33 70 139 33 70 139 33 70 139 33 70 139 33 70 139 33 70 139 33 70 139 33 70 139 33 70 139 33 70 139 33 70 139 33 70 139 33 70 139 33 70 139 33 70 139 33 70 139 33 70 139 33 70 139 33 70 139 33 70 139 33 70 139 33 70 139 33 70 139 33 70 139 33 70 139 33 70 139 33 70 139 33 70 139 33 70 139 33 70 139 33 70 139 33 70 139 33 70 139 33 70 139 33 70 139 33 70 139 33 70 139 33 70 139 33 70 139 33 70 139 33 70 139 33 70 139 33 70 139 33 70 139 33 70 139 33 70 139 33 70 139 33 70 139 33 70 139 33 70 139 33 70 139 33 70 139 33 70 139 33 70 139 33 70 139 33 70 139 33 70 139 33 70 139 33 70 139 33 70 139 33 70 139 33 70 139 33 70 139 33 70 139 33 70 139 33 70 139 33 70 139 33 70 139 33 70 139 33 70 139 33 70 139 33 70 139 33 70 139 33 70 139 33 70 139 33 70 139 33 70 139 33 70 139 33 70 139 33 70 139 33 70 139 33 70 139 33 70 139 33 70 139 33 70 139 33 70 139 33 70 139 33 70 139 33 70 139 33 70 139 33 70 139 33 70 139 33 70 139 33 70 139 33 70 139 33 70 139 33 70 139 33 70 139 33 70 139 33 70 139 33 70 139 33 70 139 33 70 139 33 70 139 33 70 139 33 70 139 33 70 139 33 70 139 33 70 139 33 70 139 33 70 139 33 70 139 33 70 139 33 70 139 33 70 139 33 70 139 33 70 139 33 70 139 33 70 139 33 70 139 33 70 139 33 70 139 33 70 139 33 70 139 33 70 139 33 70 139 33 70 139 33 70 139 33 70 139 33 70 139 33 70 139 33 70 139 33 70 139 33 70 139 33 70 139 33 70 139 33 70 139 33 70 139 33 70 139 33 70 139 33 70 139 33 70 139 33 70 139 33 70 139 33 70 139 33 70 139 33 70 139 33 70 139 33 70 139 33 70 139 33 70 139 33 70 139 33 70 139 33 70 139 33 70 139 33 70 139 33 70 139 33 70 139 33 70 139 33 70 139 33 70 139 33 70 139 33 70 139 33 70 139 33 70 139 33 70 139 33 70 139 33 70 139 33 70 139 33 70 139 33 70 139 33 70 139 33 70 139 33 70 139 33 70 139 33 70 139 33 70 139 33 70 139 33 70 139 33 70 139 33 70 139 33 70 139 33 70 139 33 70 139 33 70 139 33 70 139 33 70 139 33 70 139 33 70 139 33 70 139 33 70 139 33 70 139 33 70 139 33 70 139 33 70 139 33 70 139 33 70 139 33 70 139 33 70 139 33 70 139 33 70 139 33 70 139 33 70 139 33 70 139 33 70 139 33 70 139 33 70 139 33 70 139 33 70 139 33 70 139 33 70 139 33 70 139 33 70 139 33 70 139 33 70 139 33 70 139 33 70 139 33 70 139 33 70 139 33 70 139 33 70 139 33 70 139 33 70 139 33 70 139 33 70 139 33 70 139 33 70 139 33 70 139 33 70 139 33 70 139 33 70 139 33 70 139 33 70 139 33 70 139 33 70 139 33 70 139 33 70 139 33 70 139 33 70 139 33 70 139 33 70 139 33 70 139 33 70 139 33 70 139 33 70 139 33 70 139 33 70 139 33 70 139 33 70 139 33 70 139 33 70 139 33 70 139 33 70 139 33 70 139 33 70 139 33 70 139 33 70 139 33 70 139 33 70 139 33 70 139 33 70 139 33 70 139 33 70 139 33 70 139 33 70 139 33 70 139 33 70 139 33 70 139 33 70 139 33 70 139 33 70 139 33 70 139 33 70 139 33 70 139 33 70 139 33 70 139 33 70 139 33 70 139 33 70 139 33 70 139 33 70 139 33 70 139 33 70 139 33 70 139 33 70 139 33 70 139 33 70 139 33 70 139 33 70 139 33 70 139 33 70 139 33 70 139 33 70 139 33 70 139 
33 70 139 33 70 139 33 70 139 33 70 139 33 70 139 33 70 139 33 70 139 33 70 139 33 70 139 33 70 139 33 70 139 33 70 139 33 70 139 33 70 139 33 70 139 33 70 139 33 70 139 33 70 139 33 70 139 33 70 139 33 70 139 33 70 139 33 70 139 33 70 139 33 70 139 33 70 139 33 70 139 33 70 139 33 70 139 33 70 139 33 70 139 33 70 139 33 70 139 33 70 139 33 70 139 33 70 139 33 70 139 33 70 139 33 70 139 33 70 139 33 70 139 33 70 139 33 70 139 33 70 139 33 70 139 33 70 139 33 70 139 33 70 139 33 70 139 33 70 139 33 70 139 33 70 139 33 70 139 33 70 139 33 70 139 33 70 139 33 70 139 33 70 139 33 70 139 33 70 139 33 70 139 33 70 139 33 70 139 33 70 139 33 70 139 33 70 139 33 70 139 33 70 139 33 70 139 33 70 139 33 70 139 33 70 139 33 70 139 33 70 139 33 70 139 33 70 139 33 70 139 33 70 139 33 70 139 33 70 139 33 70 139 33 70 139 33 70 139 33 70 139 33 70 139 33 70 139 33 70 139 33 70 139 33 70 139 33 70 139 33 70 139 33 70 139 33 70 139 33 70 139 33 70 139 33 70 139 33 70 139 33 70 139 33 70 139 33 70 139 33 70 139 33 70 139 33 70 139 33 70 139 33 70 139 33 70 139 33 70 139 33 70 139 33 70 139 33 70 139 33 70 139 33 70 139 33 70 139 33 70 139 33 70 139 33 70 139 33 70 139 33 70 139 33 70 139 33 70 139 33 70 139 33 70 139 33 70 139 33 70 139 33 70 139 33 70 139 33 70 139 33 70 139 33 70 139 33 70 139 33 70 139 33 70 139 33 70 139 33 70 139 33 70 139 33 70 139 33 70 139 33 70 139 33 70 139 33 70 139 33 70 139 33 70 139 33 70 139 33 70 139 33 70 139 33 70 139 33 70 139 33 70 139 33 70 139 33 70 139 33 70 139 33 70 139 33 70 139 33 70 139 33 70 139 33 70 139 33 70 139 33 70 139 33 70 139 33 70 139 33 70 139 33 70 139 33 70 139 33 70 139 33 70 139 33 70 139 33 70 139 33 70 139 33 70 139 33 70 139 33 70 139 33 70 139 33 70 139 33 70 139 33 70 139 33 70 139 33 70 139 33 70 139 33 70 139 33 70 139 33 70 139 33 70 139 33 70 139 33 70 139 33 70 139 33 70 139 33 70 139 33 70 139 33 70 139 33 70 139 33 70 139 33 70 139 33 70 139 33 70 139 33 70 139 33 70 139 33 70 139 33 70 139 33 70 139 33 70 139 33 70 139 33 70 139 33 70 139 33 70 139 33 70 139 33 70 139 33 70 139 33 70 139 33 70 139 33 70 139 33 70 139 33 70 139 33 70 139 33 70 139 33 70 139 33 70 139 33 70 139 33 70 139 33 70 139 33 70 139 33 70 139 33 70 139 33 70 139 33 70 139 33 70 139 33 70 139 33 70 139 33 70 139 33 70 139 33 70 139 33 70 139 33 70 139 33 70 139 33 70 139 33 70 139 33 70 139 33 70 139 33 70 139 33 70 139 33 70 139 33 70 139 33 70 139 33 70 139 33 70 139 33 70 139 33 70 139 33 70 139 33 70 139 33 70 139 33 70 139 33 70 139 33 70 139 33 70 139 33 70 139 33 70 139 33 70 139 33 70 139 33 70 139 33 70 139 33 70 139 33 70 139 33 70 139 33 70 139 33 70 139 33 70 139 33 70 139 33 70 139 33 70 139 33 70 139 33 70 139 33 70 139 33 70 139 33 70 139 33 70 139 33 70 139 33 70 139 33 70 139 33 70 139 33 70 139 33 70 139 33 70 139 33 70 139 33 70 139 33 70 139 33 70 139 33 70 139 33 70 139 33 70 139 33 70 139 33 70 139 33 70 139 33 70 139 33 70 139 33 70 139 33 70 139 33 70 139 33 70 139 33 70 139 33 70 139 33 70 139 
33 70 139 33 70 139 33 70 139 33 70 139 33 70 139 33 70 139 33 70 139 33 70 139 33 70 139 33 70 139 33 70 139 33 70 139 33 70 139 33 70 139 33 70 139 33 70 139 33 70 139 33 70 139 33 70 139 33 70 139 33 70 139 33 70 139 33 70 139 33 70 139 33 70 139 33 70 139 33 70 139 33 70 139 33 70 139 33 70 139 33 70 139 33 70 139 33 70 139 33 70 139 33 70 139 33 70 139 33 70 139 33 70 139 33 70 139 33 70 139 33 70 139 33 70 139 33 70 139 33 70 139 33 70 139 33 70 139 33 70 139 33 70 139 33 70 139 33 70 139 33 70 139 33 70 139 33 70 139 33 70 139 33 70 139 33 70 139 33 70 139 33 70 139 33 70 139 33 70 139 33 70 139 33 70 139 33 70 139 33 70 139 33 70 139 33 70 139 33 70 139 33 70 139 33 70 139 33 70 139 33 70 139 33 70 139 33 70 139 33 70 139 33 70 139 33 70 139 33 70 139 33 70 139 33 70 139 33 70 139 33 70 139 33 70 139 33 70 139 33 70 139 33 70 139 33 70 139 33 70 139 33 70 139 33 70 139 33 70 139 33 70 139 33 70 139 33 70 139 33 70 139 33 70 139 33 70 139 33 70 139 33 70 139 33 70 139 33 70 139 33 70 139 33 70 139 33 70 139 33 70 139 33 70 139 33 70 139 33 70 139 33 70 139 33 70 139 33 70 139 33 70 139 33 70 139 33 70 139 33 70 139 33 70 139 33 70 139 33 70 139 33 70 139 33 70 139 33 70 139 33 70 139 33 70 139 33 70 139 33 70 139 33 70 139 33 70 139 33 70 139 33 70 139 33 70 139 33 70 139 33 70 139 33 70 139 33 70 139 33 70 139 33 70 139 33 70 139 33 70 139 33 70 139 33 70 139 33 70 139 33 70 139 33 70 139 33 70 139 33 70 139 33 70 139 33 70 139 33 70 139 33 70 139 33 70 139 33 70 139 33 70 139 33 70 139 33 70 139 33 70 139 33 70 139 33 70 139 33 70 139 33 70 139 33 70 139 33 70 139 33 70 139 33 70 139 33 70 139 33 70 139 33 70 139 33 70 139 33 70 139 33 70 139 33 70 139 33 70 139 33 70 139 33 70 139 33 70 139 33 70 139 33 70 139 33 70 139 33 70 139 33 70 139 33 70 139 33 70 139 33 70 139 33 70 139 33 70 139 33 70 139 33 70 139 33 70 139 33 70 139 33 70 139 33 70 139 33 70 139 33 70 139 33 70 139 33 70 139 33 70 139 33 70 139 33 70 139 33 70 139 33 70 139 33 70 139 33 70 139 33 70 139 33 70 139 33 70 139 33 70 139 33 70 139 33 70 139 33 70 139 33 70 139 33 70 139 33 70 139 33 70 139 33 70 139 33 70 139 33 70 139 33 70 139 33 70 139 33 70 139 33 70 139 33 70 139 33 70 139 33 70 139 33 70 139 33 70 139 33 70 139 33 70 139 33 70 139 33 70 139 33 70 139 33 70 139 33 70 139 33 70 139 33 70 139 33 70 139 33 70 139 33 70 139 33 70 139 33 70 139 33 70 139 33 70 139 33 70 139 33 70 139 33 70 139 33 70 139 33 70 139 33 70 139 33 70 139 33 70 139 33 70 139 33 70 139 33 70 139 33 70 139 33 70 139 33 70 139 33 70 139 33 70 139 33 70 139 33 70 139 33 70 139 33 70 139 33 70 139 33 70 139 33 70 139 33 70 139 33 70 139 33 70 139 33 70 139 33 70 139 33 70 139 33 70 139 33 70 139 33 70 139 33 70 139 33 70 139 33 70 139 33 70 139 33 70 139 33 70 139 33 70 139 33 70 139 33 70 139 33 70 139 33 70 139 33 70 139 33 70 139 33 70 139 33 70 139 33 70 139 33 70 139 33 70 139 33 70 139 33 70 139 33 70 139 33 70 139 33 70 139 33 70 139 33 70 139 33 70 139 33 70 139 33 70 139 33 70 139 
33 70 139 33 70 139 33 70 139 33 70 139 33 70 139 33 70 139 33 70 139 33 70 139 33 70 139 33 70 139 33 70 139 33 70 139 33 70 139 33 70 139 33 70 139 33 70 139 33 70 139 33 70 139 33 70 139 33 70 139 33 70 139 33 70 139 33 70 139 33 70 139 33 70 139 33 70 139 33 70 139 33 70 139 33 70 139 33 70 139 33 70 139 33 70 139 33 70 139 33 70 139 33 70 139 33 70 139 33 70 139 33 70 139 33 70 139 33 70 139 33 70 139 33 70 139 33 70 139 33 70 139 33 70 139 33 70 139 33 70 139 33 70 139 33 70 139 33 70 139 33 70 139 33 70 139 33 70 139 33 70 139 33 70 139 33 70 139 33 70 139 33 70 139 33 70 139 33 70 139 33 70 139 33 70 139 33 70 139 33 70 139 33 70 139 33 70 139 33 70 139 33 70 139 33 70 139 33 70 139 33 70 139 33 70 139 33 70 139 33 70 139 33 70 139 33 70 139 33 70 139 33 70 139 33 70 139 33 70 139 33 70 139 33 70 139 33 70 139 33 70 139 33 70 139 33 70 139 33 70 139 33 70 139 33 70 139 33 70 139 33 70 139 33 70 139 33 70 139 33 70 139 33 70 139 33 70 139 33 70 139 33 70 139 33 70 139 33 70 139 33 70 139 33 70 139 33 70 139 33 70 139 33 70 139 33 70 139 33 70 139 33 70 139 33 70 139 33 70 139 33 70 139 33 70 139 33 70 139 33 70 139 33 70 139 33 70 139 33 70 139 33 70 139 33 70 139 33 70 139 33 70 139 33 70 139 33 70 139 33 70 139 33 70 139 33 70 139 33 70 139 33 70 139 33 70 139 33 70 139 33 70 139 33 70 139 33 70 139 33 70 139 33 70 139 33 70 139 33 70 139 33 70 139 33 70 139 33 70 139 33 70 139 33 70 139 33 70 139 33 70 139 33 70 139 33 70 139 33 70 139 33 70 139 33 70 139 33 70 139 33 70 139 33 70 139 33 70 139 33 70 139 33 70 139 33 70 139 33 70 139 33 70 139 33 70 139 33 70 139 33 70 139 33 70 139 33 70 139 33 70 139 33 70 139 33 70 139 33 70 139 33 70 139 33 70 139 33 70 139 33 70 139 33 70 139 33 70 139 33 70 139 33 70 139 33 70 139 33 70 139 33 70 139 33 70 139 33 70 139 33 70 139 33 70 139 33 70 139 33 70 139 33 70 139 33 70 139 33 70 139 33 70 139 33 70 139 33 70 139 33 70 139 33 70 139 33 70 139 33 70 139 33 70 139 33 70 139 33 70 139 33 70 139 33 70 139 33 70 139 33 70 139 33 70 139 33 70 139 33 70 139 33 70 139 33 70 139 33 70 139 33 70 139 33 70 139 33 70 139 33 70 139 33 70 139 33 70 139 33 70 139 33 70 139 33 70 139 33 70 139 33 70 139 33 70 139 33 70 139 33 70 139 33 70 139 33 70 139 33 70 139 33 70 139 33 70 139 33 70 139 33 70 139 33 70 139 33 70 139 33 70 139 33 70 139 33 70 139 33 70 139 33 70 139 33 70 139 33 70 139 33 70 139 33 70 139 33 70 139 33 70 139 33 70 139 33 70 139 33 70 139 33 70 139 33 70 139 33 70 139 33 70 139 33 70 139 33 70 139 33 70 139 33 70 139 33 70 139 33 70 139 33 70 139 33 70 139 33 70 139 33 70 139 33 70 139 33 70 139 33 70 139 33 70 139 33 70 139 33 70 139 33 70 139 33 70 139 33 70 139 33 70 139 33 70 139 33 70 139 33 70 139 33 70 139 33 70 139 33 70 139 33 70 139 33 70 139 33 70 139 33 70 139 33 70 139 33 70 139 33 70 139 33 70 139 33 70 139 33 70 139 33 70 139 33 70 139 33 70 139 33 70 139 33 70 139 33 70 139 33 70 139 33 70 139 33 70 139 33 70 139 33 70 139 33 70 139 33 70 139 33 70 139 33 70 139 33 70 139 
33 70 139 33 70 139 33 70 139 33 70 139 33 70 139 33 70 139 33 70 139 33 70 139 33 70 139 33 70 139 33 70 139 33 70 139 33 70 139 33 70 139 33 70 139 33 70 139 33 70 139 33 70 139 33 70 139 33 70 139 33 70 139 33 70 139 33 70 139 33 70 139 33 70 139 33 70 139 33 70 139 33 70 139 33 70 139 33 70 139 33 70 139 33 70 139 33 70 139 33 70 139 33 70 139 33 70 139 33 70 139 33 70 139 33 70 139 33 70 139 33 70 139 33 70 139 33 70 139 33 70 139 33 70 139 33 70 139 33 70 139 33 70 139 33 70 139 33 70 139 33 70 139 33 70 139 33 70 139 33 70 139 33 70 139 33 70 139 33 70 139 33 70 139 33 70 139 33 70 139 33 70 139 33 70 139 33 70 139 33 70 139 33 70 139 33 70 139 33 70 139 33 70 139 33 70 139 33 70 139 33 70 139 33 70 139 33 70 139 33 70 139 33 70 139 33 70 139 33 70 139 33 70 139 33 70 139 33 70 139 33 70 139 33 70 139 33 70 139 33 70 139 33 70 139 33 70 139 33 70 139 33 70 139 33 70 139 33 70 139 33 70 139 33 70 139 33 70 139 33 70 139 33 70 139 33 70 139 33 70 139 33 70 139 33 70 139 33 70 139 33 70 139 33 70 139 33 70 139 33 70 139 33 70 139 33 70 139 33 70 139 33 70 139 33 70 139 33 70 139 33 70 139 33 70 139 33 70 139 33 70 139 33 70 139 33 70 139 33 70 139 33 70 139 33 70 139 33 70 139 33 70 139 33 70 139 33 70 139 33 70 139 33 70 139 33 70 139 33 70 139 33 70 139 33 70 139 33 70 139 33 70 139 33 70 139 33 70 139 33 70 139 33 70 139 33 70 139 33 70 139 33 70 139 33 70 139 33 70 139 33 70 139 33 70 139 33 70 139 33 70 139 33 70 139 33 70 139 33 70 139 33 70 139 33 70 139 33 70 139 33 70 139 33 70 139 33 70 139 33 70 139 33 70 139 33 70 139 33 70 139 33 70 139 33 70 139 33 70 139 33 70 139 33 70 139 33 70 139 33 70 139 33 70 139 33 70 139 33 70 139 33 70 139 33 70 139 33 70 139 33 70 139 33 70 139 33 70 139 33 70 139 33 70 139 33 70 139 33 70 139 33 70 139 33 70 139 33 70 139 33 70 139 33 70 139 33 70 139 33 70 139 33 70 139 33 70 139 33 70 139 33 70 139 33 70 139 33 70 139 33 70 139 33 70 139 33 70 139 33 70 139 33 70 139 33 70 139 33 70 139 33 70 139 33 70 139 33 70 139 33 70 139 33 70 139 33 70 139 33 70 139 33 70 139 33 70 139 33 70 139 33 70 139 33 70 139 33 70 139 33 70 139 33 70 139 33 70 139 33 70 139 33 70 139 33 70 139 33 70 139 33 70 139 33 70 139 33 70 139 33 70 139 33 70 139 33 70 139 33 70 139 33 70 139 33 70 139 33 70 139 33 70 139 33 70 139 33 70 139 33 70 139 33 70 139 33 70 139 33 70 139 33 70 139 33 70 139 33 70 139 33 70 139 33 70 139 33 70 139 33 70 139 33 70 139 33 70 139 33 70 139 33 70 139 33 70 139 33 70 139 33 70 139 33 70 139 33 70 139 33 70 139 33 70 139 33 70 139 33 70 139 33 70 139 33 70 139 33 70 139 33 70 139 33 70 139 33 70 139 33 70 139 33 70 139 33 70 139 33 70 139 33 70 139 33 70 139 33 70 139 33 70 139 33 70 139 33 70 139 33 70 139 33 70 139 33 70 139 33 70 139 33 70 139 33 70 139 33 70 139 33 70 139 33 70 139 33 70 139 33 70 139 33 70 139 33 70 139 33 70 139 33 70 139 33 70 139 33 70 139 33 70 139 33 70 139 33 70 139 33 70 139 33 70 139 33 70 139 33 70 139 33 70 139 33 70 139 33 70 139 33 70 139 33 70 139 33 70 139 
33 70 139 33 70 139 33 70 139 33 70 139 33 70 139 33 70 139 33 70 139 33 70 139 33 70 139 33 70 139 33 70 139 33 70 139 33 70 139 33 70 139 33 70 139 33 70 139 33 70 139 33 70 139 33 70 139 33 70 139 33 70 139 33 70 139 33 70 139 33 70 139 33 70 139 33 70 139 33 70 139 33 70 139 33 70 139 33 70 139 33 70 139 33 70 139 33 70 139 33 70 139 33 70 139 33 70 139 33 70 139 33 70 139 33 70 139 33 70 139 33 70 139 33 70 139 33 70 139 33 70 139 33 70 139 33 70 139 33 70 139 33 70 139 33 70 139 33 70 139 33 70 139 33 70 139 33 70 139 33 70 139 33 70 139 33 70 139 33 70 139 33 70 139 33 70 139 33 70 139 33 70 139 33 70 139 33 70 139 33 70 139 33 70 139 33 70 139 33 70 139 33 70 139 33 70 139 33 70 139 33 70 139 33 70 139 33 70 139 33 70 139 33 70 139 33 70 139 33 70 139 33 70 139 33 70 139 33 70 139 33 70 139 33 70 139 33 70 139 33 70 139 33 70 139 33 70 139 33 70 139 33 70 139 33 70 139 33 70 139 33 70 139 33 70 139 33 70 139 33 70 139 33 70 139 33 70 139 33 70 139 33 70 139 33 70 139 33 70 139 33 70 139 33 70 139 33 70 139 33 70 139 33 70 139 33 70 139 33 70 139 33 70 139 33 70 139 33 70 139 33 70 139 33 70 139 33 70 139 33 70 139 33 70 139 33 70 139 33 70 139 33 70 139 33 70 139 33 70 139 33 70 139 33 70 139 33 70 139 33 70 139 33 70 139 33 70 139 33 70 139 33 70 139 33 70 139 33 70 139 33 70 139 33 70 139 33 70 139 33 70 139 33 70 139 33 70 139 33 70 139 33 70 139 33 70 139 33 70 139 33 70 139 33 70 139 33 70 139 33 70 139 33 70 139 33 70 139 33 70 139 33 70 139 33 70 139 33 70 139 33 70 139 33 70 139 33 70 139 33 70 139 33 70 139 33 70 139 33 70 139 33 70 139 33 70 139 33 70 139 33 70 139 33 70 139 33 70 139 33 70 139 33 70 139 33 70 139 33 70 139 33 70 139 33 70 139 33 70 139 33 70 139 33 70 139 33 70 139 33 70 139 33 70 139 33 70 139 33 70 139 33 70 139 33 70 139 33 70 139 33 70 139 33 70 139 33 70 139 33 70 139 33 70 139 33 70 139 33 70 139 33 70 139 33 70 139 33 70 139 33 70 139 33 70 139 33 70 139 33 70 139 33 70 139 33 70 139 33 70 139 33 70 139 33 70 139 33 70 139 33 70 139 33 70 139 33 70 139 33 70 139 33 70 139 33 70 139 33 70 139 33 70 139 33 70 139 33 70 139 33 70 139 33 70 139 33 70 139 33 70 139 33 70 139 33 70 139 33 70 139 33 70 139 33 70 139 33 70 139 33 70 139 33 70 139 33 70 139 33 70 139 33 70 139 33 70 139 33 70 139 33 70 139 33 70 139 33 70 139 33 70 139 33 70 139 33 70 139 33 70 139 33 70 139 33 70 139 33 70 139 33 70 139 33 70 139 33 70 139 33 70 139 33 70 139 33 70 139 33 70 139 33 70 139 33 70 139 33 70 139 33 70 139 33 70 139 33 70 139 33 70 139 33 70 139 33 70 139 33 70 139 33 70 139 33 70 139 33 70 139 33 70 139 33 70 139 33 70 139 33 70 139 33 70 139 33 70 139 33 70 139 33 70 139 33 70 139 33 70 139 33 70 139 33 70 139 33 70 139 33 70 139 33 70 139 33 70 139 33 70 139 33 70 139 33 70 139 33 70 139 33 70 139 33 70 139 33 70 139 33 70 139 33 70 139 33 70 139 33 70 139 33 70 139 33 70 139 33 70 139 33 70 139 33 70 139 33 70 139 33 70 139 33 70 139 33 70 139 33 70 139 33 70 139 33 70 139 33 70 139 33 70 139 33 70 139 33 70 139 
33 70 139 33 70 139 33 70 139 33 70 139 33 70 139 33 70 139 33 70 139 33 70 139 33 70 139 33 70 139 33 70 139 33 70 139 33 70 139 33 70 139 33 70 139 33 70 139 33 70 139 33 70 139 33 70 139 33 70 139 33 70 139 33 70 139 33 70 139 33 70 139 33 70 139 33 70 139 33 70 139 33 70 139 33 70 139 33 70 139 33 70 139 33 70 139 33 70 139 33 70 139 33 70 139 33 70 139 33 70 139 33 70 139 33 70 139 33 70 139 33 70 139 33 70 139 33 70 139 33 70 139 33 70 139 33 70 139 33 70 139 33 70 139 33 70 139 33 70 139 33 70 139 33 70 139 33 70 139 33 70 139 33 70 139 33 70 139 33 70 139 33 70 139 33 70 139 33 70 139 33 70 139 33 70 139 33 70 139 33 70 139 33 70 139 33 70 139 33 70 139 33 70 139 33 70 139 33 70 139 33 70 139 33 70 139 33 70 139 33 70 139 33 70 139 33 70 139 33 70 139 33 70 139 33 70 139 33 70 139 33 70 139 33 70 139 33 70 139 33 70 139 33 70 139 33 70 139 33 70 139 33 70 139 33 70 139 33 70 139 33 70 139 33 70 139 33 70 139 33 70 139 33 70 139 33 70 139 33 70 139 33 70 139 33 70 139 33 70 139 33 70 139 33 70 139 33 70 139 33 70 139 33 70 139 33 70 139 33 70 139 33 70 139 33 70 139 33 70 139 33 70 139 33 70 139 33 70 139 33 70 139 33 70 139 33 70 139 33 70 139 33 70 139 33 70 139 33 70 139 33 70 139 33 70 139 33 70 139 33 70 139 33 70 139 33 70 139 33 70 139 33 70 139 33 70 139 33 70 139 33 70 139 33 70 139 33 70 139 33 70 139 33 70 139 33 70 139 33 70 139 33 70 139 33 70 139 33 70 139 33 70 139 33 70 139 33 70 139 33 70 139 33 70 139 33 70 139 33 70 139 33 70 139 33 70 139 33 70 139 33 70 139 33 70 139 33 70 139 33 70 139 33 70 139 33 70 139 33 70 139 33 70 139 33 70 139 33 70 139 33 70 139 33 70 139 33 70 139 33 70 139 33 70 139 33 70 139 33 70 139 33 70 139 33 70 139 33 70 139 33 70 139 33 70 139 33 70 139 33 70 139 33 70 139 33 70 139 33 70 139 33 70 139 33 70 139 33 70 139 33 70 139 33 70 139 33 70 139 33 70 139 33 70 139 33 70 139 33 70 139 33 70 139 33 70 139 33 70 139 33 70 139 33 70 139 33 70 139 33 70 139 33 70 139 33 70 139 33 70 139 33 70 139 33 70 139 33 70 139 33 70 139 33 70 139 33 70 139 33 70 139 33 70 139 33 70 139 33 70 139 33 70 139 33 70 139 33 70 139 33 70 139 33 70 139 33 70 139 33 70 139 33 70 139 33 70 139 33 70 139 33 70 139 33 70 139 33 70 139 33 70 139 33 70 139 33 70 139 33 70 139 33 70 139 33 70 139 33 70 139 33 70 139 33 70 139 33 70 139 33 70 139 33 70 139 33 70 139 33 70 139 33 70 139 33 70 139 33 70 139 33 70 139 33 70 139 33 70 139 33 70 139 33 70 139 33 70 139 33 70 139 33 70 139 33 70 139 33 70 139 33 70 139 33 70 139 33 70 139 33 70 139 33 70 139 33 70 139 33 70 139 33 70 139 33 70 139 33 70 139 33 70 139 33 70 139 33 70 139 33 70 139 33 70 139 33 70 139 33 70 139 33 70 139 33 70 139 33 70 139 33 70 139 33 70 139 33 70 139 33 70 139 33 70 139 33 70 139 33 70 139 33 70 139 33 70 139 33 70 139 33 70 139 33 70 139 33 70 139 33 70 139 33 70 139 33 70 139 33 70 139 33 70 139 33 70 139 33 70 139 33 70 139 33 70 139 33 70 139 33 70 139 33 70 139 33 70 139 33 70 139 33 70 139 33 70 139 33 70 139 33 70 139 33 70 139 33 70 139 
33 70 139 33 70 139 33 70 139 33 70 139 33 70 139 33 70 139 33 70 139 33 70 139 33 70 139 33 70 139 33 70 139 33 70 139 33 70 139 33 70 139 33 70 139 33 70 139 33 70 139 33 70 139 33 70 139 33 70 139 33 70 139 33 70 139 33 70 139 33 70 139 33 70 139 33 70 139 33 70 139 33 70 139 33 70 139 33 70 139 33 70 139 33 70 139 33 70 139 33 70 139 33 70 139 33 70 139 33 70 139 33 70 139 33 70 139 33 70 139 33 70 139 33 70 139 33 70 139 33 70 139 33 70 139 33 70 139 33 70 139 33 70 139 33 70 139 33 70 139 33 70 139 33 70 139 33 70 139 33 70 139 33 70 139 33 70 139 33 70 139 33 70 139 33 70 139 33 70 139 33 70 139 33 70 139 33 70 139 33 70 139 33 70 139 33 70 139 33 70 139 33 70 139 33 70 139 33 70 139 33 70 139 33 70 139 33 70 139 33 70 139 33 70 139 33 70 139 33 70 139 33 70 139 33 70 139 33 70 139 33 70 139 33 70 139 33 70 139 33 70 139 33 70 139 33 70 139 33 70 139 33 70 139 33 70 139 33 70 139 33 70 139 33 70 139 33 70 139 33 70 139 33 70 139 33 70 139 33 70 139 33 70 139 33 70 139 33 70 139 33 70 139 33 70 139 33 70 139 33 70 139 33 70 139 33 70 139 33 70 139 33 70 139 33 70 139 33 70 139 33 70 139 33 70 139 33 70 139 33 70 139 33 70 139 33 70 139 33 70 139 33 70 139 33 70 139 33 70 139 33 70 139 33 70 139 33 70 139 33 70 139 33 70 139 33 70 139 33 70 139 33 70 139 33 70 139 33 70 139 33 70 139 33 70 139 33 70 139 33 70 139 33 70 139 33 70 139 33 70 139 33 70 139 33 70 139 33 70 139 33 70 139 33 70 139 33 70 139 33 70 139 33 70 139 33 70 139 33 70 139 33 70 139 33 70 139 33 70 139 33 70 139 33 70 139 33 70 139 33 70 139 33 70 139 33 70 139 33 70 139 33 70 139 33 70 139 33 70 139 33 70 139 33 70 139 33 70 139 33 70 139 33 70 139 33 70 139 33 70 139 33 70 139 33 70 139 33 70 139 33 70 139 33 70 139 33 70 139 33 70 139 33 70 139 33 70 139 33 70 139 33 70 139 33 70 139 33 70 139 33 70 139 33 70 139 33 70 139 33 70 139 33 70 139 33 70 139 33 70 139 33 70 139 33 70 139 33 70 139 33 70 139 33 70 139 33 70 139 33 70 139 33 70 139 33 70 139 33 70 139 33 70 139 33 70 139 33 70 139 33 70 139 33 70 139 33 70 139 33 70 139 33 70 139 33 70 139 33 70 139 33 70 139 33 70 139 33 70 139 33 70 139 33 70 139 33 70 139 33 70 139 33 70 139 33 70 139 33 70 139 33 70 139 33 70 139 33 70 139 33 70 139 33 70 139 33 70 139 33 70 139 33 70 139 33 70 139 33 70 139 33 70 139 33 70 139 33 70 139 33 70 139 33 70 139 33 70 139 33 70 139 33 70 139 33 70 139 33 70 139 33 70 139 33 70 139 33 70 139 33 70 139 33 70 139 33 70 139 33 70 139 33 70 139 33 70 139 33 70 139 33 70 139 33 70 139 33 70 139 33 70 139 33 70 139 33 70 139 33 70 139 33 70 139 33 70 139 33 70 139 33 70 139 33 70 139 33 70 139 33 70 139 33 70 139 33 70 139 33 70 139 33 70 139 33 70 139 33 70 139 33 70 139 33 70 139 33 70 139 33 70 139 33 70 139 33 70 139 33 70 139 33 70 139 33 70 139 33 70 139 33 70 139 33 70 139 33 70 139 33 70 139 33 70 139 33 70 139 33 70 139 33 70 139 33 70 139 33 70 139 33 70 139 33 70 139 33 70 139 33 70 139 33 70 139 33 70 139 33 70 139 33 70 139 33 70 139 33 70 139 33 70 139 33 70 139 33 70 139 
33 70 139 33 70 139 33 70 139 33 70 139 33 70 139 33 70 139 33 70 139 33 70 139 33 70 139 33 70 139 33 70 139 33 70 139 33 70 139 33 70 139 33 70 139 33 70 139 33 70 139 33 70 139 33 70 139 33 70 139 33 70 139 33 70 139 33 70 139 33 70 139 33 70 139 33 70 139 33 70 139 33 70 139 33 70 139 33 70 139 33 70 139 33 70 139 33 70 139 33 70 139 33 70 139 33 70 139 33 70 139 33 70 139 33 70 139 33 70 139 33 70 139 33 70 139 33 70 139 33 70 139 33 70 139 33 70 139 33 70 139 33 70 139 33 70 139 33 70 139 33 70 139 33 70 139 33 70 139 33 70 139 33 70 139 33 70 139 33 70 139 33 70 139 33 70 139 33 70 139 33 70 139 33 70 139 33 70 139 33 70 139 33 70 139 33 70 139 33 70 139 33 70 139 33 70 139 33 70 139 33 70 139 33 70 139 33 70 139 33 70 139 33 70 139 33 70 139 33 70 139 33 70 139 33 70 139 33 70 139 33 70 139 33 70 139 33 70 139 33 70 139 33 70 139 33 70 139 33 70 139 33 70 139 33 70 139 33 70 139 33 70 139 33 70 139 33 70 139 33 70 139 33 70 139 33 70 139 33 70 139 33 70 139 33 70 139 33 70 139 33 70 139 33 70 139 33 70 139 33 70 139 33 70 139 33 70 139 33 70 139 33 70 139 33 70 139 33 70 139 33 70 139 33 70 139 33 70 139 33 70 139 33 70 139 33 70 139 33 70 139 33 70 139 33 70 139 33 70 139 33 70 139 33 70 139 33 70 139 33 70 139 33 70 139 33 70 139 33 70 139 33 70 139 33 70 139 33 70 139 33 70 139 33 70 139 33 70 139 33 70 139 33 70 139 33 70 139 33 70 139 33 70 139 33 70 139 33 70 139 33 70 139 33 70 139 33 70 139 33 70 139 33 70 139 33 70 139 33 70 139 33 70 139 33 70 139 33 70 139 33 70 139 33 70 139 33 70 139 33 70 139 33 70 139 33 70 139 33 70 139 33 70 139 33 70 139 33 70 139 33 70 139 33 70 139 33 70 139 33 70 139 33 70 139 33 70 139 33 70 139 33 70 139 33 70 139 33 70 139 33 70 139 33 70 139 33 70 139 33 70 139 33 70 139 33 70 139 33 70 139 33 70 139 33 70 139 33 70 139 33 70 139 33 70 139 33 70 139 33 70 139 33 70 139 33 70 139 33 70 139 33 70 139 33 70 139 33 70 139 33 70 139 33 70 139 33 70 139 33 70 139 33 70 139 33 70 139 33 70 139 33 70 139 33 70 139 33 70 139 33 70 139 33 70 139 33 70 139 33 70 139 33 70 139 33 70 139 33 70 139 33 70 139 33 70 139 33 70 139 33 70 139 33 70 139 33 70 139 33 70 139 33 70 139 33 70 139 33 70 139 33 70 139 33 70 139 33 70 139 33 70 139 33 70 139 33 70 139 33 70 139 33 70 139 33 70 139 33 70 139 33 70 139 33 70 139 33 70 139 33 70 139 33 70 139 33 70 139 33 70 139 33 70 139 33 70 139 33 70 139 33 70 139 33 70 139 33 70 139 33 70 139 33 70 139 33 70 139 33 70 139 33 70 139 33 70 139 33 70 139 33 70 139 33 70 139 33 70 139 33 70 139 33 70 139 33 70 139 33 70 139 33 70 139 33 70 139 33 70 139 33 70 139 33 70 139 33 70 139 33 70 139 33 70 139 33 70 139 33 70 139 33 70 139 33 70 139 33 70 139 33 70 139 33 70 139 33 70 139 33 70 139 33 70 139 33 70 139 33 70 139 33 70 139 33 70 139 33 70 139 33 70 139 33 70 139 33 70 139 33 70 139 33 70 139 33 70 139 33 70 139 33 70 139 33 70 139 33 70 139 33 70 139 33 70 139 33 70 139 33 70 139 33 70 139 33 70 139 33 70 139 33 70 139 33 70 139 33 70 139 33 70 139 33 70 139 33 70 139 
33 70 139 33 70 139 33 70 139 33 70 139 33 70 139 33 70 139 33 70 139 33 70 139 33 70 139 33 70 139 33 70 139 33 70 139 33 70 139 33 70 139 33 70 139 33 70 139 33 70 139 33 70 139 33 70 139 33 70 139 33 70 139 33 70 139 33 70 139 33 70 139 33 70 139 33 70 139 33 70 139 33 70 139 33 70 139 33 70 139 33 70 139 33 70 139 33 70 139 33 70 139 33 70 139 33 70 139 33 70 139 33 70 139 33 70 139 33 70 139 33 70 139 33 70 139 33 70 139 33 70 139 33 70 139 33 70 139 33 70 139 33 70 139 33 70 139 33 70 139 33 70 139 33 70 139 33 70 139 33 70 139 33 70 139 33 70 139 33 70 139 33 70 139 33 70 139 33 70 139 33 70 139 33 70 139 33 70 139 33 70 139 33 70 139 33 70 139 33 70 139 33 70 139 33 70 139 33 70 139 33 70 139 33 70 139 33 70 139 33 70 139 33 70 139 33 70 139 33 70 139 33 70 139 33 70 139 33 70 139 33 70 139 33 70 139 33 70 139 33 70 139 33 70 139 33 70 139 33 70 139 33 70 139 33 70 139 33 70 139 33 70 139 33 70 139 33 70 139 33 70 139 33 70 139 33 70 139 33 70 139 33 70 139 33 70 139 33 70 139 33 70 139 33 70 139 33 70 139 33 70 139 33 70 139 33 70 139 33 70 139 33 70 139 33 70 139 33 70 139 33 70 139 33 70 139 33 70 139 33 70 139 33 70 139 33 70 139 33 70 139 33 70 139 33 70 139 33 70 139 33 70 139 33 70 139 33 70 139 33 70 139 33 70 139 33 70 139 33 70 139 33 70 139 33 70 139 33 70 139 33 70 139 33 70 139 33 70 139 33 70 139 33 70 139 33 70 139 33 70 139 33 70 139 33 70 139 33 70 139 33 70 139 33 70 139 33 70 139 33 70 139 33 70 139 33 70 139 33 70 139 33 70 139 33 70 139 33 70 139 33 70 139 33 70 139 33 70 139 33 70 139 33 70 139 33 70 139 33 70 139 33 70 139 33 70 139 33 70 139 33 70 139 33 70 139 33 70 139 33 70 139 33 70 139 33 70 139 33 70 139 33 70 139 33 70 139 33 70 139 33 70 139 33 70 139 33 70 139 33 70 139 33 70 139 33 70 139 33 70 139 33 70 139 33 70 139 33 70 139 33 70 139 33 70 139 33 70 139 33 70 139 33 70 139 33 70 139 33 70 139 33 70 139 33 70 139 33 70 139 33 70 139 33 70 139 33 70 139 33 70 139 33 70 139 33 70 139 33 70 139 33 70 139 33 70 139 33 70 139 33 70 139 33 70 139 33 70 139 33 70 139 33 70 139 33 70 139 33 70 139 33 70 139 33 70 139 33 70 139 33 70 139 33 70 139 33 70 139 33 70 139 33 70 139 33 70 139 33 70 139 33 70 139 33 70 139 33 70 139 33 70 139 33 70 139 33 70 139 33 70 139 33 70 139 33 70 139 33 70 139 33 70 139 33 70 139 33 70 139 33 70 139 33 70 139 33 70 139 33 70 139 33 70 139 33 70 139 33 70 139 33 70 139 33 70 139 33 70 139 33 70 139 33 70 139 33 70 139 33 70 139 33 70 139 33 70 139 33 70 139 33 70 139 33 70 139 33 70 139 33 70 139 33 70 139 33 70 139 33 70 139 33 70 139 33 70 139 33 70 139 33 70 139 33 70 139 33 70 139 33 70 139 33 70 139 33 70 139 33 70 139 33 70 139 33 70 139 33 70 139 33 70 139 33 70 139 33 70 139 33 70 139 33 70 139 33 70 139 33 70 139 33 70 139 33 70 139 33 70 139 33 70 139 33 70 139 33 70 139 33 70 139 33 70 139 33 70 139 33 70 139 33 70 139 33 70 139 33 70 139 33 70 139 33 70 139 33 70 139 33 70 139 33 70 139 33 70 139 33 70 139 33 70 139 33 70 139 33 70 139 33 70 139 33 70 139 33 70 139 
33 70 139 33 70 139 33 70 139 33 70 139 33 70 139 33 70 139 33 70 139 33 70 139 33 70 139 33 70 139 33 70 139 33 70 139 33 70 139 33 70 139 33 70 139 33 70 139 33 70 139 33 70 139 33 70 139 33 70 139 33 70 139 33 70 139 33 70 139 33 70 139 33 70 139 33 70 139 33 70 139 33 70 139 33 70 139 33 70 139 33 70 139 33 70 139 33 70 139 33 70 139 33 70 139 33 70 139 33 70 139 33 70 139 33 70 139 33 70 139 33 70 139 33 70 139 33 70 139 33 70 139 33 70 139 33 70 139 33 70 139 33 70 139 33 70 139 33 70 139 33 70 139 33 70 139 33 70 139 33 70 139 33 70 139 33 70 139 33 70 139 33 70 139 33 70 139 33 70 139 33 70 139 33 70 139 33 70 139 33 70 139 33 70 139 33 70 139 33 70 139 33 70 139 33 70 139 33 70 139 33 70 139 33 70 139 33 70 139 33 70 139 33 70 139 33 70 139 33 70 139 33 70 139 33 70 139 33 70 139 33 70 139 33 70 139 33 70 139 33 70 139 33 70 139 33 70 139 33 70 139 33 70 139 33 70 139 33 70 139 33 70 139 33 70 139 33 70 139 33 70 139 33 70 139 33 70 139 33 70 139 33 70 139 33 70 139 33 70 139 33 70 139 33 70 139 33 70 139 33 70 139 33 70 139 33 70 139 33 70 139 33 70 139 33 70 139 33 70 139 33 70 139 33 70 139 33 70 139 33 70 139 33 70 139 33 70 139 33 70 139 33 70 139 33 70 139 33 70 139 33 70 139 33 70 139 33 70 139 33 70 139 33 70 139 33 70 139 33 70 139 33 70 139 33 70 139 33 70 139 33 70 139 33 70 139 33 70 139 33 70 139 33 70 139 33 70 139 33 70 139 33 70 139 33 70 139 33 70 139 33 70 139 33 70 139 33 70 139 33 70 139 33 70 139 33 70 139 33 70 139 33 70 139 33 70 139 33 70 139 33 70 139 33 70 139 33 70 139 33 70 139 33 70 139 33 70 139 33 70 139 33 70 139 33 70 139 33 70 139 33 70 139 33 70 139 33 70 139 33 70 139 33 70 139 33 70 139 33 70 139 33 70 139 33 70 139 33 70 139 33 70 139 33 70 139 33 70 139 33 70 139 33 70 139 33 70 139 33 70 139 33 70 139 33 70 139 33 70 139 33 70 139 33 70 139 33 70 139 33 70 139 33 70 139 33 70 139 33 70 139 33 70 139 33 70 139 33 70 139 33 70 139 33 70 139 33 70 139 33 70 139 33 70 139 33 70 139 33 70 139 33 70 139 33 70 139 33 70 139 33 70 139 33 70 139 33 70 139 33 70 139 33 70 139 33 70 139 33 70 139 33 70 139 33 70 139 33 70 139 33 70 139 33 70 139 33 70 139 33 70 139 33 70 139 33 70 139 33 70 139 33 70 139 33 70 139 33 70 139 33 70 139 33 70 139 33 70 139 33 70 139 33 70 139 33 70 139 33 70 139 33 70 139 33 70 139 33 70 139 33 70 139 33 70 139 33 70 139 33 70 139 33 70 139 33 70 139 33 70 139 33 70 139 33 70 139 33 70 139 33 70 139 33 70 139 33 70 139 33 70 139 33 70 139 33 70 139 33 70 139 33 70 139 33 70 139 33 70 139 33 70 139 33 70 139 33 70 139 33 70 139 33 70 139 33 70 139 33 70 139 33 70 139 33 70 139 33 70 139 33 70 139 33 70 139 33 70 139 33 70 139 33 70 139 33 70 139 33 70 139 33 70 139 33 70 139 33 70 139 33 70 139 33 70 139 33 70 139 33 70 139 33 70 139 33 70 139 33 70 139 33 70 139 33 70 139 33 70 139 33 70 139 33 70 139 33 70 139 33 70 139 33 70 139 33 70 139 33 70 139 33 70 139 33 70 139 33 70 139 33 70 139 33 70 139 33 70 139 33 70 139 33 70 139 33 70 139 33 70 139 33 70 139 33 70 139 33 70 139 
33 70 139 33 70 139 33 70 139 33 70 139 33 70 139 33 70 139 33 70 139 33 70 139 33 70 139 33 70 139 33 70 139 33 70 139 33 70 139 33 70 139 33 70 139 33 70 139 33 70 139 33 70 139 33 70 139 33 70 139 33 70 139 33 70 139 33 70 139 33 70 139 33 70 139 33 70 139 33 70 139 33 70 139 33 70 139 33 70 139 33 70 139 33 70 139 33 70 139 33 70 139 33 70 139 33 70 139 33 70 139 33 70 139 33 70 139 33 70 139 33 70 139 33 70 139 33 70 139 33 70 139 33 70 139 33 70 139 33 70 139 33 70 139 33 70 139 33 70 139 33 70 139 33 70 139 33 70 139 33 70 139 33 70 139 33 70 139 33 70 139 33 70 139 33 70 139 33 70 139 33 70 139 33 70 139 33 70 139 33 70 139 33 70 139 33 70 139 33 70 139 33 70 139 33 70 139 33 70 139 33 70 139 33 70 139 33 70 139 33 70 139 33 70 139 33 70 139 33 70 139 33 70 139 33 70 139 33 70 139 33 70 139 33 70 139 33 70 139 33 70 139 33 70 139 33 70 139 33 70 139 33 70 139 33 70 139 33 70 139 33 70 139 33 70 139 33 70 139 33 70 139 33 70 139 33 70 139 33 70 139 33 70 139 33 70 139 33 70 139 33 70 139 33 70 139 33 70 139 33 70 139 33 70 139 33 70 139 33 70 139 33 70 139 33 70 139 33 70 139 33 70 139 33 70 139 33 70 139 33 70 139 33 70 139 33 70 139 33 70 139 33 70 139 33 70 139 33 70 139 33 70 139 33 70 139 33 70 139 33 70 139 33 70 139 33 70 139 33 70 139 33 70 139 33 70 139 33 70 139 33 70 139 33 70 139 33 70 139 33 70 139 33 70 139 33 70 139 33 70 139 33 70 139 33 70 139 33 70 139 33 70 139 33 70 139 33 70 139 33 70 139 33 70 139 33 70 139 33 70 139 33 70 139 33 70 139 33 70 139 33 70 139 33 70 139 33 70 139 33 70 139 33 70 139 33 70 139 33 70 139 33 70 139 33 70 139 33 70 139 33 70 139 33 70 139 33 70 139 33 70 139 33 70 139 33 70 139 33 70 139 33 70 139 33 70 139 33 70 139 33 70 139 33 70 139 33 70 139 33 70 139 33 70 139 33 70 139 33 70 139 33 70 139 33 70 139 33 70 139 33 70 139 33 70 139 33 70 139 33 70 139 33 70 139 33 70 139 33 70 139 33 70 139 33 70 139 33 70 139 33 70 139 33 70 139 33 70 139 33 70 139 33 70 139 33 70 139 33 70 139 33 70 139 33 70 139 33 70 139 33 70 139 33 70 139 33 70 139 33 70 139 33 70 139 33 70 139 33 70 139 33 70 139 33 70 139 33 70 139 33 70 139 33 70 139 33 70 139 33 70 139 33 70 139 33 70 139 33 70 139 33 70 139 33 70 139 33 70 139 33 70 139 33 70 139 33 70 139 33 70 139 33 70 139 33 70 139 33 70 139 33 70 139 33 70 139 33 70 139 33 70 139 33 70 139 33 70 139 33 70 139 33 70 139 33 70 139 33 70 139 33 70 139 33 70 139 33 70 139 33 70 139 33 70 139 33 70 139 33 70 139 33 70 139 33 70 139 33 70 139 33 70 139 33 70 139 33 70 139 33 70 139 33 70 139 33 70 139 33 70 139 33 70 139 33 70 139 33 70 139 33 70 139 33 70 139 33 70 139 33 70 139 33 70 139 33 70 139 33 70 139 33 70 139 33 70 139 33 70 139 33 70 139 33 70 139 33 70 139 33 70 139 33 70 139 33 70 139 33 70 139 33 70 139 33 70 139 33 70 139 33 70 139 33 70 139 33 70 139 33 70 139 33 70 139 33 70 139 33 70 139 33 70 139 33 70 139 33 70 139 33 70 139 33 70 139 33 70 139 33 70 139 33 70 139 33 70 139 33 70 139 33 70 139 33 70 139 33 70 139 33 70 139 33 70 139 33 70 139 
33 70 139 33 70 139 33 70 139 33 70 139 33 70 139 33 70 139 33 70 139 33 70 139 33 70 139 33 70 139 33 70 139 33 70 139 33 70 139 33 70 139 33 70 139 33 70 139 33 70 139 33 70 139 33 70 139 33 70 139 33 70 139 33 70 139 33 70 139 33 70 139 33 70 139 33 70 139 33 70 139 33 70 139 33 70 139 33 70 139 33 70 139 33 70 139 33 70 139 33 70 139 33 70 139 33 70 139 33 70 139 33 70 139 33 70 139 33 70 139 33 70 139 33 70 139 33 70 139 33 70 139 33 70 139 33 70 139 33 70 139 33 70 139 33 70 139 33 70 139 33 70 139 33 70 139 33 70 139 33 70 139 33 70 139 33 70 139 33 70 139 33 70 139 33 70 139 33 70 139 33 70 139 33 70 139 33 70 139 33 70 139 33 70 139 33 70 139 33 70 139 33 70 139 33 70 139 33 70 139 33 70 139 33 70 139 33 70 139 33 70 139 33 70 139 33 70 139 33 70 139 33 70 139 33 70 139 33 70 139 33 70 139 33 70 139 33 70 139 33 70 139 33 70 139 33 70 139 33 70 139 33 70 139 33 70 139 33 70 139 33 70 139 33 70 139 33 70 139 33 70 139 33 70 139 33 70 139 33 70 139 33 70 139 33 70 139 33 70 139 33 70 139 33 70 139 33 70 139 33 70 139 33 70 139 33 70 139 33 70 139 33 70 139 33 70 139 33 70 139 33 70 139 33 70 139 33 70 139 33 70 139 33 70 139 33 70 139 33 70 139 33 70 139 33 70 139 33 70 139 33 70 139 33 70 139 33 70 139 33 70 139 33 70 139 33 70 139 33 70 139 33 70 139 33 70 139 33 70 139 33 70 139 33 70 139 33 70 139 33 70 139 33 70 139 33 70 139 33 70 139 33 70 139 33 70 139 33 70 139 33 70 139 33 70 139 33 70 139 33 70 139 33 70 139 33 70 139 33 70 139 33 70 139 33 70 139 33 70 139 33 70 139 33 70 139 33 70 139 33 70 139 33 70 139 33 70 139 33 70 139 33 70 139 33 70 139 33 70 139 33 70 139 33 70 139 33 70 139 33 70 139 33 70 139 33 70 139 33 70 139 33 70 139 33 70 139 33 70 139 33 70 139 33 70 139 33 70 139 33 70 139 33 70 139 33 70 139 33 70 139 33 70 139 33 70 139 33 70 139 33 70 139 33 70 139 33 70 139 33 70 139 33 70 139 33 70 139 33 70 139 33 70 139 33 70 139 33 70 139 33 70 139 33 70 139 33 70 139 33 70 139 33 70 139 33 70 139 33 70 139 33 70 139 33 70 139 33 70 139 33 70 139 33 70 139 33 70 139 33 70 139 33 70 139 33 70 139 33 70 139 33 70 139 33 70 139 33 70 139 33 70 139 33 70 139 33 70 139 33 70 139 33 70 139 33 70 139 33 70 139 33 70 139 33 70 139 33 70 139 33 70 139 33 70 139 33 70 139 33 70 139 33 70 139 33 70 139 33 70 139 33 70 139 33 70 139 33 70 139 33 70 139 33 70 139 33 70 139 33 70 139 33 70 139 33 70 139 33 70 139 33 70 139 33 70 139 33 70 139 33 70 139 33 70 139 33 70 139 33 70 139 33 70 139 33 70 139 33 70 139 33 70 139 33 70 139 33 70 139 33 70 139 33 70 139 33 70 139 33 70 139 33 70 139 33 70 139 33 70 139 33 70 139 33 70 139 33 70 139 33 70 139 33 70 139 33 70 139 33 70 139 33 70 139 33 70 139 33 70 139 33 70 139 33 70 139 33 70 139 33 70 139 33 70 139 33 70 139 33 70 139 33 70 139 33 70 139 33 70 139 33 70 139 33 70 139 33 70 139 33 70 139 33 70 139 33 70 139 33 70 139 33 70 139 33 70 139 33 70 139 33 70 139 33 70 139 33 70 139 33 70 139 33 70 139 33 70 139 33 70 139 33 70 139 33 70 139 33 70 139 33 70 139 33 70 139 33 70 139 
33 70 139 33 70 139 33 70 139 33 70 139 33 70 139 33 70 139 33 70 139 33 70 139 33 70 139 33 70 139 33 70 139 33 70 139 33 70 139 33 70 139 33 70 139 33 70 139 33 70 139 33 70 139 33 70 139 33 70 139 33 70 139 33 70 139 33 70 139 33 70 139 33 70 139 33 70 139 33 70 139 33 70 139 33 70 139 33 70 139 33 70 139 33 70 139 33 70 139 33 70 139 33 70 139 33 70 139 33 70 139 33 70 139 33 70 139 33 70 139 33 70 139 33 70 139 33 70 139 33 70 139 33 70 139 33 70 139 33 70 139 33 70 139 33 70 139 33 70 139 33 70 139 33 70 139 33 70 139 33 70 139 33 70 139 33 70 139 33 70 139 33 70 139 33 70 139 33 70 139 33 70 139 33 70 139 33 70 139 33 70 139 33 70 139 33 70 139 33 70 139 33 70 139 33 70 139 33 70 139 33 70 139 33 70 139 33 70 139 33 70 139 33 70 139 33 70 139 33 70 139 33 70 139 33 70 139 33 70 139 33 70 139 33 70 139 33 70 139 33 70 139 33 70 139 33 70 139 33 70 139 33 70 139 33 70 139 33 70 139 33 70 139 33 70 139 33 70 139 33 70 139 33 70 139 33 70 139 33 70 139 33 70 139 33 70 139 33 70 139 33 70 139 33 70 139 33 70 139 33 70 139 33 70 139 33 70 139 33 70 139 33 70 139 33 70 139 33 70 139 33 70 139 33 70 139 33 70 139 33 70 139 33 70 139 33 70 139 33 70 139 33 70 139 33 70 139 33 70 139 33 70 139 33 70 139 33 70 139 33 70 139 33 70 139 33 70 139 33 70 139 33 70 139 33 70 139 33 70 139 33 70 139 33 70 139 33 70 139 33 70 139 33 70 139 33 70 139 33 70 139 33 70 139 33 70 139 33 70 139 33 70 139 33 70 139 33 70 139 33 70 139 33 70 139 33 70 139 33 70 139 33 70 139 33 70 139 33 70 139 33 70 139 33 70 139 33 70 139 33 70 139 33 70 139 33 70 139 33 70 139 33 70 139 33 70 139 33 70 139 33 70 139 33 70 139 33 70 139 33 70 139 33 70 139 33 70 139 33 70 139 33 70 139 33 70 139 33 70 139 33 70 139 33 70 139 33 70 139 33 70 139 33 70 139 33 70 139 33 70 139 33 70 139 33 70 139 33 70 139 33 70 139 33 70 139 33 70 139 33 70 139 33 70 139 33 70 139 33 70 139 33 70 139 33 70 139 33 70 139 33 70 139 33 70 139 33 70 139 33 70 139 33 70 139 33 70 139 33 70 139 33 70 139 33 70 139 33 70 139 33 70 139 33 70 139 33 70 139 33 70 139 33 70 139 33 70 139 33 70 139 33 70 139 33 70 139 33 70 139 33 70 139 33 70 139 33 70 139 33 70 139 33 70 139 33 70 139 33 70 139 33 70 139 33 70 139 33 70 139 33 70 139 33 70 139 33 70 139 33 70 139 33 70 139 33 70 139 33 70 139 33 70 139 33 70 139 33 70 139 33 70 139 33 70 139 33 70 139 33 70 139 33 70 139 33 70 139 33 70 139 33 70 139 33 70 139 33 70 139 33 70 139 33 70 139 33 70 139 33 70 139 33 70 139 33 70 139 33 70 139 33 70 139 33 70 139 33 70 139 33 70 139 33 70 139 33 70 139 33 70 139 33 70 139 33 70 139 33 70 139 33 70 139 33 70 139 33 70 139 33 70 139 33 70 139 33 70 139 33 70 139 33 70 139 33 70 139 33 70 139 33 70 139 33 70 139 33 70 139 33 70 139 33 70 139 33 70 139 33 70 139 33 70 139 33 70 139 33 70 139 33 70 139 33 70 139 33 70 139 33 70 139 33 70 139 33 70 139 33 70 139 33 70 139 33 70 139 33 70 139 33 70 139 33 70 139 33 70 139 33 70 139 33 70 139 33 70 139 33 70 139 33 70 139 33 70 139 33 70 139 33 70 139 33 70 139 33 70 139 
33 70 139 33 70 139 33 70 139 33 70 139 33 70 139 33 70 139 33 70 139 33 70 139 33 70 139 33 70 139 33 70 139 33 70 139 33 70 139 33 70 139 33 70 139 33 70 139 33 70 139 33 70 139 33 70 139 33 70 139 33 70 139 33 70 139 33 70 139 33 70 139 33 70 139 33 70 139 33 70 139 33 70 139 33 70 139 33 70 139 33 70 139 33 70 139 33 70 139 33 70 139 33 70 139 33 70 139 33 70 139 33 70 139 33 70 139 33 70 139 33 70 139 33 70 139 33 70 139 33 70 139 33 70 139 33 70 139 33 70 139 33 70 139 33 70 139 33 70 139 33 70 139 33 70 139 33 70 139 33 70 139 33 70 139 33 70 139 33 70 139 33 70 139 33 70 139 33 70 139 33 70 139 33 70 139 33 70 139 33 70 139 33 70 139 33 70 139 33 70 139 33 70 139 33 70 139 33 70 139 33 70 139 33 70 139 33 70 139 33 70 139 33 70 139 33 70 139 33 70 139 33 70 139 33 70 139 33 70 139 33 70 139 33 70 139 33 70 139 33 70 139 33 70 139 33 70 139 33 70 139 33 70 139 33 70 139 33 70 139 33 70 139 33 70 139 33 70 139 33 70 139 33 70 139 33 70 139 33 70 139 33 70 139 33 70 139 33 70 139 33 70 139 33 70 139 33 70 139 33 70 139 33 70 139 33 70 139 33 70 139 33 70 139 33 70 139 33 70 139 33 70 139 33 70 139 33 70 139 33 70 139 33 70 139 33 70 139 33 70 139 33 70 139 33 70 139 33 70 139 33 70 139 33 70 139 33 70 139 33 70 139 33 70 139 33 70 139 33 70 139 33 70 139 33 70 139 33 70 139 33 70 139 33 70 139 33 70 139 33 70 139 33 70 139 33 70 139 33 70 139 33 70 139 33 70 139 33 70 139 33 70 139 33 70 139 33 70 139 33 70 139 33 70 139 33 70 139 33 70 139 33 70 139 33 70 139 33 70 139 33 70 139 33 70 139 33 70 139 33 70 139 33 70 139 33 70 139 33 70 139 33 70 139 33 70 139 33 70 139 33 70 139 33 70 139 33 70 139 33 70 139 33 70 139 33 70 139 33 70 139 33 70 139 33 70 139 33 70 139 33 70 139 33 70 139 33 70 139 33 70 139 33 70 139 33 70 139 33 70 139 33 70 139 33 70 139 33 70 139 33 70 139 33 70 139 33 70 139 33 70 139 33 70 139 33 70 139 33 70 139 33 70 139 33 70 139 33 70 139 33 70 139 33 70 139 33 70 139 33 70 139 33 70 139 33 70 139 33 70 139 33 70 139 33 70 139 33 70 139 33 70 139 33 70 139 33 70 139 33 70 139 33 70 139 33 70 139 33 70 139 33 70 139 33 70 139 33 70 139 33 70 139 33 70 139 33 70 139 33 70 139 33 70 139 33 70 139 33 70 139 33 70 139 33 70 139 33 70 139 33 70 139 33 70 139 33 70 139 33 70 139 33 70 139 33 70 139 33 70 139 33 70 139 33 70 139 33 70 139 33 70 139 33 70 139 33 70 139 33 70 139 33 70 139 33 70 139 33 70 139 33 70 139 33 70 139 33 70 139 33 70 139 33 70 139 33 70 139 33 70 139 33 70 139 33 70 139 33 70 139 33 70 139 33 70 139 33 70 139 33 70 139 33 70 139 33 70 139 33 70 139 33 70 139 33 70 139 33 70 139 33 70 139 33 70 139 33 70 139 33 70 139 33 70 139 33 70 139 33 70 139 33 70 139 33 70 139 33 70 139 33 70 139 33 70 139 33 70 139 33 70 139 33 70 139 33 70 139 33 70 139 33 70 139 33 70 139 33 70 139 33 70 139 33 70 139 33 70 139 33 70 139 33 70 139 33 70 139 33 70 139 33 70 139 33 70 139 33 70 139 33 70 139 33 70 139 33 70 139 33 70 139 33 70 139 33 70 139 33 70 139 33 70 139 33 70 139 33 70 139 33 70 139 33 70 139 33 70 139 
33 70 139 33 70 139 33 70 139 33 70 139 33 70 139 33 70 139 33 70 139 33 70 139 33 70 139 33 70 139 33 70 139 33 70 139 33 70 139 33 70 139 33 70 139 33 70 139 33 70 139 33 70 139 33 70 139 33 70 139 33 70 139 33 70 139 33 70 139 33 70 139 33 70 139 33 70 139 33 70 139 33 70 139 33 70 139 33 70 139 33 70 139 33 70 139 33 70 139 33 70 139 33 70 139 33 70 139 33 70 139 33 70 139 33 70 139 33 70 139 33 70 139 33 70 139 33 70 139 33 70 139 33 70 139 33 70 139 33 70 139 33 70 139 33 70 139 33 70 139 33 70 139 33 70 139 33 70 139 33 70 139 33 70 139 33 70 139 33 70 139 33 70 139 33 70 139 33 70 139 33 70 139 33 70 139 33 70 139 33 70 139 33 70 139 33 70 139 33 70 139 33 70 139 33 70 139 33 70 139 33 70 139 33 70 139 33 70 139 33 70 139 33 70 139 33 70 139 33 70 139 33 70 139 33 70 139 33 70 139 33 70 139 33 70 139 33 70 139 33 70 139 33 70 139 33 70 139 33 70 139 33 70 139 33 70 139 33 70 139 33 70 139 33 70 139 33 70 139 33 70 139 33 70 139 33 70 139 33 70 139 33 70 139 33 70 139 33 70 139 33 70 139 33 70 139 33 70 139 33 70 139 33 70 139 33 70 139 33 70 139 33 70 139 33 70 139 33 70 139 33 70 139 33 70 139 33 70 139 33 70 139 33 70 139 33 70 139 33 70 139 33 70 139 33 70 139 33 70 139 33 70 139 33 70 139 33 70 139 33 70 139 33 70 139 33 70 139 33 70 139 33 70 139 33 70 139 33 70 139 33 70 139 33 70 139 33 70 139 33 70 139 33 70 139 33 70 139 33 70 139 33 70 139 33 70 139 33 70 139 33 70 139 33 70 139 33 70 139 33 70 139 33 70 139 33 70 139 33 70 139 33 70 139 33 70 139 33 70 139 33 70 139 33 70 139 33 70 139 33 70 139 33 70 139 33 70 139 33 70 139 33 70 139 33 70 139 33 70 139 33 70 139 33 70 139 33 70 139 33 70 139 33 70 139 33 70 139 33 70 139 33 70 139 33 70 139 33 70 139 33 70 139 33 70 139 33 70 139 33 70 139 33 70 139 33 70 139 33 70 139 33 70 139 33 70 139 33 70 139 33 70 139 33 70 139 33 70 139 33 70 139 33 70 139 33 70 139 33 70 139 33 70 139 33 70 139 33 70 139 33 70 139 33 70 139 33 70 139 33 70 139 33 70 139 33 70 139 33 70 139 33 70 139 33 70 139 33 70 139 33 70 139 33 70 139 33 70 139 33 70 139 33 70 139 33 70 139 33 70 139 33 70 139 33 70 139 33 70 139 33 70 139 33 70 139 33 70 139 33 70 139 33 70 139 33 70 139 33 70 139 33 70 139 33 70 139 33 70 139 33 70 139 33 70 139 33 70 139 33 70 139 33 70 139 33 70 139 33 70 139 33 70 139 33 70 139 33 70 139 33 70 139 33 70 139 33 70 139 33 70 139 33 70 139 33 70 139 33 70 139 33 70 139 33 70 139 33 70 139 33 70 139 33 70 139 33 70 139 33 70 139 33 70 139 33 70 139 33 70 139 33 70 139 33 70 139 33 70 139 33 70 139 33 70 139 33 70 139 33 70 139 33 70 139 33 70 139 33 70 139 33 70 139 33 70 139 33 70 139 33 70 139 33 70 139 33 70 139 33 70 139 33 70 139 33 70 139 33 70 139 33 70 139 33 70 139 33 70 139 33 70 139 33 70 139 33 70 139 33 70 139 33 70 139 33 70 139 33 70 139 33 70 139 33 70 139 33 70 139 33 70 139 33 70 139 33 70 139 33 70 139 33 70 139 33 70 139 33 70 139 33 70 139 33 70 139 33 70 139 33 70 139 33 70 139 33 70 139 33 70 139 33 70 139 33 70 139 33 70 139 33 70 139 33 70 139 33 70 139 
33 70 139 33 70 139 33 70 139 33 70 139 33 70 139 33 70 139 33 70 139 33 70 139 33 70 139 33 70 139 33 70 139 33 70 139 33 70 139 33 70 139 33 70 139 33 70 139 33 70 139 33 70 139 33 70 139 33 70 139 33 70 139 33 70 139 33 70 139 33 70 139 33 70 139 33 70 139 33 70 139 33 70 139 33 70 139 33 70 139 33 70 139 33 70 139 33 70 139 33 70 139 33 70 139 33 70 139 33 70 139 33 70 139 33 70 139 33 70 139 33 70 139 33 70 139 33 70 139 33 70 139 33 70 139 33 70 139 33 70 139 33 70 139 33 70 139 33 70 139 33 70 139 33 70 139 33 70 139 33 70 139 33 70 139 33 70 139 33 70 139 33 70 139 33 70 139 33 70 139 33 70 139 33 70 139 33 70 139 33 70 139 33 70 139 33 70 139 33 70 139 33 70 139 33 70 139 33 70 139 33 70 139 33 70 139 33 70 139 33 70 139 33 70 139 33 70 139 33 70 139 33 70 139 33 70 139 33 70 139 33 70 139 33 70 139 33 70 139 33 70 139 33 70 139 33 70 139 33 70 139 33 70 139 33 70 139 33 70 139 33 70 139 33 70 139 33 70 139 33 70 139 33 70 139 33 70 139 33 70 139 33 70 139 33 70 139 33 70 139 33 70 139 33 70 139 33 70 139 33 70 139 33 70 139 33 70 139 33 70 139 33 70 139 33 70 139 33 70 139 33 70 139 33 70 139 33 70 139 33 70 139 33 70 139 33 70 139 33 70 139 33 70 139 33 70 139 33 70 139 33 70 139 33 70 139 33 70 139 33 70 139 33 70 139 33 70 139 33 70 139 33 70 139 33 70 139 33 70 139 33 70 139 33 70 139 33 70 139 33 70 139 33 70 139 33 70 139 33 70 139 33 70 139 33 70 139 33 70 139 33 70 139 33 70 139 33 70 139 33 70 139 33 70 139 33 70 139 33 70 139 33 70 139 33 70 139 33 70 139 33 70 139 33 70 139 33 70 139 33 70 139 33 70 139 33 70 139 33 70 139 33 70 139 33 70 139 33 70 139 33 70 139 33 70 139 33 70 139 33 70 139 33 70 139 33 70 139 33 70 139 33 70 139 33 70 139 33 70 139 33 70 139 33 70 139 33 70 139 33 70 139 33 70 139 33 70 139 33 70 139 33 70 139 33 70 139 33 70 139 33 70 139 33 70 139 33 70 139 33 70 139 33 70 139 33 70 139 33 70 139 33 70 139 33 70 139 33 70 139 33 70 139 33 70 139 33 70 139 33 70 139 33 70 139 33 70 139 33 70 139 33 70 139 33 70 139 33 70 139 33 70 139 33 70 139 33 70 139 33 70 139 33 70 139 33 70 139 33 70 139 33 70 139 33 70 139 33 70 139 33 70 139 33 70 139 33 70 139 33 70 139 33 70 139 33 70 139 33 70 139 33 70 139 33 70 139 33 70 139 33 70 139 33 70 139 33 70 139 33 70 139 33 70 139 33 70 139 33 70 139 33 70 139 33 70 139 33 70 139 33 70 139 33 70 139 33 70 139 33 70 139 33 70 139 33 70 139 33 70 139 33 70 139 33 70 139 33 70 139 33 70 139 33 70 139 33 70 139 33 70 139 33 70 139 33 70 139 33 70 139 33 70 139 33 70 139 33 70 139 33 70 139 33 70 139 33 70 139 33 70 139 33 70 139 33 70 139 33 70 139 33 70 139 33 70 139 33 70 139 33 70 139 33 70 139 33 70 139 33 70 139 33 70 139 33 70 139 33 70 139 33 70 139 33 70 139 33 70 139 33 70 139 33 70 139 33 70 139 33 70 139 33 70 139 33 70 139 33 70 139 33 70 139 33 70 139 33 70 139 33 70 139 33 70 139 33 70 139 33 70 139 33 70 139 33 70 139 33 70 139 33 70 139 33 70 139 33 70 139 33 70 139 33 70 139 33 70 139 33 70 139 33 70 139 33 70 139 33 70 139 33 70 139 33 70 139 33 70 139 
33 70 139 33 70 139 33 70 139 33 70 139 33 70 139 33 70 139 33 70 139 33 70 139 33 70 139 33 70 139 33 70 139 33 70 139 33 70 139 33 70 139 33 70 139 33 70 139 33 70 139 33 70 139 33 70 139 33 70 139 33 70 139 33 70 139 33 70 139 33 70 139 33 70 139 33 70 139 33 70 139 33 70 139 33 70 139 33 70 139 33 70 139 33 70 139 33 70 139 33 70 139 33 70 139 33 70 139 33 70 139 33 70 139 33 70 139 33 70 139 33 70 139 33 70 139 33 70 139 33 70 139 33 70 139 33 70 139 33 70 139 33 70 139 33 70 139 33 70 139 33 70 139 33 70 139 33 70 139 33 70 139 33 70 139 33 70 139 33 70 139 33 70 139 33 70 139 33 70 139 33 70 139 33 70 139 33 70 139 33 70 139 33 70 139 33 70 139 33 70 139 33 70 139 33 70 139 33 70 139 33 70 139 33 70 139 33 70 139 33 70 139 33 70 139 33 70 139 33 70 139 33 70 139 33 70 139 33 70 139 33 70 139 33 70 139 33 70 139 33 70 139 33 70 139 33 70 139 33 70 139 33 70 139 33 70 139 33 70 139 33 70 139 33 70 139 33 70 139 33 70 139 33 70 139 33 70 139 33 70 139 33 70 139 33 70 139 33 70 139 33 70 139 33 70 139 33 70 139 33 70 139 33 70 139 33 70 139 33 70 139 33 70 139 33 70 139 33 70 139 33 70 139 33 70 139 33 70 139 33 70 139 33 70 139 33 70 139 33 70 139 33 70 139 33 70 139 33 70 139 33 70 139 33 70 139 33 70 139 33 70 139 33 70 139 33 70 139 33 70 139 33 70 139 33 70 139 33 70 139 33 70 139 33 70 139 33 70 139 33 70 139 33 70 139 33 70 139 33 70 139 33 70 139 33 70 139 33 70 139 33 70 139 33 70 139 33 70 139 33 70 139 33 70 139 33 70 139 33 70 139 33 70 139 33 70 139 33 70 139 33 70 139 33 70 139 33 70 139 33 70 139 33 70 139 33 70 139 33 70 139 33 70 139 33 70 139 33 70 139 33 70 139 33 70 139 33 70 139 33 70 139 33 70 139 33 70 139 33 70 139 33 70 139 33 70 139 33 70 139 33 70 139 33 70 139 33 70 139 33 70 139 33 70 139 33 70 139 33 70 139 33 70 139 33 70 139 33 70 139 33 70 139 33 70 139 33 70 139 33 70 139 33 70 139 33 70 139 33 70 139 33 70 139 33 70 139 33 70 139 33 70 139 33 70 139 33 70 139 33 70 139 33 70 139 33 70 139 33 70 139 33 70 139 33 70 139 33 70 139 33 70 139 33 70 139 33 70 139 33 70 139 33 70 139 33 70 139 33 70 139 33 70 139 33 70 139 33 70 139 33 70 139 33 70 139 33 70 139 33 70 139 33 70 139 33 70 139 33 70 139 33 70 139 33 70 139 33 70 139 33 70 139 33 70 139 33 70 139 33 70 139 33 70 139 33 70 139 33 70 139 33 70 139 33 70 139 33 70 139 33 70 139 33 70 139 33 70 139 33 70 139 33 70 139 33 70 139 33 70 139 33 70 139 33 70 139 33 70 139 33 70 139 33 70 139 33 70 139 33 70 139 33 70 139 33 70 139 33 70 139 33 70 139 33 70 139 33 70 139 33 70 139 33 70 139 33 70 139 33 70 139 33 70 139 33 70 139 33 70 139 33 70 139 33 70 139 33 70 139 33 70 139 33 70 139 33 70 139 33 70 139 33 70 139 33 70 139 33 70 139 33 70 139 33 70 139 33 70 139 33 70 139 33 70 139 33 70 139 33 70 139 33 70 139 33 70 139 33 70 139 33 70 139 33 70 139 33 70 139 33 70 139 33 70 139 33 70 139 33 70 139 33 70 139 33 70 139 33 70 139 33 70 139 33 70 139 33 70 139 33 70 139 33 70 139 33 70 139 33 70 139 33 70 139 33 70 139 33 70 139 33 70 139 33 70 139 33 70 139 
33 70 139 33 70 139 33 70 139 33 70 139 33 70 139 33 70 139 33 70 139 33 70 139 33 70 139 33 70 139 33 70 139 33 70 139 33 70 139 33 70 139 33 70 139 33 70 139 33 70 139 33 70 139 33 70 139 33 70 139 33 70 139 33 70 139 33 70 139 33 70 139 33 70 139 33 70 139 33 70 139 33 70 139 33 70 139 33 70 139 33 70 139 33 70 139 33 70 139 33 70 139 33 70 139 33 70 139 33 70 139 33 70 139 33 70 139 33 70 139 33 70 139 33 70 139 33 70 139 33 70 139 33 70 139 33 70 139 33 70 139 33 70 139 33 70 139 33 70 139 33 70 139 33 70 139 33 70 139 33 70 139 33 70 139 33 70 139 33 70 139 33 70 139 33 70 139 33 70 139 33 70 139 33 70 139 33 70 139 33 70 139 33 70 139 33 70 139 33 70 139 33 70 139 33 70 139 33 70 139 33 70 139 33 70 139 33 70 139 33 70 139 33 70 139 33 70 139 33 70 139 33 70 139 33 70 139 33 70 139 33 70 139 33 70 139 33 70 139 33 70 139 33 70 139 33 70 139 33 70 139 33 70 139 33 70 139 33 70 139 33 70 139 33 70 139 33 70 139 33 70 139 33 70 139 33 70 139 33 70 139 33 70 139 33 70 139 33 70 139 33 70 139 33 70 139 33 70 139 33 70 139 33 70 139 33 70 139 33 70 139 33 70 139 33 70 139 33 70 139 33 70 139 33 70 139 33 70 139 33 70 139 33 70 139 33 70 139 33 70 139 33 70 139 33 70 139 33 70 139 33 70 139 33 70 139 33 70 139 33 70 139 33 70 139 33 70 139 33 70 139 33 70 139 33 70 139 33 70 139 33 70 139 33 70 139 33 70 139 33 70 139 33 70 139 33 70 139 33 70 139 33 70 139 33 70 139 33 70 139 33 70 139 33 70 139 33 70 139 33 70 139 33 70 139 33 70 139 33 70 139 33 70 139 33 70 139 33 70 139 33 70 139 33 70 139 33 70 139 33 70 139 33 70 139 33 70 139 33 70 139 33 70 139 33 70 139 33 70 139 33 70 139 33 70 139 33 70 139 33 70 139 33 70 139 33 70 139 33 70 139 33 70 139 33 70 139 33 70 139 33 70 139 33 70 139 33 70 139 33 70 139 33 70 139 33 70 139 33 70 139 33 70 139 33 70 139 33 70 139 33 70 139 33 70 139 33 70 139 33 70 139 33 70 139 33 70 139 33 70 139 33 70 139 33 70 139 33 70 139 33 70 139 33 70 139 33 70 139 33 70 139 33 70 139 33 70 139 33 70 139 33 70 139 33 70 139 33 70 139 33 70 139 33 70 139 33 70 139 33 70 139 33 70 139 33 70 139 33 70 139 33 70 139 33 70 139 33 70 139 33 70 139 33 70 139 33 70 139 33 70 139 33 70 139 33 70 139 33 70 139 33 70 139 33 70 139 33 70 139 33 70 139 33 70 139 33 70 139 33 70 139 33 70 139 33 70 139 33 70 139 33 70 139 33 70 139 33 70 139 33 70 139 33 70 139 33 70 139 33 70 139 33 70 139 33 70 139 33 70 139 33 70 139 33 70 139 33 70 139 33 70 139 33 70 139 33 70 139 33 70 139 33 70 139 33 70 139 33 70 139 33 70 139 33 70 139 33 70 139 33 70 139 33 70 139 33 70 139 33 70 139 33 70 139 33 70 139 33 70 139 33 70 139 33 70 139 33 70 139 33 70 139 33 70 139 33 70 139 33 70 139 33 70 139 33 70 139 33 70 139 33 70 139 33 70 139 33 70 139 33 70 139 33 70 139 33 70 139 33 70 139 33 70 139 33 70 139 33 70 139 33 70 139 33 70 139 33 70 139 33 70 139 33 70 139 33 70 139 33 70 139 33 70 139 33 70 139 33 70 139 33 70 139 33 70 139 33 70 139 33 70 139 33 70 139 33 70 139 33 70 139 33 70 139 33 70 139 33 70 139 33 70 139 33 70 139 33 70 139 
33 70 139 33 70 139 33 70 139 33 70 139 33 70 139 33 70 139 33 70 139 33 70 139 33 70 139 33 70 139 33 70 139 33 70 139 33 70 139 33 70 139 33 70 139 33 70 139 33 70 139 33 70 139 33 70 139 33 70 139 33 70 139 33 70 139 33 70 139 33 70 139 33 70 139 33 70 139 33 70 139 33 70 139 33 70 139 33 70 139 33 70 139 33 70 139 33 70 139 33 70 139 33 70 139 33 70 139 33 70 139 33 70 139 33 70 139 33 70 139 33 70 139 33 70 139 33 70 139 33 70 139 33 70 139 33 70 139 33 70 139 33 70 139 33 70 139 33 70 139 33 70 139 33 70 139 33 70 139 33 70 139 33 70 139 33 70 139 33 70 139 33 70 139 33 70 139 33 70 139 33 70 139 33 70 139 33 70 139 33 70 139 33 70 139 33 70 139 33 70 139 33 70 139 33 70 139 33 70 139 33 70 139 33 70 139 33 70 139 33 70 139 33 70 139 33 70 139 33 70 139 33 70 139 33 70 139 33 70 139 33 70 139 33 70 139 33 70 139 33 70 139 33 70 139 33 70 139 33 70 139 33 70 139 33 70 139 33 70 139 33 70 139 33 70 139 33 70 139 33 70 139 33 70 139 33 70 139 33 70 139 33 70 139 33 70 139 33 70 139 33 70 139 33 70 139 33 70 139 33 70 139 33 70 139 33 70 139 33 70 139 33 70 139 33 70 139 33 70 139 33 70 139 33 70 139 33 70 139 33 70 139 33 70 139 33 70 139 33 70 139 33 70 139 33 70 139 33 70 139 33 70 139 33 70 139 33 70 139 33 70 139 33 70 139 33 70 139 33 70 139 33 70 139 33 70 139 33 70 139 33 70 139 33 70 139 33 70 139 33 70 139 33 70 139 33 70 139 33 70 139 33 70 139 33 70 139 33 70 139 33 70 139 33 70 139 33 70 139 33 70 139 33 70 139 33 70 139 33 70 139 33 70 139 33 70 139 33 70 139 33 70 139 33 70 139 33 70 139 33 70 139 33 70 139 33 70 139 33 70 139 33 70 139 33 70 139 33 70 139 33 70 139 33 70 139 33 70 139 33 70 139 33 70 139 33 70 139 33 70 139 33 70 139 33 70 139 33 70 139 33 70 139 33 70 139 33 70 139 33 70 139 33 70 139 33 70 139 33 70 139 33 70 139 33 70 139 33 70 139 33 70 139 33 70 139 33 70 139 33 70 139 33 70 139 33 70 139 33 70 139 33 70 139 33 70 139 33 70 139 33 70 139 33 70 139 33 70 139 33 70 139 33 70 139 33 70 139 33 70 139 33 70 139 33 70 139 33 70 139 33 70 139 33 70 139 33 70 139 33 70 139 33 70 139 33 70 139 33 70 139 33 70 139 33 70 139 33 70 139 33 70 139 33 70 139 33 70 139 33 70 139 33 70 139 33 70 139 33 70 139 33 70 139 33 70 139 33 70 139 33 70 139 33 70 139 33 70 139 33 70 139 33 70 139 33 70 139 33 70 139 33 70 139 33 70 139 33 70 139 33 70 139 33 70 139 33 70 139 33 70 139 33 70 139 33 70 139 33 70 139 33 70 139 33 70 139 33 70 139 33 70 139 33 70 139 33 70 139 33 70 139 33 70 139 33 70 139 33 70 139 33 70 139 33 70 139 33 70 139 33 70 139 33 70 139 33 70 139 33 70 139 33 70 139 33 70 139 33 70 139 33 70 139 33 70 139 33 70 139 33 70 139 33 70 139 33 70 139 33 70 139 33 70 139 33 70 139 33 70 139 33 70 139 33 70 139 33 70 139 33 70 139 33 70 139 33 70 139 33 70 139 33 70 139 33 70 139 33 70 139 33 70 139 33 70 139 33 70 139 33 70 139 33 70 139 33 70 139 33 70 139 33 70 139 33 70 139 33 70 139 33 70 139 33 70 139 33 70 139 33 70 139 33 70 139 33 70 139 33 70 139 33 70 139 33 70 139 33 70 139 33 70 139 33 70 139 33 70 139 
33 70 139 33 70 139 33 70 139 33 70 139 33 70 139 33 70 139 33 70 139 33 70 139 33 70 139 33 70 139 33 70 139 33 70 139 33 70 139 33 70 139 33 70 139 33 70 139 33 70 139 33 70 139 33 70 139 33 70 139 33 70 139 33 70 139 33 70 139 33 70 139 33 70 139 33 70 139 33 70 139 33 70 139 33 70 139 33 70 139 33 70 139 33 70 139 33 70 139 33 70 139 33 70 139 33 70 139 33 70 139 33 70 139 33 70 139 33 70 139 33 70 139 33 70 139 33 70 139 33 70 139 33 70 139 33 70 139 33 70 139 33 70 139 33 70 139 33 70 139 33 70 139 33 70 139 33 70 139 33 70 139 33 70 139 33 70 139 33 70 139 33 70 139 33 70 139 33 70 139 33 70 139 33 70 139 33 70 139 33 70 139 33 70 139 33 70 139 33 70 139 33 70 139 33 70 139 33 70 139 33 70 139 33 70 139 33 70 139 33 70 139 33 70 139 33 70 139 33 70 139 33 70 139 33 70 139 33 70 139 33 70 139 33 70 139 33 70 139 33 70 139 33 70 139 33 70 139 33 70 139 33 70 139 33 70 139 33 70 139 33 70 139 33 70 139 33 70 139 33 70 139 33 70 139 33 70 139 33 70 139 33 70 139 33 70 139 33 70 139 33 70 139 33 70 139 33 70 139 33 70 139 33 70 139 33 70 139 33 70 139 33 70 139 33 70 139 33 70 139 33 70 139 33 70 139 33 70 139 33 70 139 33 70 139 33 70 139 33 70 139 33 70 139 33 70 139 33 70 139 33 70 139 33 70 139 33 70 139 33 70 139 33 70 139 33 70 139 33 70 139 33 70 139 33 70 139 33 70 139 33 70 139 33 70 139 33 70 139 33 70 139 33 70 139 33 70 139 33 70 139 33 70 139 33 70 139 33 70 139 33 70 139 33 70 139 33 70 139 33 70 139 33 70 139 33 70 139 33 70 139 33 70 139 33 70 139 33 70 139 33 70 139 33 70 139 33 70 139 33 70 139 33 70 139 33 70 139 33 70 139 33 70 139 33 70 139 33 70 139 33 70 139 33 70 139 33 70 139 33 70 139 33 70 139 33 70 139 33 70 139 33 70 139 33 70 139 33 70 139 33 70 139 33 70 139 33 70 139 33 70 139 33 70 139 33 70 139 33 70 139 33 70 139 33 70 139 33 70 139 33 70 139 33 70 139 33 70 139 33 70 139 33 70 139 33 70 139 33 70 139 33 70 139 33 70 139 33 70 139 33 70 139 33 70 139 33 70 139 33 70 139 33 70 139 33 70 139 33 70 139 33 70 139 33 70 139 33 70 139 33 70 139 33 70 139 33 70 139 33 70 139 33 70 139 33 70 139 33 70 139 33 70 139 33 70 139 33 70 139 33 70 139 33 70 139 33 70 139 33 70 139 33 70 139 33 70 139 33 70 139 33 70 139 33 70 139 33 70 139 33 70 139 33 70 139 33 70 139 33 70 139 33 70 139 33 70 139 33 70 139 33 70 139 33 70 139 33 70 139 33 70 139 33 70 139 33 70 139 33 70 139 33 70 139 33 70 139 33 70 139 33 70 139 33 70 139 33 70 139 33 70 139 33 70 139 33 70 139 33 70 139 33 70 139 33 70 139 33 70 139 33 70 139 33 70 139 33 70 139 33 70 139 33 70 139 33 70 139 33 70 139 33 70 139 33 70 139 33 70 139 33 70 139 33 70 139 33 70 139 33 70 139 33 70 139 33 70 139 33 70 139 33 70 139 33 70 139 33 70 139 33 70 139 33 70 139 33 70 139 33 70 139 33 70 139 33 70 139 33 70 139 33 70 139 33 70 139 33 70 139 33 70 139 33 70 139 33 70 139 33 70 139 33 70 139 33 70 139 33 70 139 33 70 139 33 70 139 33 70 139 33 70 139 33 70 139 33 70 139 33 70 139 33 70 139 33 70 139 33 70 139 33 70 139 33 70 139 33 70 139 33 70 139 33 70 139 33 70 139 
33 70 139 33 70 139 33 70 139 33 70 139 33 70 139 33 70 139 33 70 139 33 70 139 33 70 139 33 70 139 33 70 139 33 70 139 33 70 139 33 70 139 33 70 139 33 70 139 33 70 139 33 70 139 33 70 139 33 70 139 33 70 139 33 70 139 33 70 139 33 70 139 33 70 139 33 70 139 33 70 139 33 70 139 33 70 139 33 70 139 33 70 139 33 70 139 33 70 139 33 70 139 33 70 139 33 70 139 33 70 139 33 70 139 33 70 139 33 70 139 33 70 139 33 70 139 33 70 139 33 70 139 33 70 139 33 70 139 33 70 139 33 70 139 33 70 139 33 70 139 33 70 139 33 70 139 33 70 139 33 70 139 33 70 139 33 70 139 33 70 139 33 70 139 33 70 139 33 70 139 33 70 139 33 70 139 33 70 139 33 70 139 33 70 139 33 70 139 33 70 139 33 70 139 33 70 139 33 70 139 33 70 139 33 70 139 33 70 139 33 70 139 33 70 139 33 70 139 33 70 139 33 70 139 33 70 139 33 70 139 33 70 139 33 70 139 33 70 139 33 70 139 33 70 139 33 70 139 33 70 139 33 70 139 33 70 139 33 70 139 33 70 139 33 70 139 33 70 139 33 70 139 33 70 139 33 70 139 33 70 139 33 70 139 33 70 139 33 70 139 33 70 139 33 70 139 33 70 139 33 70 139 33 70 139 33 70 139 33 70 139 33 70 139 33 70 139 33 70 139 33 70 139 33 70 139 33 70 139 33 70 139 33 70 139 33 70 139 33 70 139 33 70 139 33 70 139 33 70 139 33 70 139 33 70 139 33 70 139 33 70 139 33 70 139 33 70 139 33 70 139 33 70 139 33 70 139 33 70 139 33 70 139 33 70 139 33 70 139 33 70 139 33 70 139 33 70 139 33 70 139 33 70 139 33 70 139 33 70 139 33 70 139 33 70 139 33 70 139 33 70 139 33 70 139 33 70 139 33 70 139 33 70 139 33 70 139 33 70 139 33 70 139 33 70 139 33 70 139 33 70 139 33 70 139 33 70 139 33 70 139 33 70 139 33 70 139 33 70 139 33 70 139 33 70 139 33 70 139 33 70 139 33 70 139 33 70 139 33 70 139 33 70 139 33 70 139 33 70 139 33 70 139 33 70 139 33 70 139 33 70 139 33 70 139 33 70 139 33 70 139 33 70 139 33 70 139 33 70 139 33 70 139 33 70 139 33 70 139 33 70 139 33 70 139 33 70 139 33 70 139 33 70 139 33 70 139 33 70 139 33 70 139 33 70 139 33 70 139 33 70 139 33 70 139 33 70 139 33 70 139 33 70 139 33 70 139 33 70 139 33 70 139 33 70 139 33 70 139 33 70 139 33 70 139 33 70 139 33 70 139 33 70 139 33 70 139 33 70 139 33 70 139 33 70 139 33 70 139 33 70 139 33 70 139 33 70 139 33 70 139 33 70 139 33 70 139 33 70 139 33 70 139 33 70 139 33 70 139 33 70 139 33 70 139 33 70 139 33 70 139 33 70 139 33 70 139 33 70 139 33 70 139 33 70 139 33 70 139 33 70 139 33 70 139 33 70 139 33 70 139 33 70 139 33 70 139 33 70 139 33 70 139 33 70 139 33 70 139 33 70 139 33 70 139 33 70 139 33 70 139 33 70 139 33 70 139 33 70 139 33 70 139 33 70 139 33 70 139 33 70 139 33 70 139 33 70 139 33 70 139 33 70 139 33 70 139 33 70 139 33 70 139 33 70 139 33 70 139 33 70 139 33 70 139 33 70 139 33 70 139 33 70 139 33 70 139 33 70 139 33 70 139 33 70 139 33 70 139 33 70 139 33 70 139 33 70 139 33 70 139 33 70 139 33 70 139 33 70 139 33 70 139 33 70 139 33 70 139 33 70 139 33 70 139 33 70 139 33 70 139 33 70 139 33 70 139 33 70 139 33 70 139 33 70 139 33 70 139 33 70 139 33 70 139 33 70 139 33 70 139 33 70 139 33 70 139 33 70 139 
33 70 139 33 70 139 33 70 139 33 70 139 33 70 139 33 70 139 33 70 139 33 70 139 33 70 139 33 70 139 33 70 139 33 70 139 33 70 139 33 70 139 33 70 139 33 70 139 33 70 139 33 70 139 33 70 139 33 70 139 33 70 139 33 70 139 33 70 139 33 70 139 33 70 139 33 70 139 33 70 139 33 70 139 33 70 139 33 70 139 33 70 139 33 70 139 33 70 139 33 70 139 33 70 139 33 70 139 33 70 139 33 70 139 33 70 139 33 70 139 33 70 139 33 70 139 33 70 139 33 70 139 33 70 139 33 70 139 33 70 139 33 70 139 33 70 139 33 70 139 33 70 139 33 70 139 33 70 139 33 70 139 33 70 139 33 70 139 33 70 139 33 70 139 33 70 139 33 70 139 33 70 139 33 70 139 33 70 139 33 70 139 33 70 139 33 70 139 33 70 139 33 70 139 33 70 139 33 70 139 33 70 139 33 70 139 33 70 139 33 70 139 33 70 139 33 70 139 33 70 139 33 70 139 33 70 139 33 70 139 33 70 139 33 70 139 33 70 139 33 70 139 33 70 139 33 70 139 33 70 139 33 70 139 33 70 139 33 70 139 33 70 139 33 70 139 33 70 139 33 70 139 33 70 139 33 70 139 33 70 139 33 70 139 33 70 139 33 70 139 33 70 139 33 70 139 33 70 139 33 70 139 33 70 139 33 70 139 33 70 139 33 70 139 33 70 139 33 70 139 33 70 139 33 70 139 33 70 139 33 70 139 33 70 139 33 70 139 33 70 139 33 70 139 33 70 139 33 70 139 33 70 139 33 70 139 33 70 139 33 70 139 33 70 139 33 70 139 33 70 139 33 70 139 33 70 139 33 70 139 33 70 139 33 70 139 33 70 139 33 70 139 33 70 139 33 70 139 33 70 139 33 70 139 33 70 139 33 70 139 33 70 139 33 70 139 33 70 139 33 70 139 33 70 139 33 70 139 33 70 139 33 70 139 33 70 139 33 70 139 33 70 139 33 70 139 33 70 139 33 70 139 33 70 139 33 70 139 33 70 139 33 70 139 33 70 139 33 70 139 33 70 139 33 70 139 33 70 139 33 70 139 33 70 139 33 70 139 33 70 139 33 70 139 33 70 139 33 70 139 33 70 139 33 70 139 33 70 139 33 70 139 33 70 139 33 70 139 33 70 139 33 70 139 33 70 139 33 70 139 33 70 139 33 70 139 33 70 139 33 70 139 33 70 139 33 70 139 33 70 139 33 70 139 33 70 139 33 70 139 33 70 139 33 70 139 33 70 139 33 70 139 33 70 139 33 70 139 33 70 139 33 70 139 33 70 139 33 70 139 33 70 139 33 70 139 33 70 139 33 70 139 33 70 139 33 70 139 33 70 139 33 70 139 33 70 139 33 70 139 33 70 139 33 70 139 33 70 139 33 70 139 33 70 139 33 70 139 33 70 139 33 70 139 33 70 139 33 70 139 33 70 139 33 70 139 33 70 139 33 70 139 33 70 139 33 70 139 33 70 139 33 70 139 33 70 139 33 70 139 33 70 139 33 70 139 33 70 139 33 70 139 33 70 139 33 70 139 33 70 139 33 70 139 33 70 139 33 70 139 33 70 139 33 70 139 33 70 139 33 70 139 33 70 139 33 70 139 33 70 139 33 70 139 33 70 139 33 70 139 33 70 139 33 70 139 33 70 139 33 70 139 33 70 139 33 70 139 33 70 139 33 70 139 33 70 139 33 70 139 33 70 139 33 70 139 33 70 139 33 70 139 33 70 139 33 70 139 33 70 139 33 70 139 33 70 139 33 70 139 33 70 139 33 70 139 33 70 139 33 70 139 33 70 139 33 70 139 33 70 139 33 70 139 33 70 139 33 70 139 33 70 139 33 70 139 33 70 139 33 70 139 33 70 139 33 70 139 33 70 139 33 70 139 33 70 139 33 70 139 33 70 139 33 70 139 33 70 139 33 70 139 33 70 139 33 70 139 33 70 139 33 70 139 33 70 139 33 70 139 
33 70 139 33 70 139 33 70 139 33 70 139 33 70 139 33 70 139 33 70 139 33 70 139 33 70 139 33 70 139 33 70 139 33 70 139 33 70 139 33 70 139 33 70 139 33 70 139 33 70 139 33 70 139 33 70 139 33 70 139 33 70 139 33 70 139 33 70 139 33 70 139 33 70 139 33 70 139 33 70 139 33 70 139 33 70 139 33 70 139 33 70 139 33 70 139 33 70 139 33 70 139 33 70 139 33 70 139 33 70 139 33 70 139 33 70 139 33 70 139 33 70 139 33 70 139 33 70 139 33 70 139 33 70 139 33 70 139 33 70 139 33 70 139 33 70 139 33 70 139 33 70 139 33 70 139 33 70 139 33 70 139 33 70 139 33 70 139 33 70 139 33 70 139 33 70 139 33 70 139 33 70 139 33 70 139 33 70 139 33 70 139 33 70 139 33 70 139 33 70 139 33 70 139 33 70 139 33 70 139 33 70 139 33 70 139 33 70 139 33 70 139 33 70 139 33 70 139 33 70 139 33 70 139 33 70 139 33 70 139 33 70 139 33 70 139 33 70 139 33 70 139 33 70 139 33 70 139 33 70 139 33 70 139 33 70 139 33 70 139 33 70 139 33 70 139 33 70 139 33 70 139 33 70 139 33 70 139 33 70 139 33 70 139 33 70 139 33 70 139 33 70 139 33 70 139 33 70 139 33 70 139 33 70 139 33 70 139 33 70 139 33 70 139 33 70 139 33 70 139 33 70 139 33 70 139 33 70 139 33 70 139 33 70 139 33 70 139 33 70 139 33 70 139 33 70 139 33 70 139 33 70 139 33 70 139 33 70 139 33 70 139 33 70 139 33 70 139 33 70 139 33 70 139 33 70 139 33 70 139 33 70 139 33 70 139 33 70 139 33 70 139 33 70 139 33 70 139 33 70 139 33 70 139 33 70 139 33 70 139 33 70 139 33 70 139 33 70 139 33 70 139 33 70 139 33 70 139 33 70 139 33 70 139 33 70 139 33 70 139 33 70 139 33 70 139 33 70 139 33 70 139 33 70 139 33 70 139 33 70 139 33 70 139 33 70 139 33 70 139 33 70 139 33 70 139 33 70 139 33 70 139 33 70 139 33 70 139 33 70 139 33 70 139 33 70 139 33 70 139 33 70 139 33 70 139 33 70 139 33 70 139 33 70 139 33 70 139 33 70 139 33 70 139 33 70 139 33 70 139 33 70 139 33 70 139 33 70 139 33 70 139 33 70 139 33 70 139 33 70 139 33 70 139 33 70 139 33 70 139 33 70 139 33 70 139 33 70 139 33 70 139 33 70 139 33 70 139 33 70 139 33 70 139 33 70 139 33 70 139 33 70 139 33 70 139 33 70 139 33 70 139 33 70 139 33 70 139 33 70 139 33 70 139 33 70 139 33 70 139 33 70 139 33 70 139 33 70 139 33 70 139 33 70 139 33 70 139 33 70 139 33 70 139 33 70 139 33 70 139 33 70 139 33 70 139 33 70 139 33 70 139 33 70 139 33 70 139 33 70 139 33 70 139 33 70 139 33 70 139 33 70 139 33 70 139 33 70 139 33 70 139 33 70 139 33 70 139 33 70 139 33 70 139 33 70 139 33 70 139 33 70 139 33 70 139 33 70 139 33 70 139 33 70 139 33 70 139 33 70 139 33 70 139 33 70 139 33 70 139 33 70 139 33 70 139 33 70 139 33 70 139 33 70 139 33 70 139 33 70 139 33 70 139 33 70 139 33 70 139 33 70 139 33 70 139 33 70 139 33 70 139 33 70 139 33 70 139 33 70 139 33 70 139 33 70 139 33 70 139 33 70 139 33 70 139 33 70 139 33 70 139 33 70 139 33 70 139 33 70 139 33 70 139 33 70 139 33 70 139 33 70 139 33 70 139 33 70 139 33 70 139 33 70 139 33 70 139 33 70 139 33 70 139 33 70 139 33 70 139 33 70 139 33 70 139 33 70 139 33 70 139 33 70 139 33 70 139 33 70 139 33 70 139 33 70 139 33 70 139 
33 70 139 33 70 139 33 70 139 33 70 139 33 70 139 33 70 139 33 70 139 33 70 139 33 70 139 33 70 139 33 70 139 33 70 139 33 70 139 33 70 139 33 70 139 33 70 139 33 70 139 33 70 139 33 70 139 33 70 139 33 70 139 33 70 139 33 70 139 33 70 139 33 70 139 33 70 139 33 70 139 33 70 139 33 70 139 33 70 139 33 70 139 33 70 139 33 70 139 33 70 139 33 70 139 33 70 139 33 70 139 33 70 139 33 70 139 33 70 139 33 70 139 33 70 139 33 70 139 33 70 139 33 70 139 33 70 139 33 70 139 33 70 139 33 70 139 33 70 139 33 70 139 33 70 139 33 70 139 33 70 139 33 70 139 33 70 139 33 70 139 33 70 139 33 70 139 33 70 139 33 70 139 33 70 139 33 70 139 33 70 139 33 70 139 33 70 139 33 70 139 33 70 139 33 70 139 33 70 139 33 70 139 33 70 139 33 70 139 33 70 139 33 70 139 33 70 139 33 70 139 33 70 139 33 70 139 33 70 139 33 70 139 33 70 139 33 70 139 33 70 139 33 70 139 33 70 139 33 70 139 33 70 139 33 70 139 33 70 139 33 70 139 33 70 139 33 70 139 33 70 139 33 70 139 33 70 139 33 70 139 33 70 139 33 70 139 33 70 139 33 70 139 33 70 139 33 70 139 33 70 139 33 70 139 33 70 139 33 70 139 33 70 139 33 70 139 33 70 139 33 70 139 33 70 139 33 70 139 33 70 139 33 70 139 33 70 139 33 70 139 33 70 139 33 70 139 33 70 139 33 70 139 33 70 139 33 70 139 33 70 139 33 70 139 33 70 139 33 70 139 33 70 139 33 70 139 33 70 139 33 70 139 33 70 139 33 70 139 33 70 139 33 70 139 33 70 139 33 70 139 33 70 139 33 70 139 33 70 139 33 70 139 33 70 139 33 70 139 33 70 139 33 70 139 33 70 139 33 70 139 33 70 139 33 70 139 33 70 139 33 70 139 33 70 139 33 70 139 33 70 139 33 70 139 33 70 139 33 70 139 33 70 139 33 70 139 33 70 139 33 70 139 33 70 139 33 70 139 33 70 139 33 70 139 33 70 139 33 70 139 33 70 139 33 70 139 33 70 139 33 70 139 33 70 139 33 70 139 33 70 139 33 70 139 33 70 139 33 70 139 33 70 139 33 70 139 33 70 139 33 70 139 33 70 139 33 70 139 33 70 139 33 70 139 33 70 139 33 70 139 33 70 139 33 70 139 33 70 139 33 70 139 33 70 139 33 70 139 33 70 139 33 70 139 33 70 139 33 70 139 33 70 139 33 70 139 33 70 139 33 70 139 33 70 139 33 70 139 33 70 139 33 70 139 33 70 139 33 70 139 33 70 139 33 70 139 33 70 139 33 70 139 33 70 139 33 70 139 33 70 139 33 70 139 33 70 139 33 70 139 33 70 139 33 70 139 33 70 139 33 70 139 33 70 139 33 70 139 33 70 139 33 70 139 33 70 139 33 70 139 33 70 139 33 70 139 33 70 139 33 70 139 33 70 139 33 70 139 33 70 139 33 70 139 33 70 139 33 70 139 33 70 139 33 70 139 33 70 139 33 70 139 33 70 139 33 70 139 33 70 139 33 70 139 33 70 139 33 70 139 33 70 139 33 70 139 33 70 139 33 70 139 33 70 139 33 70 139 33 70 139 33 70 139 33 70 139 33 70 139 33 70 139 33 70 139 33 70 139 33 70 139 33 70 139 33 70 139 33 70 139 33 70 139 33 70 139 33 70 139 33 70 139 33 70 139 33 70 139 33 70 139 33 70 139 33 70 139 33 70 139 33 70 139 33 70 139 33 70 139 33 70 139 33 70 139 33 70 139 33 70 139 33 70 139 33 70 139 33 70 139 33 70 139 33 70 139 33 70 139 33 70 139 33 70 139 33 70 139 33 70 139 33 70 139 33 70 139 33 70 139 33 70 139 33 70 139 33 70 139 33 70 139 33 70 139 33 70 139 
33 70 139 33 70 139 33 70 139 33 70 139 33 70 139 33 70 139 33 70 139 33 70 139 33 70 139 33 70 139 33 70 139 33 70 139 33 70 139 33 70 139 33 70 139 33 70 139 33 70 139 33 70 139 33 70 139 33 70 139 33 70 139 33 70 139 33 70 139 33 70 139 33 70 139 33 70 139 33 70 139 33 70 139 33 70 139 33 70 139 33 70 139 33 70 139 33 70 139 33 70 139 33 70 139 33 70 139 33 70 139 33 70 139 33 70 139 33 70 139 33 70 139 33 70 139 33 70 139 33 70 139 33 70 139 33 70 139 33 70 139 33 70 139 33 70 139 33 70 139 33 70 139 33 70 139 33 70 139 33 70 139 33 70 139 33 70 139 33 70 139 33 70 139 33 70 139 33 70 139 33 70 139 33 70 139 33 70 139 33 70 139 33 70 139 33 70 139 33 70 139 33 70 139 33 70 139 33 70 139 33 70 139 33 70 139 33 70 139 33 70 139 33 70 139 33 70 139 33 70 139 33 70 139 33 70 139 33 70 139 33 70 139 33 70 139 33 70 139 33 70 139 33 70 139 33 70 139 33 70 139 33 70 139 33 70 139 33 70 139 33 70 139 33 70 139 33 70 139 33 70 139 33 70 139 33 70 139 33 70 139 33 70 139 33 70 139 33 70 139 33 70 139 33 70 139 33 70 139 33 70 139 33 70 139 33 70 139 33 70 139 33 70 139 33 70 139 33 70 139 33 70 139 33 70 139 33 70 139 33 70 139 33 70 139 33 70 139 33 70 139 33 70 139 33 70 139 33 70 139 33 70 139 33 70 139 33 70 139 33 70 139 33 70 139 33 70 139 33 70 139 33 70 139 33 70 139 33 70 139 33 70 139 33 70 139 33 70 139 33 70 139 33 70 139 33 70 139 33 70 139 33 70 139 33 70 139 33 70 139 33 70 139 33 70 139 33 70 139 33 70 139 33 70 139 33 70 139 33 70 139 33 70 139 33 70 139 33 70 139 33 70 139 33 70 139 33 70 139 33 70 139 33 70 139 33 70 139 33 70 139 33 70 139 33 70 139 33 70 139 33 70 139 33 70 139 33 70 139 33 70 139 33 70 139 33 70 139 33 70 139 33 70 139 33 70 139 33 70 139 33 70 139 33 70 139 33 70 139 33 70 139 33 70 139 33 70 139 33 70 139 33 70 139 33 70 139 33 70 139 33 70 139 33 70 139 33 70 139 33 70 139 33 70 139 33 70 139 33 70 139 33 70 139 33 70 139 33 70 139 33 70 139 33 70 139 33 70 139 33 70 139 33 70 139 33 70 139 33 70 139 33 70 139 33 70 139 33 70 139 33 70 139 33 70 139 33 70 139 33 70 139 33 70 139 33 70 139 33 70 139 33 70 139 33 70 139 33 70 139 33 70 139 33 70 139 33 70 139 33 70 139 33 70 139 33 70 139 33 70 139 33 70 139 33 70 139 33 70 139 33 70 139 33 70 139 33 70 139 33 70 139 33 70 139 33 70 139 33 70 139 33 70 139 33 70 139 33 70 139 33 70 139 33 70 139 33 70 139 33 70 139 33 70 139 33 70 139 33 70 139 33 70 139 33 70 139 33 70 139 33 70 139 33 70 139 33 70 139 33 70 139 33 70 139 33 70 139 33 70 139 33 70 139 33 70 139 33 70 139 33 70 139 33 70 139 33 70 139 33 70 139 33 70 139 33 70 139 33 70 139 33 70 139 33 70 139 33 70 139 33 70 139 33 70 139 33 70 139 33 70 139 33 70 139 33 70 139 33 70 139 33 70 139 33 70 139 33 70 139 33 70 139 33 70 139 33 70 139 33 70 139 33 70 139 33 70 139 33 70 139 33 70 139 33 70 139 33 70 139 33 70 139 33 70 139 33 70 139 33 70 139 33 70 139 33 70 139 33 70 139 33 70 139 33 70 139 33 70 139 33 70 139 33 70 139 33 70 139 33 70 139 33 70 139 33 70 139 33 70 139 33 70 139 33 70 139 33 70 139 
33 70 139 33 70 139 33 70 139 33 70 139 33 70 139 33 70 139 33 70 139 33 70 139 33 70 139 33 70 139 33 70 139 33 70 139 33 70 139 33 70 139 33 70 139 33 70 139 33 70 139 33 70 139 33 70 139 33 70 139 33 70 139 33 70 139 33 70 139 33 70 139 33 70 139 33 70 139 33 70 139 33 70 139 33 70 139 33 70 139 33 70 139 33 70 139 33 70 139 33 70 139 33 70 139 33 70 139 33 70 139 33 70 139 33 70 139 33 70 139 33 70 139 33 70 139 33 70 139 33 70 139 33 70 139 33 70 139 33 70 139 33 70 139 33 70 139 33 70 139 33 70 139 33 70 139 33 70 139 33 70 139 33 70 139 33 70 139 33 70 139 33 70 139 33 70 139 33 70 139 33 70 139 33 70 139 33 70 139 33 70 139 33 70 139 33 70 139 33 70 139 33 70 139 33 70 139 33 70 139 33 70 139 33 70 139 33 70 139 33 70 139 33 70 139 33 70 139 33 70 139 33 70 139 33 70 139 33 70 139 33 70 139 33 70 139 33 70 139 33 70 139 33 70 139 33 70 139 33 70 139 33 70 139 33 70 139 33 70 139 33 70 139 33 70 139 33 70 139 33 70 139 33 70 139 33 70 139 33 70 139 33 70 139 33 70 139 33 70 139 33 70 139 33 70 139 33 70 139 33 70 139 33 70 139 33 70 139 33 70 139 33 70 139 33 70 139 33 70 139 33 70 139 33 70 139 33 70 139 33 70 139 33 70 139 33 70 139 33 70 139 33 70 139 33 70 139 33 70 139 33 70 139 33 70 139 33 70 139 33 70 139 33 70 139 33 70 139 33 70 139 33 70 139 33 70 139 33 70 139 33 70 139 33 70 139 33 70 139 33 70 139 33 70 139 33 70 139 33 70 139 33 70 139 33 70 139 33 70 139 33 70 139 33 70 139 33 70 139 33 70 139 33 70 139 33 70 139 33 70 139 33 70 139 33 70 139 33 70 139 33 70 139 33 70 139 33 70 139 33 70 139 33 70 139 33 70 139 33 70 139 33 70 139 33 70 139 33 70 139 33 70 139 33 70 139 33 70 139 33 70 139 33 70 139 33 70 139 33 70 139 33 70 139 33 70 139 33 70 139 33 70 139 33 70 139 33 70 139 33 70 139 33 70 139 33 70 139 33 70 139 33 70 139 33 70 139 33 70 139 33 70 139 33 70 139 33 70 139 33 70 139 33 70 139 33 70 139 33 70 139 33 70 139 33 70 139 33 70 139 33 70 139 33 70 139 33 70 139 33 70 139 33 70 139 33 70 139 33 70 139 33 70 139 33 70 139 33 70 139 33 70 139 33 70 139 33 70 139 33 70 139 33 70 139 33 70 139 33 70 139 33 70 139 33 70 139 33 70 139 33 70 139 33 70 139 33 70 139 33 70 139 33 70 139 33 70 139 33 70 139 33 70 139 33 70 139 33 70 139 33 70 139 33 70 139 33 70 139 33 70 139 33 70 139 33 70 139 33 70 139 33 70 139 33 70 139 33 70 139 33 70 139 33 70 139 33 70 139 33 70 139 33 70 139 33 70 139 33 70 139 33 70 139 33 70 139 33 70 139 33 70 139 33 70 139 33 70 139 33 70 139 33 70 139 33 70 139 33 70 139 33 70 139 33 70 139 33 70 139 33 70 139 33 70 139 33 70 139 33 70 139 33 70 139 33 70 139 33 70 139 33 70 139 33 70 139 33 70 139 33 70 139 33 70 139 33 70 139 33 70 139 33 70 139 33 70 139 33 70 139 33 70 139 33 70 139 33 70 139 33 70 139 33 70 139 33 70 139 33 70 139 33 70 139 33 70 139 33 70 139 33 70 139 33 70 139 33 70 139 33 70 139 33 70 139 33 70 139 33 70 139 33 70 139 33 70 139 33 70 139 33 70 139 33 70 139 33 70 139 33 70 139 33 70 139 33 70 139 33 70 139 33 70 139 33 70 139 33 70 139 33 70 139 33 70 139 33 70 139 
33 70 139 33 70 139 33 70 139 33 70 139 33 70 139 33 70 139 33 70 139 33 70 139 33 70 139 33 70 139 33 70 139 33 70 139 33 70 139 33 70 139 33 70 139 33 70 139 33 70 139 33 70 139 33 70 139 33 70 139 33 70 139 33 70 139 33 70 139 33 70 139 33 70 139 33 70 139 33 70 139 33 70 139 33 70 139 33 70 139 33 70 139 33 70 139 33 70 139 33 70 139 33 70 139 33 70 139 33 70 139 33 70 139 33 70 139 33 70 139 33 70 139 33 70 139 33 70 139 33 70 139 33 70 139 33 70 139 33 70 139 33 70 139 33 70 139 33 70 139 33 70 139 33 70 139 33 70 139 33 70 139 33 70 139 33 70 139 33 70 139 33 70 139 33 70 139 33 70 139 33 70 139 33 70 139 33 70 139 33 70 139 33 70 139 33 70 139 33 70 139 33 70 139 33 70 139 33 70 139 33 70 139 33 70 139 33 70 139 33 70 139 33 70 139 33 70 139 33 70 139 33 70 139 33 70 139 33 70 139 33 70 139 33 70 139 33 70 139 33 70 139 33 70 139 33 70 139 33 70 139 33 70 139 33 70 139 33 70 139 33 70 139 33 70 139 33 70 139 33 70 139 33 70 139 33 70 139 33 70 139 33 70 139 33 70 139 33 70 139 33 70 139 33 70 139 33 70 139 33 70 139 33 70 139 33 70 139 33 70 139 33 70 139 33 70 139 33 70 139 33 70 139 33 70 139 33 70 139 33 70 139 33 70 139 33 70 139 33 70 139 33 70 139 33 70 139 33 70 139 33 70 139 33 70 139 33 70 139 33 70 139 33 70 139 33 70 139 33 70 139 33 70 139 33 70 139 33 70 139 33 70 139 33 70 139 33 70 139 33 70 139 33 70 139 33 70 139 33 70 139 33 70 139 33 70 139 33 70 139 33 70 139 33 70 139 33 70 139 33 70 139 33 70 139 33 70 139 33 70 139 33 70 139 33 70 139 33 70 139 33 70 139 33 70 139 33 70 139 33 70 139 33 70 139 33 70 139 33 70 139 33 70 139 33 70 139 33 70 139 33 70 139 33 70 139 33 70 139 33 70 139 33 70 139 33 70 139 33 70 139 33 70 139 33 70 139 33 70 139 33 70 139 33 70 139 33 70 139 33 70 139 33 70 139 33 70 139 33 70 139 33 70 139 33 70 139 33 70 139 33 70 139 33 70 139 33 70 139 33 70 139 33 70 139 33 70 139 33 70 139 33 70 139 33 70 139 33 70 139 33 70 139 33 70 139 33 70 139 33 70 139 33 70 139 33 70 139 33 70 139 33 70 139 33 70 139 33 70 139 33 70 139 33 70 139 33 70 139 33 70 139 33 70 139 33 70 139 33 70 139 33 70 139 33 70 139 33 70 139 33 70 139 33 70 139 33 70 139 33 70 139 33 70 139 33 70 139 33 70 139 33 70 139 33 70 139 33 70 139 33 70 139 33 70 139 33 70 139 33 70 139 33 70 139 33 70 139 33 70 139 33 70 139 33 70 139 33 70 139 33 70 139 33 70 139 33 70 139 33 70 139 33 70 139 33 70 139 33 70 139 33 70 139 33 70 139 33 70 139 33 70 139 33 70 139 33 70 139 33 70 139 33 70 139 33 70 139 33 70 139 33 70 139 33 70 139 33 70 139 33 70 139 33 70 139 33 70 139 33 70 139 33 70 139 33 70 139 33 70 139 33 70 139 33 70 139 33 70 139 33 70 139 33 70 139 33 70 139 33 70 139 33 70 139 33 70 139 33 70 139 33 70 139 33 70 139 33 70 139 33 70 139 33 70 139 33 70 139 33 70 139 33 70 139 33 70 139 33 70 139 33 70 139 33 70 139 33 70 139 33 70 139 33 70 139 33 70 139 33 70 139 33 70 139 33 70 139 33 70 139 33 70 139 33 70 139 33 70 139 33 70 139 33 70 139 33 70 139 33 70 139 33 70 139 33 70 139 33 70 139 33 70 139 33 70 139 33 70 139 
33 70 139 33 70 139 33 70 139 33 70 139 33 70 139 33 70 139 33 70 139 33 70 139 33 70 139 33 70 139 33 70 139 33 70 139 33 70 139 33 70 139 33 70 139 33 70 139 33 70 139 33 70 139 33 70 139 33 70 139 33 70 139 33 70 139 33 70 139 33 70 139 33 70 139 33 70 139 33 70 139 33 70 139 33 70 139 33 70 139 33 70 139 33 70 139 33 70 139 33 70 139 33 70 139 33 70 139 33 70 139 33 70 139 33 70 139 33 70 139 33 70 139 33 70 139 33 70 139 33 70 139 33 70 139 33 70 139 33 70 139 33 70 139 33 70 139 33 70 139 33 70 139 33 70 139 33 70 139 33 70 139 33 70 139 33 70 139 33 70 139 33 70 139 33 70 139 33 70 139 33 70 139 33 70 139 33 70 139 33 70 139 33 70 139 33 70 139 33 70 139 33 70 139 33 70 139 33 70 139 33 70 139 33 70 139 33 70 139 33 70 139 33 70 139 33 70 139 33 70 139 33 70 139 33 70 139 33 70 139 33 70 139 33 70 139 33 70 139 33 70 139 33 70 139 33 70 139 33 70 139 33 70 139 33 70 139 33 70 139 33 70 139 33 70 139 33 70 139 33 70 139 33 70 139 33 70 139 33 70 139 33 70 139 33 70 139 33 70 139 33 70 139 33 70 139 33 70 139 33 70 139 33 70 139 33 70 139 33 70 139 33 70 139 33 70 139 33 70 139 33 70 139 33 70 139 33 70 139 33 70 139 33 70 139 33 70 139 33 70 139 33 70 139 33 70 139 33 70 139 33 70 139 33 70 139 33 70 139 33 70 139 33 70 139 33 70 139 33 70 139 33 70 139 33 70 139 33 70 139 33 70 139 33 70 139 33 70 139 33 70 139 33 70 139 33 70 139 33 70 139 33 70 139 33 70 139 33 70 139 33 70 139 33 70 139 33 70 139 33 70 139 33 70 139 33 70 139 33 70 139 33 70 139 33 70 139 33 70 139 33 70 139 33 70 139 33 70 139 33 70 139 33 70 139 33 70 139 33 70 139 33 70 139 33 70 139 33 70 139 33 70 139 33 70 139 33 70 139 33 70 139 33 70 139 33 70 139 33 70 139 33 70 139 33 70 139 33 70 139 33 70 139 33 70 139 33 70 139 33 70 139 33 70 139 33 70 139 33 70 139 33 70 139 33 70 139 33 70 139 33 70 139 33 70 139 33 70 139 33 70 139 33 70 139 33 70 139 33 70 139 33 70 139 33 70 139 33 70 139 33 70 139 33 70 139 33 70 139 33 70 139 33 70 139 33 70 139 33 70 139 33 70 139 33 70 139 33 70 139 33 70 139 33 70 139 33 70 139 33 70 139 33 70 139 33 70 139 33 70 139 33 70 139 33 70 139 33 70 139 33 70 139 33 70 139 33 70 139 33 70 139 33 70 139 33 70 139 33 70 139 33 70 139 33 70 139 33 70 139 33 70 139 33 70 139 33 70 139 33 70 139 33 70 139 33 70 139 33 70 139 33 70 139 33 70 139 33 70 139 33 70 139 33 70 139 33 70 139 33 70 139 33 70 139 33 70 139 33 70 139 33 70 139 33 70 139 33 70 139 33 70 139 33 70 139 33 70 139 33 70 139 33 70 139 33 70 139 33 70 139 33 70 139 33 70 139 33 70 139 33 70 139 33 70 139 33 70 139 33 70 139 33 70 139 33 70 139 33 70 139 33 70 139 33 70 139 33 70 139 33 70 139 33 70 139 33 70 139 33 70 139 33 70 139 33 70 139 33 70 139 33 70 139 33 70 139 33 70 139 33 70 139 33 70 139 33 70 139 33 70 139 33 70 139 33 70 139 33 70 139 33 70 139 33 70 139 33 70 139 33 70 139 33 70 139 33 70 139 33 70 139 33 70 139 33 70 139 33 70 139 33 70 139 33 70 139 33 70 139 33 70 139 33 70 139 33 70 139 33 70 139 33 70 139 33 70 139 33 70 139 33 70 139 33 70 139 33 70 139 
33 70 139 33 70 139 33 70 139 33 70 139 33 70 139 33 70 139 33 70 139 33 70 139 33 70 139 33 70 139 33 70 139 33 70 139 33 70 139 33 70 139 33 70 139 33 70 139 33 70 139 33 70 139 33 70 139 33 70 139 33 70 139 33 70 139 33 70 139 33 70 139 33 70 139 33 70 139 33 70 139 33 70 139 33 70 139 33 70 139 33 70 139 33 70 139 33 70 139 33 70 139 33 70 139 33 70 139 33 70 139 33 70 139 33 70 139 33 70 139 33 70 139 33 70 139 33 70 139 33 70 139 33 70 139 33 70 139 33 70 139 33 70 139 33 70 139 33 70 139 33 70 139 33 70 139 33 70 139 33 70 139 33 70 139 33 70 139 33 70 139 33 70 139 33 70 139 33 70 139 33 70 139 33 70 139 33 70 139 33 70 139 33 70 139 33 70 139 33 70 139 33 70 139 33 70 139 33 70 139 33 70 139 33 70 139 33 70 139 33 70 139 33 70 139 33 70 139 33 70 139 33 70 139 33 70 139 33 70 139 33 70 139 33 70 139 33 70 139 33 70 139 33 70 139 33 70 139 33 70 139 33 70 139 33 70 139 33 70 139 33 70 139 33 70 139 33 70 139 33 70 139 33 70 139 33 70 139 33 70 139 33 70 139 33 70 139 33 70 139 33 70 139 33 70 139 33 70 139 33 70 139 33 70 139 33 70 139 33 70 139 33 70 139 33 70 139 33 70 139 33 70 139 33 70 139 33 70 139 33 70 139 33 70 139 33 70 139 33 70 139 33 70 139 33 70 139 33 70 139 33 70 139 33 70 139 33 70 139 33 70 139 33 70 139 33 70 139 33 70 139 33 70 139 33 70 139 33 70 139 33 70 139 33 70 139 33 70 139 33 70 139 33 70 139 33 70 139 33 70 139 33 70 139 33 70 139 33 70 139 33 70 139 33 70 139 33 70 139 33 70 139 33 70 139 33 70 139 33 70 139 33 70 139 33 70 139 33 70 139 33 70 139 33 70 139 33 70 139 33 70 139 33 70 139 33 70 139 33 70 139 33 70 139 33 70 139 33 70 139 33 70 139 33 70 139 33 70 139 33 70 139 33 70 139 33 70 139 33 70 139 33 70 139 33 70 139 33 70 139 33 70 139 33 70 139 33 70 139 33 70 139 33 70 139 33 70 139 33 70 139 33 70 139 33 70 139 33 70 139 33 70 139 33 70 139 33 70 139 33 70 139 33 70 139 33 70 139 33 70 139 33 70 139 33 70 139 33 70 139 33 70 139 33 70 139 33 70 139 33 70 139 33 70 139 33 70 139 33 70 139 33 70 139 33 70 139 33 70 139 33 70 139 33 70 139 33 70 139 33 70 139 33 70 139 33 70 139 33 70 139 33 70 139 33 70 139 33 70 139 33 70 139 33 70 139 33 70 139 33 70 139 33 70 139 33 70 139 33 70 139 33 70 139 33 70 139 33 70 139 33 70 139 33 70 139 33 70 139 33 70 139 33 70 139 33 70 139 33 70 139 33 70 139 33 70 139 33 70 139 33 70 139 33 70 139 33 70 139 33 70 139 33 70 139 33 70 139 33 70 139 33 70 139 33 70 139 33 70 139 33 70 139 33 70 139 33 70 139 33 70 139 33 70 139 33 70 139 33 70 139 33 70 139 33 70 139 33 70 139 33 70 139 33 70 139 33 70 139 33 70 139 33 70 139 33 70 139 33 70 139 33 70 139 33 70 139 33 70 139 33 70 139 33 70 139 33 70 139 33 70 139 33 70 139 33 70 139 33 70 139 33 70 139 33 70 139 33 70 139 33 70 139 33 70 139 33 70 139 33 70 139 33 70 139 33 70 139 33 70 139 33 70 139 33 70 139 33 70 139 33 70 139 33 70 139 33 70 139 33 70 139 33 70 139 33 70 139 33 70 139 33 70 139 33 70 139 33 70 139 33 70 139 33 70 139 33 70 139 33 70 139 33 70 139 33 70 139 33 70 139 33 70 139 33 70 139 33 70 139 
33 70 139 33 70 139 33 70 139 33 70 139 33 70 139 33 70 139 33 70 139 33 70 139 33 70 139 33 70 139 33 70 139 33 70 139 33 70 139 33 70 139 33 70 139 33 70 139 33 70 139 33 70 139 33 70 139 33 70 139 33 70 139 33 70 139 33 70 139 33 70 139 33 70 139 33 70 139 33 70 139 33 70 139 33 70 139 33 70 139 33 70 139 33 70 139 33 70 139 33 70 139 33 70 139 33 70 139 33 70 139 33 70 139 33 70 139 33 70 139 33 70 139 33 70 139 33 70 139 33 70 139 33 70 139 33 70 139 33 70 139 33 70 139 33 70 139 33 70 139 33 70 139 33 70 139 33 70 139 33 70 139 33 70 139 33 70 139 33 70 139 33 70 139 33 70 139 33 70 139 33 70 139 33 70 139 33 70 139 33 70 139 33 70 139 33 70 139 33 70 139 33 70 139 33 70 139 33 70 139 33 70 139 33 70 139 33 70 139 33 70 139 33 70 139 33 70 139 33 70 139 33 70 139 33 70 139 33 70 139 33 70 139 33 70 139 33 70 139 33 70 139 33 70 139 33 70 139 33 70 139 33 70 139 33 70 139 33 70 139 33 70 139 33 70 139 33 70 139 33 70 139 33 70 139 33 70 139 33 70 139 33 70 139 33 70 139 33 70 139 33 70 139 33 70 139 33 70 139 33 70 139 33 70 139 33 70 139 33 70 139 33 70 139 33 70 139 33 70 139 33 70 139 33 70 139 33 70 139 33 70 139 33 70 139 33 70 139 33 70 139 33 70 139 33 70 139 33 70 139 33 70 139 33 70 139 33 70 139 33 70 139 33 70 139 33 70 139 33 70 139 33 70 139 33 70 139 33 70 139 33 70 139 33 70 139 33 70 139 33 70 139 33 70 139 33 70 139 33 70 139 33 70 139 33 70 139 33 70 139 33 70 139 33 70 139 33 70 139 33 70 139 33 70 139 33 70 139 33 70 139 33 70 139 33 70 139 33 70 139 33 70 139 33 70 139 33 70 139 33 70 139 33 70 139 33 70 139 33 70 139 33 70 139 33 70 139 33 70 139 33 70 139 33 70 139 33 70 139 33 70 139 33 70 139 33 70 139 33 70 139 33 70 139 33 70 139 33 70 139 33 70 139 33 70 139 33 70 139 33 70 139 33 70 139 33 70 139 33 70 139 33 70 139 33 70 139 33 70 139 33 70 139 33 70 139 33 70 139 33 70 139 33 70 139 33 70 139 33 70 139 33 70 139 33 70 139 33 70 139 33 70 139 33 70 139 33 70 139 33 70 139 33 70 139 33 70 139 33 70 139 33 70 139 33 70 139 33 70 139 33 70 139 33 70 139 33 70 139 33 70 139 33 70 139 33 70 139 33 70 139 33 70 139 33 70 139 33 70 139 33 70 139 33 70 139 33 70 139 33 70 139 33 70 139 33 70 139 33 70 139 33 70 139 33 70 139 33 70 139 33 70 139 33 70 139 33 70 139 33 70 139 33 70 139 33 70 139 33 70 139 33 70 139 33 70 139 33 70 139 33 70 139 33 70 139 33 70 139 33 70 139 33 70 139 33 70 139 33 70 139 33 70 139 33 70 139 33 70 139 33 70 139 33 70 139 33 70 139 33 70 139 33 70 139 33 70 139 33 70 139 33 70 139 33 70 139 33 70 139 33 70 139 33 70 139 33 70 139 33 70 139 33 70 139 33 70 139 33 70 139 33 70 139 33 70 139 33 70 139 33 70 139 33 70 139 33 70 139 33 70 139 33 70 139 33 70 139 33 70 139 33 70 139 33 70 139 33 70 139 33 70 139 33 70 139 33 70 139 33 70 139 33 70 139 33 70 139 33 70 139 33 70 139 33 70 139 33 70 139 33 70 139 33 70 139 33 70 139 33 70 139 33 70 139 33 70 139 33 70 139 33 70 139 33 70 139 33 70 139 33 70 139 33 70 139 33 70 139 33 70 139 33 70 139 33 70 139 33 70 139 33 70 139 33 70 139 33 70 139 
33 70 139 33 70 139 33 70 139 33 70 139 33 70 139 33 70 139 33 70 139 33 70 139 33 70 139 33 70 139 33 70 139 33 70 139 33 70 139 33 70 139 33 70 139 33 70 139 33 70 139 33 70 139 33 70 139 33 70 139 33 70 139 33 70 139 33 70 139 33 70 139 33 70 139 33 70 139 33 70 139 33 70 139 33 70 139 33 70 139 33 70 139 33 70 139 33 70 139 33 70 139 33 70 139 33 70 139 33 70 139 33 70 139 33 70 139 33 70 139 33 70 139 33 70 139 33 70 139 33 70 139 33 70 139 33 70 139 33 70 139 33 70 139 33 70 139 33 70 139 33 70 139 33 70 139 33 70 139 33 70 139 33 70 139 33 70 139 33 70 139 33 70 139 33 70 139 33 70 139 33 70 139 33 70 139 33 70 139 33 70 139 33 70 139 33 70 139 33 70 139 33 70 139 33 70 139 33 70 139 33 70 139 33 70 139 33 70 139 33 70 139 33 70 139 33 70 139 33 70 139 33 70 139 33 70 139 33 70 139 33 70 139 33 70 139 33 70 139 33 70 139 33 70 139 33 70 139 33 70 139 33 70 139 33 70 139 33 70 139 33 70 139 33 70 139 33 70 139 33 70 139 33 70 139 33 70 139 33 70 139 33 70 139 33 70 139 33 70 139 33 70 139 33 70 139 33 70 139 33 70 139 33 70 139 33 70 139 33 70 139 33 70 139 33 70 139 33 70 139 33 70 139 33 70 139 33 70 139 33 70 139 33 70 139 33 70 139 33 70 139 33 70 139 33 70 139 33 70 139 33 70 139 33 70 139 33 70 139 33 70 139 33 70 139 33 70 139 33 70 139 33 70 139 33 70 139 33 70 139 33 70 139 33 70 139 33 70 139 33 70 139 33 70 139 33 70 139 33 70 139 33 70 139 33 70 139 33 70 139 33 70 139 33 70 139 33 70 139 33 70 139 33 70 139 33 70 139 33 70 139 33 70 139 33 70 139 33 70 139 33 70 139 33 70 139 33 70 139 33 70 139 33 70 139 33 70 139 33 70 139 33 70 139 33 70 139 33 70 139 33 70 139 33 70 139 33 70 139 33 70 139 33 70 139 33 70 139 33 70 139 33 70 139 33 70 139 33 70 139 33 70 139 33 70 139 33 70 139 33 70 139 33 70 139 33 70 139 33 70 139 33 70 139 33 70 139 33 70 139 33 70 139 33 70 139 33 70 139 33 70 139 33 70 139 33 70 139 33 70 139 33 70 139 33 70 139 33 70 139 33 70 139 33 70 139 33 70 139 33 70 139 33 70 139 33 70 139 33 70 139 33 70 139 33 70 139 33 70 139 33 70 139 33 70 139 33 70 139 33 70 139 33 70 139 33 70 139 33 70 139 33 70 139 33 70 139 33 70 139 33 70 139 33 70 139 33 70 139 33 70 139 33 70 139 33 70 139 33 70 139 33 70 139 33 70 139 33 70 139 33 70 139 33 70 139 33 70 139 33 70 139 33 70 139 33 70 139 33 70 139 33 70 139 33 70 139 33 70 139 33 70 139 33 70 139 33 70 139 33 70 139 33 70 139 33 70 139 33 70 139 33 70 139 33 70 139 33 70 139 33 70 139 33 70 139 33 70 139 33 70 139 33 70 139 33 70 139 33 70 139 33 70 139 33 70 139 33 70 139 33 70 139 33 70 139 33 70 139 33 70 139 33 70 139 33 70 139 33 70 139 33 70 139 33 70 139 33 70 139 33 70 139 33 70 139 33 70 139 33 70 139 33 70 139 33 70 139 33 70 139 33 70 139 33 70 139 33 70 139 33 70 139 33 70 139 33 70 139 33 70 139 33 70 139 33 70 139 33 70 139 33 70 139 33 70 139 33 70 139 33 70 139 33 70 139 33 70 139 33 70 139 33 70 139 33 70 139 33 70 139 33 70 139 33 70 139 33 70 139 33 70 139 33 70 139 33 70 139 33 70 139 33 70 139 33 70 139 33 70 139 33 70 139 33 70 139 33 70 139 
33 70 139 33 70 139 33 70 139 33 70 139 33 70 139 33 70 139 33 70 139 33 70 139 33 70 139 33 70 139 33 70 139 33 70 139 33 70 139 33 70 139 33 70 139 33 70 139 33 70 139 33 70 139 33 70 139 33 70 139 33 70 139 33 70 139 33 70 139 33 70 139 33 70 139 33 70 139 33 70 139 33 70 139 33 70 139 33 70 139 33 70 139 33 70 139 33 70 139 33 70 139 33 70 139 33 70 139 33 70 139 33 70 139 33 70 139 33 70 139 33 70 139 33 70 139 33 70 139 33 70 139 33 70 139 33 70 139 33 70 139 33 70 139 33 70 139 33 70 139 33 70 139 33 70 139 33 70 139 33 70 139 33 70 139 33 70 139 33 70 139 33 70 139 33 70 139 33 70 139 33 70 139 33 70 139 33 70 139 33 70 139 33 70 139 33 70 139 33 70 139 33 70 139 33 70 139 33 70 139 33 70 139 33 70 139 33 70 139 33 70 139 33 70 139 33 70 139 33 70 139 33 70 139 33 70 139 33 70 139 33 70 139 33 70 139 33 70 139 33 70 139 33 70 139 33 70 139 33 70 139 33 70 139 33 70 139 33 70 139 33 70 139 33 70 139 33 70 139 33 70 139 33 70 139 33 70 139 33 70 139 33 70 139 33 70 139 33 70 139 33 70 139 33 70 139 33 70 139 33 70 139 33 70 139 33 70 139 33 70 139 33 70 139 33 70 139 33 70 139 33 70 139 33 70 139 33 70 139 33 70 139 33 70 139 33 70 139 33 70 139 33 70 139 33 70 139 33 70 139 33 70 139 33 70 139 33 70 139 33 70 139 33 70 139 33 70 139 33 70 139 33 70 139 33 70 139 33 70 139 33 70 139 33 70 139 33 70 139 33 70 139 33 70 139 33 70 139 33 70 139 33 70 139 33 70 139 33 70 139 33 70 139 33 70 139 33 70 139 33 70 139 33 70 139 33 70 139 33 70 139 33 70 139 33 70 139 33 70 139 33 70 139 33 70 139 33 70 139 33 70 139 33 70 139 33 70 139 33 70 139 33 70 139 33 70 139 33 70 139 33 70 139 33 70 139 33 70 139 33 70 139 33 70 139 33 70 139 33 70 139 33 70 139 33 70 139 33 70 139 33 70 139 33 70 139 33 70 139 33 70 139 33 70 139 33 70 139 33 70 139 33 70 139 33 70 139 33 70 139 33 70 139 33 70 139 33 70 139 33 70 139 33 70 139 33 70 139 33 70 139 33 70 139 33 70 139 33 70 139 33 70 139 33 70 139 33 70 139 33 70 139 33 70 139 33 70 139 33 70 139 33 70 139 33 70 139 33 70 139 33 70 139 33 70 139 33 70 139 33 70 139 33 70 139 33 70 139 33 70 139 33 70 139 33 70 139 33 70 139 33 70 139 33 70 139 33 70 139 33 70 139 33 70 139 33 70 139 33 70 139 33 70 139 33 70 139 33 70 139 33 70 139 33 70 139 33 70 139 33 70 139 33 70 139 33 70 139 33 70 139 33 70 139 33 70 139 33 70 139 33 70 139 33 70 139 33 70 139 33 70 139 33 70 139 33 70 139 33 70 139 33 70 139 33 70 139 33 70 139 33 70 139 33 70 139 33 70 139 33 70 139 33 70 139 33 70 139 33 70 139 33 70 139 33 70 139 33 70 139 33 70 139 33 70 139 33 70 139 33 70 139 33 70 139 33 70 139 33 70 139 33 70 139 33 70 139 33 70 139 33 70 139 33 70 139 33 70 139 33 70 139 33 70 139 33 70 139 33 70 139 33 70 139 33 70 139 33 70 139 33 70 139 33 70 139 33 70 139 33 70 139 33 70 139 33 70 139 33 70 139 33 70 139 33 70 139 33 70 139 33 70 139 33 70 139 33 70 139 33 70 139 33 70 139 33 70 139 33 70 139 33 70 139 33 70 139 33 70 139 33 70 139 33 70 139 33 70 139 33 70 139 33 70 139 33 70 139 33 70 139 33 70 139 33 70 139 33 70 139 
33 70 139 33 70 139 33 70 139 33 70 139 33 70 139 33 70 139 33 70 139 33 70 139 33 70 139 33 70 139 33 70 139 33 70 139 33 70 139 33 70 139 33 70 139 33 70 139 33 70 139 33 70 139 33 70 139 33 70 139 33 70 139 33 70 139 33 70 139 33 70 139 33 70 139 33 70 139 33 70 139 33 70 139 33 70 139 33 70 139 33 70 139 33 70 139 33 70 139 33 70 139 33 70 139 33 70 139 33 70 139 33 70 139 33 70 139 33 70 139 33 70 139 33 70 139 33 70 139 33 70 139 33 70 139 33 70 139 33 70 139 33 70 139 33 70 139 33 70 139 33 70 139 33 70 139 33 70 139 33 70 139 33 70 139 33 70 139 33 70 139 33 70 139 33 70 139 33 70 139 33 70 139 33 70 139 33 70 139 33 70 139 33 70 139 33 70 139 33 70 139 33 70 139 33 70 139 33 70 139 33 70 139 33 70 139 33 70 139 33 70 139 33 70 139 33 70 139 33 70 139 33 70 139 33 70 139 33 70 139 33 70 139 33 70 139 33 70 139 33 70 139 33 70 139 33 70 139 33 70 139 33 70 139 33 70 139 33 70 139 33 70 139 33 70 139 33 70 139 33 70 139 33 70 139 33 70 139 33 70 139 33 70 139 33 70 139 33 70 139 33 70 139 33 70 139 33 70 139 33 70 139 33 70 139 33 70 139 33 70 139 33 70 139 33 70 139 33 70 139 33 70 139 33 70 139 33 70 139 33 70 139 33 70 139 33 70 139 33 70 139 33 70 139 33 70 139 33 70 139 33 70 139 33 70 139 33 70 139 33 70 139 33 70 139 33 70 139 33 70 139 33 70 139 33 70 139 33 70 139 33 70 139 33 70 139 33 70 139 33 70 139 33 70 139 33 70 139 33 70 139 33 70 139 33 70 139 33 70 139 33 70 139 33 70 139 33 70 139 33 70 139 33 70 139 33 70 139 33 70 139 33 70 139 33 70 139 33 70 139 33 70 139 33 70 139 33 70 139 33 70 139 33 70 139 33 70 139 33 70 139 33 70 139 33 70 139 33 70 139 33 70 139 33 70 139 33 70 139 33 70 139 33 70 139 33 70 139 33 70 139 33 70 139 33 70 139 33 70 139 33 70 139 33 70 139 33 70 139 33 70 139 33 70 139 33 70 139 33 70 139 33 70 139 33 70 139 33 70 139 33 70 139 33 70 139 33 70 139 33 70 139 33 70 139 33 70 139 33 70 139 33 70 139 33 70 139 33 70 139 33 70 139 33 70 139 33 70 139 33 70 139 33 70 139 33 70 139 33 70 139 33 70 139 33 70 139 33 70 139 33 70 139 33 70 139 33 70 139 33 70 139 33 70 139 33 70 139 33 70 139 33 70 139 33 70 139 33 70 139 33 70 139 33 70 139 33 70 139 33 70 139 33 70 139 33 70 139 33 70 139 33 70 139 33 70 139 33 70 139 33 70 139 33 70 139 33 70 139 33 70 139 33 70 139 33 70 139 33 70 139 33 70 139 33 70 139 33 70 139 33 70 139 33 70 139 33 70 139 33 70 139 33 70 139 33 70 139 33 70 139 33 70 139 33 70 139 33 70 139 33 70 139 33 70 139 33 70 139 33 70 139 33 70 139 33 70 139 33 70 139 33 70 139 33 70 139 33 70 139 33 70 139 33 70 139 33 70 139 33 70 139 33 70 139 33 70 139 33 70 139 33 70 139 33 70 139 33 70 139 33 70 139 33 70 139 33 70 139 33 70 139 33 70 139 33 70 139 33 70 139 33 70 139 33 70 139 33 70 139 33 70 139 33 70 139 33 70 139 33 70 139 33 70 139 33 70 139 33 70 139 33 70 139 33 70 139 33 70 139 33 70 139 33 70 139 33 70 139 33 70 139 33 70 139 33 70 139 33 70 139 33 70 139 33 70 139 33 70 139 33 70 139 33 70 139 33 70 139 33 70 139 33 70 139 33 70 139 33 70 139 33 70 139 33 70 139 33 70 139 
33 70 139 33 70 139 33 70 139 33 70 139 33 70 139 33 70 139 33 70 139 33 70 139 33 70 139 33 70 139 33 70 139 33 70 139 33 70 139 33 70 139 33 70 139 33 70 139 33 70 139 33 70 139 33 70 139 33 70 139 33 70 139 33 70 139 33 70 139 33 70 139 33 70 139 33 70 139 33 70 139 33 70 139 33 70 139 33 70 139 33 70 139 33 70 139 33 70 139 33 70 139 33 70 139 33 70 139 33 70 139 33 70 139 33 70 139 33 70 139 33 70 139 33 70 139 33 70 139 33 70 139 33 70 139 33 70 139 33 70 139 33 70 139 33 70 139 33 70 139 33 70 139 33 70 139 33 70 139 33 70 139 33 70 139 33 70 139 33 70 139 33 70 139 33 70 139 33 70 139 33 70 139 33 70 139 33 70 139 33 70 139 33 70 139 33 70 139 33 70 139 33 70 139 33 70 139 33 70 139 33 70 139 33 70 139 33 70 139 33 70 139 33 70 139 33 70 139 33 70 139 33 70 139 33 70 139 33 70 139 33 70 139 33 70 139 33 70 139 33 70 139 33 70 139 33 70 139 33 70 139 33 70 139 33 70 139 33 70 139 33 70 139 33 70 139 33 70 139 33 70 139 33 70 139 33 70 139 33 70 139 33 70 139 33 70 139 33 70 139 33 70 139 33 70 139 33 70 139 33 70 139 33 70 139 33 70 139 33 70 139 33 70 139 33 70 139 33 70 139 33 70 139 33 70 139 33 70 139 33 70 139 33 70 139 33 70 139 33 70 139 33 70 139 33 70 139 33 70 139 33 70 139 33 70 139 33 70 139 33 70 139 33 70 139 33 70 139 33 70 139 33 70 139 33 70 139 33 70 139 33 70 139 33 70 139 33 70 139 33 70 139 33 70 139 33 70 139 33 70 139 33 70 139 33 70 139 33 70 139 33 70 139 33 70 139 33 70 139 33 70 139 33 70 139 33 70 139 33 70 139 33 70 139 33 70 139 33 70 139 33 70 139 33 70 139 33 70 139 33 70 139 33 70 139 33 70 139 33 70 139 33 70 139 33 70 139 33 70 139 33 70 139 33 70 139 33 70 139 33 70 139 33 70 139 33 70 139 33 70 139 33 70 139 33 70 139 33 70 139 33 70 139 33 70 139 33 70 139 33 70 139 33 70 139 33 70 139 33 70 139 33 70 139 33 70 139 33 70 139 33 70 139 33 70 139 33 70 139 33 70 139 33 70 139 33 70 139 33 70 139 33 70 139 33 70 139 33 70 139 33 70 139 33 70 139 33 70 139 33 70 139 33 70 139 33 70 139 33 70 139 33 70 139 33 70 139 33 70 139 33 70 139 33 70 139 33 70 139 33 70 139 33 70 139 33 70 139 33 70 139 33 70 139 33 70 139 33 70 139 33 70 139 33 70 139 33 70 139 33 70 139 33 70 139 33 70 139 33 70 139 33 70 139 33 70 139 33 70 139 33 70 139 33 70 139 33 70 139 33 70 139 33 70 139 33 70 139 33 70 139 33 70 139 33 70 139 33 70 139 33 70 139 33 70 139 33 70 139 33 70 139 33 70 139 33 70 139 33 70 139 33 70 139 33 70 139 33 70 139 33 70 139 33 70 139 33 70 139 33 70 139 33 70 139 33 70 139 33 70 139 33 70 139 33 70 139 33 70 139 33 70 139 33 70 139 33 70 139 33 70 139 33 70 139 33 70 139 33 70 139 33 70 139 33 70 139 33 70 139 33 70 139 33 70 139 33 70 139 33 70 139 33 70 139 33 70 139 33 70 139 33 70 139 33 70 139 33 70 139 33 70 139 33 70 139 33 70 139 33 70 139 33 70 139 33 70 139 33 70 139 33 70 139 33 70 139 33 70 139 33 70 139 33 70 139 33 70 139 33 70 139 33 70 139 33 70 139 33 70 139 33 70 139 33 70 139 33 70 139 33 70 139 33 70 139 33 70 139 33 70 139 33 70 139 33 70 139 33 70 139 33 70 139 33 70 139 33 70 139 
33 70 139 33 70 139 33 70 139 33 70 139 33 70 139 33 70 139 33 70 139 33 70 139 33 70 139 33 70 139 33 70 139 33 70 139 33 70 139 33 70 139 33 70 139 33 70 139 33 70 139 33 70 139 33 70 139 33 70 139 33 70 139 33 70 139 33 70 139 33 70 139 33 70 139 33 70 139 33 70 139 33 70 139 33 70 139 33 70 139 33 70 139 33 70 139 33 70 139 33 70 139 33 70 139 33 70 139 33 70 139 33 70 139 33 70 139 33 70 139 33 70 139 33 70 139 33 70 139 33 70 139 33 70 139 33 70 139 33 70 139 33 70 139 33 70 139 33 70 139 33 70 139 33 70 139 33 70 139 33 70 139 33 70 139 33 70 139 33 70 139 33 70 139 33 70 139 33 70 139 33 70 139 33 70 139 33 70 139 33 70 139 33 70 139 33 70 139 33 70 139 33 70 139 33 70 139 33 70 139 33 70 139 33 70 139 33 70 139 33 70 139 33 70 139 33 70 139 33 70 139 33 70 139 33 70 139 33 70 139 33 70 139 33 70 139 33 70 139 33 70 139 33 70 139 33 70 139 33 70 139 33 70 139 33 70 139 33 70 139 33 70 139 33 70 139 33 70 139 33 70 139 33 70 139 33 70 139 33 70 139 33 70 139 33 70 139 33 70 139 33 70 139 33 70 139 33 70 139 33 70 139 33 70 139 33 70 139 33 70 139 33 70 139 33 70 139 33 70 139 33 70 139 33 70 139 33 70 139 33 70 139 33 70 139 33 70 139 33 70 139 33 70 139 33 70 139 33 70 139 33 70 139 33 70 139 33 70 139 33 70 139 33 70 139 33 70 139 33 70 139 33 70 139 33 70 139 33 70 139 33 70 139 33 70 139 33 70 139 33 70 139 33 70 139 33 70 139 33 70 139 33 70 139 33 70 139 33 70 139 33 70 139 33 70 139 33 70 139 33 70 139 33 70 139 33 70 139 33 70 139 33 70 139 33 70 139 33 70 139 33 70 139 33 70 139 33 70 139 33 70 139 33 70 139 33 70 139 33 70 139 33 70 139 33 70 139 33 70 139 33 70 139 33 70 139 33 70 139 33 70 139 33 70 139 33 70 139 33 70 139 33 70 139 33 70 139 33 70 139 33 70 139 33 70 139 33 70 139 33 70 139 33 70 139 33 70 139 33 70 139 33 70 139 33 70 139 33 70 139 33 70 139 33 70 139 33 70 139 33 70 139 33 70 139 33 70 139 33 70 139 33 70 139 33 70 139 33 70 139 33 70 139 33 70 139 33 70 139 33 70 139 33 70 139 33 70 139 33 70 139 33 70 139 33 70 139 33 70 139 33 70 139 33 70 139 33 70 139 33 70 139 33 70 139 33 70 139 33 70 139 33 70 139 33 70 139 33 70 139 33 70 139 33 70 139 33 70 139 33 70 139 33 70 139 33 70 139 33 70 139 33 70 139 33 70 139 33 70 139 33 70 139 33 70 139 33 70 139 33 70 139 33 70 139 33 70 139 33 70 139 33 70 139 33 70 139 33 70 139 33 70 139 33 70 139 33 70 139 33 70 139 33 70 139 33 70 139 33 70 139 33 70 139 33 70 139 33 70 139 33 70 139 33 70 139 33 70 139 33 70 139 33 70 139 33 70 139 33 70 139 33 70 139 33 70 139 33 70 139 33 70 139 33 70 139 33 70 139 33 70 139 33 70 139 33 70 139 33 70 139 33 70 139 33 70 139 33 70 139 33 70 139 33 70 139 33 70 139 33 70 139 33 70 139 33 70 139 33 70 139 33 70 139 33 70 139 33 70 139 33 70 139 33 70 139 33 70 139 33 70 139 33 70 139 33 70 139 33 70 139 33 70 139 33 70 139 33 70 139 33 70 139 33 70 139 33 70 139 33 70 139 33 70 139 33 70 139 33 70 139 33 70 139 33 70 139 33 70 139 33 70 139 33 70 139 33 70 139 33 70 139 33 70 139 33 70 139 33 70 139 33 70 139 33 70 139 33 70 139 
33 70 139 33 70 139 33 70 139 33 70 139 33 70 139 33 70 139 33 70 139 33 70 139 33 70 139 33 70 139 33 70 139 33 70 139 33 70 139 33 70 139 33 70 139 33 70 139 33 70 139 33 70 139 33 70 139 33 70 139 33 70 139 33 70 139 33 70 139 33 70 139 33 70 139 33 70 139 33 70 139 33 70 139 33 70 139 33 70 139 33 70 139 33 70 139 33 70 139 33 70 139 33 70 139 33 70 139 33 70 139 33 70 139 33 70 139 33 70 139 33 70 139 33 70 139 33 70 139 33 70 139 33 70 139 33 70 139 33 70 139 33 70 139 33 70 139 33 70 139 33 70 139 33 70 139 33 70 139 33 70 139 33 70 139 33 70 139 33 70 139 33 70 139 33 70 139 33 70 139 33 70 139 33 70 139 33 70 139 33 70 139 33 70 139 33 70 139 33 70 139 33 70 139 33 70 139 33 70 139 33 70 139 33 70 139 33 70 139 33 70 139 33 70 139 33 70 139 33 70 139 33 70 139 33 70 139 33 70 139 33 70 139 33 70 139 33 70 139 33 70 139 33 70 139 33 70 139 33 70 139 33 70 139 33 70 139 33 70 139 33 70 139 33 70 139 33 70 139 33 70 139 33 70 139 33 70 139 33 70 139 33 70 139 33 70 139 33 70 139 33 70 139 33 70 139 33 70 139 33 70 139 33 70 139 33 70 139 33 70 139 33 70 139 33 70 139 33 70 139 33 70 139 33 70 139 33 70 139 33 70 139 33 70 139 33 70 139 33 70 139 33 70 139 33 70 139 33 70 139 33 70 139 33 70 139 33 70 139 33 70 139 33 70 139 33 70 139 33 70 139 33 70 139 33 70 139 33 70 139 33 70 139 33 70 139 33 70 139 33 70 139 33 70 139 33 70 139 33 70 139 33 70 139 33 70 139 33 70 139 33 70 139 33 70 139 33 70 139 33 70 139 33 70 139 33 70 139 33 70 139 33 70 139 33 70 139 33 70 139 33 70 139 33 70 139 33 70 139 33 70 139 33 70 139 33 70 139 33 70 139 33 70 139 33 70 139 33 70 139 33 70 139 33 70 139 33 70 139 33 70 139 33 70 139 33 70 139 33 70 139 33 70 139 33 70 139 33 70 139 33 70 139 33 70 139 33 70 139 33 70 139 33 70 139 33 70 139 33 70 139 33 70 139 33 70 139 33 70 139 33 70 139 33 70 139 33 70 139 33 70 139 33 70 139 33 70 139 33 70 139 33 70 139 33 70 139 33 70 139 33 70 139 33 70 139 33 70 139 33 70 139 33 70 139 33 70 139 33 70 139 33 70 139 33 70 139 33 70 139 33 70 139 33 70 139 33 70 139 33 70 139 33 70 139 33 70 139 33 70 139 33 70 139 33 70 139 33 70 139 33 70 139 33 70 139 33 70 139 33 70 139 33 70 139 33 70 139 33 70 139 33 70 139 33 70 139 33 70 139 33 70 139 33 70 139 33 70 139 33 70 139 33 70 139 33 70 139 33 70 139 33 70 139 33 70 139 33 70 139 33 70 139 33 70 139 33 70 139 33 70 139 33 70 139 33 70 139 33 70 139 33 70 139 33 70 139 33 70 139 33 70 139 33 70 139 33 70 139 33 70 139 33 70 139 33 70 139 33 70 139 33 70 139 33 70 139 33 70 139 33 70 139 33 70 139 33 70 139 33 70 139 33 70 139 33 70 139 33 70 139 33 70 139 33 70 139 33 70 139 33 70 139 33 70 139 33 70 139 33 70 139 33 70 139 33 70 139 33 70 139 33 70 139 33 70 139 33 70 139 33 70 139 33 70 139 33 70 139 33 70 139 33 70 139 33 70 139 33 70 139 33 70 139 33 70 139 33 70 139 33 70 139 33 70 139 33 70 139 33 70 139 33 70 139 33 70 139 33 70 139 33 70 139 33 70 139 33 70 139 33 70 139 33 70 139 33 70 139 33 70 139 33 70 139 33 70 139 33 70 139 33 70 139 33 70 139 33 70 139 
33 70 139 33 70 139 33 70 139 33 70 139 33 70 139 33 70 139 33 70 139 33 70 139 33 70 139 33 70 139 33 70 139 33 70 139 33 70 139 33 70 139 33 70 139 33 70 139 33 70 139 33 70 139 33 70 139 33 70 139 33 70 139 33 70 139 33 70 139 33 70 139 33 70 139 33 70 139 33 70 139 33 70 139 33 70 139 33 70 139 33 70 139 33 70 139 33 70 139 33 70 139 33 70 139 33 70 139 33 70 139 33 70 139 33 70 139 33 70 139 33 70 139 33 70 139 33 70 139 33 70 139 33 70 139 33 70 139 33 70 139 33 70 139 33 70 139 33 70 139 33 70 139 33 70 139 33 70 139 33 70 139 33 70 139 33 70 139 33 70 139 33 70 139 33 70 139 33 70 139 33 70 139 33 70 139 33 70 139 33 70 139 33 70 139 33 70 139 33 70 139 33 70 139 33 70 139 33 70 139 33 70 139 33 70 139 33 70 139 33 70 139 33 70 139 33 70 139 33 70 139 33 70 139 33 70 139 33 70 139 33 70 139 33 70 139 33 70 139 33 70 139 33 70 139 33 70 139 33 70 139 33 70 139 33 70 139 33 70 139 33 70 139 33 70 139 33 70 139 33 70 139 33 70 139 33 70 139 33 70 139 33 70 139 33 70 139 33 70 139 33 70 139 33 70 139 33 70 139 33 70 139 33 70 139 33 70 139 33 70 139 33 70 139 33 70 139 33 70 139 33 70 139 33 70 139 33 70 139 33 70 139 33 70 139 33 70 139 33 70 139 33 70 139 33 70 139 33 70 139 33 70 139 33 70 139 33 70 139 33 70 139 33 70 139 33 70 139 33 70 139 33 70 139 33 70 139 33 70 139 33 70 139 33 70 139 33 70 139 33 70 139 33 70 139 33 70 139 33 70 139 33 70 139 33 70 139 33 70 139 33 70 139 33 70 139 33 70 139 33 70 139 33 70 139 33 70 139 33 70 139 33 70 139 33 70 139 33 70 139 33 70 139 33 70 139 33 70 139 33 70 139 33 70 139 33 70 139 33 70 139 33 70 139 33 70 139 33 70 139 33 70 139 33 70 139 33 70 139 33 70 139 33 70 139 33 70 139 33 70 139 33 70 139 33 70 139 33 70 139 33 70 139 33 70 139 33 70 139 33 70 139 33 70 139 33 70 139 33 70 139 33 70 139 33 70 139 33 70 139 33 70 139 33 70 139 33 70 139 33 70 139 33 70 139 33 70 139 33 70 139 33 70 139 33 70 139 33 70 139 33 70 139 33 70 139 33 70 139 33 70 139 33 70 139 33 70 139 33 70 139 33 70 139 33 70 139 33 70 139 33 70 139 33 70 139 33 70 139 33 70 139 33 70 139 33 70 139 33 70 139 33 70 139 33 70 139 33 70 139 33 70 139 33 70 139 33 70 139 33 70 139 33 70 139 33 70 139 33 70 139 33 70 139 33 70 139 33 70 139 33 70 139 33 70 139 33 70 139 33 70 139 33 70 139 33 70 139 33 70 139 33 70 139 33 70 139 33 70 139 33 70 139 33 70 139 33 70 139 33 70 139 33 70 139 33 70 139 33 70 139 33 70 139 33 70 139 33 70 139 33 70 139 33 70 139 33 70 139 33 70 139 33 70 139 33 70 139 33 70 139 33 70 139 33 70 139 33 70 139 33 70 139 33 70 139 33 70 139 33 70 139 33 70 139 33 70 139 33 70 139 33 70 139 33 70 139 33 70 139 33 70 139 33 70 139 33 70 139 33 70 139 33 70 139 33 70 139 33 70 139 33 70 139 33 70 139 33 70 139 33 70 139 33 70 139 33 70 139 33 70 139 33 70 139 33 70 139 33 70 139 33 70 139 33 70 139 33 70 139 33 70 139 33 70 139 33 70 139 33 70 139 33 70 139 33 70 139 33 70 139 33 70 139 33 70 139 33 70 139 33 70 139 33 70 139 33 70 139 33 70 139 33 70 139 33 70 139 33 70 139 33 70 139 33 70 139 33 70 139 
33 70 139 33 70 139 33 70 139 33 70 139 33 70 139 33 70 139 33 70 139 33 70 139 33 70 139 33 70 139 33 70 139 33 70 139 33 70 139 33 70 139 33 70 139 33 70 139 33 70 139 33 70 139 33 70 139 33 70 139 33 70 139 33 70 139 33 70 139 33 70 139 33 70 139 33 70 139 33 70 139 33 70 139 33 70 139 33 70 139 33 70 139 33 70 139 33 70 139 33 70 139 33 70 139 33 70 139 33 70 139 33 70 139 33 70 139 33 70 139 33 70 139 33 70 139 33 70 139 33 70 139 33 70 139 33 70 139 33 70 139 33 70 139 33 70 139 33 70 139 33 70 139 33 70 139 33 70 139 33 70 139 33 70 139 33 70 139 33 70 139 33 70 139 33 70 139 33 70 139 33 70 139 33 70 139 33 70 139 33 70 139 33 70 139 33 70 139 33 70 139 33 70 139 33 70 139 33 70 139 33 70 139 33 70 139 33 70 139 33 70 139 33 70 139 33 70 139 33 70 139 33 70 139 33 70 139 33 70 139 33 70 139 33 70 139 33 70 139 33 70 139 33 70 139 33 70 139 33 70 139 33 70 139 33 70 139 33 70 139 33 70 139 33 70 139 33 70 139 33 70 139 33 70 139 33 70 139 33 70 139 33 70 139 33 70 139 33 70 139 33 70 139 33 70 139 33 70 139 33 70 139 33 70 139 33 70 139 33 70 139 33 70 139 33 70 139 33 70 139 33 70 139 33 70 139 33 70 139 33 70 139 33 70 139 33 70 139 33 70 139 33 70 139 33 70 139 33 70 139 33 70 139 33 70 139 33 70 139 33 70 139 33 70 139 33 70 139 33 70 139 33 70 139 33 70 139 33 70 139 33 70 139 33 70 139 33 70 139 33 70 139 33 70 139 33 70 139 33 70 139 33 70 139 33 70 139 33 70 139 33 70 139 33 70 139 33 70 139 33 70 139 33 70 139 33 70 139 33 70 139 33 70 139 33 70 139 33 70 139 33 70 139 33 70 139 33 70 139 33 70 139 33 70 139 33 70 139 33 70 139 33 70 139 33 70 139 33 70 139 33 70 139 33 70 139 33 70 139 33 70 139 33 70 139 33 70 139 33 70 139 33 70 139 33 70 139 33 70 139 33 70 139 33 70 139 33 70 139 33 70 139 33 70 139 33 70 139 33 70 139 33 70 139 33 70 139 33 70 139 33 70 139 33 70 139 33 70 139 33 70 139 33 70 139 33 70 139 33 70 139 33 70 139 33 70 139 33 70 139 33 70 139 33 70 139 33 70 139 33 70 139 33 70 139 33 70 139 33 70 139 33 70 139 33 70 139 33 70 139 33 70 139 33 70 139 33 70 139 33 70 139 33 70 139 33 70 139 33 70 139 33 70 139 33 70 139 33 70 139 33 70 139 33 70 139 33 70 139 33 70 139 33 70 139 33 70 139 33 70 139 33 70 139 33 70 139 33 70 139 33 70 139 33 70 139 33 70 139 33 70 139 33 70 139 33 70 139 33 70 139 33 70 139 33 70 139 33 70 139 33 70 139 33 70 139 33 70 139 33 70 139 33 70 139 33 70 139 33 70 139 33 70 139 33 70 139 33 70 139 33 70 139 33 70 139 33 70 139 33 70 139 33 70 139 33 70 139 33 70 139 33 70 139 33 70 139 33 70 139 33 70 139 33 70 139 33 70 139 33 70 139 33 70 139 33 70 139 33 70 139 33 70 139 33 70 139 33 70 139 33 70 139 33 70 139 33 70 139 33 70 139 33 70 139 33 70 139 33 70 139 33 70 139 33 70 139 33 70 139 33 70 139 33 70 139 33 70 139 33 70 139 33 70 139 33 70 139 33 70 139 33 70 139 33 70 139 33 70 139 33 70 139 33 70 139 33 70 139 33 70 139 33 70 139 33 70 139 33 70 139 33 70 139 33 70 139 33 70 139 33 70 139 33 70 139 33 70 139 33 70 139 33 70 139 33 70 139 33 70 139 33 70 139 33 70 139 33 70 139 
33 70 139 33 70 139 33 70 139 33 70 139 33 70 139 33 70 139 33 70 139 33 70 139 33 70 139 33 70 139 33 70 139 33 70 139 33 70 139 33 70 139 33 70 139 33 70 139 33 70 139 33 70 139 33 70 139 33 70 139 33 70 139 33 70 139 33 70 139 33 70 139 33 70 139 33 70 139 33 70 139 33 70 139 33 70 139 33 70 139 33 70 139 33 70 139 33 70 139 33 70 139 33 70 139 33 70 139 33 70 139 33 70 139 33 70 139 33 70 139 33 70 139 33 70 139 33 70 139 33 70 139 33 70 139 33 70 139 33 70 139 33 70 139 33 70 139 33 70 139 33 70 139 33 70 139 33 70 139 33 70 139 33 70 139 33 70 139 33 70 139 33 70 139 33 70 139 33 70 139 33 70 139 33 70 139 33 70 139 33 70 139 33 70 139 33 70 139 33 70 139 33 70 139 33 70 139 33 70 139 33 70 139 33 70 139 33 70 139 33 70 139 33 70 139 33 70 139 33 70 139 33 70 139 33 70 139 33 70 139 33 70 139 33 70 139 33 70 139 33 70 139 33 70 139 33 70 139 33 70 139 33 70 139 33 70 139 33 70 139 33 70 139 33 70 139 33 70 139 33 70 139 33 70 139 33 70 139 33 70 139 33 70 139 33 70 139 33 70 139 33 70 139 33 70 139 33 70 139 33 70 139 33 70 139 33 70 139 33 70 139 33 70 139 33 70 139 33 70 139 33 70 139 33 70 139 33 70 139 33 70 139 33 70 139 33 70 139 33 70 139 33 70 139 33 70 139 33 70 139 33 70 139 33 70 139 33 70 139 33 70 139 33 70 139 33 70 139 33 70 139 33 70 139 33 70 139 33 70 139 33 70 139 33 70 139 33 70 139 33 70 139 33 70 139 33 70 139 33 70 139 33 70 139 33 70 139 33 70 139 33 70 139 33 70 139 33 70 139 33 70 139 33 70 139 33 70 139 33 70 139 33 70 139 33 70 139 33 70 139 33 70 139 33 70 139 33 70 139 33 70 139 33 70 139 33 70 139 33 70 139 33 70 139 33 70 139 33 70 139 33 70 139 33 70 139 33 70 139 33 70 139 33 70 139 33 70 139 33 70 139 33 70 139 33 70 139 33 70 139 33 70 139 33 70 139 33 70 139 33 70 139 33 70 139 33 70 139 33 70 139 33 70 139 33 70 139 33 70 139 33 70 139 33 70 139 33 70 139 33 70 139 33 70 139 33 70 139 33 70 139 33 70 139 33 70 139 33 70 139 33 70 139 33 70 139 33 70 139 33 70 139 33 70 139 33 70 139 33 70 139 33 70 139 33 70 139 33 70 139 33 70 139 33 70 139 33 70 139 33 70 139 33 70 139 33 70 139 33 70 139 33 70 139 33 70 139 33 70 139 33 70 139 33 70 139 33 70 139 33 70 139 33 70 139 33 70 139 33 70 139 33 70 139 33 70 139 33 70 139 33 70 139 33 70 139 33 70 139 33 70 139 33 70 139 33 70 139 33 70 139 33 70 139 33 70 139 33 70 139 33 70 139 33 70 139 33 70 139 33 70 139 33 70 139 33 70 139 33 70 139 33 70 139 33 70 139 33 70 139 33 70 139 33 70 139 33 70 139 33 70 139 33 70 139 33 70 139 33 70 139 33 70 139 33 70 139 33 70 139 33 70 139 33 70 139 33 70 139 33 70 139 33 70 139 33 70 139 33 70 139 33 70 139 33 70 139 33 70 139 33 70 139 33 70 139 33 70 139 33 70 139 33 70 139 33 70 139 33 70 139 33 70 139 33 70 139 33 70 139 33 70 139 33 70 139 33 70 139 33 70 139 33 70 139 33 70 139 33 70 139 33 70 139 33 70 139 33 70 139 33 70 139 33 70 139 33 70 139 33 70 139 33 70 139 33 70 139 33 70 139 33 70 139 33 70 139 33 70 139 33 70 139 33 70 139 33 70 139 33 70 139 33 70 139 33 70 139 33 70 139 33 70 139 33 70 139 33 70 139 
33 70 139 33 70 139 33 70 139 33 70 139 33 70 139 33 70 139 33 70 139 33 70 139 33 70 139 33 70 139 33 70 139 33 70 139 33 70 139 33 70 139 33 70 139 33 70 139 33 70 139 33 70 139 33 70 139 33 70 139 33 70 139 33 70 139 33 70 139 33 70 139 33 70 139 33 70 139 33 70 139 33 70 139 33 70 139 33 70 139 33 70 139 33 70 139 33 70 139 33 70 139 33 70 139 33 70 139 33 70 139 33 70 139 33 70 139 33 70 139 33 70 139 33 70 139 33 70 139 33 70 139 33 70 139 33 70 139 33 70 139 33 70 139 33 70 139 33 70 139 33 70 139 33 70 139 33 70 139 33 70 139 33 70 139 33 70 139 33 70 139 33 70 139 33 70 139 33 70 139 33 70 139 33 70 139 33 70 139 33 70 139 33 70 139 33 70 139 33 70 139 33 70 139 33 70 139 33 70 139 33 70 139 33 70 139 33 70 139 33 70 139 33 70 139 33 70 139 33 70 139 33 70 139 33 70 139 33 70 139 33 70 139 33 70 139 33 70 139 33 70 139 33 70 139 33 70 139 33 70 139 33 70 139 33 70 139 33 70 139 33 70 139 33 70 139 33 70 139 33 70 139 33 70 139 33 70 139 33 70 139 33 70 139 33 70 139 33 70 139 33 70 139 33 70 139 33 70 139 33 70 139 33 70 139 33 70 139 33 70 139 33 70 139 33 70 139 33 70 139 33 70 139 33 70 139 33 70 139 33 70 139 33 70 139 33 70 139 33 70 139 33 70 139 33 70 139 33 70 139 33 70 139 33 70 139 33 70 139 33 70 139 33 70 139 33 70 139 33 70 139 33 70 139 33 70 139 33 70 139 33 70 139 33 70 139 33 70 139 33 70 139 33 70 139 33 70 139 33 70 139 33 70 139 33 70 139 33 70 139 33 70 139 33 70 139 33 70 139 33 70 139 33 70 139 33 70 139 33 70 139 33 70 139 33 70 139 33 70 139 33 70 139 33 70 139 33 70 139 33 70 139 33 70 139 33 70 139 33 70 139 33 70 139 33 70 139 33 70 139 33 70 139 33 70 139 33 70 139 33 70 139 33 70 139 33 70 139 33 70 139 33 70 139 33 70 139 33 70 139 33 70 139 33 70 139 33 70 139 33 70 139 33 70 139 33 70 139 33 70 139 33 70 139 33 70 139 33 70 139 33 70 139 33 70 139 33 70 139 33 70 139 33 70 139 33 70 139 33 70 139 33 70 139 33 70 139 33 70 139 33 70 139 33 70 139 33 70 139 33 70 139 33 70 139 33 70 139 33 70 139 33 70 139 33 70 139 33 70 139 33 70 139 33 70 139 33 70 139 33 70 139 33 70 139 33 70 139 33 70 139 33 70 139 33 70 139 33 70 139 33 70 139 33 70 139 33 70 139 33 70 139 33 70 139 33 70 139 33 70 139 33 70 139 33 70 139 33 70 139 33 70 139 33 70 139 33 70 139 33 70 139 33 70 139 33 70 139 33 70 139 33 70 139 33 70 139 33 70 139 33 70 139 33 70 139 33 70 139 33 70 139 33 70 139 33 70 139 33 70 139 33 70 139 33 70 139 33 70 139 33 70 139 33 70 139 33 70 139 33 70 139 33 70 139 33 70 139 33 70 139 33 70 139 33 70 139 33 70 139 33 70 139 33 70 139 33 70 139 33 70 139 33 70 139 33 70 139 33 70 139 33 70 139 33 70 139 33 70 139 33 70 139 33 70 139 33 70 139 33 70 139 33 70 139 33 70 139 33 70 139 33 70 139 33 70 139 33 70 139 33 70 139 33 70 139 33 70 139 33 70 139 33 70 139 33 70 139 33 70 139 33 70 139 33 70 139 33 70 139 33 70 139 33 70 139 33 70 139 33 70 139 33 70 139 33 70 139 33 70 139 33 70 139 33 70 139 33 70 139 33 70 139 33 70 139 33 70 139 33 70 139 33 70 139 33 70 139 33 70 139 33 70 139 33 70 139 33 70 139 
33 70 139 33 70 139 33 70 139 33 70 139 33 70 139 33 70 139 33 70 139 33 70 139 33 70 139 33 70 139 33 70 139 33 70 139 33 70 139 33 70 139 33 70 139 33 70 139 33 70 139 33 70 139 33 70 139 33 70 139 33 70 139 33 70 139 33 70 139 33 70 139 33 70 139 33 70 139 33 70 139 33 70 139 33 70 139 33 70 139 33 70 139 33 70 139 33 70 139 33 70 139 33 70 139 33 70 139 33 70 139 33 70 139 33 70 139 33 70 139 33 70 139 33 70 139 33 70 139 33 70 139 33 70 139 33 70 139 33 70 139 33 70 139 33 70 139 33 70 139 33 70 139 33 70 139 33 70 139 33 70 139 33 70 139 33 70 139 33 70 139 33 70 139 33 70 139 33 70 139 33 70 139 33 70 139 33 70 139 33 70 139 33 70 139 33 70 139 33 70 139 33 70 139 33 70 139 33 70 139 33 70 139 33 70 139 33 70 139 33 70 139 33 70 139 33 70 139 33 70 139 33 70 139 33 70 139 33 70 139 33 70 139 33 70 139 33 70 139 33 70 139 33 70 139 33 70 139 33 70 139 33 70 139 33 70 139 33 70 139 33 70 139 33 70 139 33 70 139 33 70 139 33 70 139 33 70 139 33 70 139 33 70 139 33 70 139 33 70 139 33 70 139 33 70 139 33 70 139 33 70 139 33 70 139 33 70 139 33 70 139 33 70 139 33 70 139 33 70 139 33 70 139 33 70 139 33 70 139 33 70 139 33 70 139 33 70 139 33 70 139 33 70 139 33 70 139 33 70 139 33 70 139 33 70 139 33 70 139 33 70 139 33 70 139 33 70 139 33 70 139 33 70 139 33 70 139 33 70 139 33 70 139 33 70 139 33 70 139 33 70 139 33 70 139 33 70 139 33 70 139 33 70 139 33 70 139 33 70 139 33 70 139 33 70 139 33 70 139 33 70 139 33 70 139 33 70 139 33 70 139 33 70 139 33 70 139 33 70 139 33 70 139 33 70 139 33 70 139 33 70 139 33 70 139 33 70 139 33 70 139 33 70 139 33 70 139 33 70 139 33 70 139 33 70 139 33 70 139 33 70 139 33 70 139 33 70 139 33 70 139 33 70 139 33 70 139 33 70 139 33 70 139 33 70 139 33 70 139 33 70 139 33 70 139 33 70 139 33 70 139 33 70 139 33 70 139 33 70 139 33 70 139 33 70 139 33 70 139 33 70 139 33 70 139 33 70 139 33 70 139 33 70 139 33 70 139 33 70 139 33 70 139 33 70 139 33 70 139 33 70 139 33 70 139 33 70 139 33 70 139 33 70 139 33 70 139 33 70 139 33 70 139 33 70 139 33 70 139 33 70 139 33 70 139 33 70 139 33 70 139 33 70 139 33 70 139 33 70 139 33 70 139 33 70 139 33 70 139 33 70 139 33 70 139 33 70 139 33 70 139 33 70 139 33 70 139 33 70 139 33 70 139 33 70 139 33 70 139 33 70 139 33 70 139 33 70 139 33 70 139 33 70 139 33 70 139 33 70 139 33 70 139 33 70 139 33 70 139 33 70 139 33 70 139 33 70 139 33 70 139 33 70 139 33 70 139 33 70 139 33 70 139 33 70 139 33 70 139 33 70 139 33 70 139 33 70 139 33 70 139 33 70 139 33 70 139 33 70 139 33 70 139 33 70 139 33 70 139 33 70 139 33 70 139 33 70 139 33 70 139 33 70 139 33 70 139 33 70 139 33 70 139 33 70 139 33 70 139 33 70 139 33 70 139 33 70 139 33 70 139 33 70 139 33 70 139 33 70 139 33 70 139 33 70 139 33 70 139 33 70 139 33 70 139 33 70 139 33 70 139 33 70 139 33 70 139 33 70 139 33 70 139 33 70 139 33 70 139 33 70 139 33 70 139 33 70 139 33 70 139 33 70 139 33 70 139 33 70 139 33 70 139 33 70 139 33 70 139 33 70 139 33 70 139 33 70 139 33 70 139 33 70 139 33 70 139 33 70 139 
33 70 139 33 70 139 33 70 139 33 70 139 33 70 139 33 70 139 33 70 139 33 70 139 33 70 139 33 70 139 33 70 139 33 70 139 33 70 139 33 70 139 33 70 139 33 70 139 33 70 139 33 70 139 33 70 139 33 70 139 33 70 139 33 70 139 33 70 139 33 70 139 33 70 139 33 70 139 33 70 139 33 70 139 33 70 139 33 70 139 33 70 139 33 70 139 33 70 139 33 70 139 33 70 139 33 70 139 33 70 139 33 70 139 33 70 139 33 70 139 33 70 139 33 70 139 33 70 139 33 70 139 33 70 139 33 70 139 33 70 139 33 70 139 33 70 139 33 70 139 33 70 139 33 70 139 33 70 139 33 70 139 33 70 139 33 70 139 33 70 139 33 70 139 33 70 139 33 70 139 33 70 139 33 70 139 33 70 139 33 70 139 33 70 139 33 70 139 33 70 139 33 70 139 33 70 139 33 70 139 33 70 139 33 70 139 33 70 139 33 70 139 33 70 139 33 70 139 33 70 139 33 70 139 33 70 139 33 70 139 33 70 139 33 70 139 33 70 139 33 70 139 33 70 139 33 70 139 33 70 139 33 70 139 33 70 139 33 70 139 33 70 139 33 70 139 33 70 139 33 70 139 33 70 139 33 70 139 33 70 139 33 70 139 33 70 139 33 70 139 33 70 139 33 70 139 33 70 139 33 70 139 33 70 139 33 70 139 33 70 139 33 70 139 33 70 139 33 70 139 33 70 139 33 70 139 33 70 139 33 70 139 33 70 139 33 70 139 33 70 139 33 70 139 33 70 139 33 70 139 33 70 139 33 70 139 33 70 139 33 70 139 33 70 139 33 70 139 33 70 139 33 70 139 33 70 139 33 70 139 33 70 139 33 70 139 33 70 139 33 70 139 33 70 139 33 70 139 33 70 139 33 70 139 33 70 139 33 70 139 33 70 139 33 70 139 33 70 139 33 70 139 33 70 139 33 70 139 33 70 139 33 70 139 33 70 139 33 70 139 33 70 139 33 70 139 33 70 139 33 70 139 33 70 139 33 70 139 33 70 139 33 70 139 33 70 139 33 70 139 33 70 139 33 70 139 33 70 139 33 70 139 33 70 139 33 70 139 33 70 139 33 70 139 33 70 139 33 70 139 33 70 139 33 70 139 33 70 139 33 70 139 33 70 139 33 70 139 33 70 139 33 70 139 33 70 139 33 70 139 33 70 139 33 70 139 33 70 139 33 70 139 33 70 139 33 70 139 33 70 139 33 70 139 33 70 139 33 70 139 33 70 139 33 70 139 33 70 139 33 70 139 33 70 139 33 70 139 33 70 139 33 70 139 33 70 139 33 70 139 33 70 139 33 70 139 33 70 139 33 70 139 33 70 139 33 70 139 33 70 139 33 70 139 33 70 139 33 70 139 33 70 139 33 70 139 33 70 139 33 70 139 33 70 139 33 70 139 33 70 139 33 70 139 33 70 139 33 70 139 33 70 139 33 70 139 33 70 139 33 70 139 33 70 139 33 70 139 33 70 139 33 70 139 33 70 139 33 70 139 33 70 139 33 70 139 33 70 139 33 70 139 33 70 139 33 70 139 33 70 139 33 70 139 33 70 139 33 70 139 33 70 139 33 70 139 33 70 139 33 70 139 33 70 139 33 70 139 33 70 139 33 70 139 33 70 139 33 70 139 33 70 139 33 70 139 33 70 139 33 70 139 33 70 139 33 70 139 33 70 139 33 70 139 33 70 139 33 70 139 33 70 139 33 70 139 33 70 139 33 70 139 33 70 139 33 70 139 33 70 139 33 70 139 33 70 139 33 70 139 33 70 139 33 70 139 33 70 139 33 70 139 33 70 139 33 70 139 33 70 139 33 70 139 33 70 139 33 70 139 33 70 139 33 70 139 33 70 139 33 70 139 33 70 139 33 70 139 33 70 139 33 70 139 33 70 139 33 70 139 33 70 139 33 70 139 33 70 139 33 70 139 33 70 139 33 70 139 33 70 139 33 70 139 33 70 139 33 70 139 
33 70 139 33 70 139 33 70 139 33 70 139 33 70 139 33 70 139 33 70 139 33 70 139 33 70 139 33 70 139 33 70 139 33 70 139 33 70 139 33 70 139 33 70 139 33 70 139 33 70 139 33 70 139 33 70 139 33 70 139 33 70 139 33 70 139 33 70 139 33 70 139 33 70 139 33 70 139 33 70 139 33 70 139 33 70 139 33 70 139 33 70 139 33 70 139 33 70 139 33 70 139 33 70 139 33 70 139 33 70 139 33 70 139 33 70 139 33 70 139 33 70 139 33 70 139 33 70 139 33 70 139 33 70 139 33 70 139 33 70 139 33 70 139 33 70 139 33 70 139 33 70 139 33 70 139 33 70 139 33 70 139 33 70 139 33 70 139 33 70 139 33 70 139 33 70 139 33 70 139 33 70 139 33 70 139 33 70 139 33 70 139 33 70 139 33 70 139 33 70 139 33 70 139 33 70 139 33 70 139 33 70 139 33 70 139 33 70 139 33 70 139 33 70 139 33 70 139 33 70 139 33 70 139 33 70 139 33 70 139 33 70 139 33 70 139 33 70 139 33 70 139 33 70 139 33 70 139 33 70 139 33 70 139 33 70 139 33 70 139 33 70 139 33 70 139 33 70 139 33 70 139 33 70 139 33 70 139 33 70 139 33 70 139 33 70 139 33 70 139 33 70 139 33 70 139 33 70 139 33 70 139 33 70 139 33 70 139 33 70 139 33 70 139 33 70 139 33 70 139 33 70 139 33 70 139 33 70 139 33 70 139 33 70 139 33 70 139 33 70 139 33 70 139 33 70 139 33 70 139 33 70 139 33 70 139 33 70 139 33 70 139 33 70 139 33 70 139 33 70 139 33 70 139 33 70 139 33 70 139 33 70 139 33 70 139 33 70 139 33 70 139 33 70 139 33 70 139 33 70 139 33 70 139 33 70 139 33 70 139 33 70 139 33 70 139 33 70 139 33 70 139 33 70 139 33 70 139 33 70 139 33 70 139 33 70 139 33 70 139 33 70 139 33 70 139 33 70 139 33 70 139 33 70 139 33 70 139 33 70 139 33 70 139 33 70 139 33 70 139 33 70 139 33 70 139 33 70 139 33 70 139 33 70 139 33 70 139 33 70 139 33 70 139 33 70 139 33 70 139 33 70 139 33 70 139 33 70 139 33 70 139 33 70 139 33 70 139 33 70 139 33 70 139 33 70 139 33 70 139 33 70 139 33 70 139 33 70 139 33 70 139 33 70 139 33 70 139 33 70 139 33 70 139 33 70 139 33 70 139 33 70 139 33 70 139 33 70 139 33 70 139 33 70 139 33 70 139 33 70 139 33 70 139 33 70 139 33 70 139 33 70 139 33 70 139 33 70 139 33 70 139 33 70 139 33 70 139 33 70 139 33 70 139 33 70 139 33 70 139 33 70 139 33 70 139 33 70 139 33 70 139 33 70 139 33 70 139 33 70 139 33 70 139 33 70 139 33 70 139 33 70 139 33 70 139 33 70 139 33 70 139 33 70 139 33 70 139 33 70 139 33 70 139 33 70 139 33 70 139 33 70 139 33 70 139 33 70 139 33 70 139 33 70 139 33 70 139 33 70 139 33 70 139 33 70 139 33 70 139 33 70 139 33 70 139 33 70 139 33 70 139 33 70 139 33 70 139 33 70 139 33 70 139 33 70 139 33 70 139 33 70 139 33 70 139 33 70 139 33 70 139 33 70 139 33 70 139 33 70 139 33 70 139 33 70 139 33 70 139 33 70 139 33 70 139 33 70 139 33 70 139 33 70 139 33 70 139 33 70 139 33 70 139 33 70 139 33 70 139 33 70 139 33 70 139 33 70 139 33 70 139 33 70 139 33 70 139 33 70 139 33 70 139 33 70 139 33 70 139 33 70 139 33 70 139 33 70 139 33 70 139 33 70 139 33 70 139 33 70 139 33 70 139 33 70 139 33 70 139 33 70 139 33 70 139 33 70 139 33 70 139 33 70 139 33 70 139 33 70 139 33 70 139 33 70 139 33 70 139 
33 70 139 33 70 139 33 70 139 33 70 139 33 70 139 33 70 139 33 70 139 33 70 139 33 70 139 33 70 139 33 70 139 33 70 139 33 70 139 33 70 139 33 70 139 33 70 139 33 70 139 33 70 139 33 70 139 33 70 139 33 70 139 33 70 139 33 70 139 33 70 139 33 70 139 33 70 139 33 70 139 33 70 139 33 70 139 33 70 139 33 70 139 33 70 139 33 70 139 33 70 139 33 70 139 33 70 139 33 70 139 33 70 139 33 70 139 33 70 139 33 70 139 33 70 139 33 70 139 33 70 139 33 70 139 33 70 139 33 70 139 33 70 139 33 70 139 33 70 139 33 70 139 33 70 139 33 70 139 33 70 139 33 70 139 33 70 139 33 70 139 33 70 139 33 70 139 33 70 139 33 70 139 33 70 139 33 70 139 33 70 139 33 70 139 33 70 139 33 70 139 33 70 139 33 70 139 33 70 139 33 70 139 33 70 139 33 70 139 33 70 139 33 70 139 33 70 139 33 70 139 33 70 139 33 70 139 33 70 139 33 70 139 33 70 139 33 70 139 33 70 139 33 70 139 33 70 139 33 70 139 33 70 139 33 70 139 33 70 139 33 70 139 33 70 139 33 70 139 33 70 139 33 70 139 33 70 139 33 70 139 33 70 139 33 70 139 33 70 139 33 70 139 33 70 139 33 70 139 33 70 139 33 70 139 33 70 139 33 70 139 33 70 139 33 70 139 33 70 139 33 70 139 33 70 139 33 70 139 33 70 139 33 70 139 33 70 139 33 70 139 33 70 139 33 70 139 33 70 139 33 70 139 33 70 139 33 70 139 33 70 139 33 70 139 33 70 139 33 70 139 33 70 139 33 70 139 33 70 139 33 70 139 33 70 139 33 70 139 33 70 139 33 70 139 33 70 139 33 70 139 33 70 139 33 70 139 33 70 139 33 70 139 33 70 139 33 70 139 33 70 139 33 70 139 33 70 139 33 70 139 33 70 139 33 70 139 33 70 139 33 70 139 33 70 139 33 70 139 33 70 139 33 70 139 33 70 139 33 70 139 33 70 139 33 70 139 33 70 139 33 70 139 33 70 139 33 70 139 33 70 139 33 70 139 33 70 139 33 70 139 33 70 139 33 70 139 33 70 139 33 70 139 33 70 139 33 70 139 33 70 139 33 70 139 33 70 139 33 70 139 33 70 139 33 70 139 33 70 139 33 70 139 33 70 139 33 70 139 33 70 139 33 70 139 33 70 139 33 70 139 33 70 139 33 70 139 33 70 139 33 70 139 33 70 139 33 70 139 33 70 139 33 70 139 33 70 139 33 70 139 33 70 139 33 70 139 33 70 139 33 70 139 33 70 139 33 70 139 33 70 139 33 70 139 33 70 139 33 70 139 33 70 139 33 70 139 33 70 139 33 70 139 33 70 139 33 70 139 33 70 139 33 70 139 33 70 139 33 70 139 33 70 139 33 70 139 33 70 139 33 70 139 33 70 139 33 70 139 33 70 139 33 70 139 33 70 139 33 70 139 33 70 139 33 70 139 33 70 139 33 70 139 33 70 139 33 70 139 33 70 139 33 70 139 33 70 139 33 70 139 33 70 139 33 70 139 33 70 139 33 70 139 33 70 139 33 70 139 33 70 139 33 70 139 33 70 139 33 70 139 33 70 139 33 70 139 33 70 139 33 70 139 33 70 139 33 70 139 33 70 139 33 70 139 33 70 139 33 70 139 33 70 139 33 70 139 33 70 139 33 70 139 33 70 139 33 70 139 33 70 139 33 70 139 33 70 139 33 70 139 33 70 139 33 70 139 33 70 139 33 70 139 33 70 139 33 70 139 33 70 139 33 70 139 33 70 139 33 70 139 33 70 139 33 70 139 33 70 139 33 70 139 33 70 139 33 70 139 33 70 139 33 70 139 33 70 139 33 70 139 33 70 139 33 70 139 33 70 139 33 70 139 33 70 139 33 70 139 33 70 139 33 70 139 33 70 139 33 70 139 33 70 139 33 70 139 33 70 139 
33 70 139 33 70 139 33 70 139 33 70 139 33 70 139 33 70 139 33 70 139 33 70 139 33 70 139 33 70 139 33 70 139 33 70 139 33 70 139 33 70 139 33 70 139 33 70 139 33 70 139 33 70 139 33 70 139 33 70 139 33 70 139 33 70 139 33 70 139 33 70 139 33 70 139 33 70 139 33 70 139 33 70 139 33 70 139 33 70 139 33 70 139 33 70 139 33 70 139 33 70 139 33 70 139 33 70 139 33 70 139 33 70 139 33 70 139 33 70 139 33 70 139 33 70 139 33 70 139 33 70 139 33 70 139 33 70 139 33 70 139 33 70 139 33 70 139 33 70 139 33 70 139 33 70 139 33 70 139 33 70 139 33 70 139 33 70 139 33 70 139 33 70 139 33 70 139 33 70 139 33 70 139 33 70 139 33 70 139 33 70 139 33 70 139 33 70 139 33 70 139 33 70 139 33 70 139 33 70 139 33 70 139 33 70 139 33 70 139 33 70 139 33 70 139 33 70 139 33 70 139 33 70 139 33 70 139 33 70 139 33 70 139 33 70 139 33 70 139 33 70 139 33 70 139 33 70 139 33 70 139 33 70 139 33 70 139 33 70 139 33 70 139 33 70 139 33 70 139 33 70 139 33 70 139 33 70 139 33 70 139 33 70 139 33 70 139 33 70 139 33 70 139 33 70 139 33 70 139 33 70 139 33 70 139 33 70 139 33 70 139 33 70 139 33 70 139 33 70 139 33 70 139 33 70 139 33 70 139 33 70 139 33 70 139 33 70 139 33 70 139 33 70 139 33 70 139 33 70 139 33 70 139 33 70 139 33 70 139 33 70 139 33 70 139 33 70 139 33 70 139 33 70 139 33 70 139 33 70 139 33 70 139 33 70 139 33 70 139 33 70 139 33 70 139 33 70 139 33 70 139 33 70 139 33 70 139 33 70 139 33 70 139 33 70 139 33 70 139 33 70 139 33 70 139 33 70 139 33 70 139 33 70 139 33 70 139 33 70 139 33 70 139 33 70 139 33 70 139 33 70 139 33 70 139 33 70 139 33 70 139 33 70 139 33 70 139 33 70 139 33 70 139 33 70 139 33 70 139 33 70 139 33 70 139 33 70 139 33 70 139 33 70 139 33 70 139 33 70 139 33 70 139 33 70 139 33 70 139 33 70 139 33 70 139 33 70 139 33 70 139 33 70 139 33 70 139 33 70 139 33 70 139 33 70 139 33 70 139 33 70 139 33 70 139 33 70 139 33 70 139 33 70 139 33 70 139 33 70 139 33 70 139 33 70 139 33 70 139 33 70 139 33 70 139 33 70 139 33 70 139 33 70 139 33 70 139 33 70 139 33 70 139 33 70 139 33 70 139 33 70 139 33 70 139 33 70 139 33 70 139 33 70 139 33 70 139 33 70 139 33 70 139 33 70 139 33 70 139 33 70 139 33 70 139 33 70 139 33 70 139 33 70 139 33 70 139 33 70 139 33 70 139 33 70 139 33 70 139 33 70 139 33 70 139 33 70 139 33 70 139 33 70 139 33 70 139 33 70 139 33 70 139 33 70 139 33 70 139 33 70 139 33 70 139 33 70 139 33 70 139 33 70 139 33 70 139 33 70 139 33 70 139 33 70 139 33 70 139 33 70 139 33 70 139 33 70 139 33 70 139 33 70 139 33 70 139 33 70 139 33 70 139 33 70 139 33 70 139 33 70 139 33 70 139 33 70 139 33 70 139 33 70 139 33 70 139 33 70 139 33 70 139 33 70 139 33 70 139 33 70 139 33 70 139 33 70 139 33 70 139 33 70 139 33 70 139 33 70 139 33 70 139 33 70 139 33 70 139 33 70 139 33 70 139 33 70 139 33 70 139 33 70 139 33 70 139 33 70 139 33 70 139 33 70 139 33 70 139 33 70 139 33 70 139 33 70 139 33 70 139 33 70 139 33 70 139 33 70 139 33 70 139 33 70 139 33 70 139 33 70 139 33 70 139 33 70 139 33 70 139 33 70 139 33 70 139 33 70 139 
33 70 139 33 70 139 33 70 139 33 70 139 33 70 139 33 70 139 33 70 139 33 70 139 33 70 139 33 70 139 33 70 139 33 70 139 33 70 139 33 70 139 33 70 139 33 70 139 33 70 139 33 70 139 33 70 139 33 70 139 33 70 139 33 70 139 33 70 139 33 70 139 33 70 139 33 70 139 33 70 139 33 70 139 33 70 139 33 70 139 33 70 139 33 70 139 33 70 139 33 70 139 33 70 139 33 70 139 33 70 139 33 70 139 33 70 139 33 70 139 33 70 139 33 70 139 33 70 139 33 70 139 33 70 139 33 70 139 33 70 139 33 70 139 33 70 139 33 70 139 33 70 139 33 70 139 33 70 139 33 70 139 33 70 139 33 70 139 33 70 139 33 70 139 33 70 139 33 70 139 33 70 139 33 70 139 33 70 139 33 70 139 33 70 139 33 70 139 33 70 139 33 70 139 33 70 139 33 70 139 33 70 139 33 70 139 33 70 139 33 70 139 33 70 139 33 70 139 33 70 139 33 70 139 33 70 139 33 70 139 33 70 139 33 70 139 33 70 139 33 70 139 33 70 139 33 70 139 33 70 139 33 70 139 33 70 139 33 70 139 33 70 139 33 70 139 33 70 139 33 70 139 33 70 139 33 70 139 33 70 139 33 70 139 33 70 139 33 70 139 33 70 139 33 70 139 33 70 139 33 70 139 33 70 139 33 70 139 33 70 139 33 70 139 33 70 139 33 70 139 33 70 139 33 70 139 33 70 139 33 70 139 33 70 139 33 70 139 33 70 139 33 70 139 33 70 139 33 70 139 33 70 139 33 70 139 33 70 139 33 70 139 33 70 139 33 70 139 33 70 139 33 70 139 33 70 139 33 70 139 33 70 139 33 70 139 33 70 139 33 70 139 33 70 139 33 70 139 33 70 139 33 70 139 33 70 139 33 70 139 33 70 139 33 70 139 33 70 139 33 70 139 33 70 139 33 70 139 33 70 139 33 70 139 33 70 139 33 70 139 33 70 139 33 70 139 33 70 139 33 70 139 33 70 139 33 70 139 33 70 139 33 70 139 33 70 139 33 70 139 33 70 139 33 70 139 33 70 139 33 70 139 33 70 139 33 70 139 33 70 139 33 70 139 33 70 139 33 70 139 33 70 139 33 70 139 33 70 139 33 70 139 33 70 139 33 70 139 33 70 139 33 70 139 33 70 139 33 70 139 33 70 139 33 70 139 33 70 139 33 70 139 33 70 139 33 70 139 33 70 139 33 70 139 33 70 139 33 70 139 33 70 139 33 70 139 33 70 139 33 70 139 33 70 139 33 70 139 33 70 139 33 70 139 33 70 139 33 70 139 33 70 139 33 70 139 33 70 139 33 70 139 33 70 139 33 70 139 33 70 139 33 70 139 33 70 139 33 70 139 33 70 139 33 70 139 33 70 139 33 70 139 33 70 139 33 70 139 33 70 139 33 70 139 33 70 139 33 70 139 33 70 139 33 70 139 33 70 139 33 70 139 33 70 139 33 70 139 33 70 139 33 70 139 33 70 139 33 70 139 33 70 139 33 70 139 33 70 139 33 70 139 33 70 139 33 70 139 33 70 139 33 70 139 33 70 139 33 70 139 33 70 139 33 70 139 33 70 139 33 70 139 33 70 139 33 70 139 33 70 139 33 70 139 33 70 139 33 70 139 33 70 139 33 70 139 33 70 139 33 70 139 33 70 139 33 70 139 33 70 139 33 70 139 33 70 139 33 70 139 33 70 139 33 70 139 33 70 139 33 70 139 33 70 139 33 70 139 33 70 139 33 70 139 33 70 139 33 70 139 33 70 139 33 70 139 33 70 139 33 70 139 33 70 139 33 70 139 33 70 139 33 70 139 33 70 139 33 70 139 33 70 139 33 70 139 33 70 139 33 70 139 33 70 139 33 70 139 33 70 139 33 70 139 33 70 139 33 70 139 33 70 139 33 70 139 33 70 139 33 70 139 33 70 139 33 70 139 33 70 139 33 70 139 33 70 139 33 70 139 
33 70 139 33 70 139 33 70 139 33 70 139 33 70 139 33 70 139 33 70 139 33 70 139 33 70 139 33 70 139 33 70 139 33 70 139 33 70 139 33 70 139 33 70 139 33 70 139 33 70 139 33 70 139 33 70 139 33 70 139 33 70 139 33 70 139 33 70 139 33 70 139 33 70 139 33 70 139 33 70 139 33 70 139 33 70 139 33 70 139 33 70 139 33 70 139 33 70 139 33 70 139 33 70 139 33 70 139 33 70 139 33 70 139 33 70 139 33 70 139 33 70 139 33 70 139 33 70 139 33 70 139 33 70 139 33 70 139 33 70 139 33 70 139 33 70 139 33 70 139 33 70 139 33 70 139 33 70 139 33 70 139 33 70 139 33 70 139 33 70 139 33 70 139 33 70 139 33 70 139 33 70 139 33 70 139 33 70 139 33 70 139 33 70 139 33 70 139 33 70 139 33 70 139 33 70 139 33 70 139 33 70 139 33 70 139 33 70 139 33 70 139 33 70 139 33 70 139 33 70 139 33 70 139 33 70 139 33 70 139 33 70 139 33 70 139 33 70 139 33 70 139 33 70 139 33 70 139 33 70 139 33 70 139 33 70 139 33 70 139 33 70 139 33 70 139 33 70 139 33 70 139 33 70 139 33 70 139 33 70 139 33 70 139 33 70 139 33 70 139 33 70 139 33 70 139 33 70 139 33 70 139 33 70 139 33 70 139 33 70 139 33 70 139 33 70 139 33 70 139 33 70 139 33 70 139 33 70 139 33 70 139 33 70 139 33 70 139 33 70 139 33 70 139 33 70 139 33 70 139 33 70 139 33 70 139 33 70 139 33 70 139 33 70 139 33 70 139 33 70 139 33 70 139 33 70 139 33 70 139 33 70 139 33 70 139 33 70 139 33 70 139 33 70 139 33 70 139 33 70 139 33 70 139 33 70 139 33 70 139 33 70 139 33 70 139 33 70 139 33 70 139 33 70 139 33 70 139 33 70 139 33 70 139 33 70 139 33 70 139 33 70 139 33 70 139 33 70 139 33 70 139 33 70 139 33 70 139 33 70 139 33 70 139 33 70 139 33 70 139 33 70 139 33 70 139 33 70 139 33 70 139 33 70 139 33 70 139 33 70 139 33 70 139 33 70 139 33 70 139 33 70 139 33 70 139 33 70 139 33 70 139 33 70 139 33 70 139 33 70 139 33 70 139 33 70 139 33 70 139 33 70 139 33 70 139 33 70 139 33 70 139 33 70 139 33 70 139 33 70 139 33 70 139 33 70 139 33 70 139 33 70 139 33 70 139 33 70 139 33 70 139 33 70 139 33 70 139 33 70 139 33 70 139 33 70 139 33 70 139 33 70 139 33 70 139 33 70 139 33 70 139 33 70 139 33 70 139 33 70 139 33 70 139 33 70 139 33 70 139 33 70 139 33 70 139 33 70 139 33 70 139 33 70 139 33 70 139 33 70 139 33 70 139 33 70 139 33 70 139 33 70 139 33 70 139 33 70 139 33 70 139 33 70 139 33 70 139 33 70 139 33 70 139 33 70 139 33 70 139 33 70 139 33 70 139 33 70 139 33 70 139 33 70 139 33 70 139 33 70 139 33 70 139 33 70 139 33 70 139 33 70 139 33 70 139 33 70 139 33 70 139 33 70 139 33 70 139 33 70 139 33 70 139 33 70 139 33 70 139 33 70 139 33 70 139 33 70 139 33 70 139 33 70 139 33 70 139 33 70 139 33 70 139 33 70 139 33 70 139 33 70 139 33 70 139 33 70 139 33 70 139 33 70 139 33 70 139 33 70 139 33 70 139 33 70 139 33 70 139 33 70 139 33 70 139 33 70 139 33 70 139 33 70 139 33 70 139 33 70 139 33 70 139 33 70 139 33 70 139 33 70 139 33 70 139 33 70 139 33 70 139 33 70 139 33 70 139 33 70 139 33 70 139 33 70 139 33 70 139 33 70 139 33 70 139 33 70 139 33 70 139 33 70 139 33 70 139 33 70 139 33 70 139 33 70 139 33 70 139 
33 70 139 33 70 139 33 70 139 33 70 139 33 70 139 33 70 139 33 70 139 33 70 139 33 70 139 33 70 139 33 70 139 33 70 139 33 70 139 33 70 139 33 70 139 33 70 139 33 70 139 33 70 139 33 70 139 33 70 139 33 70 139 33 70 139 33 70 139 33 70 139 33 70 139 33 70 139 33 70 139 33 70 139 33 70 139 33 70 139 33 70 139 33 70 139 33 70 139 33 70 139 33 70 139 33 70 139 33 70 139 33 70 139 33 70 139 33 70 139 33 70 139 33 70 139 33 70 139 33 70 139 33 70 139 33 70 139 33 70 139 33 70 139 33 70 139 33 70 139 33 70 139 33 70 139 33 70 139 33 70 139 33 70 139 33 70 139 33 70 139 33 70 139 33 70 139 33 70 139 33 70 139 33 70 139 33 70 139 33 70 139 33 70 139 33 70 139 33 70 139 33 70 139 33 70 139 33 70 139 33 70 139 33 70 139 33 70 139 33 70 139 33 70 139 33 70 139 33 70 139 33 70 139 33 70 139 33 70 139 33 70 139 33 70 139 33 70 139 33 70 139 33 70 139 33 70 139 33 70 139 33 70 139 33 70 139 33 70 139 33 70 139 33 70 139 33 70 139 33 70 139 33 70 139 33 70 139 33 70 139 33 70 139 33 70 139 33 70 139 33 70 139 33 70 139 33 70 139 33 70 139 33 70 139 33 70 139 33 70 139 33 70 139 33 70 139 33 70 139 33 70 139 33 70 139 33 70 139 33 70 139 33 70 139 33 70 139 33 70 139 33 70 139 33 70 139 33 70 139 33 70 139 33 70 139 33 70 139 33 70 139 33 70 139 33 70 139 33 70 139 33 70 139 33 70 139 33 70 139 33 70 139 33 70 139 33 70 139 33 70 139 33 70 139 33 70 139 33 70 139 33 70 139 33 70 139 33 70 139 33 70 139 33 70 139 33 70 139 33 70 139 33 70 139 33 70 139 33 70 139 33 70 139 33 70 139 33 70 139 33 70 139 33 70 139 33 70 139 33 70 139 33 70 139 33 70 139 33 70 139 33 70 139 33 70 139 33 70 139 33 70 139 33 70 139 33 70 139 33 70 139 33 70 139 33 70 139 33 70 139 33 70 139 33 70 139 33 70 139 33 70 139 33 70 139 33 70 139 33 70 139 33 70 139 33 70 139 33 70 139 33 70 139 33 70 139 33 70 139 33 70 139 33 70 139 33 70 139 33 70 139 33 70 139 33 70 139 33 70 139 33 70 139 33 70 139 33 70 139 33 70 139 33 70 139 33 70 139 33 70 139 33 70 139 33 70 139 33 70 139 33 70 139 33 70 139 33 70 139 33 70 139 33 70 139 33 70 139 33 70 139 33 70 139 33 70 139 33 70 139 33 70 139 33 70 139 33 70 139 33 70 139 33 70 139 33 70 139 33 70 139 33 70 139 33 70 139 33 70 139 33 70 139 33 70 139 33 70 139 33 70 139 33 70 139 33 70 139 33 70 139 33 70 139 33 70 139 33 70 139 33 70 139 33 70 139 33 70 139 33 70 139 33 70 139 33 70 139 33 70 139 33 70 139 33 70 139 33 70 139 33 70 139 33 70 139 33 70 139 33 70 139 33 70 139 33 70 139 33 70 139 33 70 139 33 70 139 33 70 139 33 70 139 33 70 139 33 70 139 33 70 139 33 70 139 33 70 139 33 70 139 33 70 139 33 70 139 33 70 139 33 70 139 33 70 139 33 70 139 33 70 139 33 70 139 33 70 139 33 70 139 33 70 139 33 70 139 33 70 139 33 70 139 33 70 139 33 70 139 33 70 139 33 70 139 33 70 139 33 70 139 33 70 139 33 70 139 33 70 139 33 70 139 33 70 139 33 70 139 33 70 139 33 70 139 33 70 139 33 70 139 33 70 139 33 70 139 33 70 139 33 70 139 33 70 139 33 70 139 33 70 139 33 70 139 33 70 139 33 70 139 33 70 139 33 70 139 33 70 139 33 70 139 33 70 139 33 70 139 
33 70 139 33 70 139 33 70 139 33 70 139 33 70 139 33 70 139 33 70 139 33 70 139 33 70 139 33 70 139 33 70 139 33 70 139 33 70 139 33 70 139 33 70 139 33 70 139 33 70 139 33 70 139 33 70 139 33 70 139 33 70 139 33 70 139 33 70 139 33 70 139 33 70 139 33 70 139 33 70 139 33 70 139 33 70 139 33 70 139 33 70 139 33 70 139 33 70 139 33 70 139 33 70 139 33 70 139 33 70 139 33 70 139 33 70 139 33 70 139 33 70 139 33 70 139 33 70 139 33 70 139 33 70 139 33 70 139 33 70 139 33 70 139 33 70 139 33 70 139 33 70 139 33 70 139 33 70 139 33 70 139 33 70 139 33 70 139 33 70 139 33 70 139 33 70 139 33 70 139 33 70 139 33 70 139 33 70 139 33 70 139 33 70 139 33 70 139 33 70 139 33 70 139 33 70 139 33 70 139 33 70 139 33 70 139 33 70 139 33 70 139 33 70 139 33 70 139 33 70 139 33 70 139 33 70 139 33 70 139 33 70 139 33 70 139 33 70 139 33 70 139 33 70 139 33 70 139 33 70 139 33 70 139 33 70 139 33 70 139 33 70 139 33 70 139 33 70 139 33 70 139 33 70 139 33 70 139 33 70 139 33 70 139 33 70 139 33 70 139 33 70 139 33 70 139 33 70 139 33 70 139 33 70 139 33 70 139 33 70 139 33 70 139 33 70 139 33 70 139 33 70 139 33 70 139 33 70 139 33 70 139 33 70 139 33 70 139 33 70 139 33 70 139 33 70 139 33 70 139 33 70 139 33 70 139 33 70 139 33 70 139 33 70 139 33 70 139 33 70 139 33 70 139 33 70 139 33 70 139 33 70 139 33 70 139 33 70 139 33 70 139 33 70 139 33 70 139 33 70 139 33 70 139 33 70 139 33 70 139 33 70 139 33 70 139 33 70 139 33 70 139 33 70 139 33 70 139 33 70 139 33 70 139 33 70 139 33 70 139 33 70 139 33 70 139 33 70 139 33 70 139 33 70 139 33 70 139 33 70 139 33 70 139 33 70 139 33 70 139 33 70 139 33 70 139 33 70 139 33 70 139 33 70 139 33 70 139 33 70 139 33 70 139 33 70 139 33 70 139 33 70 139 33 70 139 33 70 139 33 70 139 33 70 139 33 70 139 33 70 139 33 70 139 33 70 139 33 70 139 33 70 139 33 70 139 33 70 139 33 70 139 33 70 139 33 70 139 33 70 139 33 70 139 33 70 139 33 70 139 33 70 139 33 70 139 33 70 139 33 70 139 33 70 139 33 70 139 33 70 139 33 70 139 33 70 139 33 70 139 33 70 139 33 70 139 33 70 139 33 70 139 33 70 139 33 70 139 33 70 139 33 70 139 33 70 139 33 70 139 33 70 139 33 70 139 33 70 139 33 70 139 33 70 139 33 70 139 33 70 139 33 70 139 33 70 139 33 70 139 33 70 139 33 70 139 33 70 139 33 70 139 33 70 139 33 70 139 33 70 139 33 70 139 33 70 139 33 70 139 33 70 139 33 70 139 33 70 139 33 70 139 33 70 139 33 70 139 33 70 139 33 70 139 33 70 139 33 70 139 33 70 139 33 70 139 33 70 139 33 70 139 33 70 139 33 70 139 33 70 139 33 70 139 33 70 139 33 70 139 33 70 139 33 70 139 33 70 139 33 70 139 33 70 139 33 70 139 33 70 139 33 70 139 33 70 139 33 70 139 33 70 139 33 70 139 33 70 139 33 70 139 33 70 139 33 70 139 33 70 139 33 70 139 33 70 139 33 70 139 33 70 139 33 70 139 33 70 139 33 70 139 33 70 139 33 70 139 33 70 139 33 70 139 33 70 139 33 70 139 33 70 139 33 70 139 33 70 139 33 70 139 33 70 139 33 70 139 33 70 139 33 70 139 33 70 139 33 70 139 33 70 139 33 70 139 33 70 139 33 70 139 33 70 139 33 70 139 33 70 139 33 70 139 33 70 139 33 70 139 
33 70 139 33 70 139 33 70 139 33 70 139 33 70 139 33 70 139 33 70 139 33 70 139 33 70 139 33 70 139 33 70 139 33 70 139 33 70 139 33 70 139 33 70 139 33 70 139 33 70 139 33 70 139 33 70 139 33 70 139 33 70 139 33 70 139 33 70 139 33 70 139 33 70 139 33 70 139 33 70 139 33 70 139 33 70 139 33 70 139 33 70 139 33 70 139 33 70 139 33 70 139 33 70 139 33 70 139 33 70 139 33 70 139 33 70 139 33 70 139 33 70 139 33 70 139 33 70 139 33 70 139 33 70 139 33 70 139 33 70 139 33 70 139 33 70 139 33 70 139 33 70 139 33 70 139 33 70 139 33 70 139 33 70 139 33 70 139 33 70 139 33 70 139 33 70 139 33 70 139 33 70 139 33 70 139 33 70 139 33 70 139 33 70 139 33 70 139 33 70 139 33 70 139 33 70 139 33 70 139 33 70 139 33 70 139 33 70 139 33 70 139 33 70 139 33 70 139 33 70 139 33 70 139 33 70 139 33 70 139 33 70 139 33 70 139 33 70 139 33 70 139 33 70 139 33 70 139 33 70 139 33 70 139 33 70 139 33 70 139 33 70 139 33 70 139 33 70 139 33 70 139 33 70 139 33 70 139 33 70 139 33 70 139 33 70 139 33 70 139 33 70 139 33 70 139 33 70 139 33 70 139 33 70 139 33 70 139 33 70 139 33 70 139 33 70 139 33 70 139 33 70 139 33 70 139 33 70 139 33 70 139 33 70 139 33 70 139 33 70 139 33 70 139 33 70 139 33 70 139 33 70 139 33 70 139 33 70 139 33 70 139 33 70 139 33 70 139 33 70 139 33 70 139 33 70 139 33 70 139 33 70 139 33 70 139 33 70 139 33 70 139 33 70 139 33 70 139 33 70 139 33 70 139 33 70 139 33 70 139 33 70 139 33 70 139 33 70 139 33 70 139 33 70 139 33 70 139 33 70 139 33 70 139 33 70 139 33 70 139 33 70 139 33 70 139 33 70 139 33 70 139 33 70 139 33 70 139 33 70 139 33 70 139 33 70 139 33 70 139 33 70 139 33 70 139 33 70 139 33 70 139 33 70 139 33 70 139 33 70 139 33 70 139 33 70 139 33 70 139 33 70 139 33 70 139 33 70 139 33 70 139 33 70 139 33 70 139 33 70 139 33 70 139 33 70 139 33 70 139 33 70 139 33 70 139 33 70 139 33 70 139 33 70 139 33 70 139 33 70 139 33 70 139 33 70 139 33 70 139 33 70 139 33 70 139 33 70 139 33 70 139 33 70 139 33 70 139 33 70 139 33 70 139 33 70 139 33 70 139 33 70 139 33 70 139 33 70 139 33 70 139 33 70 139 33 70 139 33 70 139 33 70 139 33 70 139 33 70 139 33 70 139 33 70 139 33 70 139 33 70 139 33 70 139 33 70 139 33 70 139 33 70 139 33 70 139 33 70 139 33 70 139 33 70 139 33 70 139 33 70 139 33 70 139 33 70 139 33 70 139 33 70 139 33 70 139 33 70 139 33 70 139 33 70 139 33 70 139 33 70 139 33 70 139 33 70 139 33 70 139 33 70 139 33 70 139 33 70 139 33 70 139 33 70 139 33 70 139 33 70 139 33 70 139 33 70 139 33 70 139 33 70 139 33 70 139 33 70 139 33 70 139 33 70 139 33 70 139 33 70 139 33 70 139 33 70 139 33 70 139 33 70 139 33 70 139 33 70 139 33 70 139 33 70 139 33 70 139 33 70 139 33 70 139 33 70 139 33 70 139 33 70 139 33 70 139 33 70 139 33 70 139 33 70 139 33 70 139 33 70 139 33 70 139 33 70 139 33 70 139 33 70 139 33 70 139 33 70 139 33 70 139 33 70 139 33 70 139 33 70 139 33 70 139 33 70 139 33 70 139 33 70 139 33 70 139 33 70 139 33 70 139 33 70 139 33 70 139 33 70 139 33 70 139 33 70 139 33 70 139 33 70 139 33 70 139 33 70 139 
33 70 139 33 70 139 33 70 139 33 70 139 33 70 139 33 70 139 33 70 139 33 70 139 33 70 139 33 70 139 33 70 139 33 70 139 33 70 139 33 70 139 33 70 139 33 70 139 33 70 139 33 70 139 33 70 139 33 70 139 33 70 139 33 70 139 33 70 139 33 70 139 33 70 139 33 70 139 33 70 139 33 70 139 33 70 139 33 70 139 33 70 139 33 70 139 33 70 139 33 70 139 33 70 139 33 70 139 33 70 139 33 70 139 33 70 139 33 70 139 33 70 139 33 70 139 33 70 139 33 70 139 33 70 139 33 70 139 33 70 139 33 70 139 33 70 139 33 70 139 33 70 139 33 70 139 33 70 139 33 70 139 33 70 139 33 70 139 33 70 139 33 70 139 33 70 139 33 70 139 33 70 139 33 70 139 33 70 139 33 70 139 33 70 139 33 70 139 33 70 139 33 70 139 33 70 139 33 70 139 33 70 139 33 70 139 33 70 139 33 70 139 33 70 139 33 70 139 33 70 139 33 70 139 33 70 139 33 70 139 33 70 139 33 70 139 33 70 139 33 70 139 33 70 139 33 70 139 33 70 139 33 70 139 33 70 139 33 70 139 33 70 139 33 70 139 33 70 139 33 70 139 33 70 139 33 70 139 33 70 139 33 70 139 33 70 139 33 70 139 33 70 139 33 70 139 33 70 139 33 70 139 33 70 139 33 70 139 33 70 139 33 70 139 33 70 139 33 70 139 33 70 139 33 70 139 33 70 139 33 70 139 33 70 139 33 70 139 33 70 139 33 70 139 33 70 139 33 70 139 33 70 139 33 70 139 33 70 139 33 70 139 33 70 139 33 70 139 33 70 139 33 70 139 33 70 139 33 70 139 33 70 139 33 70 139 33 70 139 33 70 139 33 70 139 33 70 139 33 70 139 33 70 139 33 70 139 33 70 139 33 70 139 33 70 139 33 70 139 33 70 139 33 70 139 33 70 139 33 70 139 33 70 139 33 70 139 33 70 139 33 70 139 33 70 139 33 70 139 33 70 139 33 70 139 33 70 139 33 70 139 33 70 139 33 70 139 33 70 139 33 70 139 33 70 139 33 70 139 33 70 139 33 70 139 33 70 139 33 70 139 33 70 139 33 70 139 33 70 139 33 70 139 33 70 139 33 70 139 33 70 139 33 70 139 33 70 139 33 70 139 33 70 139 33 70 139 33 70 139 33 70 139 33 70 139 33 70 139 33 70 139 33 70 139 33 70 139 33 70 139 33 70 139 33 70 139 33 70 139 33 70 139 33 70 139 33 70 139 33 70 139 33 70 139 33 70 139 33 70 139 33 70 139 33 70 139 33 70 139 33 70 139 33 70 139 33 70 139 33 70 139 33 70 139 33 70 139 33 70 139 33 70 139 33 70 139 33 70 139 33 70 139 33 70 139 33 70 139 33 70 139 33 70 139 33 70 139 33 70 139 33 70 139 33 70 139 33 70 139 33 70 139 33 70 139 33 70 139 33 70 139 33 70 139 33 70 139 33 70 139 33 70 139 33 70 139 33 70 139 33 70 139 33 70 139 33 70 139 33 70 139 33 70 139 33 70 139 33 70 139 33 70 139 33 70 139 33 70 139 33 70 139 33 70 139 33 70 139 33 70 139 33 70 139 33 70 139 33 70 139 33 70 139 33 70 139 33 70 139 33 70 139 33 70 139 33 70 139 33 70 139 33 70 139 33 70 139 33 70 139 33 70 139 33 70 139 33 70 139 33 70 139 33 70 139 33 70 139 33 70 139 33 70 139 33 70 139 33 70 139 33 70 139 33 70 139 33 70 139 33 70 139 33 70 139 33 70 139 33 70 139 33 70 139 33 70 139 33 70 139 33 70 139 33 70 139 33 70 139 33 70 139 33 70 139 33 70 139 33 70 139 33 70 139 33 70 139 33 70 139 33 70 139 33 70 139 33 70 139 33 70 139 33 70 139 33 70 139 33 70 139 33 70 139 33 70 139 33 70 139 33 70 139 33 70 139 33 70 139 
