P3
300 200
255
0 87 183 0 87 183 0 87 183 0 87 183 0 87 183 0 87 183 0 87 183 0 87 183 0 87 183 0 87 183 0 87 183 0 87 183 0 87 183 0 87 183 0 87 183 0 87 183 0 87 183 0 87 183 0 87 183 0 87 183 0 87 183 0 87 183 0 87 183 0 87 183 0 87 183 0 87 183 0 87 183 0 87 183 0 87 183 0 87 183 0 87 183 0 87 183 0 87 183 0 87 183 0 87 183 0 87 183 0 87 183 0 87 183 0 87 183 0 87 183 0 87 183 0 87 183 0 87 183 0 87 183 0 87 183 0 87 183 0 87 183 0 87 183 0 87 183 0 87 183 0 87 183 0 87 183 0 87 183 0 87 183 0 87 183 0 87 183 0 87 183 0 87 183 0 87 183 0 87 183 0 87 183 0 87 183 0 87 183 0 87 183 0 87 183 0 87 183 0 87 183 0 87 183 0 87 183 0 87 183 0 87 183 0 87 183 0 87 183 0 87 183 0 87 183 0 87 183 0 87 183 0 87 183 0 87 183 0 87 183 0 87 183 0 87 183 0 87 183 0 87 183 0 87 183 0 87 183 0 87 183 0 87 183 0 87 183 0 87 183 0 87 183 0 87 183 0 87 183 0 87 183 0 87 183 0 87 183 0 87 183 0 87 183 0 87 183 0 87 183 0 87 183 0 87 183 0 87 183 0 87 183 0 87 183 0 87 183 0 87 183 0 87 183 0 87 183 0 87 183 0 87 183 0 87 183 0 87 183 0 87 183 0 87 183 0 87 183 0 87 183 0 87 183 0 87 183 0 87 183 0 87 183 0 87 183 0 87 183 0 87 183 0 87 183 0 87 183 0 87 183 0 87 183 0 87 183 0 87 183 0 87 183 0 87 183 0 87 183 0 87 183 0 87 183 0 87 183 0 87 183 0 87 183 0 87 183 0 87 183 0 87 183 0 87 183 0 87 183 0 87 183 0 87 183 0 87 183 0 87 183 0 87 183 0 87 183 0 87 183 0 87 183 0 87 183 0 87 183 0 87 183 0 87 183 0 87 183 0 87 183 0 87 183 0 87 183 0 87 183 0 87 183 0 87 183 0 87 183 0 87 183 0 87 183 0 87 183 0 87 183 0 87 183 0 87 183 0 87 183 0 87 183 0 87 183 0 87 183 0 87 183 0 87 183 0 87 183 0 87 183 0 87 183 0 87 183 0 87 183 0 87 183 0 87 183 0 87 183 0 87 183 0 87 183 0 87 183 0 87 183 0 87 183 0 87 183 0 87 183 0 87 183 0 87 183 0 87 183 0 87 183 0 87 183 0 87 183 0 87 183 0 87 183 0 87 183 0 87 183 0 87 183 0 87 183 0 87 183 0 87 183 0 87 183 0 87 183 0 87 183 0 87 183 0 87 183 0 87 183 0 87 183 0 87 183 0 87 183 0 87 183 0 87 183 0 87 183 0 87 183 0 87 183 0 87 183 0 87 183 0 87 183 0 87 183 0 87 183 0 87 183 0 87 183 0 87 183 0 87 183 0 87 183 0 87 183 0 87 183 0 87 183 0 87 183 0 87 183 0 87 183 0 87 183 0 87 183 0 87 183 0 87 183 0 87 183 0 87 183 0 87 183 0 87 183 0 87 183 0 87 183 0 87 183 0 87 183 0 87 183 0 87 183 0 87 183 0 87 183 0 87 183 0 87 183 0 87 183 0 87 183 0 87 183 0 87 183 0 87 183 0 87 183 0 87 183 0 87 183 0 87 183 0 87 183 0 87 183 0 87 183 0 87 183 0 87 183 0 87 183 0 87 183 0 87 183 0 87 183 0 87 183 0 87 183 0 87 183 0 87 183 0 87 183 0 87 183 0 87 183 0 87 183 0 87 183 0 87 183 0 87 183 0 87 183 0 87 183 0 87 183 0 87 183 0 87 183 0 87 183 0 87 183 0 87 183 0 87 183 0 87 183 0 87 183 0 87 183 0 87 183 0 87 183 0 87 183 0 87 183 0 87 183 0 87 183 0 87 183 
0 87 183 0 87 183 0 87 183 0 87 183 0 87 183 0 87 183 0 87 183 0 87 183 0 87 183 0 87 183 0 87 183 0 87 183 0 87 183 0 87 183 0 87 183 0 87 183 0 87 183 0 87 183 0 87 183 0 87 183 0 87 183 0 87 183 0 87 183 0 87 183 0 87 183 0 87 183 0 87 183 0 87 183 0 87 183 0 87 183 0 87 183 0 87 183 0 87 183 0 87 183 0 87 183 0 87 183 0 87 183 0 87 183 0 87 183 0 87 183 0 87 183 0 87 183 0 87 183 0 87 183 0 87 183 0 87 183 0 87 183 0 87 183 0 87 183 0 87 183 0 87 183 0 87 183 0 87 183 0 87 183 0 87 183 0 87 183 0 87 183 0 87 183 0 87 183 0 87 183 0 87 183 0 87 183 0 87 183 0 87 183 0 87 183 0 87 183 0 87 183 0 87 183 0 87 183 0 87 183 0 87 183 0 87 183 0 87 183 0 87 183 0 87 183 0 87 183 0 87 183 0 87 183 0 87 183 0 87 183 0 87 183 0 87 183 0 87 183 0 87 183 0 87 183 0 87 183 0 87 183 0 87 183 0 87 183 0 87 183 0 87 183 0 87 183 0 87 183 0 87 183 0 87 183 0 87 183 0 87 183 0 87 183 0 87 183 0 87 183 0 87 183 0 87 183 0 87 183 0 87 183 0 87 183 0 87 183 0 87 183 0 87 183 0 87 183 0 87 183 0 87 183 0 87 183 0 87 183 0 87 183 0 87 183 0 87 183 0 87 183 0 87 183 0 87 183 0 87 183 0 87 183 0 87 183 0 87 183 0 87 183 0 87 183 0 87 183 0 87 183 0 87 183 0 87 183 0 87 183 0 87 183 0 87 183 0 87 183 0 87 183 0 87 183 0 87 183 0 87 183 0 87 183 0 87 183 0 87 183 0 87 183 0 87 183 0 87 183 0 87 183 0 87 183 0 87 183 0 87 183 0 87 183 0 87 183 0 87 183 0 87 183 0 87 183 0 87 183 0 87 183 0 87 183 0 87 183 0 87 183 0 87 183 0 87 183 0 87 183 0 87 183 0 87 183 0 87 183 0 87 183 0 87 183 0 87 183 0 87 183 0 87 183 0 87 183 0 87 183 0 87 183 0 87 183 0 87 183 0 87 183 0 87 183 0 87 183 0 87 183 0 87 183 0 87 183 0 87 183 0 87 183 0 87 183 0 87 183 0 87 183 0 87 183 0 87 183 0 87 183 0 87 183 0 87 183 0 87 183 0 87 183 0 87 183 0 87 183 0 87 183 0 87 183 0 87 183 0 87 183 0 87 183 0 87 183 0 87 183 0 87 183 0 87 183 0 87 183 0 87 183 0 87 183 0 87 183 0 87 183 0 87 183 0 87 183 0 87 183 0 87 183 0 87 183 0 87 183 0 87 183 0 87 183 0 87 183 0 87 183 0 87 183 0 87 183 0 87 183 0 87 183 0 87 183 0 87 183 0 87 183 0 87 183 0 87 183 0 87 183 0 87 183 0 87 183 0 87 183 0 87 183 0 87 183 0 87 183 0 87 183 0 87 183 0 87 183 0 87 183 0 87 183 0 87 183 0 87 183 0 87 183 0 87 183 0 87 183 0 87 183 0 87 183 0 87 183 0 87 183 0 87 183 0 87 183 0 87 183 0 87 183 0 87 183 0 87 183 0 87 183 0 87 183 0 87 183 0 87 183 0 87 183 0 87 183 0 87 183 0 87 183 0 87 183 0 87 183 0 87 183 0 87 183 0 87 183 0 87 183 0 87 183 0 87 183 0 87 183 0 87 183 0 87 183 0 87 183 0 87 183 0 87 183 0 87 183 0 87 183 0 87 183 0 87 183 0 87 183 0 87 183 0 87 183 0 87 183 0 87 183 0 87 183 0 87 183 0 87 183 0 87 183 0 87 183 0 87 183 0 87 183 0 87 183 0 87 183 0 87 183 0 87 183 0 87 183 0 87 183 0 87 183 0 87 183 0 87 183 
0 87 183 0 87 183 0 87 183 0 87 183 0 87 183 0 87 183 0 87 183 0 87 183 0 87 183 0 87 183 0 87 183 0 87 183 0 87 183 0 87 183 0 87 183 0 87 183 0 87 183 0 87 183 0 87 183 0 87 183 0 87 183 0 87 183 0 87 183 0 87 183 0 87 183 0 87 183 0 87 183 0 87 183 0 87 183 0 87 183 0 87 183 0 87 183 0 87 183 0 87 183 0 87 183 0 87 183 0 87 183 0 87 183 0 87 183 0 87 183 0 87 183 0 87 183 0 87 183 0 87 183 0 87 183 0 87 183 0 87 183 0 87 183 0 87 183 0 87 183 0 87 183 0 87 183 0 87 183 0 87 183 0 87 183 0 87 183 0 87 183 0 87 183 0 87 183 0 87 183 0 87 183 0 87 183 0 87 183 0 87 183 0 87 183 0 87 183 0 87 183 0 87 183 0 87 183 0 87 183 0 87 183 0 87 183 0 87 183 0 87 183 0 87 183 0 87 183 0 87 183 0 87 183 0 87 183 0 87 183 0 87 183 0 87 183 0 87 183 0 87 183 0 87 183 0 87 183 0 87 183 0 87 183 0 87 183 0 87 183 0 87 183 0 87 183 0 87 183 0 87 183 0 87 183 0 87 183 0 87 183 0 87 183 0 87 183 0 87 183 0 87 183 0 87 183 0 87 183 0 87 183 0 87 183 0 87 183 0 87 183 0 87 183 0 87 183 0 87 183 0 87 183 0 87 183 0 87 183 0 87 183 0 87 183 0 87 183 0 87 183 0 87 183 0 87 183 0 87 183 0 87 183 0 87 183 0 87 183 0 87 183 0 87 183 0 87 183 0 87 183 0 87 183 0 87 183 0 87 183 0 87 183 0 87 183 0 87 183 0 87 183 0 87 183 0 87 183 0 87 183 0 87 183 0 87 183 0 87 183 0 87 183 0 87 183 0 87 183 0 87 183 0 87 183 0 87 183 0 87 183 0 87 183 0 87 183 0 87 183 0 87 183 0 87 183 0 87 183 0 87 183 0 87 183 0 87 183 0 87 183 0 87 183 0 87 183 0 87 183 0 87 183 0 87 183 0 87 183 0 87 183 0 87 183 0 87 183 0 87 183 0 87 183 0 87 183 0 87 183 0 87 183 0 87 183 0 87 183 0 87 183 0 87 183 0 87 183 0 87 183 0 87 183 0 87 183 0 87 183 0 87 183 0 87 183 0 87 183 0 87 183 0 87 183 0 87 183 0 87 183 0 87 183 0 87 183 0 87 183 0 87 183 0 87 183 0 87 183 0 87 183 0 87 183 0 87 183 0 87 183 0 87 183 0 87 183 0 87 183 0 87 183 0 87 183 0 87 183 0 87 183 0 87 183 0 87 183 0 87 183 0 87 183 0 87 183 0 87 183 0 87 183 0 87 183 0 87 183 0 87 183 0 87 183 0 87 183 0 87 183 0 87 183 0 87 183 0 87 183 0 87 183 0 87 183 0 87 183 0 87 183 0 87 183 0 87 183 0 87 183 0 87 183 0 87 183 0 87 183 0 87 183 0 87 183 0 87 183 0 87 183 0 87 183 0 87 183 0 87 183 0 87 183 0 87 183 0 87 183 0 87 183 0 87 183 0 87 183 0 87 183 0 87 183 0 87 183 0 87 183 0 87 183 0 87 183 0 87 183 0 87 183 0 87 183 0 87 183 0 87 183 0 87 183 0 87 183 0 87 183 0 87 183 0 87 183 0 87 183 0 87 183 0 87 183 0 87 183 0 87 183 0 87 183 0 87 183 0 87 183 0 87 183 0 87 183 0 87 183 0 87 183 0 87 183 0 87 183 0 87 183 0 87 183 0 87 183 0 87 183 0 87 183 0 87 183 0 87 183 0 87 183 0 87 183 0 87 183 0 87 183 0 87 183 0 87 183 0 87 183 0 87 183 0 87 183 0 87 183 0 87 183 0 87 183 0 87 183 0 87 183 0 87 183 0 87 183 0 87 183 0 87 183 0 87 183 0 87 183 
0 87 183 0 87 183 0 87 183 0 87 183 0 87 183 0 87 183 0 87 183 0 87 183 0 87 183 0 87 183 0 87 183 0 87 183 0 87 183 0 87 183 0 87 183 0 87 183 0 87 183 0 87 183 0 87 183 0 87 183 0 87 183 0 87 183 0 87 183 0 87 183 0 87 183 0 87 183 0 87 183 0 87 183 0 87 183 0 87 183 0 87 183 0 87 183 0 87 183 0 87 183 0 87 183 0 87 183 0 87 183 0 87 183 0 87 183 0 87 183 0 87 183 0 87 183 0 87 183 0 87 183 0 87 183 0 87 183 0 87 183 0 87 183 0 87 183 0 87 183 0 87 183 0 87 183 0 87 183 0 87 183 0 87 183 0 87 183 0 87 183 0 87 183 0 87 183 0 87 183 0 87 183 0 87 183 0 87 183 0 87 183 0 87 183 0 87 183 0 87 183 0 87 183 0 87 183 0 87 183 0 87 183 0 87 183 0 87 183 0 87 183 0 87 183 0 87 183 0 87 183 0 87 183 0 87 183 0 87 183 0 87 183 0 87 183 0 87 183 0 87 183 0 87 183 0 87 183 0 87 183 0 87 183 0 87 183 0 87 183 0 87 183 0 87 183 0 87 183 0 87 183 0 87 183 0 87 183 0 87 183 0 87 183 0 87 183 0 87 183 0 87 183 0 87 183 0 87 183 0 87 183 0 87 183 0 87 183 0 87 183 0 87 183 0 87 183 0 87 183 0 87 183 0 87 183 0 87 183 0 87 183 0 87 183 0 87 183 0 87 183 0 87 183 0 87 183 0 87 183 0 87 183 0 87 183 0 87 183 0 87 183 0 87 183 0 87 183 0 87 183 0 87 183 0 87 183 0 87 183 0 87 183 0 87 183 0 87 183 0 87 183 0 87 183 0 87 183 0 87 183 0 87 183 0 87 183 0 87 183 0 87 183 0 87 183 0 87 183 0 87 183 0 87 183 0 87 183 0 87 183 0 87 183 0 87 183 0 87 183 0 87 183 0 87 183 0 87 183 0 87 183 0 87 183 0 87 183 0 87 183 0 87 183 0 87 183 0 87 183 0 87 183 0 87 183 0 87 183 0 87 183 0 87 183 0 87 183 0 87 183 0 87 183 0 87 183 0 87 183 0 87 183 0 87 183 0 87 183 0 87 183 0 87 183 0 87 183 0 87 183 0 87 183 0 87 183 0 87 183 0 87 183 0 87 183 0 87 183 0 87 183 0 87 183 0 87 183 0 87 183 0 87 183 0 87 183 0 87 183 0 87 183 0 87 183 0 87 183 0 87 183 0 87 183 0 87 183 0 87 183 0 87 183 0 87 183 0 87 183 0 87 183 0 87 183 0 87 183 0 87 183 0 87 183 0 87 183 0 87 183 0 87 183 0 87 183 0 87 183 0 87 183 0 87 183 0 87 183 0 87 183 0 87 183 0 87 183 0 87 183 0 87 183 0 87 183 0 87 183 0 87 183 0 87 183 0 87 183 0 87 183 0 87 183 0 87 183 0 87 183 0 87 183 0 87 183 0 87 183 0 87 183 0 87 183 0 87 183 0 87 183 0 87 183 0 87 183 0 87 183 0 87 183 0 87 183 0 87 183 0 87 183 0 87 183 0 87 183 0 87 183 0 87 183 0 87 183 0 87 183 0 87 183 0 87 183 0 87 183 0 87 183 0 87 183 0 87 183 0 87 183 0 87 183 0 87 183 0 87 183 0 87 183 0 87 183 0 87 183 0 87 183 0 87 183 0 87 183 0 87 183 0 87 183 0 87 183 0 87 183 0 87 183 0 87 183 0 87 183 0 87 183 0 87 183 0 87 183 0 87 183 0 87 183 0 87 183 0 87 183 0 87 183 0 87 183 0 87 183 0 87 183 0 87 183 0 87 183 0 87 183 0 87 183 0 87 183 0 87 183 0 87 183 0 87 183 0 87 183 0 87 183 0 87 183 0 87 183 0 87 183 0 87 183 0 87 183 0 87 183 0 87 183 0 87 183 0 87 183 
0 87 183 0 87 183 0 87 183 0 87 183 0 87 183 0 87 183 0 87 183 0 87 183 0 87 183 0 87 183 0 87 183 0 87 183 0 87 183 0 87 183 0 87 183 0 87 183 0 87 183 0 87 183 0 87 183 0 87 183 0 87 183 0 87 183 0 87 183 0 87 183 0 87 183 0 87 183 0 87 183 0 87 183 0 87 183 0 87 183 0 87 183 0 87 183 0 87 183 0 87 183 0 87 183 0 87 183 0 87 183 0 87 183 0 87 183 0 87 183 0 87 183 0 87 183 0 87 183 0 87 183 0 87 183 0 87 183 0 87 183 0 87 183 0 87 183 0 87 183 0 87 183 0 87 183 0 87 183 0 87 183 0 87 183 0 87 183 0 87 183 0 87 183 0 87 183 0 87 183 0 87 183 0 87 183 0 87 183 0 87 183 0 87 183 0 87 183 0 87 183 0 87 183 0 87 183 0 87 183 0 87 183 0 87 183 0 87 183 0 87 183 0 87 183 0 87 183 0 87 183 0 87 183 0 87 183 0 87 183 0 87 183 0 87 183 0 87 183 0 87 183 0 87 183 0 87 183 0 87 183 0 87 183 0 87 183 0 87 183 0 87 183 0 87 183 0 87 183 0 87 183 0 87 183 0 87 183 0 87 183 0 87 183 0 87 183 0 87 183 0 87 183 0 87 183 0 87 183 0 87 183 0 87 183 0 87 183 0 87 183 0 87 183 0 87 183 0 87 183 0 87 183 0 87 183 0 87 183 0 87 183 0 87 183 0 87 183 0 87 183 0 87 183 0 87 183 0 87 183 0 87 183 0 87 183 0 87 183 0 87 183 0 87 183 0 87 183 0 87 183 0 87 183 0 87 183 0 87 183 0 87 183 0 87 183 0 87 183 0 87 183 0 87 183 0 87 183 0 87 183 0 87 183 0 87 183 0 87 183 0 87 183 0 87 183 0 87 183 0 87 183 0 87 183 0 87 183 0 87 183 0 87 183 0 87 183 0 87 183 0 87 183 0 87 183 0 87 183 0 87 183 0 87 183 0 87 183 0 87 183 0 87 183 0 87 183 0 87 183 0 87 183 0 87 183 0 87 183 0 87 183 0 87 183 0 87 183 0 87 183 0 87 183 0 87 183 0 87 183 0 87 183 0 87 183 0 87 183 0 87 183 0 87 183 0 87 183 0 87 183 0 87 183 0 87 183 0 87 183 0 87 183 0 87 183 0 87 183 0 87 183 0 87 183 0 87 183 0 87 183 0 87 183 0 87 183 0 87 183 0 87 183 0 87 183 0 87 183 0 87 183 0 87 183 0 87 183 0 87 183 0 87 183 0 87 183 0 87 183 0 87 183 0 87 183 0 87 183 0 87 183 0 87 183 0 87 183 0 87 183 0 87 183 0 87 183 0 87 183 0 87 183 0 87 183 0 87 183 0 87 183 0 87 183 0 87 183 0 87 183 0 87 183 0 87 183 0 87 183 0 87 183 0 87 183 0 87 183 0 87 183 0 87 183 0 87 183 0 87 183 0 87 183 0 87 183 0 87 183 0 87 183 0 87 183 0 87 183 0 87 183 0 87 183 0 87 183 0 87 183 0 87 183 0 87 183 0 87 183 0 87 183 0 87 183 0 87 183 0 87 183 0 87 183 0 87 183 0 87 183 0 87 183 0 87 183 0 87 183 0 87 183 0 87 183 0 87 183 0 87 183 0 87 183 0 87 183 0 87 183 0 87 183 0 87 183 0 87 183 0 87 183 0 87 183 0 87 183 0 87 183 0 87 183 0 87 183 0 87 183 0 87 183 0 87 183 0 87 183 0 87 183 0 87 183 0 87 183 0 87 183 0 87 183 0 87 183 0 87 183 0 87 183 0 87 183 0 87 183 0 87 183 0 87 183 0 87 183 0 87 183 0 87 183 0 87 183 0 87 183 0 87 183 0 87 183 0 87 183 0 87 183 0 87 183 0 87 183 0 87 183 0 87 183 0 87 183 0 87 183 0 87 183 0 87 183 0 87 183 
0 87 183 0 87 183 0 87 183 0 87 183 0 87 183 0 87 183 0 87 183 0 87 183 0 87 183 0 87 183 0 87 183 0 87 183 0 87 183 0 87 183 0 87 183 0 87 183 0 87 183 0 87 183 0 87 183 0 87 183 0 87 183 0 87 183 0 87 183 0 87 183 0 87 183 0 87 183 0 87 183 0 87 183 0 87 183 0 87 183 0 87 183 0 87 183 0 87 183 0 87 183 0 87 183 0 87 183 0 87 183 0 87 183 0 87 183 0 87 183 0 87 183 0 87 183 0 87 183 0 87 183 0 87 183 0 87 183 0 87 183 0 87 183 0 87 183 0 87 183 0 87 183 0 87 183 0 87 183 0 87 183 0 87 183 0 87 183 0 87 183 0 87 183 0 87 183 0 87 183 0 87 183 0 87 183 0 87 183 0 87 183 0 87 183 0 87 183 0 87 183 0 87 183 0 87 183 0 87 183 0 87 183 0 87 183 0 87 183 0 87 183 0 87 183 0 87 183 0 87 183 0 87 183 0 87 183 0 87 183 0 87 183 0 87 183 0 87 183 0 87 183 0 87 183 0 87 183 0 87 183 0 87 183 0 87 183 0 87 183 0 87 183 0 87 183 0 87 183 0 87 183 0 87 183 0 87 183 0 87 183 0 87 183 0 87 183 0 87 183 0 87 183 0 87 183 0 87 183 0 87 183 0 87 183 0 87 183 0 87 183 0 87 183 0 87 183 0 87 183 0 87 183 0 87 183 0 87 183 0 87 183 0 87 183 0 87 183 0 87 183 0 87 183 0 87 183 0 87 183 0 87 183 0 87 183 0 87 183 0 87 183 0 87 183 0 87 183 0 87 183 0 87 183 0 87 183 0 87 183 0 87 183 0 87 183 0 87 183 0 87 183 0 87 183 0 87 183 0 87 183 0 87 183 0 87 183 0 87 183 0 87 183 0 87 183 0 87 183 0 87 183 0 87 183 0 87 183 0 87 183 0 87 183 0 87 183 0 87 183 0 87 183 0 87 183 0 87 183 0 87 183 0 87 183 0 87 183 0 87 183 0 87 183 0 87 183 0 87 183 0 87 183 0 87 183 0 87 183 0 87 183 0 87 183 0 87 183 0 87 183 0 87 183 0 87 183 0 87 183 0 87 183 0 87 183 0 87 183 0 87 183 0 87 183 0 87 183 0 87 183 0 87 183 0 87 183 0 87 183 0 87 183 0 87 183 0 87 183 0 87 183 0 87 183 0 87 183 0 87 183 0 87 183 0 87 183 0 87 183 0 87 183 0 87 183 0 87 183 0 87 183 0 87 183 0 87 183 0 87 183 0 87 183 0 87 183 0 87 183 0 87 183 0 87 183 0 87 183 0 87 183 0 87 183 0 87 183 0 87 183 0 87 183 0 87 183 0 87 183 0 87 183 0 87 183 0 87 183 0 87 183 0 87 183 0 87 183 0 87 183 0 87 183 0 87 183 0 87 183 0 87 183 0 87 183 0 87 183 0 87 183 0 87 183 0 87 183 0 87 183 0 87 183 0 87 183 0 87 183 0 87 183 0 87 183 0 87 183 0 87 183 0 87 183 0 87 183 0 87 183 0 87 183 0 87 183 0 87 183 0 87 183 0 87 183 0 87 183 0 87 183 0 87 183 0 87 183 0 87 183 0 87 183 0 87 183 0 87 183 0 87 183 0 87 183 0 87 183 0 87 183 0 87 183 0 87 183 0 87 183 0 87 183 0 87 183 0 87 183 0 87 183 0 87 183 0 87 183 0 87 183 0 87 183 0 87 183 0 87 183 0 87 183 0 87 183 0 87 183 0 87 183 0 87 183 0 87 183 0 87 183 0 87 183 0 87 183 0 87 183 0 87 183 0 87 183 0 87 183 0 87 183 0 87 183 0 87 183 0 87 183 0 87 183 0 87 183 0 87 183 0 87 183 0 87 183 0 87 183 0 87 183 0 87 183 0 87 183 0 87 183 0 87 183 0 87 183 0 87 183 0 87 183 0 87 183 0 87 183 
0 87 183 0 87 183 0 87 183 0 87 183 0 87 183 0 87 183 0 87 183 0 87 183 0 87 183 0 87 183 0 87 183 0 87 183 0 87 183 0 87 183 0 87 183 0 87 183 0 87 183 0 87 183 0 87 183 0 87 183 0 87 183 0 87 183 0 87 183 0 87 183 0 87 183 0 87 183 0 87 183 0 87 183 0 87 183 0 87 183 0 87 183 0 87 183 0 87 183 0 87 183 0 87 183 0 87 183 0 87 183 0 87 183 0 87 183 0 87 183 0 87 183 0 87 183 0 87 183 0 87 183 0 87 183 0 87 183 0 87 183 0 87 183 0 87 183 0 87 183 0 87 183 0 87 183 0 87 183 0 87 183 0 87 183 0 87 183 0 87 183 0 87 183 0 87 183 0 87 183 0 87 183 0 87 183 0 87 183 0 87 183 0 87 183 0 87 183 0 87 183 0 87 183 0 87 183 0 87 183 0 87 183 0 87 183 0 87 183 0 87 183 0 87 183 0 87 183 0 87 183 0 87 183 0 87 183 0 87 183 0 87 183 0 87 183 0 87 183 0 87 183 0 87 183 0 87 183 0 87 183 0 87 183 0 87 183 0 87 183 0 87 183 0 87 183 0 87 183 0 87 183 0 87 183 0 87 183 0 87 183 0 87 183 0 87 183 0 87 183 0 87 183 0 87 183 0 87 183 0 87 183 0 87 183 0 87 183 0 87 183 0 87 183 0 87 183 0 87 183 0 87 183 0 87 183 0 87 183 0 87 183 0 87 183 0 87 183 0 87 183 0 87 183 0 87 183 0 87 183 0 87 183 0 87 183 0 87 183 0 87 183 0 87 183 0 87 183 0 87 183 0 87 183 0 87 183 0 87 183 0 87 183 0 87 183 0 87 183 0 87 183 0 87 183 0 87 183 0 87 183 0 87 183 0 87 183 0 87 183 0 87 183 0 87 183 0 87 183 0 87 183 0 87 183 0 87 183 0 87 183 0 87 183 0 87 183 0 87 183 0 87 183 0 87 183 0 87 183 0 87 183 0 87 183 0 87 183 0 87 183 0 87 183 0 87 183 0 87 183 0 87 183 0 87 183 0 87 183 0 87 183 0 87 183 0 87 183 0 87 183 0 87 183 0 87 183 0 87 183 0 87 183 0 87 183 0 87 183 0 87 183 0 87 183 0 87 183 0 87 183 0 87 183 0 87 183 0 87 183 0 87 183 0 87 183 0 87 183 0 87 183 0 87 183 0 87 183 0 87 183 0 87 183 0 87 183 0 87 183 0 87 183 0 87 183 0 87 183 0 87 183 0 87 183 0 87 183 0 87 183 0 87 183 0 87 183 0 87 183 0 87 183 0 87 183 0 87 183 0 87 183 0 87 183 0 87 183 0 87 183 0 87 183 0 87 183 0 87 183 0 87 183 0 87 183 0 87 183 0 87 183 0 87 183 0 87 183 0 87 183 0 87 183 0 87 183 0 87 183 0 87 183 0 87 183 0 87 183 0 87 183 0 87 183 0 87 183 0 87 183 0 87 183 0 87 183 0 87 183 0 87 183 0 87 183 0 87 183 0 87 183 0 87 183 0 87 183 0 87 183 0 87 183 0 87 183 0 87 183 0 87 183 0 87 183 0 87 183 0 87 183 0 87 183 0 87 183 0 87 183 0 87 183 0 87 183 0 87 183 0 87 183 0 87 183 0 87 183 0 87 183 0 87 183 0 87 183 0 87 183 0 87 183 0 87 183 0 87 183 0 87 183 0 87 183 0 87 183 0 87 183 0 87 183 0 87 183 0 87 183 0 87 183 0 87 183 0 87 183 0 87 183 0 87 183 0 87 183 0 87 183 0 87 183 0 87 183 0 87 183 0 87 183 0 87 183 0 87 183 0 87 183 0 87 183 0 87 183 0 87 183 0 87 183 0 87 183 0 87 183 0 87 183 0 87 183 0 87 183 0 87 183 0 87 183 0 87 183 0 87 183 0 87 183 0 87 183 0 87 183 0 87 183 0 87 183 0 87 183 
0 87 183 0 87 183 0 87 183 0 87 183 0 87 183 0 87 183 0 87 183 0 87 183 0 87 183 0 87 183 0 87 183 0 87 183 0 87 183 0 87 183 0 87 183 0 87 183 0 87 183 0 87 183 0 87 183 0 87 183 0 87 183 0 87 183 0 87 183 0 87 183 0 87 183 0 87 183 0 87 183 0 87 183 0 87 183 0 87 183 0 87 183 0 87 183 0 87 183 0 87 183 0 87 183 0 87 183 0 87 183 0 87 183 0 87 183 0 87 183 0 87 183 0 87 183 0 87 183 0 87 183 0 87 183 0 87 183 0 87 183 0 87 183 0 87 183 0 87 183 0 87 183 0 87 183 0 87 183 0 87 183 0 87 183 0 87 183 0 87 183 0 87 183 0 87 183 0 87 183 0 87 183 0 87 183 0 87 183 0 87 183 0 87 183 0 87 183 0 87 183 0 87 183 0 87 183 0 87 183 0 87 183 0 87 183 0 87 183 0 87 183 0 87 183 0 87 183 0 87 183 0 87 183 0 87 183 0 87 183 0 87 183 0 87 183 0 87 183 0 87 183 0 87 183 0 87 183 0 87 183 0 87 183 0 87 183 0 87 183 0 87 183 0 87 183 0 87 183 0 87 183 0 87 183 0 87 183 0 87 183 0 87 183 0 87 183 0 87 183 0 87 183 0 87 183 0 87 183 0 87 183 0 87 183 0 87 183 0 87 183 0 87 183 0 87 183 0 87 183 0 87 183 0 87 183 0 87 183 0 87 183 0 87 183 0 87 183 0 87 183 0 87 183 0 87 183 0 87 183 0 87 183 0 87 183 0 87 183 0 87 183 0 87 183 0 87 183 0 87 183 0 87 183 0 87 183 0 87 183 0 87 183 0 87 183 0 87 183 0 87 183 0 87 183 0 87 183 0 87 183 0 87 183 0 87 183 0 87 183 0 87 183 0 87 183 0 87 183 0 87 183 0 87 183 0 87 183 0 87 183 0 87 183 0 87 183 0 87 183 0 87 183 0 87 183 0 87 183 0 87 183 0 87 183 0 87 183 0 87 183 0 87 183 0 87 183 0 87 183 0 87 183 0 87 183 0 87 183 0 87 183 0 87 183 0 87 183 0 87 183 0 87 183 0 87 183 0 87 183 0 87 183 0 87 183 0 87 183 0 87 183 0 87 183 0 87 183 0 87 183 0 87 183 0 87 183 0 87 183 0 87 183 0 87 183 0 87 183 0 87 183 0 87 183 0 87 183 0 87 183 0 87 183 0 87 183 0 87 183 0 87 183 0 87 183 0 87 183 0 87 183 0 87 183 0 87 183 0 87 183 0 87 183 0 87 183 0 87 183 0 87 183 0 87 183 0 87 183 0 87 183 0 87 183 0 87 183 0 87 183 0 87 183 0 87 183 0 87 183 0 87 183 0 87 183 0 87 183 0 87 183 0 87 183 0 87 183 0 87 183 0 87 183 0 87 183 0 87 183 0 87 183 0 87 183 0 87 183 0 87 183 0 87 183 0 87 183 0 87 183 0 87 183 0 87 183 0 87 183 0 87 183 0 87 183 0 87 183 0 87 183 0 87 183 0 87 183 0 87 183 0 87 183 0 87 183 0 87 183 0 87 183 0 87 183 0 87 183 0 87 183 0 87 183 0 87 183 0 87 183 0 87 183 0 87 183 0 87 183 0 87 183 0 87 183 0 87 183 0 87 183 0 87 183 0 87 183 0 87 183 0 87 183 0 87 183 0 87 183 0 87 183 0 87 183 0 87 183 0 87 183 0 87 183 0 87 183 0 87 183 0 87 183 0 87 183 0 87 183 0 87 183 0 87 183 0 87 183 0 87 183 0 87 183 0 87 183 0 87 183 0 87 183 0 87 183 0 87 183 0 87 183 0 87 183 0 87 183 0 87 183 0 87 183 0 87 183 0 87 183 0 87 183 0 87 183 0 87 183 0 87 183 0 87 183 0 87 183 0 87 183 0 87 183 0 87 183 0 87 183 0 87 183 0 87 183 0 87 183 
0 87 183 0 87 183 0 87 183 0 87 183 0 87 183 0 87 183 0 87 183 0 87 183 0 87 183 0 87 183 0 87 183 0 87 183 0 87 183 0 87 183 0 87 183 0 87 183 0 87 183 0 87 183 0 87 183 0 87 183 0 87 183 0 87 183 0 87 183 0 87 183 0 87 183 0 87 183 0 87 183 0 87 183 0 87 183 0 87 183 0 87 183 0 87 183 0 87 183 0 87 183 0 87 183 0 87 183 0 87 183 0 87 183 0 87 183 0 87 183 0 87 183 0 87 183 0 87 183 0 87 183 0 87 183 0 87 183 0 87 183 0 87 183 0 87 183 0 87 183 0 87 183 0 87 183 0 87 183 0 87 183 0 87 183 0 87 183 0 87 183 0 87 183 0 87 183 0 87 183 0 87 183 0 87 183 0 87 183 0 87 183 0 87 183 0 87 183 0 87 183 0 87 183 0 87 183 0 87 183 0 87 183 0 87 183 0 87 183 0 87 183 0 87 183 0 87 183 0 87 183 0 87 183 0 87 183 0 87 183 0 87 183 0 87 183 0 87 183 0 87 183 0 87 183 0 87 183 0 87 183 0 87 183 0 87 183 0 87 183 0 87 183 0 87 183 0 87 183 0 87 183 0 87 183 0 87 183 0 87 183 0 87 183 0 87 183 0 87 183 0 87 183 0 87 183 0 87 183 0 87 183 0 87 183 0 87 183 0 87 183 0 87 183 0 87 183 0 87 183 0 87 183 0 87 183 0 87 183 0 87 183 0 87 183 0 87 183 0 87 183 0 87 183 0 87 183 0 87 183 0 87 183 0 87 183 0 87 183 0 87 183 0 87 183 0 87 183 0 87 183 0 87 183 0 87 183 0 87 183 0 87 183 0 87 183 0 87 183 0 87 183 0 87 183 0 87 183 0 87 183 0 87 183 0 87 183 0 87 183 0 87 183 0 87 183 0 87 183 0 87 183 0 87 183 0 87 183 0 87 183 0 87 183 0 87 183 0 87 183 0 87 183 0 87 183 0 87 183 0 87 183 0 87 183 0 87 183 0 87 183 0 87 183 0 87 183 0 87 183 0 87 183 0 87 183 0 87 183 0 87 183 0 87 183 0 87 183 0 87 183 0 87 183 0 87 183 0 87 183 0 87 183 0 87 183 0 87 183 0 87 183 0 87 183 0 87 183 0 87 183 0 87 183 0 87 183 0 87 183 0 87 183 0 87 183 0 87 183 0 87 183 0 87 183 0 87 183 0 87 183 0 87 183 0 87 183 0 87 183 0 87 183 0 87 183 0 87 183 0 87 183 0 87 183 0 87 183 0 87 183 0 87 183 0 87 183 0 87 183 0 87 183 0 87 183 0 87 183 0 87 183 0 87 183 0 87 183 0 87 183 0 87 183 0 87 183 0 87 183 0 87 183 0 87 183 0 87 183 0 87 183 0 87 183 0 87 183 0 87 183 0 87 183 0 87 183 0 87 183 0 87 183 0 87 183 0 87 183 0 87 183 0 87 183 0 87 183 0 87 183 0 87 183 0 87 183 0 87 183 0 87 183 0 87 183 0 87 183 0 87 183 0 87 183 0 87 183 0 87 183 0 87 183 0 87 183 0 87 183 0 87 183 0 87 183 0 87 183 0 87 183 0 87 183 0 87 183 0 87 183 0 87 183 0 87 183 0 87 183 0 87 183 0 87 183 0 87 183 0 87 183 0 87 183 0 87 183 0 87 183 0 87 183 0 87 183 0 87 183 0 87 183 0 87 183 0 87 183 0 87 183 0 87 183 0 87 183 0 87 183 0 87 183 0 87 183 0 87 183 0 87 183 0 87 183 0 87 183 0 87 183 0 87 183 0 87 183 0 87 183 0 87 183 0 87 183 0 87 183 0 87 183 0 87 183 0 87 183 0 87 183 0 87 183 0 87 183 0 87 183 0 87 183 0 87 183 0 87 183 0 87 183 0 87 183 0 87 183 0 87 183 0 87 183 0 87 183 0 87 183 0 87 183 0 87 183 0 87 183 
0 87 183 0 87 183 0 87 183 0 87 183 0 87 183 0 87 183 0 87 183 0 87 183 0 87 183 0 87 183 0 87 183 0 87 183 0 87 183 0 87 183 0 87 183 0 87 183 0 87 183 0 87 183 0 87 183 0 87 183 0 87 183 0 87 183 0 87 183 0 87 183 0 87 183 0 87 183 0 87 183 0 87 183 0 87 183 0 87 183 0 87 183 0 87 183 0 87 183 0 87 183 0 87 183 0 87 183 0 87 183 0 87 183 0 87 183 0 87 183 0 87 183 0 87 183 0 87 183 0 87 183 0 87 183 0 87 183 0 87 183 0 87 183 0 87 183 0 87 183 0 87 183 0 87 183 0 87 183 0 87 183 0 87 183 0 87 183 0 87 183 0 87 183 0 87 183 0 87 183 0 87 183 0 87 183 0 87 183 0 87 183 0 87 183 0 87 183 0 87 183 0 87 183 0 87 183 0 87 183 0 87 183 0 87 183 0 87 183 0 87 183 0 87 183 0 87 183 0 87 183 0 87 183 0 87 183 0 87 183 0 87 183 0 87 183 0 87 183 0 87 183 0 87 183 0 87 183 0 87 183 0 87 183 0 87 183 0 87 183 0 87 183 0 87 183 0 87 183 0 87 183 0 87 183 0 87 183 0 87 183 0 87 183 0 87 183 0 87 183 0 87 183 0 87 183 0 87 183 0 87 183 0 87 183 0 87 183 0 87 183 0 87 183 0 87 183 0 87 183 0 87 183 0 87 183 0 87 183 0 87 183 0 87 183 0 87 183 0 87 183 0 87 183 0 87 183 0 87 183 0 87 183 0 87 183 0 87 183 0 87 183 0 87 183 0 87 183 0 87 183 0 87 183 0 87 183 0 87 183 0 87 183 0 87 183 0 87 183 0 87 183 0 87 183 0 87 183 0 87 183 0 87 183 0 87 183 0 87 183 0 87 183 0 87 183 0 87 183 0 87 183 0 87 183 0 87 183 0 87 183 0 87 183 0 87 183 0 87 183 0 87 183 0 87 183 0 87 183 0 87 183 0 87 183 0 87 183 0 87 183 0 87 183 0 87 183 0 87 183 0 87 183 0 87 183 0 87 183 0 87 183 0 87 183 0 87 183 0 87 183 0 87 183 0 87 183 0 87 183 0 87 183 0 87 183 0 87 183 0 87 183 0 87 183 0 87 183 0 87 183 0 87 183 0 87 183 0 87 183 0 87 183 0 87 183 0 87 183 0 87 183 0 87 183 0 87 183 0 87 183 0 87 183 0 87 183 0 87 183 0 87 183 0 87 183 0 87 183 0 87 183 0 87 183 0 87 183 0 87 183 0 87 183 0 87 183 0 87 183 0 87 183 0 87 183 0 87 183 0 87 183 0 87 183 0 87 183 0 87 183 0 87 183 0 87 183 0 87 183 0 87 183 0 87 183 0 87 183 0 87 183 0 87 183 0 87 183 0 87 183 0 87 183 0 87 183 0 87 183 0 87 183 0 87 183 0 87 183 0 87 183 0 87 183 0 87 183 0 87 183 0 87 183 0 87 183 0 87 183 0 87 183 0 87 183 0 87 183 0 87 183 0 87 183 0 87 183 0 87 183 0 87 183 0 87 183 0 87 183 0 87 183 0 87 183 0 87 183 0 87 183 0 87 183 0 87 183 0 87 183 0 87 183 0 87 183 0 87 183 0 87 183 0 87 183 0 87 183 0 87 183 0 87 183 0 87 183 0 87 183 0 87 183 0 87 183 0 87 183 0 87 183 0 87 183 0 87 183 0 87 183 0 87 183 0 87 183 0 87 183 0 87 183 0 87 183 0 87 183 0 87 183 0 87 183 0 87 183 0 87 183 0 87 183 0 87 183 0 87 183 0 87 183 0 87 183 0 87 183 0 87 183 0 87 183 0 87 183 0 87 183 0 87 183 0 87 183 0 87 183 0 87 183 0 87 183 0 87 183 0 87 183 0 87 183 0 87 183 0 87 183 0 87 183 0 87 183 0 87 183 0 87 183 0 87 183 0 87 183 
0 87 183 0 87 183 0 87 183 0 87 183 0 87 183 0 87 183 0 87 183 0 87 183 0 87 183 0 87 183 0 87 183 0 87 183 0 87 183 0 87 183 0 87 183 0 87 183 0 87 183 0 87 183 0 87 183 0 87 183 0 87 183 0 87 183 0 87 183 0 87 183 0 87 183 0 87 183 0 87 183 0 87 183 0 87 183 0 87 183 0 87 183 0 87 183 0 87 183 0 87 183 0 87 183 0 87 183 0 87 183 0 87 183 0 87 183 0 87 183 0 87 183 0 87 183 0 87 183 0 87 183 0 87 183 0 87 183 0 87 183 0 87 183 0 87 183 0 87 183 0 87 183 0 87 183 0 87 183 0 87 183 0 87 183 0 87 183 0 87 183 0 87 183 0 87 183 0 87 183 0 87 183 0 87 183 0 87 183 0 87 183 0 87 183 0 87 183 0 87 183 0 87 183 0 87 183 0 87 183 0 87 183 0 87 183 0 87 183 0 87 183 0 87 183 0 87 183 0 87 183 0 87 183 0 87 183 0 87 183 0 87 183 0 87 183 0 87 183 0 87 183 0 87 183 0 87 183 0 87 183 0 87 183 0 87 183 0 87 183 0 87 183 0 87 183 0 87 183 0 87 183 0 87 183 0 87 183 0 87 183 0 87 183 0 87 183 0 87 183 0 87 183 0 87 183 0 87 183 0 87 183 0 87 183 0 87 183 0 87 183 0 87 183 0 87 183 0 87 183 0 87 183 0 87 183 0 87 183 0 87 183 0 87 183 0 87 183 0 87 183 0 87 183 0 87 183 0 87 183 0 87 183 0 87 183 0 87 183 0 87 183 0 87 183 0 87 183 0 87 183 0 87 183 0 87 183 0 87 183 0 87 183 0 87 183 0 87 183 0 87 183 0 87 183 0 87 183 0 87 183 0 87 183 0 87 183 0 87 183 0 87 183 0 87 183 0 87 183 0 87 183 0 87 183 0 87 183 0 87 183 0 87 183 0 87 183 0 87 183 0 87 183 0 87 183 0 87 183 0 87 183 0 87 183 0 87 183 0 87 183 0 87 183 0 87 183 0 87 183 0 87 183 0 87 183 0 87 183 0 87 183 0 87 183 0 87 183 0 87 183 0 87 183 0 87 183 0 87 183 0 87 183 0 87 183 0 87 183 0 87 183 0 87 183 0 87 183 0 87 183 0 87 183 0 87 183 0 87 183 0 87 183 0 87 183 0 87 183 0 87 183 0 87 183 0 87 183 0 87 183 0 87 183 0 87 183 0 87 183 0 87 183 0 87 183 0 87 183 0 87 183 0 87 183 0 87 183 0 87 183 0 87 183 0 87 183 0 87 183 0 87 183 0 87 183 0 87 183 0 87 183 0 87 183 0 87 183 0 87 183 0 87 183 0 87 183 0 87 183 0 87 183 0 87 183 0 87 183 0 87 183 0 87 183 0 87 183 0 87 183 0 87 183 0 87 183 0 87 183 0 87 183 0 87 183 0 87 183 0 87 183 0 87 183 0 87 183 0 87 183 0 87 183 0 87 183 0 87 183 0 87 183 0 87 183 0 87 183 0 87 183 0 87 183 0 87 183 0 87 183 0 87 183 0 87 183 0 87 183 0 87 183 0 87 183 0 87 183 0 87 183 0 87 183 0 87 183 0 87 183 0 87 183 0 87 183 0 87 183 0 87 183 0 87 183 0 87 183 0 87 183 0 87 183 0 87 183 0 87 183 0 87 183 0 87 183 0 87 183 0 87 183 0 87 183 0 87 183 0 87 183 0 87 183 0 87 183 0 87 183 0 87 183 0 87 183 0 87 183 0 87 183 0 87 183 0 87 183 0 87 183 0 87 183 0 87 183 0 87 183 0 87 183 0 87 183 0 87 183 0 87 183 0 87 183 0 87 183 0 87 183 0 87 183 0 87 183 0 87 183 0 87 183 0 87 183 0 87 183 0 87 183 0 87 183 0 87 183 0 87 183 0 87 183 0 87 183 0 87 183 0 87 183 0 87 183 0 87 183 
0 87 183 0 87 183 0 87 183 0 87 183 0 87 183 0 87 183 0 87 183 0 87 183 0 87 183 0 87 183 0 87 183 0 87 183 0 87 183 0 87 183 0 87 183 0 87 183 0 87 183 0 87 183 0 87 183 0 87 183 0 87 183 0 87 183 0 87 183 0 87 183 0 87 183 0 87 183 0 87 183 0 87 183 0 87 183 0 87 183 0 87 183 0 87 183 0 87 183 0 87 183 0 87 183 0 87 183 0 87 183 0 87 183 0 87 183 0 87 183 0 87 183 0 87 183 0 87 183 0 87 183 0 87 183 0 87 183 0 87 183 0 87 183 0 87 183 0 87 183 0 87 183 0 87 183 0 87 183 0 87 183 0 87 183 0 87 183 0 87 183 0 87 183 0 87 183 0 87 183 0 87 183 0 87 183 0 87 183 0 87 183 0 87 183 0 87 183 0 87 183 0 87 183 0 87 183 0 87 183 0 87 183 0 87 183 0 87 183 0 87 183 0 87 183 0 87 183 0 87 183 0 87 183 0 87 183 0 87 183 0 87 183 0 87 183 0 87 183 0 87 183 0 87 183 0 87 183 0 87 183 0 87 183 0 87 183 0 87 183 0 87 183 0 87 183 0 87 183 0 87 183 0 87 183 0 87 183 0 87 183 0 87 183 0 87 183 0 87 183 0 87 183 0 87 183 0 87 183 0 87 183 0 87 183 0 87 183 0 87 183 0 87 183 0 87 183 0 87 183 0 87 183 0 87 183 0 87 183 0 87 183 0 87 183 0 87 183 0 87 183 0 87 183 0 87 183 0 87 183 0 87 183 0 87 183 0 87 183 0 87 183 0 87 183 0 87 183 0 87 183 0 87 183 0 87 183 0 87 183 0 87 183 0 87 183 0 87 183 0 87 183 0 87 183 0 87 183 0 87 183 0 87 183 0 87 183 0 87 183 0 87 183 0 87 183 0 87 183 0 87 183 0 87 183 0 87 183 0 87 183 0 87 183 0 87 183 0 87 183 0 87 183 0 87 183 0 87 183 0 87 183 0 87 183 0 87 183 0 87 183 0 87 183 0 87 183 0 87 183 0 87 183 0 87 183 0 87 183 0 87 183 0 87 183 0 87 183 0 87 183 0 87 183 0 87 183 0 87 183 0 87 183 0 87 183 0 87 183 0 87 183 0 87 183 0 87 183 0 87 183 0 87 183 0 87 183 0 87 183 0 87 183 0 87 183 0 87 183 0 87 183 0 87 183 0 87 183 0 87 183 0 87 183 0 87 183 0 87 183 0 87 183 0 87 183 0 87 183 0 87 183 0 87 183 0 87 183 0 87 183 0 87 183 0 87 183 0 87 183 0 87 183 0 87 183 0 87 183 0 87 183 0 87 183 0 87 183 0 87 183 0 87 183 0 87 183 0 87 183 0 87 183 0 87 183 0 87 183 0 87 183 0 87 183 0 87 183 0 87 183 0 87 183 0 87 183 0 87 183 0 87 183 0 87 183 0 87 183 0 87 183 0 87 183 0 87 183 0 87 183 0 87 183 0 87 183 0 87 183 0 87 183 0 87 183 0 87 183 0 87 183 0 87 183 0 87 183 0 87 183 0 87 183 0 87 183 0 87 183 0 87 183 0 87 183 0 87 183 0 87 183 0 87 183 0 87 183 0 87 183 0 87 183 0 87 183 0 87 183 0 87 183 0 87 183 0 87 183 0 87 183 0 87 183 0 87 183 0 87 183 0 87 183 0 87 183 0 87 183 0 87 183 0 87 183 0 87 183 0 87 183 0 87 183 0 87 183 0 87 183 0 87 183 0 87 183 0 87 183 0 87 183 0 87 183 0 87 183 0 87 183 0 87 183 0 87 183 0 87 183 0 87 183 0 87 183 0 87 183 0 87 183 0 87 183 0 87 183 0 87 183 0 87 183 0 87 183 0 87 183 0 87 183 0 87 183 0 87 183 0 87 183 0 87 183 0 87 183 0 87 183 0 87 183 0 87 183 0 87 183 0 87 183 0 87 183 0 87 183 
0 87 183 0 87 183 0 87 183 0 87 183 0 87 183 0 87 183 0 87 183 0 87 183 0 87 183 0 87 183 0 87 183 0 87 183 0 87 183 0 87 183 0 87 183 0 87 183 0 87 183 0 87 183 0 87 183 0 87 183 0 87 183 0 87 183 0 87 183 0 87 183 0 87 183 0 87 183 0 87 183 0 87 183 0 87 183 0 87 183 0 87 183 0 87 183 0 87 183 0 87 183 0 87 183 0 87 183 0 87 183 0 87 183 0 87 183 0 87 183 0 87 183 0 87 183 0 87 183 0 87 183 0 87 183 0 87 183 0 87 183 0 87 183 0 87 183 0 87 183 0 87 183 0 87 183 0 87 183 0 87 183 0 87 183 0 87 183 0 87 183 0 87 183 0 87 183 0 87 183 0 87 183 0 87 183 0 87 183 0 87 183 0 87 183 0 87 183 0 87 183 0 87 183 0 87 183 0 87 183 0 87 183 0 87 183 0 87 183 0 87 183 0 87 183 0 87 183 0 87 183 0 87 183 0 87 183 0 87 183 0 87 183 0 87 183 0 87 183 0 87 183 0 87 183 0 87 183 0 87 183 0 87 183 0 87 183 0 87 183 0 87 183 0 87 183 0 87 183 0 87 183 0 87 183 0 87 183 0 87 183 0 87 183 0 87 183 0 87 183 0 87 183 0 87 183 0 87 183 0 87 183 0 87 183 0 87 183 0 87 183 0 87 183 0 87 183 0 87 183 0 87 183 0 87 183 0 87 183 0 87 183 0 87 183 0 87 183 0 87 183 0 87 183 0 87 183 0 87 183 0 87 183 0 87 183 0 87 183 0 87 183 0 87 183 0 87 183 0 87 183 0 87 183 0 87 183 0 87 183 0 87 183 0 87 183 0 87 183 0 87 183 0 87 183 0 87 183 0 87 183 0 87 183 0 87 183 0 87 183 0 87 183 0 87 183 0 87 183 0 87 183 0 87 183 0 87 183 0 87 183 0 87 183 0 87 183 0 87 183 0 87 183 0 87 183 0 87 183 0 87 183 0 87 183 0 87 183 0 87 183 0 87 183 0 87 183 0 87 183 0 87 183 0 87 183 0 87 183 0 87 183 0 87 183 0 87 183 0 87 183 0 87 183 0 87 183 0 87 183 0 87 183 0 87 183 0 87 183 0 87 183 0 87 183 0 87 183 0 87 183 0 87 183 0 87 183 0 87 183 0 87 183 0 87 183 0 87 183 0 87 183 0 87 183 0 87 183 0 87 183 0 87 183 0 87 183 0 87 183 0 87 183 0 87 183 0 87 183 0 87 183 0 87 183 0 87 183 0 87 183 0 87 183 0 87 183 0 87 183 0 87 183 0 87 183 0 87 183 0 87 183 0 87 183 0 87 183 0 87 183 0 87 183 0 87 183 0 87 183 0 87 183 0 87 183 0 87 183 0 87 183 0 87 183 0 87 183 0 87 183 0 87 183 0 87 183 0 87 183 0 87 183 0 87 183 0 87 183 0 87 183 0 87 183 0 87 183 0 87 183 0 87 183 0 87 183 0 87 183 0 87 183 0 87 183 0 87 183 0 87 183 0 87 183 0 87 183 0 87 183 0 87 183 0 87 183 0 87 183 0 87 183 0 87 183 0 87 183 0 87 183 0 87 183 0 87 183 0 87 183 0 87 183 0 87 183 0 87 183 0 87 183 0 87 183 0 87 183 0 87 183 0 87 183 0 87 183 0 87 183 0 87 183 0 87 183 0 87 183 0 87 183 0 87 183 0 87 183 0 87 183 0 87 183 0 87 183 0 87 183 0 87 183 0 87 183 0 87 183 0 87 183 0 87 183 0 87 183 0 87 183 0 87 183 0 87 183 0 87 183 0 87 183 0 87 183 0 87 183 0 87 183 0 87 183 0 87 183 0 87 183 0 87 183 0 87 183 0 87 183 0 87 183 0 87 183 0 87 183 0 87 183 0 87 183 0 87 183 0 87 183 0 87 183 0 87 183 0 87 183 0 87 183 0 87 183 0 87 183 
0 87 183 0 87 183 0 87 183 0 87 183 0 87 183 0 87 183 0 87 183 0 87 183 0 87 183 0 87 183 0 87 183 0 87 183 0 87 183 0 87 183 0 87 183 0 87 183 0 87 183 0 87 183 0 87 183 0 87 183 0 87 183 0 87 183 0 87 183 0 87 183 0 87 183 0 87 183 0 87 183 0 87 183 0 87 183 0 87 183 0 87 183 0 87 183 0 87 183 0 87 183 0 87 183 0 87 183 0 87 183 0 87 183 0 87 183 0 87 183 0 87 183 0 87 183 0 87 183 0 87 183 0 87 183 0 87 183 0 87 183 0 87 183 0 87 183 0 87 183 0 87 183 0 87 183 0 87 183 0 87 183 0 87 183 0 87 183 0 87 183 0 87 183 0 87 183 0 87 183 0 87 183 0 87 183 0 87 183 0 87 183 0 87 183 0 87 183 0 87 183 0 87 183 0 87 183 0 87 183 0 87 183 0 87 183 0 87 183 0 87 183 0 87 183 0 87 183 0 87 183 0 87 183 0 87 183 0 87 183 0 87 183 0 87 183 0 87 183 0 87 183 0 87 183 0 87 183 0 87 183 0 87 183 0 87 183 0 87 183 0 87 183 0 87 183 0 87 183 0 87 183 0 87 183 0 87 183 0 87 183 0 87 183 0 87 183 0 87 183 0 87 183 0 87 183 0 87 183 0 87 183 0 87 183 0 87 183 0 87 183 0 87 183 0 87 183 0 87 183 0 87 183 0 87 183 0 87 183 0 87 183 0 87 183 0 87 183 0 87 183 0 87 183 0 87 183 0 87 183 0 87 183 0 87 183 0 87 183 0 87 183 0 87 183 0 87 183 0 87 183 0 87 183 0 87 183 0 87 183 0 87 183 0 87 183 0 87 183 0 87 183 0 87 183 0 87 183 0 87 183 0 87 183 0 87 183 0 87 183 0 87 183 0 87 183 0 87 183 0 87 183 0 87 183 0 87 183 0 87 183 0 87 183 0 87 183 0 87 183 0 87 183 0 87 183 0 87 183 0 87 183 0 87 183 0 87 183 0 87 183 0 87 183 0 87 183 0 87 183 0 87 183 0 87 183 0 87 183 0 87 183 0 87 183 0 87 183 0 87 183 0 87 183 0 87 183 0 87 183 0 87 183 0 87 183 0 87 183 0 87 183 0 87 183 0 87 183 0 87 183 0 87 183 0 87 183 0 87 183 0 87 183 0 87 183 0 87 183 0 87 183 0 87 183 0 87 183 0 87 183 0 87 183 0 87 183 0 87 183 0 87 183 0 87 183 0 87 183 0 87 183 0 87 183 0 87 183 0 87 183 0 87 183 0 87 183 0 87 183 0 87 183 0 87 183 0 87 183 0 87 183 0 87 183 0 87 183 0 87 183 0 87 183 0 87 183 0 87 183 0 87 183 0 87 183 0 87 183 0 87 183 0 87 183 0 87 183 0 87 183 0 87 183 0 87 183 0 87 183 0 87 183 0 87 183 0 87 183 0 87 183 0 87 183 0 87 183 0 87 183 0 87 183 0 87 183 0 87 183 0 87 183 0 87 183 0 87 183 0 87 183 0 87 183 0 87 183 0 87 183 0 87 183 0 87 183 0 87 183 0 87 183 0 87 183 0 87 183 0 87 183 0 87 183 0 87 183 0 87 183 0 87 183 0 87 183 0 87 183 0 87 183 0 87 183 0 87 183 0 87 183 0 87 183 0 87 183 0 87 183 0 87 183 0 87 183 0 87 183 0 87 183 0 87 183 0 87 183 0 87 183 0 87 183 0 87 183 0 87 183 0 87 183 0 87 183 0 87 183 0 87 183 0 87 183 0 87 183 0 87 183 0 87 183 0 87 183 0 87 183 0 87 183 0 87 183 0 87 183 0 87 183 0 87 183 0 87 183 0 87 183 0 87 183 0 87 183 0 87 183 0 87 183 0 87 183 0 87 183 0 87 183 0 87 183 0 87 183 0 87 183 0 87 183 0 87 183 0 87 183 0 87 183 0 87 183 0 87 183 
0 87 183 0 87 183 0 87 183 0 87 183 0 87 183 0 87 183 0 87 183 0 87 183 0 87 183 0 87 183 0 87 183 0 87 183 0 87 183 0 87 183 0 87 183 0 87 183 0 87 183 0 87 183 0 87 183 0 87 183 0 87 183 0 87 183 0 87 183 0 87 183 0 87 183 0 87 183 0 87 183 0 87 183 0 87 183 0 87 183 0 87 183 0 87 183 0 87 183 0 87 183 0 87 183 0 87 183 0 87 183 0 87 183 0 87 183 0 87 183 0 87 183 0 87 183 0 87 183 0 87 183 0 87 183 0 87 183 0 87 183 0 87 183 0 87 183 0 87 183 0 87 183 0 87 183 0 87 183 0 87 183 0 87 183 0 87 183 0 87 183 0 87 183 0 87 183 0 87 183 0 87 183 0 87 183 0 87 183 0 87 183 0 87 183 0 87 183 0 87 183 0 87 183 0 87 183 0 87 183 0 87 183 0 87 183 0 87 183 0 87 183 0 87 183 0 87 183 0 87 183 0 87 183 0 87 183 0 87 183 0 87 183 0 87 183 0 87 183 0 87 183 0 87 183 0 87 183 0 87 183 0 87 183 0 87 183 0 87 183 0 87 183 0 87 183 0 87 183 0 87 183 0 87 183 0 87 183 0 87 183 0 87 183 0 87 183 0 87 183 0 87 183 0 87 183 0 87 183 0 87 183 0 87 183 0 87 183 0 87 183 0 87 183 0 87 183 0 87 183 0 87 183 0 87 183 0 87 183 0 87 183 0 87 183 0 87 183 0 87 183 0 87 183 0 87 183 0 87 183 0 87 183 0 87 183 0 87 183 0 87 183 0 87 183 0 87 183 0 87 183 0 87 183 0 87 183 0 87 183 0 87 183 0 87 183 0 87 183 0 87 183 0 87 183 0 87 183 0 87 183 0 87 183 0 87 183 0 87 183 0 87 183 0 87 183 0 87 183 0 87 183 0 87 183 0 87 183 0 87 183 0 87 183 0 87 183 0 87 183 0 87 183 0 87 183 0 87 183 0 87 183 0 87 183 0 87 183 0 87 183 0 87 183 0 87 183 0 87 183 0 87 183 0 87 183 0 87 183 0 87 183 0 87 183 0 87 183 0 87 183 0 87 183 0 87 183 0 87 183 0 87 183 0 87 183 0 87 183 0 87 183 0 87 183 0 87 183 0 87 183 0 87 183 0 87 183 0 87 183 0 87 183 0 87 183 0 87 183 0 87 183 0 87 183 0 87 183 0 87 183 0 87 183 0 87 183 0 87 183 0 87 183 0 87 183 0 87 183 0 87 183 0 87 183 0 87 183 0 87 183 0 87 183 0 87 183 0 87 183 0 87 183 0 87 183 0 87 183 0 87 183 0 87 183 0 87 183 0 87 183 0 87 183 0 87 183 0 87 183 0 87 183 0 87 183 0 87 183 0 87 183 0 87 183 0 87 183 0 87 183 0 87 183 0 87 183 0 87 183 0 87 183 0 87 183 0 87 183 0 87 183 0 87 183 0 87 183 0 87 183 0 87 183 0 87 183 0 87 183 0 87 183 0 87 183 0 87 183 0 87 183 0 87 183 0 87 183 0 87 183 0 87 183 0 87 183 0 87 183 0 87 183 0 87 183 0 87 183 0 87 183 0 87 183 0 87 183 0 87 183 0 87 183 0 87 183 0 87 183 0 87 183 0 87 183 0 87 183 0 87 183 0 87 183 0 87 183 0 87 183 0 87 183 0 87 183 0 87 183 0 87 183 0 87 183 0 87 183 0 87 183 0 87 183 0 87 183 0 87 183 0 87 183 0 87 183 0 87 183 0 87 183 0 87 183 0 87 183 0 87 183 0 87 183 0 87 183 0 87 183 0 87 183 0 87 183 0 87 183 0 87 183 0 87 183 0 87 183 0 87 183 0 87 183 0 87 183 0 87 183 0 87 183 0 87 183 0 87 183 0 87 183 0 87 183 0 87 183 0 87 183 0 87 183 0 87 183 0 87 183 0 87 183 0 87 183 0 87 183 
0 87 183 0 87 183 0 87 183 0 87 183 0 87 183 0 87 183 0 87 183 0 87 183 0 87 183 0 87 183 0 87 183 0 87 183 0 87 183 0 87 183 0 87 183 0 87 183 0 87 183 0 87 183 0 87 183 0 87 183 0 87 183 0 87 183 0 87 183 0 87 183 0 87 183 0 87 183 0 87 183 0 87 183 0 87 183 0 87 183 0 87 183 0 87 183 0 87 183 0 87 183 0 87 183 0 87 183 0 87 183 0 87 183 0 87 183 0 87 183 0 87 183 0 87 183 0 87 183 0 87 183 0 87 183 0 87 183 0 87 183 0 87 183 0 87 183 0 87 183 0 87 183 0 87 183 0 87 183 0 87 183 0 87 183 0 87 183 0 87 183 0 87 183 0 87 183 0 87 183 0 87 183 0 87 183 0 87 183 0 87 183 0 87 183 0 87 183 0 87 183 0 87 183 0 87 183 0 87 183 0 87 183 0 87 183 0 87 183 0 87 183 0 87 183 0 87 183 0 87 183 0 87 183 0 87 183 0 87 183 0 87 183 0 87 183 0 87 183 0 87 183 0 87 183 0 87 183 0 87 183 0 87 183 0 87 183 0 87 183 0 87 183 0 87 183 0 87 183 0 87 183 0 87 183 0 87 183 0 87 183 0 87 183 0 87 183 0 87 183 0 87 183 0 87 183 0 87 183 0 87 183 0 87 183 0 87 183 0 87 183 0 87 183 0 87 183 0 87 183 0 87 183 0 87 183 0 87 183 0 87 183 0 87 183 0 87 183 0 87 183 0 87 183 0 87 183 0 87 183 0 87 183 0 87 183 0 87 183 0 87 183 0 87 183 0 87 183 0 87 183 0 87 183 0 87 183 0 87 183 0 87 183 0 87 183 0 87 183 0 87 183 0 87 183 0 87 183 0 87 183 0 87 183 0 87 183 0 87 183 0 87 183 0 87 183 0 87 183 0 87 183 0 87 183 0 87 183 0 87 183 0 87 183 0 87 183 0 87 183 0 87 183 0 87 183 0 87 183 0 87 183 0 87 183 0 87 183 0 87 183 0 87 183 0 87 183 0 87 183 0 87 183 0 87 183 0 87 183 0 87 183 0 87 183 0 87 183 0 87 183 0 87 183 0 87 183 0 87 183 0 87 183 0 87 183 0 87 183 0 87 183 0 87 183 0 87 183 0 87 183 0 87 183 0 87 183 0 87 183 0 87 183 0 87 183 0 87 183 0 87 183 0 87 183 0 87 183 0 87 183 0 87 183 0 87 183 0 87 183 0 87 183 0 87 183 0 87 183 0 87 183 0 87 183 0 87 183 0 87 183 0 87 183 0 87 183 0 87 183 0 87 183 0 87 183 0 87 183 0 87 183 0 87 183 0 87 183 0 87 183 0 87 183 0 87 183 0 87 183 0 87 183 0 87 183 0 87 183 0 87 183 0 87 183 0 87 183 0 87 183 0 87 183 0 87 183 0 87 183 0 87 183 0 87 183 0 87 183 0 87 183 0 87 183 0 87 183 0 87 183 0 87 183 0 87 183 0 87 183 0 87 183 0 87 183 0 87 183 0 87 183 0 87 183 0 87 183 0 87 183 0 87 183 0 87 183 0 87 183 0 87 183 0 87 183 0 87 183 0 87 183 0 87 183 0 87 183 0 87 183 0 87 183 0 87 183 0 87 183 0 87 183 0 87 183 0 87 183 0 87 183 0 87 183 0 87 183 0 87 183 0 87 183 0 87 183 0 87 183 0 87 183 0 87 183 0 87 183 0 87 183 0 87 183 0 87 183 0 87 183 0 87 183 0 87 183 0 87 183 0 87 183 0 87 183 0 87 183 0 87 183 0 87 183 0 87 183 0 87 183 0 87 183 0 87 183 0 87 183 0 87 183 0 87 183 0 87 183 0 87 183 0 87 183 0 87 183 0 87 183 0 87 183 0 87 183 0 87 183 0 87 183 0 87 183 0 87 183 0 87 183 0 87 183 0 87 183 0 87 183 0 87 183 0 87 183 0 87 183 
0 87 183 0 87 183 0 87 183 0 87 183 0 87 183 0 87 183 0 87 183 0 87 183 0 87 183 0 87 183 0 87 183 0 87 183 0 87 183 0 87 183 0 87 183 0 87 183 0 87 183 0 87 183 0 87 183 0 87 183 0 87 183 0 87 183 0 87 183 0 87 183 0 87 183 0 87 183 0 87 183 0 87 183 0 87 183 0 87 183 0 87 183 0 87 183 0 87 183 0 87 183 0 87 183 0 87 183 0 87 183 0 87 183 0 87 183 0 87 183 0 87 183 0 87 183 0 87 183 0 87 183 0 87 183 0 87 183 0 87 183 0 87 183 0 87 183 0 87 183 0 87 183 0 87 183 0 87 183 0 87 183 0 87 183 0 87 183 0 87 183 0 87 183 0 87 183 0 87 183 0 87 183 0 87 183 0 87 183 0 87 183 0 87 183 0 87 183 0 87 183 0 87 183 0 87 183 0 87 183 0 87 183 0 87 183 0 87 183 0 87 183 0 87 183 0 87 183 0 87 183 0 87 183 0 87 183 0 87 183 0 87 183 0 87 183 0 87 183 0 87 183 0 87 183 0 87 183 0 87 183 0 87 183 0 87 183 0 87 183 0 87 183 0 87 183 0 87 183 0 87 183 0 87 183 0 87 183 0 87 183 0 87 183 0 87 183 0 87 183 0 87 183 0 87 183 0 87 183 0 87 183 0 87 183 0 87 183 0 87 183 0 87 183 0 87 183 0 87 183 0 87 183 0 87 183 0 87 183 0 87 183 0 87 183 0 87 183 0 87 183 0 87 183 0 87 183 0 87 183 0 87 183 0 87 183 0 87 183 0 87 183 0 87 183 0 87 183 0 87 183 0 87 183 0 87 183 0 87 183 0 87 183 0 87 183 0 87 183 0 87 183 0 87 183 0 87 183 0 87 183 0 87 183 0 87 183 0 87 183 0 87 183 0 87 183 0 87 183 0 87 183 0 87 183 0 87 183 0 87 183 0 87 183 0 87 183 0 87 183 0 87 183 0 87 183 0 87 183 0 87 183 0 87 183 0 87 183 0 87 183 0 87 183 0 87 183 0 87 183 0 87 183 0 87 183 0 87 183 0 87 183 0 87 183 0 87 183 0 87 183 0 87 183 0 87 183 0 87 183 0 87 183 0 87 183 0 87 183 0 87 183 0 87 183 0 87 183 0 87 183 0 87 183 0 87 183 0 87 183 0 87 183 0 87 183 0 87 183 0 87 183 0 87 183 0 87 183 0 87 183 0 87 183 0 87 183 0 87 183 0 87 183 0 87 183 0 87 183 0 87 183 0 87 183 0 87 183 0 87 183 0 87 183 0 87 183 0 87 183 0 87 183 0 87 183 0 87 183 0 87 183 0 87 183 0 87 183 0 87 183 0 87 183 0 87 183 0 87 183 0 87 183 0 87 183 0 87 183 0 87 183 0 87 183 0 87 183 0 87 183 0 87 183 0 87 183 0 87 183 0 87 183 0 87 183 0 87 183 0 87 183 0 87 183 0 87 183 0 87 183 0 87 183 0 87 183 0 87 183 0 87 183 0 87 183 0 87 183 0 87 183 0 87 183 0 87 183 0 87 183 0 87 183 0 87 183 0 87 183 0 87 183 0 87 183 0 87 183 0 87 183 0 87 183 0 87 183 0 87 183 0 87 183 0 87 183 0 87 183 0 87 183 0 87 183 0 87 183 0 87 183 0 87 183 0 87 183 0 87 183 0 87 183 0 87 183 0 87 183 0 87 183 0 87 183 0 87 183 0 87 183 0 87 183 0 87 183 0 87 183 0 87 183 0 87 183 0 87 183 0 87 183 0 87 183 0 87 183 0 87 183 0 87 183 0 87 183 0 87 183 0 87 183 0 87 183 0 87 183 0 87 183 0 87 183 0 87 183 0 87 183 0 87 183 0 87 183 0 87 183 0 87 183 0 87 183 0 87 183 0 87 183 0 87 183 0 87 183 0 87 183 0 87 183 0 87 183 0 87 183 0 87 183 0 87 183 0 87 183 
0 87 183 0 87 183 0 87 183 0 87 183 0 87 183 0 87 183 0 87 183 0 87 183 0 87 183 0 87 183 0 87 183 0 87 183 0 87 183 0 87 183 0 87 183 0 87 183 0 87 183 0 87 183 0 87 183 0 87 183 0 87 183 0 87 183 0 87 183 0 87 183 0 87 183 0 87 183 0 87 183 0 87 183 0 87 183 0 87 183 0 87 183 0 87 183 0 87 183 0 87 183 0 87 183 0 87 183 0 87 183 0 87 183 0 87 183 0 87 183 0 87 183 0 87 183 0 87 183 0 87 183 0 87 183 0 87 183 0 87 183 0 87 183 0 87 183 0 87 183 0 87 183 0 87 183 0 87 183 0 87 183 0 87 183 0 87 183 0 87 183 0 87 183 0 87 183 0 87 183 0 87 183 0 87 183 0 87 183 0 87 183 0 87 183 0 87 183 0 87 183 0 87 183 0 87 183 0 87 183 0 87 183 0 87 183 0 87 183 0 87 183 0 87 183 0 87 183 0 87 183 0 87 183 0 87 183 0 87 183 0 87 183 0 87 183 0 87 183 0 87 183 0 87 183 0 87 183 0 87 183 0 87 183 0 87 183 0 87 183 0 87 183 0 87 183 0 87 183 0 87 183 0 87 183 0 87 183 0 87 183 0 87 183 0 87 183 0 87 183 0 87 183 0 87 183 0 87 183 0 87 183 0 87 183 0 87 183 0 87 183 0 87 183 0 87 183 0 87 183 0 87 183 0 87 183 0 87 183 0 87 183 0 87 183 0 87 183 0 87 183 0 87 183 0 87 183 0 87 183 0 87 183 0 87 183 0 87 183 0 87 183 0 87 183 0 87 183 0 87 183 0 87 183 0 87 183 0 87 183 0 87 183 0 87 183 0 87 183 0 87 183 0 87 183 0 87 183 0 87 183 0 87 183 0 87 183 0 87 183 0 87 183 0 87 183 0 87 183 0 87 183 0 87 183 0 87 183 0 87 183 0 87 183 0 87 183 0 87 183 0 87 183 0 87 183 0 87 183 0 87 183 0 87 183 0 87 183 0 87 183 0 87 183 0 87 183 0 87 183 0 87 183 0 87 183 0 87 183 0 87 183 0 87 183 0 87 183 0 87 183 0 87 183 0 87 183 0 87 183 0 87 183 0 87 183 0 87 183 0 87 183 0 87 183 0 87 183 0 87 183 0 87 183 0 87 183 0 87 183 0 87 183 0 87 183 0 87 183 0 87 183 0 87 183 0 87 183 0 87 183 0 87 183 0 87 183 0 87 183 0 87 183 0 87 183 0 87 183 0 87 183 0 87 183 0 87 183 0 87 183 0 87 183 0 87 183 0 87 183 0 87 183 0 87 183 0 87 183 0 87 183 0 87 183 0 87 183 0 87 183 0 87 183 0 87 183 0 87 183 0 87 183 0 87 183 0 87 183 0 87 183 0 87 183 0 87 183 0 87 183 0 87 183 0 87 183 0 87 183 0 87 183 0 87 183 0 87 183 0 87 183 0 87 183 0 87 183 0 87 183 0 87 183 0 87 183 0 87 183 0 87 183 0 87 183 0 87 183 0 87 183 0 87 183 0 87 183 0 87 183 0 87 183 0 87 183 0 87 183 0 87 183 0 87 183 0 87 183 0 87 183 0 87 183 0 87 183 0 87 183 0 87 183 0 87 183 0 87 183 0 87 183 0 87 183 0 87 183 0 87 183 0 87 183 0 87 183 0 87 183 0 87 183 0 87 183 0 87 183 0 87 183 0 87 183 0 87 183 0 87 183 0 87 183 0 87 183 0 87 183 0 87 183 0 87 183 0 87 183 0 87 183 0 87 183 0 87 183 0 87 183 0 87 183 0 87 183 0 87 183 0 87 183 0 87 183 0 87 183 0 87 183 0 87 183 0 87 183 0 87 183 0 87 183 0 87 183 0 87 183 0 87 183 0 87 183 0 87 183 0 87 183 0 87 183 0 87 183 0 87 183 0 87 183 0 87 183 0 87 183 0 87 183 0 87 183 0 87 183 
0 87 183 0 87 183 0 87 183 0 87 183 0 87 183 0 87 183 0 87 183 0 87 183 0 87 183 0 87 183 0 87 183 0 87 183 0 87 183 0 87 183 0 87 183 0 87 183 0 87 183 0 87 183 0 87 183 0 87 183 0 87 183 0 87 183 0 87 183 0 87 183 0 87 183 0 87 183 0 87 183 0 87 183 0 87 183 0 87 183 0 87 183 0 87 183 0 87 183 0 87 183 0 87 183 0 87 183 0 87 183 0 87 183 0 87 183 0 87 183 0 87 183 0 87 183 0 87 183 0 87 183 0 87 183 0 87 183 0 87 183 0 87 183 0 87 183 0 87 183 0 87 183 0 87 183 0 87 183 0 87 183 0 87 183 0 87 183 0 87 183 0 87 183 0 87 183 0 87 183 0 87 183 0 87 183 0 87 183 0 87 183 0 87 183 0 87 183 0 87 183 0 87 183 0 87 183 0 87 183 0 87 183 0 87 183 0 87 183 0 87 183 0 87 183 0 87 183 0 87 183 0 87 183 0 87 183 0 87 183 0 87 183 0 87 183 0 87 183 0 87 183 0 87 183 0 87 183 0 87 183 0 87 183 0 87 183 0 87 183 0 87 183 0 87 183 0 87 183 0 87 183 0 87 183 0 87 183 0 87 183 0 87 183 0 87 183 0 87 183 0 87 183 0 87 183 0 87 183 0 87 183 0 87 183 0 87 183 0 87 183 0 87 183 0 87 183 0 87 183 0 87 183 0 87 183 0 87 183 0 87 183 0 87 183 0 87 183 0 87 183 0 87 183 0 87 183 0 87 183 0 87 183 0 87 183 0 87 183 0 87 183 0 87 183 0 87 183 0 87 183 0 87 183 0 87 183 0 87 183 0 87 183 0 87 183 0 87 183 0 87 183 0 87 183 0 87 183 0 87 183 0 87 183 0 87 183 0 87 183 0 87 183 0 87 183 0 87 183 0 87 183 0 87 183 0 87 183 0 87 183 0 87 183 0 87 183 0 87 183 0 87 183 0 87 183 0 87 183 0 87 183 0 87 183 0 87 183 0 87 183 0 87 183 0 87 183 0 87 183 0 87 183 0 87 183 0 87 183 0 87 183 0 87 183 0 87 183 0 87 183 0 87 183 0 87 183 0 87 183 0 87 183 0 87 183 0 87 183 0 87 183 0 87 183 0 87 183 0 87 183 0 87 183 0 87 183 0 87 183 0 87 183 0 87 183 0 87 183 0 87 183 0 87 183 0 87 183 0 87 183 0 87 183 0 87 183 0 87 183 0 87 183 0 87 183 0 87 183 0 87 183 0 87 183 0 87 183 0 87 183 0 87 183 0 87 183 0 87 183 0 87 183 0 87 183 0 87 183 0 87 183 0 87 183 0 87 183 0 87 183 0 87 183 0 87 183 0 87 183 0 87 183 0 87 183 0 87 183 0 87 183 0 87 183 0 87 183 0 87 183 0 87 183 0 87 183 0 87 183 0 87 183 0 87 183 0 87 183 0 87 183 0 87 183 0 87 183 0 87 183 0 87 183 0 87 183 0 87 183 0 87 183 0 87 183 0 87 183 0 87 183 0 87 183 0 87 183 0 87 183 0 87 183 0 87 183 0 87 183 0 87 183 0 87 183 0 87 183 0 87 183 0 87 183 0 87 183 0 87 183 0 87 183 0 87 183 0 87 183 0 87 183 0 87 183 0 87 183 0 87 183 0 87 183 0 87 183 0 87 183 0 87 183 0 87 183 0 87 183 0 87 183 0 87 183 0 87 183 0 87 183 0 87 183 0 87 183 0 87 183 0 87 183 0 87 183 0 87 183 0 87 183 0 87 183 0 87 183 0 87 183 0 87 183 0 87 183 0 87 183 0 87 183 0 87 183 0 87 183 0 87 183 0 87 183 0 87 183 0 87 183 0 87 183 0 87 183 0 87 183 0 87 183 0 87 183 0 87 183 0 87 183 0 87 183 0 87 183 0 87 183 0 87 183 0 87 183 0 87 183 0 87 183 0 87 183 0 87 183 
0 87 183 0 87 183 0 87 183 0 87 183 0 87 183 0 87 183 0 87 183 0 87 183 0 87 183 0 87 183 0 87 183 0 87 183 0 87 183 0 87 183 0 87 183 0 87 183 0 87 183 0 87 183 0 87 183 0 87 183 0 87 183 0 87 183 0 87 183 0 87 183 0 87 183 0 87 183 0 87 183 0 87 183 0 87 183 0 87 183 0 87 183 0 87 183 0 87 183 0 87 183 0 87 183 0 87 183 0 87 183 0 87 183 0 87 183 0 87 183 0 87 183 0 87 183 0 87 183 0 87 183 0 87 183 0 87 183 0 87 183 0 87 183 0 87 183 0 87 183 0 87 183 0 87 183 0 87 183 0 87 183 0 87 183 0 87 183 0 87 183 0 87 183 0 87 183 0 87 183 0 87 183 0 87 183 0 87 183 0 87 183 0 87 183 0 87 183 0 87 183 0 87 183 0 87 183 0 87 183 0 87 183 0 87 183 0 87 183 0 87 183 0 87 183 0 87 183 0 87 183 0 87 183 0 87 183 0 87 183 0 87 183 0 87 183 0 87 183 0 87 183 0 87 183 0 87 183 0 87 183 0 87 183 0 87 183 0 87 183 0 87 183 0 87 183 0 87 183 0 87 183 0 87 183 0 87 183 0 87 183 0 87 183 0 87 183 0 87 183 0 87 183 0 87 183 0 87 183 0 87 183 0 87 183 0 87 183 0 87 183 0 87 183 0 87 183 0 87 183 0 87 183 0 87 183 0 87 183 0 87 183 0 87 183 0 87 183 0 87 183 0 87 183 0 87 183 0 87 183 0 87 183 0 87 183 0 87 183 0 87 183 0 87 183 0 87 183 0 87 183 0 87 183 0 87 183 0 87 183 0 87 183 0 87 183 0 87 183 0 87 183 0 87 183 0 87 183 0 87 183 0 87 183 0 87 183 0 87 183 0 87 183 0 87 183 0 87 183 0 87 183 0 87 183 0 87 183 0 87 183 0 87 183 0 87 183 0 87 183 0 87 183 0 87 183 0 87 183 0 87 183 0 87 183 0 87 183 0 87 183 0 87 183 0 87 183 0 87 183 0 87 183 0 87 183 0 87 183 0 87 183 0 87 183 0 87 183 0 87 183 0 87 183 0 87 183 0 87 183 0 87 183 0 87 183 0 87 183 0 87 183 0 87 183 0 87 183 0 87 183 0 87 183 0 87 183 0 87 183 0 87 183 0 87 183 0 87 183 0 87 183 0 87 183 0 87 183 0 87 183 0 87 183 0 87 183 0 87 183 0 87 183 0 87 183 0 87 183 0 87 183 0 87 183 0 87 183 0 87 183 0 87 183 0 87 183 0 87 183 0 87 183 0 87 183 0 87 183 0 87 183 0 87 183 0 87 183 0 87 183 0 87 183 0 87 183 0 87 183 0 87 183 0 87 183 0 87 183 0 87 183 0 87 183 0 87 183 0 87 183 0 87 183 0 87 183 0 87 183 0 87 183 0 87 183 0 87 183 0 87 183 0 87 183 0 87 183 0 87 183 0 87 183 0 87 183 0 87 183 0 87 183 0 87 183 0 87 183 0 87 183 0 87 183 0 87 183 0 87 183 0 87 183 0 87 183 0 87 183 0 87 183 0 87 183 0 87 183 0 87 183 0 87 183 0 87 183 0 87 183 0 87 183 0 87 183 0 87 183 0 87 183 0 87 183 0 87 183 0 87 183 0 87 183 0 87 183 0 87 183 0 87 183 0 87 183 0 87 183 0 87 183 0 87 183 0 87 183 0 87 183 0 87 183 0 87 183 0 87 183 0 87 183 0 87 183 0 87 183 0 87 183 0 87 183 0 87 183 0 87 183 0 87 183 0 87 183 0 87 183 0 87 183 0 87 183 0 87 183 0 87 183 0 87 183 0 87 183 0 87 183 0 87 183 0 87 183 0 87 183 0 87 183 0 87 183 0 87 183 0 87 183 0 87 183 0 87 183 0 87 183 0 87 183 0 87 183 0 87 183 0 87 183 0 87 183 0 87 183 
0 87 183 0 87 183 0 87 183 0 87 183 0 87 183 0 87 183 0 87 183 0 87 183 0 87 183 0 87 183 0 87 183 0 87 183 0 87 183 0 87 183 0 87 183 0 87 183 0 87 183 0 87 183 0 87 183 0 87 183 0 87 183 0 87 183 0 87 183 0 87 183 0 87 183 0 87 183 0 87 183 0 87 183 0 87 183 0 87 183 0 87 183 0 87 183 0 87 183 0 87 183 0 87 183 0 87 183 0 87 183 0 87 183 0 87 183 0 87 183 0 87 183 0 87 183 0 87 183 0 87 183 0 87 183 0 87 183 0 87 183 0 87 183 0 87 183 0 87 183 0 87 183 0 87 183 0 87 183 0 87 183 0 87 183 0 87 183 0 87 183 0 87 183 0 87 183 0 87 183 0 87 183 0 87 183 0 87 183 0 87 183 0 87 183 0 87 183 0 87 183 0 87 183 0 87 183 0 87 183 0 87 183 0 87 183 0 87 183 0 87 183 0 87 183 0 87 183 0 87 183 0 87 183 0 87 183 0 87 183 0 87 183 0 87 183 0 87 183 0 87 183 0 87 183 0 87 183 0 87 183 0 87 183 0 87 183 0 87 183 0 87 183 0 87 183 0 87 183 0 87 183 0 87 183 0 87 183 0 87 183 0 87 183 0 87 183 0 87 183 0 87 183 0 87 183 0 87 183 0 87 183 0 87 183 0 87 183 0 87 183 0 87 183 0 87 183 0 87 183 0 87 183 0 87 183 0 87 183 0 87 183 0 87 183 0 87 183 0 87 183 0 87 183 0 87 183 0 87 183 0 87 183 0 87 183 0 87 183 0 87 183 0 87 183 0 87 183 0 87 183 0 87 183 0 87 183 0 87 183 0 87 183 0 87 183 0 87 183 0 87 183 0 87 183 0 87 183 0 87 183 0 87 183 0 87 183 0 87 183 0 87 183 0 87 183 0 87 183 0 87 183 0 87 183 0 87 183 0 87 183 0 87 183 0 87 183 0 87 183 0 87 183 0 87 183 0 87 183 0 87 183 0 87 183 0 87 183 0 87 183 0 87 183 0 87 183 0 87 183 0 87 183 0 87 183 0 87 183 0 87 183 0 87 183 0 87 183 0 87 183 0 87 183 0 87 183 0 87 183 0 87 183 0 87 183 0 87 183 0 87 183 0 87 183 0 87 183 0 87 183 0 87 183 0 87 183 0 87 183 0 87 183 0 87 183 0 87 183 0 87 183 0 87 183 0 87 183 0 87 183 0 87 183 0 87 183 0 87 183 0 87 183 0 87 183 0 87 183 0 87 183 0 87 183 0 87 183 0 87 183 0 87 183 0 87 183 0 87 183 0 87 183 0 87 183 0 87 183 0 87 183 0 87 183 0 87 183 0 87 183 0 87 183 0 87 183 0 87 183 0 87 183 0 87 183 0 87 183 0 87 183 0 87 183 0 87 183 0 87 183 0 87 183 0 87 183 0 87 183 0 87 183 0 87 183 0 87 183 0 87 183 0 87 183 0 87 183 0 87 183 0 87 183 0 87 183 0 87 183 0 87 183 0 87 183 0 87 183 0 87 183 0 87 183 0 87 183 0 87 183 0 87 183 0 87 183 0 87 183 0 87 183 0 87 183 0 87 183 0 87 183 0 87 183 0 87 183 0 87 183 0 87 183 0 87 183 0 87 183 0 87 183 0 87 183 0 87 183 0 87 183 0 87 183 0 87 183 0 87 183 0 87 183 0 87 183 0 87 183 0 87 183 0 87 183 0 87 183 0 87 183 0 87 183 0 87 183 0 87 183 0 87 183 0 87 183 0 87 183 0 87 183 0 87 183 0 87 183 0 87 183 0 87 183 0 87 183 0 87 183 0 87 183 0 87 183 0 87 183 0 87 183 0 87 183 0 87 183 0 87 183 0 87 183 0 87 183 0 87 183 0 87 183 0 87 183 0 87 183 0 87 183 0 87 183 0 87 183 0 87 183 0 87 183 0 87 183 0 87 183 0 87 183 0 87 183 0 87 183 
0 87 183 0 87 183 0 87 183 0 87 183 0 87 183 0 87 183 0 87 183 0 87 183 0 87 183 0 87 183 0 87 183 0 87 183 0 87 183 0 87 183 0 87 183 0 87 183 0 87 183 0 87 183 0 87 183 0 87 183 0 87 183 0 87 183 0 87 183 0 87 183 0 87 183 0 87 183 0 87 183 0 87 183 0 87 183 0 87 183 0 87 183 0 87 183 0 87 183 0 87 183 0 87 183 0 87 183 0 87 183 0 87 183 0 87 183 0 87 183 0 87 183 0 87 183 0 87 183 0 87 183 0 87 183 0 87 183 0 87 183 0 87 183 0 87 183 0 87 183 0 87 183 0 87 183 0 87 183 0 87 183 0 87 183 0 87 183 0 87 183 0 87 183 0 87 183 0 87 183 0 87 183 0 87 183 0 87 183 0 87 183 0 87 183 0 87 183 0 87 183 0 87 183 0 87 183 0 87 183 0 87 183 0 87 183 0 87 183 0 87 183 0 87 183 0 87 183 0 87 183 0 87 183 0 87 183 0 87 183 0 87 183 0 87 183 0 87 183 0 87 183 0 87 183 0 87 183 0 87 183 0 87 183 0 87 183 0 87 183 0 87 183 0 87 183 0 87 183 0 87 183 0 87 183 0 87 183 0 87 183 0 87 183 0 87 183 0 87 183 0 87 183 0 87 183 0 87 183 0 87 183 0 87 183 0 87 183 0 87 183 0 87 183 0 87 183 0 87 183 0 87 183 0 87 183 0 87 183 0 87 183 0 87 183 0 87 183 0 87 183 0 87 183 0 87 183 0 87 183 0 87 183 0 87 183 0 87 183 0 87 183 0 87 183 0 87 183 0 87 183 0 87 183 0 87 183 0 87 183 0 87 183 0 87 183 0 87 183 0 87 183 0 87 183 0 87 183 0 87 183 0 87 183 0 87 183 0 87 183 0 87 183 0 87 183 0 87 183 0 87 183 0 87 183 0 87 183 0 87 183 0 87 183 0 87 183 0 87 183 0 87 183 0 87 183 0 87 183 0 87 183 0 87 183 0 87 183 0 87 183 0 87 183 0 87 183 0 87 183 0 87 183 0 87 183 0 87 183 0 87 183 0 87 183 0 87 183 0 87 183 0 87 183 0 87 183 0 87 183 0 87 183 0 87 183 0 87 183 0 87 183 0 87 183 0 87 183 0 87 183 0 87 183 0 87 183 0 87 183 0 87 183 0 87 183 0 87 183 0 87 183 0 87 183 0 87 183 0 87 183 0 87 183 0 87 183 0 87 183 0 87 183 0 87 183 0 87 183 0 87 183 0 87 183 0 87 183 0 87 183 0 87 183 0 87 183 0 87 183 0 87 183 0 87 183 0 87 183 0 87 183 0 87 183 0 87 183 0 87 183 0 87 183 0 87 183 0 87 183 0 87 183 0 87 183 0 87 183 0 87 183 0 87 183 0 87 183 0 87 183 0 87 183 0 87 183 0 87 183 0 87 183 0 87 183 0 87 183 0 87 183 0 87 183 0 87 183 0 87 183 0 87 183 0 87 183 0 87 183 0 87 183 0 87 183 0 87 183 0 87 183 0 87 183 0 87 183 0 87 183 0 87 183 0 87 183 0 87 183 0 87 183 0 87 183 0 87 183 0 87 183 0 87 183 0 87 183 0 87 183 0 87 183 0 87 183 0 87 183 0 87 183 0 87 183 0 87 183 0 87 183 0 87 183 0 87 183 0 87 183 0 87 183 0 87 183 0 87 183 0 87 183 0 87 183 0 87 183 0 87 183 0 87 183 0 87 183 0 87 183 0 87 183 0 87 183 0 87 183 0 87 183 0 87 183 0 87 183 0 87 183 0 87 183 0 87 183 0 87 183 0 87 183 0 87 183 0 87 183 0 87 183 0 87 183 0 87 183 0 87 183 0 87 183 0 87 183 0 87 183 0 87 183 0 87 183 0 87 183 0 87 183 0 87 183 0 87 183 0 87 183 0 87 183 0 87 183 0 87 183 0 87 183 0 87 183 0 87 183 
0 87 183 0 87 183 0 87 183 0 87 183 0 87 183 0 87 183 0 87 183 0 87 183 0 87 183 0 87 183 0 87 183 0 87 183 0 87 183 0 87 183 0 87 183 0 87 183 0 87 183 0 87 183 0 87 183 0 87 183 0 87 183 0 87 183 0 87 183 0 87 183 0 87 183 0 87 183 0 87 183 0 87 183 0 87 183 0 87 183 0 87 183 0 87 183 0 87 183 0 87 183 0 87 183 0 87 183 0 87 183 0 87 183 0 87 183 0 87 183 0 87 183 0 87 183 0 87 183 0 87 183 0 87 183 0 87 183 0 87 183 0 87 183 0 87 183 0 87 183 0 87 183 0 87 183 0 87 183 0 87 183 0 87 183 0 87 183 0 87 183 0 87 183 0 87 183 0 87 183 0 87 183 0 87 183 0 87 183 0 87 183 0 87 183 0 87 183 0 87 183 0 87 183 0 87 183 0 87 183 0 87 183 0 87 183 0 87 183 0 87 183 0 87 183 0 87 183 0 87 183 0 87 183 0 87 183 0 87 183 0 87 183 0 87 183 0 87 183 0 87 183 0 87 183 0 87 183 0 87 183 0 87 183 0 87 183 0 87 183 0 87 183 0 87 183 0 87 183 0 87 183 0 87 183 0 87 183 0 87 183 0 87 183 0 87 183 0 87 183 0 87 183 0 87 183 0 87 183 0 87 183 0 87 183 0 87 183 0 87 183 0 87 183 0 87 183 0 87 183 0 87 183 0 87 183 0 87 183 0 87 183 0 87 183 0 87 183 0 87 183 0 87 183 0 87 183 0 87 183 0 87 183 0 87 183 0 87 183 0 87 183 0 87 183 0 87 183 0 87 183 0 87 183 0 87 183 0 87 183 0 87 183 0 87 183 0 87 183 0 87 183 0 87 183 0 87 183 0 87 183 0 87 183 0 87 183 0 87 183 0 87 183 0 87 183 0 87 183 0 87 183 0 87 183 0 87 183 0 87 183 0 87 183 0 87 183 0 87 183 0 87 183 0 87 183 0 87 183 0 87 183 0 87 183 0 87 183 0 87 183 0 87 183 0 87 183 0 87 183 0 87 183 0 87 183 0 87 183 0 87 183 0 87 183 0 87 183 0 87 183 0 87 183 0 87 183 0 87 183 0 87 183 0 87 183 0 87 183 0 87 183 0 87 183 0 87 183 0 87 183 0 87 183 0 87 183 0 87 183 0 87 183 0 87 183 0 87 183 0 87 183 0 87 183 0 87 183 0 87 183 0 87 183 0 87 183 0 87 183 0 87 183 0 87 183 0 87 183 0 87 183 0 87 183 0 87 183 0 87 183 0 87 183 0 87 183 0 87 183 0 87 183 0 87 183 0 87 183 0 87 183 0 87 183 0 87 183 0 87 183 0 87 183 0 87 183 0 87 183 0 87 183 0 87 183 0 87 183 0 87 183 0 87 183 0 87 183 0 87 183 0 87 183 0 87 183 0 87 183 0 87 183 0 87 183 0 87 183 0 87 183 0 87 183 0 87 183 0 87 183 0 87 183 0 87 183 0 87 183 0 87 183 0 87 183 0 87 183 0 87 183 0 87 183 0 87 183 0 87 183 0 87 183 0 87 183 0 87 183 0 87 183 0 87 183 0 87 183 0 87 183 0 87 183 0 87 183 0 87 183 0 87 183 0 87 183 0 87 183 0 87 183 0 87 183 0 87 183 0 87 183 0 87 183 0 87 183 0 87 183 0 87 183 0 87 183 0 87 183 0 87 183 0 87 183 0 87 183 0 87 183 0 87 183 0 87 183 0 87 183 0 87 183 0 87 183 0 87 183 0 87 183 0 87 183 0 87 183 0 87 183 0 87 183 0 87 183 0 87 183 0 87 183 0 87 183 0 87 183 0 87 183 0 87 183 0 87 183 0 87 183 0 87 183 0 87 183 0 87 183 0 87 183 0 87 183 0 87 183 0 87 183 0 87 183 0 87 183 0 87 183 0 87 183 0 87 183 0 87 183 0 87 183 0 87 183 0 87 183 
0 87 183 0 87 183 0 87 183 0 87 183 0 87 183 0 87 183 0 87 183 0 87 183 0 87 183 0 87 183 0 87 183 0 87 183 0 87 183 0 87 183 0 87 183 0 87 183 0 87 183 0 87 183 0 87 183 0 87 183 0 87 183 0 87 183 0 87 183 0 87 183 0 87 183 0 87 183 0 87 183 0 87 183 0 87 183 0 87 183 0 87 183 0 87 183 0 87 183 0 87 183 0 87 183 0 87 183 0 87 183 0 87 183 0 87 183 0 87 183 0 87 183 0 87 183 0 87 183 0 87 183 0 87 183 0 87 183 0 87 183 0 87 183 0 87 183 0 87 183 0 87 183 0 87 183 0 87 183 0 87 183 0 87 183 0 87 183 0 87 183 0 87 183 0 87 183 0 87 183 0 87 183 0 87 183 0 87 183 0 87 183 0 87 183 0 87 183 0 87 183 0 87 183 0 87 183 0 87 183 0 87 183 0 87 183 0 87 183 0 87 183 0 87 183 0 87 183 0 87 183 0 87 183 0 87 183 0 87 183 0 87 183 0 87 183 0 87 183 0 87 183 0 87 183 0 87 183 0 87 183 0 87 183 0 87 183 0 87 183 0 87 183 0 87 183 0 87 183 0 87 183 0 87 183 0 87 183 0 87 183 0 87 183 0 87 183 0 87 183 0 87 183 0 87 183 0 87 183 0 87 183 0 87 183 0 87 183 0 87 183 0 87 183 0 87 183 0 87 183 0 87 183 0 87 183 0 87 183 0 87 183 0 87 183 0 87 183 0 87 183 0 87 183 0 87 183 0 87 183 0 87 183 0 87 183 0 87 183 0 87 183 0 87 183 0 87 183 0 87 183 0 87 183 0 87 183 0 87 183 0 87 183 0 87 183 0 87 183 0 87 183 0 87 183 0 87 183 0 87 183 0 87 183 0 87 183 0 87 183 0 87 183 0 87 183 0 87 183 0 87 183 0 87 183 0 87 183 0 87 183 0 87 183 0 87 183 0 87 183 0 87 183 0 87 183 0 87 183 0 87 183 0 87 183 0 87 183 0 87 183 0 87 183 0 87 183 0 87 183 0 87 183 0 87 183 0 87 183 0 87 183 0 87 183 0 87 183 0 87 183 0 87 183 0 87 183 0 87 183 0 87 183 0 87 183 0 87 183 0 87 183 0 87 183 0 87 183 0 87 183 0 87 183 0 87 183 0 87 183 0 87 183 0 87 183 0 87 183 0 87 183 0 87 183 0 87 183 0 87 183 0 87 183 0 87 183 0 87 183 0 87 183 0 87 183 0 87 183 0 87 183 0 87 183 0 87 183 0 87 183 0 87 183 0 87 183 0 87 183 0 87 183 0 87 183 0 87 183 0 87 183 0 87 183 0 87 183 0 87 183 0 87 183 0 87 183 0 87 183 0 87 183 0 87 183 0 87 183 0 87 183 0 87 183 0 87 183 0 87 183 0 87 183 0 87 183 0 87 183 0 87 183 0 87 183 0 87 183 0 87 183 0 87 183 0 87 183 0 87 183 0 87 183 0 87 183 0 87 183 0 87 183 0 87 183 0 87 183 0 87 183 0 87 183 0 87 183 0 87 183 0 87 183 0 87 183 0 87 183 0 87 183 0 87 183 0 87 183 0 87 183 0 87 183 0 87 183 0 87 183 0 87 183 0 87 183 0 87 183 0 87 183 0 87 183 0 87 183 0 87 183 0 87 183 0 87 183 0 87 183 0 87 183 0 87 183 0 87 183 0 87 183 0 87 183 0 87 183 0 87 183 0 87 183 0 87 183 0 87 183 0 87 183 0 87 183 0 87 183 0 87 183 0 87 183 0 87 183 0 87 183 0 87 183 0 87 183 0 87 183 0 87 183 0 87 183 0 87 183 0 87 183 0 87 183 0 87 183 0 87 183 0 87 183 0 87 183 0 87 183 0 87 183 0 87 183 0 87 183 0 87 183 0 87 183 0 87 183 0 87 183 0 87 183 0 87 183 0 87 183 0 87 183 0 87 183 0 87 183 
0 87 183 0 87 183 0 87 183 0 87 183 0 87 183 0 87 183 0 87 183 0 87 183 0 87 183 0 87 183 0 87 183 0 87 183 0 87 183 0 87 183 0 87 183 0 87 183 0 87 183 0 87 183 0 87 183 0 87 183 0 87 183 0 87 183 0 87 183 0 87 183 0 87 183 0 87 183 0 87 183 0 87 183 0 87 183 0 87 183 0 87 183 0 87 183 0 87 183 0 87 183 0 87 183 0 87 183 0 87 183 0 87 183 0 87 183 0 87 183 0 87 183 0 87 183 0 87 183 0 87 183 0 87 183 0 87 183 0 87 183 0 87 183 0 87 183 0 87 183 0 87 183 0 87 183 0 87 183 0 87 183 0 87 183 0 87 183 0 87 183 0 87 183 0 87 183 0 87 183 0 87 183 0 87 183 0 87 183 0 87 183 0 87 183 0 87 183 0 87 183 0 87 183 0 87 183 0 87 183 0 87 183 0 87 183 0 87 183 0 87 183 0 87 183 0 87 183 0 87 183 0 87 183 0 87 183 0 87 183 0 87 183 0 87 183 0 87 183 0 87 183 0 87 183 0 87 183 0 87 183 0 87 183 0 87 183 0 87 183 0 87 183 0 87 183 0 87 183 0 87 183 0 87 183 0 87 183 0 87 183 0 87 183 0 87 183 0 87 183 0 87 183 0 87 183 0 87 183 0 87 183 0 87 183 0 87 183 0 87 183 0 87 183 0 87 183 0 87 183 0 87 183 0 87 183 0 87 183 0 87 183 0 87 183 0 87 183 0 87 183 0 87 183 0 87 183 0 87 183 0 87 183 0 87 183 0 87 183 0 87 183 0 87 183 0 87 183 0 87 183 0 87 183 0 87 183 0 87 183 0 87 183 0 87 183 0 87 183 0 87 183 0 87 183 0 87 183 0 87 183 0 87 183 0 87 183 0 87 183 0 87 183 0 87 183 0 87 183 0 87 183 0 87 183 0 87 183 0 87 183 0 87 183 0 87 183 0 87 183 0 87 183 0 87 183 0 87 183 0 87 183 0 87 183 0 87 183 0 87 183 0 87 183 0 87 183 0 87 183 0 87 183 0 87 183 0 87 183 0 87 183 0 87 183 0 87 183 0 87 183 0 87 183 0 87 183 0 87 183 0 87 183 0 87 183 0 87 183 0 87 183 0 87 183 0 87 183 0 87 183 0 87 183 0 87 183 0 87 183 0 87 183 0 87 183 0 87 183 0 87 183 0 87 183 0 87 183 0 87 183 0 87 183 0 87 183 0 87 183 0 87 183 0 87 183 0 87 183 0 87 183 0 87 183 0 87 183 0 87 183 0 87 183 0 87 183 0 87 183 0 87 183 0 87 183 0 87 183 0 87 183 0 87 183 0 87 183 0 87 183 0 87 183 0 87 183 0 87 183 0 87 183 0 87 183 0 87 183 0 87 183 0 87 183 0 87 183 0 87 183 0 87 183 0 87 183 0 87 183 0 87 183 0 87 183 0 87 183 0 87 183 0 87 183 0 87 183 0 87 183 0 87 183 0 87 183 0 87 183 0 87 183 0 87 183 0 87 183 0 87 183 0 87 183 0 87 183 0 87 183 0 87 183 0 87 183 0 87 183 0 87 183 0 87 183 0 87 183 0 87 183 0 87 183 0 87 183 0 87 183 0 87 183 0 87 183 0 87 183 0 87 183 0 87 183 0 87 183 0 87 183 0 87 183 0 87 183 0 87 183 0 87 183 0 87 183 0 87 183 0 87 183 0 87 183 0 87 183 0 87 183 0 87 183 0 87 183 0 87 183 0 87 183 0 87 183 0 87 183 0 87 183 0 87 183 0 87 183 0 87 183 0 87 183 0 87 183 0 87 183 0 87 183 0 87 183 0 87 183 0 87 183 0 87 183 0 87 183 0 87 183 0 87 183 0 87 183 0 87 183 0 87 183 0 87 183 0 87 183 0 87 183 0 87 183 0 87 183 0 87 183 0 87 183 0 87 183 0 87 183 0 87 183 0 87 183 0 87 183 
0 87 183 0 87 183 0 87 183 0 87 183 0 87 183 0 87 183 0 87 183 0 87 183 0 87 183 0 87 183 0 87 183 0 87 183 0 87 183 0 87 183 0 87 183 0 87 183 0 87 183 0 87 183 0 87 183 0 87 183 0 87 183 0 87 183 0 87 183 0 87 183 0 87 183 0 87 183 0 87 183 0 87 183 0 87 183 0 87 183 0 87 183 0 87 183 0 87 183 0 87 183 0 87 183 0 87 183 0 87 183 0 87 183 0 87 183 0 87 183 0 87 183 0 87 183 0 87 183 0 87 183 0 87 183 0 87 183 0 87 183 0 87 183 0 87 183 0 87 183 0 87 183 0 87 183 0 87 183 0 87 183 0 87 183 0 87 183 0 87 183 0 87 183 0 87 183 0 87 183 0 87 183 0 87 183 0 87 183 0 87 183 0 87 183 0 87 183 0 87 183 0 87 183 0 87 183 0 87 183 0 87 183 0 87 183 0 87 183 0 87 183 0 87 183 0 87 183 0 87 183 0 87 183 0 87 183 0 87 183 0 87 183 0 87 183 0 87 183 0 87 183 0 87 183 0 87 183 0 87 183 0 87 183 0 87 183 0 87 183 0 87 183 0 87 183 0 87 183 0 87 183 0 87 183 0 87 183 0 87 183 0 87 183 0 87 183 0 87 183 0 87 183 0 87 183 0 87 183 0 87 183 0 87 183 0 87 183 0 87 183 0 87 183 0 87 183 0 87 183 0 87 183 0 87 183 0 87 183 0 87 183 0 87 183 0 87 183 0 87 183 0 87 183 0 87 183 0 87 183 0 87 183 0 87 183 0 87 183 0 87 183 0 87 183 0 87 183 0 87 183 0 87 183 0 87 183 0 87 183 0 87 183 0 87 183 0 87 183 0 87 183 0 87 183 0 87 183 0 87 183 0 87 183 0 87 183 0 87 183 0 87 183 0 87 183 0 87 183 0 87 183 0 87 183 0 87 183 0 87 183 0 87 183 0 87 183 0 87 183 0 87 183 0 87 183 0 87 183 0 87 183 0 87 183 0 87 183 0 87 183 0 87 183 0 87 183 0 87 183 0 87 183 0 87 183 0 87 183 0 87 183 0 87 183 0 87 183 0 87 183 0 87 183 0 87 183 0 87 183 0 87 183 0 87 183 0 87 183 0 87 183 0 87 183 0 87 183 0 87 183 0 87 183 0 87 183 0 87 183 0 87 183 0 87 183 0 87 183 0 87 183 0 87 183 0 87 183 0 87 183 0 87 183 0 87 183 0 87 183 0 87 183 0 87 183 0 87 183 0 87 183 0 87 183 0 87 183 0 87 183 0 87 183 0 87 183 0 87 183 0 87 183 0 87 183 0 87 183 0 87 183 0 87 183 0 87 183 0 87 183 0 87 183 0 87 183 0 87 183 0 87 183 0 87 183 0 87 183 0 87 183 0 87 183 0 87 183 0 87 183 0 87 183 0 87 183 0 87 183 0 87 183 0 87 183 0 87 183 0 87 183 0 87 183 0 87 183 0 87 183 0 87 183 0 87 183 0 87 183 0 87 183 0 87 183 0 87 183 0 87 183 0 87 183 0 87 183 0 87 183 0 87 183 0 87 183 0 87 183 0 87 183 0 87 183 0 87 183 0 87 183 0 87 183 0 87 183 0 87 183 0 87 183 0 87 183 0 87 183 0 87 183 0 87 183 0 87 183 0 87 183 0 87 183 0 87 183 0 87 183 0 87 183 0 87 183 0 87 183 0 87 183 0 87 183 0 87 183 0 87 183 0 87 183 0 87 183 0 87 183 0 87 183 0 87 183 0 87 183 0 87 183 0 87 183 0 87 183 0 87 183 0 87 183 0 87 183 0 87 183 0 87 183 0 87 183 0 87 183 0 87 183 0 87 183 0 87 183 0 87 183 0 87 183 0 87 183 0 87 183 0 87 183 0 87 183 0 87 183 0 87 183 0 87 183 0 87 183 0 87 183 0 87 183 0 87 183 0 87 183 0 87 183 0 87 183 0 87 183 
0 87 183 0 87 183 0 87 183 0 87 183 0 87 183 0 87 183 0 87 183 0 87 183 0 87 183 0 87 183 0 87 183 0 87 183 0 87 183 0 87 183 0 87 183 0 87 183 0 87 183 0 87 183 0 87 183 0 87 183 0 87 183 0 87 183 0 87 183 0 87 183 0 87 183 0 87 183 0 87 183 0 87 183 0 87 183 0 87 183 0 87 183 0 87 183 0 87 183 0 87 183 0 87 183 0 87 183 0 87 183 0 87 183 0 87 183 0 87 183 0 87 183 0 87 183 0 87 183 0 87 183 0 87 183 0 87 183 0 87 183 0 87 183 0 87 183 0 87 183 0 87 183 0 87 183 0 87 183 0 87 183 0 87 183 0 87 183 0 87 183 0 87 183 0 87 183 0 87 183 0 87 183 0 87 183 0 87 183 0 87 183 0 87 183 0 87 183 0 87 183 0 87 183 0 87 183 0 87 183 0 87 183 0 87 183 0 87 183 0 87 183 0 87 183 0 87 183 0 87 183 0 87 183 0 87 183 0 87 183 0 87 183 0 87 183 0 87 183 0 87 183 0 87 183 0 87 183 0 87 183 0 87 183 0 87 183 0 87 183 0 87 183 0 87 183 0 87 183 0 87 183 0 87 183 0 87 183 0 87 183 0 87 183 0 87 183 0 87 183 0 87 183 0 87 183 0 87 183 0 87 183 0 87 183 0 87 183 0 87 183 0 87 183 0 87 183 0 87 183 0 87 183 0 87 183 0 87 183 0 87 183 0 87 183 0 87 183 0 87 183 0 87 183 0 87 183 0 87 183 0 87 183 0 87 183 0 87 183 0 87 183 0 87 183 0 87 183 0 87 183 0 87 183 0 87 183 0 87 183 0 87 183 0 87 183 0 87 183 0 87 183 0 87 183 0 87 183 0 87 183 0 87 183 0 87 183 0 87 183 0 87 183 0 87 183 0 87 183 0 87 183 0 87 183 0 87 183 0 87 183 0 87 183 0 87 183 0 87 183 0 87 183 0 87 183 0 87 183 0 87 183 0 87 183 0 87 183 0 87 183 0 87 183 0 87 183 0 87 183 0 87 183 0 87 183 0 87 183 0 87 183 0 87 183 0 87 183 0 87 183 0 87 183 0 87 183 0 87 183 0 87 183 0 87 183 0 87 183 0 87 183 0 87 183 0 87 183 0 87 183 0 87 183 0 87 183 0 87 183 0 87 183 0 87 183 0 87 183 0 87 183 0 87 183 0 87 183 0 87 183 0 87 183 0 87 183 0 87 183 0 87 183 0 87 183 0 87 183 0 87 183 0 87 183 0 87 183 0 87 183 0 87 183 0 87 183 0 87 183 0 87 183 0 87 183 0 87 183 0 87 183 0 87 183 0 87 183 0 87 183 0 87 183 0 87 183 0 87 183 0 87 183 0 87 183 0 87 183 0 87 183 0 87 183 0 87 183 0 87 183 0 87 183 0 87 183 0 87 183 0 87 183 0 87 183 0 87 183 0 87 183 0 87 183 0 87 183 0 87 183 0 87 183 0 87 183 0 87 183 0 87 183 0 87 183 0 87 183 0 87 183 0 87 183 0 87 183 0 87 183 0 87 183 0 87 183 0 87 183 0 87 183 0 87 183 0 87 183 0 87 183 0 87 183 0 87 183 0 87 183 0 87 183 0 87 183 0 87 183 0 87 183 0 87 183 0 87 183 0 87 183 0 87 183 0 87 183 0 87 183 0 87 183 0 87 183 0 87 183 0 87 183 0 87 183 0 87 183 0 87 183 0 87 183 0 87 183 0 87 183 0 87 183 0 87 183 0 87 183 0 87 183 0 87 183 0 87 183 0 87 183 0 87 183 0 87 183 0 87 183 0 87 183 0 87 183 0 87 183 0 87 183 0 87 183 0 87 183 0 87 183 0 87 183 0 87 183 0 87 183 0 87 183 0 87 183 0 87 183 0 87 183 0 87 183 0 87 183 0 87 183 0 87 183 0 87 183 0 87 183 0 87 183 0 87 183 0 87 183 
0 87 183 0 87 183 0 87 183 0 87 183 0 87 183 0 87 183 0 87 183 0 87 183 0 87 183 0 87 183 0 87 183 0 87 183 0 87 183 0 87 183 0 87 183 0 87 183 0 87 183 0 87 183 0 87 183 0 87 183 0 87 183 0 87 183 0 87 183 0 87 183 0 87 183 0 87 183 0 87 183 0 87 183 0 87 183 0 87 183 0 87 183 0 87 183 0 87 183 0 87 183 0 87 183 0 87 183 0 87 183 0 87 183 0 87 183 0 87 183 0 87 183 0 87 183 0 87 183 0 87 183 0 87 183 0 87 183 0 87 183 0 87 183 0 87 183 0 87 183 0 87 183 0 87 183 0 87 183 0 87 183 0 87 183 0 87 183 0 87 183 0 87 183 0 87 183 0 87 183 0 87 183 0 87 183 0 87 183 0 87 183 0 87 183 0 87 183 0 87 183 0 87 183 0 87 183 0 87 183 0 87 183 0 87 183 0 87 183 0 87 183 0 87 183 0 87 183 0 87 183 0 87 183 0 87 183 0 87 183 0 87 183 0 87 183 0 87 183 0 87 183 0 87 183 0 87 183 0 87 183 0 87 183 0 87 183 0 87 183 0 87 183 0 87 183 0 87 183 0 87 183 0 87 183 0 87 183 0 87 183 0 87 183 0 87 183 0 87 183 0 87 183 0 87 183 0 87 183 0 87 183 0 87 183 0 87 183 0 87 183 0 87 183 0 87 183 0 87 183 0 87 183 0 87 183 0 87 183 0 87 183 0 87 183 0 87 183 0 87 183 0 87 183 0 87 183 0 87 183 0 87 183 0 87 183 0 87 183 0 87 183 0 87 183 0 87 183 0 87 183 0 87 183 0 87 183 0 87 183 0 87 183 0 87 183 0 87 183 0 87 183 0 87 183 0 87 183 0 87 183 0 87 183 0 87 183 0 87 183 0 87 183 0 87 183 0 87 183 0 87 183 0 87 183 0 87 183 0 87 183 0 87 183 0 87 183 0 87 183 0 87 183 0 87 183 0 87 183 0 87 183 0 87 183 0 87 183 0 87 183 0 87 183 0 87 183 0 87 183 0 87 183 0 87 183 0 87 183 0 87 183 0 87 183 0 87 183 0 87 183 0 87 183 0 87 183 0 87 183 0 87 183 0 87 183 0 87 183 0 87 183 0 87 183 0 87 183 0 87 183 0 87 183 0 87 183 0 87 183 0 87 183 0 87 183 0 87 183 0 87 183 0 87 183 0 87 183 0 87 183 0 87 183 0 87 183 0 87 183 0 87 183 0 87 183 0 87 183 0 87 183 0 87 183 0 87 183 0 87 183 0 87 183 0 87 183 0 87 183 0 87 183 0 87 183 0 87 183 0 87 183 0 87 183 0 87 183 0 87 183 0 87 183 0 87 183 0 87 183 0 87 183 0 87 183 0 87 183 0 87 183 0 87 183 0 87 183 0 87 183 0 87 183 0 87 183 0 87 183 0 87 183 0 87 183 0 87 183 0 87 183 0 87 183 0 87 183 0 87 183 0 87 183 0 87 183 0 87 183 0 87 183 0 87 183 0 87 183 0 87 183 0 87 183 0 87 183 0 87 183 0 87 183 0 87 183 0 87 183 0 87 183 0 87 183 0 87 183 0 87 183 0 87 183 0 87 183 0 87 183 0 87 183 0 87 183 0 87 183 0 87 183 0 87 183 0 87 183 0 87 183 0 87 183 0 87 183 0 87 183 0 87 183 0 87 183 0 87 183 0 87 183 0 87 183 0 87 183 0 87 183 0 87 183 0 87 183 0 87 183 0 87 183 0 87 183 0 87 183 0 87 183 0 87 183 0 87 183 0 87 183 0 87 183 0 87 183 0 87 183 0 87 183 0 87 183 0 87 183 0 87 183 0 87 183 0 87 183 0 87 183 0 87 183 0 87 183 0 87 183 0 87 183 0 87 183 0 87 183 0 87 183 0 87 183 0 87 183 0 87 183 0 87 183 0 87 183 0 87 183 0 87 183 0 87 183 0 87 183 
0 87 183 0 87 183 0 87 183 0 87 183 0 87 183 0 87 183 0 87 183 0 87 183 0 87 183 0 87 183 0 87 183 0 87 183 0 87 183 0 87 183 0 87 183 0 87 183 0 87 183 0 87 183 0 87 183 0 87 183 0 87 183 0 87 183 0 87 183 0 87 183 0 87 183 0 87 183 0 87 183 0 87 183 0 87 183 0 87 183 0 87 183 0 87 183 0 87 183 0 87 183 0 87 183 0 87 183 0 87 183 0 87 183 0 87 183 0 87 183 0 87 183 0 87 183 0 87 183 0 87 183 0 87 183 0 87 183 0 87 183 0 87 183 0 87 183 0 87 183 0 87 183 0 87 183 0 87 183 0 87 183 0 87 183 0 87 183 0 87 183 0 87 183 0 87 183 0 87 183 0 87 183 0 87 183 0 87 183 0 87 183 0 87 183 0 87 183 0 87 183 0 87 183 0 87 183 0 87 183 0 87 183 0 87 183 0 87 183 0 87 183 0 87 183 0 87 183 0 87 183 0 87 183 0 87 183 0 87 183 0 87 183 0 87 183 0 87 183 0 87 183 0 87 183 0 87 183 0 87 183 0 87 183 0 87 183 0 87 183 0 87 183 0 87 183 0 87 183 0 87 183 0 87 183 0 87 183 0 87 183 0 87 183 0 87 183 0 87 183 0 87 183 0 87 183 0 87 183 0 87 183 0 87 183 0 87 183 0 87 183 0 87 183 0 87 183 0 87 183 0 87 183 0 87 183 0 87 183 0 87 183 0 87 183 0 87 183 0 87 183 0 87 183 0 87 183 0 87 183 0 87 183 0 87 183 0 87 183 0 87 183 0 87 183 0 87 183 0 87 183 0 87 183 0 87 183 0 87 183 0 87 183 0 87 183 0 87 183 0 87 183 0 87 183 0 87 183 0 87 183 0 87 183 0 87 183 0 87 183 0 87 183 0 87 183 0 87 183 0 87 183 0 87 183 0 87 183 0 87 183 0 87 183 0 87 183 0 87 183 0 87 183 0 87 183 0 87 183 0 87 183 0 87 183 0 87 183 0 87 183 0 87 183 0 87 183 0 87 183 0 87 183 0 87 183 0 87 183 0 87 183 0 87 183 0 87 183 0 87 183 0 87 183 0 87 183 0 87 183 0 87 183 0 87 183 0 87 183 0 87 183 0 87 183 0 87 183 0 87 183 0 87 183 0 87 183 0 87 183 0 87 183 0 87 183 0 87 183 0 87 183 0 87 183 0 87 183 0 87 183 0 87 183 0 87 183 0 87 183 0 87 183 0 87 183 0 87 183 0 87 183 0 87 183 0 87 183 0 87 183 0 87 183 0 87 183 0 87 183 0 87 183 0 87 183 0 87 183 0 87 183 0 87 183 0 87 183 0 87 183 0 87 183 0 87 183 0 87 183 0 87 183 0 87 183 0 87 183 0 87 183 0 87 183 0 87 183 0 87 183 0 87 183 0 87 183 0 87 183 0 87 183 0 87 183 0 87 183 0 87 183 0 87 183 0 87 183 0 87 183 0 87 183 0 87 183 0 87 183 0 87 183 0 87 183 0 87 183 0 87 183 0 87 183 0 87 183 0 87 183 0 87 183 0 87 183 0 87 183 0 87 183 0 87 183 0 87 183 0 87 183 0 87 183 0 87 183 0 87 183 0 87 183 0 87 183 0 87 183 0 87 183 0 87 183 0 87 183 0 87 183 0 87 183 0 87 183 0 87 183 0 87 183 0 87 183 0 87 183 0 87 183 0 87 183 0 87 183 0 87 183 0 87 183 0 87 183 0 87 183 0 87 183 0 87 183 0 87 183 0 87 183 0 87 183 0 87 183 0 87 183 0 87 183 0 87 183 0 87 183 0 87 183 0 87 183 0 87 183 0 87 183 0 87 183 0 87 183 0 87 183 0 87 183 0 87 183 0 87 183 0 87 183 0 87 183 0 87 183 0 87 183 0 87 183 0 87 183 0 87 183 0 87 183 0 87 183 0 87 183 0 87 183 0 87 183 0 87 183 
0 87 183 0 87 183 0 87 183 0 87 183 0 87 183 0 87 183 0 87 183 0 87 183 0 87 183 0 87 183 0 87 183 0 87 183 0 87 183 0 87 183 0 87 183 0 87 183 0 87 183 0 87 183 0 87 183 0 87 183 0 87 183 0 87 183 0 87 183 0 87 183 0 87 183 0 87 183 0 87 183 0 87 183 0 87 183 0 87 183 0 87 183 0 87 183 0 87 183 0 87 183 0 87 183 0 87 183 0 87 183 0 87 183 0 87 183 0 87 183 0 87 183 0 87 183 0 87 183 0 87 183 0 87 183 0 87 183 0 87 183 0 87 183 0 87 183 0 87 183 0 87 183 0 87 183 0 87 183 0 87 183 0 87 183 0 87 183 0 87 183 0 87 183 0 87 183 0 87 183 0 87 183 0 87 183 0 87 183 0 87 183 0 87 183 0 87 183 0 87 183 0 87 183 0 87 183 0 87 183 0 87 183 0 87 183 0 87 183 0 87 183 0 87 183 0 87 183 0 87 183 0 87 183 0 87 183 0 87 183 0 87 183 0 87 183 0 87 183 0 87 183 0 87 183 0 87 183 0 87 183 0 87 183 0 87 183 0 87 183 0 87 183 0 87 183 0 87 183 0 87 183 0 87 183 0 87 183 0 87 183 0 87 183 0 87 183 0 87 183 0 87 183 0 87 183 0 87 183 0 87 183 0 87 183 0 87 183 0 87 183 0 87 183 0 87 183 0 87 183 0 87 183 0 87 183 0 87 183 0 87 183 0 87 183 0 87 183 0 87 183 0 87 183 0 87 183 0 87 183 0 87 183 0 87 183 0 87 183 0 87 183 0 87 183 0 87 183 0 87 183 0 87 183 0 87 183 0 87 183 0 87 183 0 87 183 0 87 183 0 87 183 0 87 183 0 87 183 0 87 183 0 87 183 0 87 183 0 87 183 0 87 183 0 87 183 0 87 183 0 87 183 0 87 183 0 87 183 0 87 183 0 87 183 0 87 183 0 87 183 0 87 183 0 87 183 0 87 183 0 87 183 0 87 183 0 87 183 0 87 183 0 87 183 0 87 183 0 87 183 0 87 183 0 87 183 0 87 183 0 87 183 0 87 183 0 87 183 0 87 183 0 87 183 0 87 183 0 87 183 0 87 183 0 87 183 0 87 183 0 87 183 0 87 183 0 87 183 0 87 183 0 87 183 0 87 183 0 87 183 0 87 183 0 87 183 0 87 183 0 87 183 0 87 183 0 87 183 0 87 183 0 87 183 0 87 183 0 87 183 0 87 183 0 87 183 0 87 183 0 87 183 0 87 183 0 87 183 0 87 183 0 87 183 0 87 183 0 87 183 0 87 183 0 87 183 0 87 183 0 87 183 0 87 183 0 87 183 0 87 183 0 87 183 0 87 183 0 87 183 0 87 183 0 87 183 0 87 183 0 87 183 0 87 183 0 87 183 0 87 183 0 87 183 0 87 183 0 87 183 0 87 183 0 87 183 0 87 183 0 87 183 0 87 183 0 87 183 0 87 183 0 87 183 0 87 183 0 87 183 0 87 183 0 87 183 0 87 183 0 87 183 0 87 183 0 87 183 0 87 183 0 87 183 0 87 183 0 87 183 0 87 183 0 87 183 0 87 183 0 87 183 0 87 183 0 87 183 0 87 183 0 87 183 0 87 183 0 87 183 0 87 183 0 87 183 0 87 183 0 87 183 0 87 183 0 87 183 0 87 183 0 87 183 0 87 183 0 87 183 0 87 183 0 87 183 0 87 183 0 87 183 0 87 183 0 87 183 0 87 183 0 87 183 0 87 183 0 87 183 0 87 183 0 87 183 0 87 183 0 87 183 0 87 183 0 87 183 0 87 183 0 87 183 0 87 183 0 87 183 0 87 183 0 87 183 0 87 183 0 87 183 0 87 183 0 87 183 0 87 183 0 87 183 0 87 183 0 87 183 0 87 183 0 87 183 0 87 183 0 87 183 0 87 183 0 87 183 0 87 183 0 87 183 0 87 183 0 87 183 
0 87 183 0 87 183 0 87 183 0 87 183 0 87 183 0 87 183 0 87 183 0 87 183 0 87 183 0 87 183 0 87 183 0 87 183 0 87 183 0 87 183 0 87 183 0 87 183 0 87 183 0 87 183 0 87 183 0 87 183 0 87 183 0 87 183 0 87 183 0 87 183 0 87 183 0 87 183 0 87 183 0 87 183 0 87 183 0 87 183 0 87 183 0 87 183 0 87 183 0 87 183 0 87 183 0 87 183 0 87 183 0 87 183 0 87 183 0 87 183 0 87 183 0 87 183 0 87 183 0 87 183 0 87 183 0 87 183 0 87 183 0 87 183 0 87 183 0 87 183 0 87 183 0 87 183 0 87 183 0 87 183 0 87 183 0 87 183 0 87 183 0 87 183 0 87 183 0 87 183 0 87 183 0 87 183 0 87 183 0 87 183 0 87 183 0 87 183 0 87 183 0 87 183 0 87 183 0 87 183 0 87 183 0 87 183 0 87 183 0 87 183 0 87 183 0 87 183 0 87 183 0 87 183 0 87 183 0 87 183 0 87 183 0 87 183 0 87 183 0 87 183 0 87 183 0 87 183 0 87 183 0 87 183 0 87 183 0 87 183 0 87 183 0 87 183 0 87 183 0 87 183 0 87 183 0 87 183 0 87 183 0 87 183 0 87 183 0 87 183 0 87 183 0 87 183 0 87 183 0 87 183 0 87 183 0 87 183 0 87 183 0 87 183 0 87 183 0 87 183 0 87 183 0 87 183 0 87 183 0 87 183 0 87 183 0 87 183 0 87 183 0 87 183 0 87 183 0 87 183 0 87 183 0 87 183 0 87 183 0 87 183 0 87 183 0 87 183 0 87 183 0 87 183 0 87 183 0 87 183 0 87 183 0 87 183 0 87 183 0 87 183 0 87 183 0 87 183 0 87 183 0 87 183 0 87 183 0 87 183 0 87 183 0 87 183 0 87 183 0 87 183 0 87 183 0 87 183 0 87 183 0 87 183 0 87 183 0 87 183 0 87 183 0 87 183 0 87 183 0 87 183 0 87 183 0 87 183 0 87 183 0 87 183 0 87 183 0 87 183 0 87 183 0 87 183 0 87 183 0 87 183 0 87 183 0 87 183 0 87 183 0 87 183 0 87 183 0 87 183 0 87 183 0 87 183 0 87 183 0 87 183 0 87 183 0 87 183 0 87 183 0 87 183 0 87 183 0 87 183 0 87 183 0 87 183 0 87 183 0 87 183 0 87 183 0 87 183 0 87 183 0 87 183 0 87 183 0 87 183 0 87 183 0 87 183 0 87 183 0 87 183 0 87 183 0 87 183 0 87 183 0 87 183 0 87 183 0 87 183 0 87 183 0 87 183 0 87 183 0 87 183 0 87 183 0 87 183 0 87 183 0 87 183 0 87 183 0 87 183 0 87 183 0 87 183 0 87 183 0 87 183 0 87 183 0 87 183 0 87 183 0 87 183 0 87 183 0 87 183 0 87 183 0 87 183 0 87 183 0 87 183 0 87 183 0 87 183 0 87 183 0 87 183 0 87 183 0 87 183 0 87 183 0 87 183 0 87 183 0 87 183 0 87 183 0 87 183 0 87 183 0 87 183 0 87 183 0 87 183 0 87 183 0 87 183 0 87 183 0 87 183 0 87 183 0 87 183 0 87 183 0 87 183 0 87 183 0 87 183 0 87 183 0 87 183 0 87 183 0 87 183 0 87 183 0 87 183 0 87 183 0 87 183 0 87 183 0 87 183 0 87 183 0 87 183 0 87 183 0 87 183 0 87 183 0 87 183 0 87 183 0 87 183 0 87 183 0 87 183 0 87 183 0 87 183 0 87 183 0 87 183 0 87 183 0 87 183 0 87 183 0 87 183 0 87 183 0 87 183 0 87 183 0 87 183 0 87 183 0 87 183 0 87 183 0 87 183 0 87 183 0 87 183 0 87 183 0 87 183 0 87 183 0 87 183 0 87 183 0 87 183 0 87 183 0 87 183 0 87 183 0 87 183 0 87 183 0 87 183 
0 87 183 0 87 183 0 87 183 0 87 183 0 87 183 0 87 183 0 87 183 0 87 183 0 87 183 0 87 183 0 87 183 0 87 183 0 87 183 0 87 183 0 87 183 0 87 183 0 87 183 0 87 183 0 87 183 0 87 183 0 87 183 0 87 183 0 87 183 0 87 183 0 87 183 0 87 183 0 87 183 0 87 183 0 87 183 0 87 183 0 87 183 0 87 183 0 87 183 0 87 183 0 87 183 0 87 183 0 87 183 0 87 183 0 87 183 0 87 183 0 87 183 0 87 183 0 87 183 0 87 183 0 87 183 0 87 183 0 87 183 0 87 183 0 87 183 0 87 183 0 87 183 0 87 183 0 87 183 0 87 183 0 87 183 0 87 183 0 87 183 0 87 183 0 87 183 0 87 183 0 87 183 0 87 183 0 87 183 0 87 183 0 87 183 0 87 183 0 87 183 0 87 183 0 87 183 0 87 183 0 87 183 0 87 183 0 87 183 0 87 183 0 87 183 0 87 183 0 87 183 0 87 183 0 87 183 0 87 183 0 87 183 0 87 183 0 87 183 0 87 183 0 87 183 0 87 183 0 87 183 0 87 183 0 87 183 0 87 183 0 87 183 0 87 183 0 87 183 0 87 183 0 87 183 0 87 183 0 87 183 0 87 183 0 87 183 0 87 183 0 87 183 0 87 183 0 87 183 0 87 183 0 87 183 0 87 183 0 87 183 0 87 183 0 87 183 0 87 183 0 87 183 0 87 183 0 87 183 0 87 183 0 87 183 0 87 183 0 87 183 0 87 183 0 87 183 0 87 183 0 87 183 0 87 183 0 87 183 0 87 183 0 87 183 0 87 183 0 87 183 0 87 183 0 87 183 0 87 183 0 87 183 0 87 183 0 87 183 0 87 183 0 87 183 0 87 183 0 87 183 0 87 183 0 87 183 0 87 183 0 87 183 0 87 183 0 87 183 0 87 183 0 87 183 0 87 183 0 87 183 0 87 183 0 87 183 0 87 183 0 87 183 0 87 183 0 87 183 0 87 183 0 87 183 0 87 183 0 87 183 0 87 183 0 87 183 0 87 183 0 87 183 0 87 183 0 87 183 0 87 183 0 87 183 0 87 183 0 87 183 0 87 183 0 87 183 0 87 183 0 87 183 0 87 183 0 87 183 0 87 183 0 87 183 0 87 183 0 87 183 0 87 183 0 87 183 0 87 183 0 87 183 0 87 183 0 87 183 0 87 183 0 87 183 0 87 183 0 87 183 0 87 183 0 87 183 0 87 183 0 87 183 0 87 183 0 87 183 0 87 183 0 87 183 0 87 183 0 87 183 0 87 183 0 87 183 0 87 183 0 87 183 0 87 183 0 87 183 0 87 183 0 87 183 0 87 183 0 87 183 0 87 183 0 87 183 0 87 183 0 87 183 0 87 183 0 87 183 0 87 183 0 87 183 0 87 183 0 87 183 0 87 183 0 87 183 0 87 183 0 87 183 0 87 183 0 87 183 0 87 183 0 87 183 0 87 183 0 87 183 0 87 183 0 87 183 0 87 183 0 87 183 0 87 183 0 87 183 0 87 183 0 87 183 0 87 183 0 87 183 0 87 183 0 87 183 0 87 183 0 87 183 0 87 183 0 87 183 0 87 183 0 87 183 0 87 183 0 87 183 0 87 183 0 87 183 0 87 183 0 87 183 0 87 183 0 87 183 0 87 183 0 87 183 0 87 183 0 87 183 0 87 183 0 87 183 0 87 183 0 87 183 0 87 183 0 87 183 0 87 183 0 87 183 0 87 183 0 87 183 0 87 183 0 87 183 0 87 183 0 87 183 0 87 183 0 87 183 0 87 183 0 87 183 0 87 183 0 87 183 0 87 183 0 87 183 0 87 183 0 87 183 0 87 183 0 87 183 0 87 183 0 87 183 0 87 183 0 87 183 0 87 183 0 87 183 0 87 183 0 87 183 0 87 183 0 87 183 0 87 183 0 87 183 0 87 183 0 87 183 0 87 183 0 87 183 0 87 183 
0 87 183 0 87 183 0 87 183 0 87 183 0 87 183 0 87 183 0 87 183 0 87 183 0 87 183 0 87 183 0 87 183 0 87 183 0 87 183 0 87 183 0 87 183 0 87 183 0 87 183 0 87 183 0 87 183 0 87 183 0 87 183 0 87 183 0 87 183 0 87 183 0 87 183 0 87 183 0 87 183 0 87 183 0 87 183 0 87 183 0 87 183 0 87 183 0 87 183 0 87 183 0 87 183 0 87 183 0 87 183 0 87 183 0 87 183 0 87 183 0 87 183 0 87 183 0 87 183 0 87 183 0 87 183 0 87 183 0 87 183 0 87 183 0 87 183 0 87 183 0 87 183 0 87 183 0 87 183 0 87 183 0 87 183 0 87 183 0 87 183 0 87 183 0 87 183 0 87 183 0 87 183 0 87 183 0 87 183 0 87 183 0 87 183 0 87 183 0 87 183 0 87 183 0 87 183 0 87 183 0 87 183 0 87 183 0 87 183 0 87 183 0 87 183 0 87 183 0 87 183 0 87 183 0 87 183 0 87 183 0 87 183 0 87 183 0 87 183 0 87 183 0 87 183 0 87 183 0 87 183 0 87 183 0 87 183 0 87 183 0 87 183 0 87 183 0 87 183 0 87 183 0 87 183 0 87 183 0 87 183 0 87 183 0 87 183 0 87 183 0 87 183 0 87 183 0 87 183 0 87 183 0 87 183 0 87 183 0 87 183 0 87 183 0 87 183 0 87 183 0 87 183 0 87 183 0 87 183 0 87 183 0 87 183 0 87 183 0 87 183 0 87 183 0 87 183 0 87 183 0 87 183 0 87 183 0 87 183 0 87 183 0 87 183 0 87 183 0 87 183 0 87 183 0 87 183 0 87 183 0 87 183 0 87 183 0 87 183 0 87 183 0 87 183 0 87 183 0 87 183 0 87 183 0 87 183 0 87 183 0 87 183 0 87 183 0 87 183 0 87 183 0 87 183 0 87 183 0 87 183 0 87 183 0 87 183 0 87 183 0 87 183 0 87 183 0 87 183 0 87 183 0 87 183 0 87 183 0 87 183 0 87 183 0 87 183 0 87 183 0 87 183 0 87 183 0 87 183 0 87 183 0 87 183 0 87 183 0 87 183 0 87 183 0 87 183 0 87 183 0 87 183 0 87 183 0 87 183 0 87 183 0 87 183 0 87 183 0 87 183 0 87 183 0 87 183 0 87 183 0 87 183 0 87 183 0 87 183 0 87 183 0 87 183 0 87 183 0 87 183 0 87 183 0 87 183 0 87 183 0 87 183 0 87 183 0 87 183 0 87 183 0 87 183 0 87 183 0 87 183 0 87 183 0 87 183 0 87 183 0 87 183 0 87 183 0 87 183 0 87 183 0 87 183 0 87 183 0 87 183 0 87 183 0 87 183 0 87 183 0 87 183 0 87 183 0 87 183 0 87 183 0 87 183 0 87 183 0 87 183 0 87 183 0 87 183 0 87 183 0 87 183 0 87 183 0 87 183 0 87 183 0 87 183 0 87 183 0 87 183 0 87 183 0 87 183 0 87 183 0 87 183 0 87 183 0 87 183 0 87 183 0 87 183 0 87 183 0 87 183 0 87 183 0 87 183 0 87 183 0 87 183 0 87 183 0 87 183 0 87 183 0 87 183 0 87 183 0 87 183 0 87 183 0 87 183 0 87 183 0 87 183 0 87 183 0 87 183 0 87 183 0 87 183 0 87 183 0 87 183 0 87 183 0 87 183 0 87 183 0 87 183 0 87 183 0 87 183 0 87 183 0 87 183 0 87 183 0 87 183 0 87 183 0 87 183 0 87 183 0 87 183 0 87 183 0 87 183 0 87 183 0 87 183 0 87 183 0 87 183 0 87 183 0 87 183 0 87 183 0 87 183 0 87 183 0 87 183 0 87 183 0 87 183 0 87 183 0 87 183 0 87 183 0 87 183 0 87 183 0 87 183 0 87 183 0 87 183 0 87 183 0 87 183 0 87 183 0 87 183 0 87 183 0 87 183 0 87 183 
0 87 183 0 87 183 0 87 183 0 87 183 0 87 183 0 87 183 0 87 183 0 87 183 0 87 183 0 87 183 0 87 183 0 87 183 0 87 183 0 87 183 0 87 183 0 87 183 0 87 183 0 87 183 0 87 183 0 87 183 0 87 183 0 87 183 0 87 183 0 87 183 0 87 183 0 87 183 0 87 183 0 87 183 0 87 183 0 87 183 0 87 183 0 87 183 0 87 183 0 87 183 0 87 183 0 87 183 0 87 183 0 87 183 0 87 183 0 87 183 0 87 183 0 87 183 0 87 183 0 87 183 0 87 183 0 87 183 0 87 183 0 87 183 0 87 183 0 87 183 0 87 183 0 87 183 0 87 183 0 87 183 0 87 183 0 87 183 0 87 183 0 87 183 0 87 183 0 87 183 0 87 183 0 87 183 0 87 183 0 87 183 0 87 183 0 87 183 0 87 183 0 87 183 0 87 183 0 87 183 0 87 183 0 87 183 0 87 183 0 87 183 0 87 183 0 87 183 0 87 183 0 87 183 0 87 183 0 87 183 0 87 183 0 87 183 0 87 183 0 87 183 0 87 183 0 87 183 0 87 183 0 87 183 0 87 183 0 87 183 0 87 183 0 87 183 0 87 183 0 87 183 0 87 183 0 87 183 0 87 183 0 87 183 0 87 183 0 87 183 0 87 183 0 87 183 0 87 183 0 87 183 0 87 183 0 87 183 0 87 183 0 87 183 0 87 183 0 87 183 0 87 183 0 87 183 0 87 183 0 87 183 0 87 183 0 87 183 0 87 183 0 87 183 0 87 183 0 87 183 0 87 183 0 87 183 0 87 183 0 87 183 0 87 183 0 87 183 0 87 183 0 87 183 0 87 183 0 87 183 0 87 183 0 87 183 0 87 183 0 87 183 0 87 183 0 87 183 0 87 183 0 87 183 0 87 183 0 87 183 0 87 183 0 87 183 0 87 183 0 87 183 0 87 183 0 87 183 0 87 183 0 87 183 0 87 183 0 87 183 0 87 183 0 87 183 0 87 183 0 87 183 0 87 183 0 87 183 0 87 183 0 87 183 0 87 183 0 87 183 0 87 183 0 87 183 0 87 183 0 87 183 0 87 183 0 87 183 0 87 183 0 87 183 0 87 183 0 87 183 0 87 183 0 87 183 0 87 183 0 87 183 0 87 183 0 87 183 0 87 183 0 87 183 0 87 183 0 87 183 0 87 183 0 87 183 0 87 183 0 87 183 0 87 183 0 87 183 0 87 183 0 87 183 0 87 183 0 87 183 0 87 183 0 87 183 0 87 183 0 87 183 0 87 183 0 87 183 0 87 183 0 87 183 0 87 183 0 87 183 0 87 183 0 87 183 0 87 183 0 87 183 0 87 183 0 87 183 0 87 183 0 87 183 0 87 183 0 87 183 0 87 183 0 87 183 0 87 183 0 87 183 0 87 183 0 87 183 0 87 183 0 87 183 0 87 183 0 87 183 0 87 183 0 87 183 0 87 183 0 87 183 0 87 183 0 87 183 0 87 183 0 87 183 0 87 183 0 87 183 0 87 183 0 87 183 0 87 183 0 87 183 0 87 183 0 87 183 0 87 183 0 87 183 0 87 183 0 87 183 0 87 183 0 87 183 0 87 183 0 87 183 0 87 183 0 87 183 0 87 183 0 87 183 0 87 183 0 87 183 0 87 183 0 87 183 0 87 183 0 87 183 0 87 183 0 87 183 0 87 183 0 87 183 0 87 183 0 87 183 0 87 183 0 87 183 0 87 183 0 87 183 0 87 183 0 87 183 0 87 183 0 87 183 0 87 183 0 87 183 0 87 183 0 87 183 0 87 183 0 87 183 0 87 183 0 87 183 0 87 183 0 87 183 0 87 183 0 87 183 0 87 183 0 87 183 0 87 183 0 87 183 0 87 183 0 87 183 0 87 183 0 87 183 0 87 183 0 87 183 0 87 183 0 87 183 0 87 183 0 87 183 0 87 183 0 87 183 0 87 183 0 87 183 0 87 183 0 87 183 
0 87 183 0 87 183 0 87 183 0 87 183 0 87 183 0 87 183 0 87 183 0 87 183 0 87 183 0 87 183 0 87 183 0 87 183 0 87 183 0 87 183 0 87 183 0 87 183 0 87 183 0 87 183 0 87 183 0 87 183 0 87 183 0 87 183 0 87 183 0 87 183 0 87 183 0 87 183 0 87 183 0 87 183 0 87 183 0 87 183 0 87 183 0 87 183 0 87 183 0 87 183 0 87 183 0 87 183 0 87 183 0 87 183 0 87 183 0 87 183 0 87 183 0 87 183 0 87 183 0 87 183 0 87 183 0 87 183 0 87 183 0 87 183 0 87 183 0 87 183 0 87 183 0 87 183 0 87 183 0 87 183 0 87 183 0 87 183 0 87 183 0 87 183 0 87 183 0 87 183 0 87 183 0 87 183 0 87 183 0 87 183 0 87 183 0 87 183 0 87 183 0 87 183 0 87 183 0 87 183 0 87 183 0 87 183 0 87 183 0 87 183 0 87 183 0 87 183 0 87 183 0 87 183 0 87 183 0 87 183 0 87 183 0 87 183 0 87 183 0 87 183 0 87 183 0 87 183 0 87 183 0 87 183 0 87 183 0 87 183 0 87 183 0 87 183 0 87 183 0 87 183 0 87 183 0 87 183 0 87 183 0 87 183 0 87 183 0 87 183 0 87 183 0 87 183 0 87 183 0 87 183 0 87 183 0 87 183 0 87 183 0 87 183 0 87 183 0 87 183 0 87 183 0 87 183 0 87 183 0 87 183 0 87 183 0 87 183 0 87 183 0 87 183 0 87 183 0 87 183 0 87 183 0 87 183 0 87 183 0 87 183 0 87 183 0 87 183 0 87 183 0 87 183 0 87 183 0 87 183 0 87 183 0 87 183 0 87 183 0 87 183 0 87 183 0 87 183 0 87 183 0 87 183 0 87 183 0 87 183 0 87 183 0 87 183 0 87 183 0 87 183 0 87 183 0 87 183 0 87 183 0 87 183 0 87 183 0 87 183 0 87 183 0 87 183 0 87 183 0 87 183 0 87 183 0 87 183 0 87 183 0 87 183 0 87 183 0 87 183 0 87 183 0 87 183 0 87 183 0 87 183 0 87 183 0 87 183 0 87 183 0 87 183 0 87 183 0 87 183 0 87 183 0 87 183 0 87 183 0 87 183 0 87 183 0 87 183 0 87 183 0 87 183 0 87 183 0 87 183 0 87 183 0 87 183 0 87 183 0 87 183 0 87 183 0 87 183 0 87 183 0 87 183 0 87 183 0 87 183 0 87 183 0 87 183 0 87 183 0 87 183 0 87 183 0 87 183 0 87 183 0 87 183 0 87 183 0 87 183 0 87 183 0 87 183 0 87 183 0 87 183 0 87 183 0 87 183 0 87 183 0 87 183 0 87 183 0 87 183 0 87 183 0 87 183 0 87 183 0 87 183 0 87 183 0 87 183 0 87 183 0 87 183 0 87 183 0 87 183 0 87 183 0 87 183 0 87 183 0 87 183 0 87 183 0 87 183 0 87 183 0 87 183 0 87 183 0 87 183 0 87 183 0 87 183 0 87 183 0 87 183 0 87 183 0 87 183 0 87 183 0 87 183 0 87 183 0 87 183 0 87 183 0 87 183 0 87 183 0 87 183 0 87 183 0 87 183 0 87 183 0 87 183 0 87 183 0 87 183 0 87 183 0 87 183 0 87 183 0 87 183 0 87 183 0 87 183 0 87 183 0 87 183 0 87 183 0 87 183 0 87 183 0 87 183 0 87 183 0 87 183 0 87 183 0 87 183 0 87 183 0 87 183 0 87 183 0 87 183 0 87 183 0 87 183 0 87 183 0 87 183 0 87 183 0 87 183 0 87 183 0 87 183 0 87 183 0 87 183 0 87 183 0 87 183 0 87 183 0 87 183 0 87 183 0 87 183 0 87 183 0 87 183 0 87 183 0 87 183 0 87 183 0 87 183 0 87 183 0 87 183 0 87 183 0 87 183 0 87 183 0 87 183 0 87 183 0 87 183 
0 87 183 0 87 183 0 87 183 0 87 183 0 87 183 0 87 183 0 87 183 0 87 183 0 87 183 0 87 183 0 87 183 0 87 183 0 87 183 0 87 183 0 87 183 0 87 183 0 87 183 0 87 183 0 87 183 0 87 183 0 87 183 0 87 183 0 87 183 0 87 183 0 87 183 0 87 183 0 87 183 0 87 183 0 87 183 0 87 183 0 87 183 0 87 183 0 87 183 0 87 183 0 87 183 0 87 183 0 87 183 0 87 183 0 87 183 0 87 183 0 87 183 0 87 183 0 87 183 0 87 183 0 87 183 0 87 183 0 87 183 0 87 183 0 87 183 0 87 183 0 87 183 0 87 183 0 87 183 0 87 183 0 87 183 0 87 183 0 87 183 0 87 183 0 87 183 0 87 183 0 87 183 0 87 183 0 87 183 0 87 183 0 87 183 0 87 183 0 87 183 0 87 183 0 87 183 0 87 183 0 87 183 0 87 183 0 87 183 0 87 183 0 87 183 0 87 183 0 87 183 0 87 183 0 87 183 0 87 183 0 87 183 0 87 183 0 87 183 0 87 183 0 87 183 0 87 183 0 87 183 0 87 183 0 87 183 0 87 183 0 87 183 0 87 183 0 87 183 0 87 183 0 87 183 0 87 183 0 87 183 0 87 183 0 87 183 0 87 183 0 87 183 0 87 183 0 87 183 0 87 183 0 87 183 0 87 183 0 87 183 0 87 183 0 87 183 0 87 183 0 87 183 0 87 183 0 87 183 0 87 183 0 87 183 0 87 183 0 87 183 0 87 183 0 87 183 0 87 183 0 87 183 0 87 183 0 87 183 0 87 183 0 87 183 0 87 183 0 87 183 0 87 183 0 87 183 0 87 183 0 87 183 0 87 183 0 87 183 0 87 183 0 87 183 0 87 183 0 87 183 0 87 183 0 87 183 0 87 183 0 87 183 0 87 183 0 87 183 0 87 183 0 87 183 0 87 183 0 87 183 0 87 183 0 87 183 0 87 183 0 87 183 0 87 183 0 87 183 0 87 183 0 87 183 0 87 183 0 87 183 0 87 183 0 87 183 0 87 183 0 87 183 0 87 183 0 87 183 0 87 183 0 87 183 0 87 183 0 87 183 0 87 183 0 87 183 0 87 183 0 87 183 0 87 183 0 87 183 0 87 183 0 87 183 0 87 183 0 87 183 0 87 183 0 87 183 0 87 183 0 87 183 0 87 183 0 87 183 0 87 183 0 87 183 0 87 183 0 87 183 0 87 183 0 87 183 0 87 183 0 87 183 0 87 183 0 87 183 0 87 183 0 87 183 0 87 183 0 87 183 0 87 183 0 87 183 0 87 183 0 87 183 0 87 183 0 87 183 0 87 183 0 87 183 0 87 183 0 87 183 0 87 183 0 87 183 0 87 183 0 87 183 0 87 183 0 87 183 0 87 183 0 87 183 0 87 183 0 87 183 0 87 183 0 87 183 0 87 183 0 87 183 0 87 183 0 87 183 0 87 183 0 87 183 0 87 183 0 87 183 0 87 183 0 87 183 0 87 183 0 87 183 0 87 183 0 87 183 0 87 183 0 87 183 0 87 183 0 87 183 0 87 183 0 87 183 0 87 183 0 87 183 0 87 183 0 87 183 0 87 183 0 87 183 0 87 183 0 87 183 0 87 183 0 87 183 0 87 183 0 87 183 0 87 183 0 87 183 0 87 183 0 87 183 0 87 183 0 87 183 0 87 183 0 87 183 0 87 183 0 87 183 0 87 183 0 87 183 0 87 183 0 87 183 0 87 183 0 87 183 0 87 183 0 87 183 0 87 183 0 87 183 0 87 183 0 87 183 0 87 183 0 87 183 0 87 183 0 87 183 0 87 183 0 87 183 0 87 183 0 87 183 0 87 183 0 87 183 0 87 183 0 87 183 0 87 183 0 87 183 0 87 183 0 87 183 0 87 183 0 87 183 0 87 183 0 87 183 0 87 183 0 87 183 0 87 183 0 87 183 0 87 183 0 87 183 0 87 183 
0 87 183 0 87 183 0 87 183 0 87 183 0 87 183 0 87 183 0 87 183 0 87 183 0 87 183 0 87 183 0 87 183 0 87 183 0 87 183 0 87 183 0 87 183 0 87 183 0 87 183 0 87 183 0 87 183 0 87 183 0 87 183 0 87 183 0 87 183 0 87 183 0 87 183 0 87 183 0 87 183 0 87 183 0 87 183 0 87 183 0 87 183 0 87 183 0 87 183 0 87 183 0 87 183 0 87 183 0 87 183 0 87 183 0 87 183 0 87 183 0 87 183 0 87 183 0 87 183 0 87 183 0 87 183 0 87 183 0 87 183 0 87 183 0 87 183 0 87 183 0 87 183 0 87 183 0 87 183 0 87 183 0 87 183 0 87 183 0 87 183 0 87 183 0 87 183 0 87 183 0 87 183 0 87 183 0 87 183 0 87 183 0 87 183 0 87 183 0 87 183 0 87 183 0 87 183 0 87 183 0 87 183 0 87 183 0 87 183 0 87 183 0 87 183 0 87 183 0 87 183 0 87 183 0 87 183 0 87 183 0 87 183 0 87 183 0 87 183 0 87 183 0 87 183 0 87 183 0 87 183 0 87 183 0 87 183 0 87 183 0 87 183 0 87 183 0 87 183 0 87 183 0 87 183 0 87 183 0 87 183 0 87 183 0 87 183 0 87 183 0 87 183 0 87 183 0 87 183 0 87 183 0 87 183 0 87 183 0 87 183 0 87 183 0 87 183 0 87 183 0 87 183 0 87 183 0 87 183 0 87 183 0 87 183 0 87 183 0 87 183 0 87 183 0 87 183 0 87 183 0 87 183 0 87 183 0 87 183 0 87 183 0 87 183 0 87 183 0 87 183 0 87 183 0 87 183 0 87 183 0 87 183 0 87 183 0 87 183 0 87 183 0 87 183 0 87 183 0 87 183 0 87 183 0 87 183 0 87 183 0 87 183 0 87 183 0 87 183 0 87 183 0 87 183 0 87 183 0 87 183 0 87 183 0 87 183 0 87 183 0 87 183 0 87 183 0 87 183 0 87 183 0 87 183 0 87 183 0 87 183 0 87 183 0 87 183 0 87 183 0 87 183 0 87 183 0 87 183 0 87 183 0 87 183 0 87 183 0 87 183 0 87 183 0 87 183 0 87 183 0 87 183 0 87 183 0 87 183 0 87 183 0 87 183 0 87 183 0 87 183 0 87 183 0 87 183 0 87 183 0 87 183 0 87 183 0 87 183 0 87 183 0 87 183 0 87 183 0 87 183 0 87 183 0 87 183 0 87 183 0 87 183 0 87 183 0 87 183 0 87 183 0 87 183 0 87 183 0 87 183 0 87 183 0 87 183 0 87 183 0 87 183 0 87 183 0 87 183 0 87 183 0 87 183 0 87 183 0 87 183 0 87 183 0 87 183 0 87 183 0 87 183 0 87 183 0 87 183 0 87 183 0 87 183 0 87 183 0 87 183 0 87 183 0 87 183 0 87 183 0 87 183 0 87 183 0 87 183 0 87 183 0 87 183 0 87 183 0 87 183 0 87 183 0 87 183 0 87 183 0 87 183 0 87 183 0 87 183 0 87 183 0 87 183 0 87 183 0 87 183 0 87 183 0 87 183 0 87 183 0 87 183 0 87 183 0 87 183 0 87 183 0 87 183 0 87 183 0 87 183 0 87 183 0 87 183 0 87 183 0 87 183 0 87 183 0 87 183 0 87 183 0 87 183 0 87 183 0 87 183 0 87 183 0 87 183 0 87 183 0 87 183 0 87 183 0 87 183 0 87 183 0 87 183 0 87 183 0 87 183 0 87 183 0 87 183 0 87 183 0 87 183 0 87 183 0 87 183 0 87 183 0 87 183 0 87 183 0 87 183 0 87 183 0 87 183 0 87 183 0 87 183 0 87 183 0 87 183 0 87 183 0 87 183 0 87 183 0 87 183 0 87 183 0 87 183 0 87 183 0 87 183 0 87 183 0 87 183 0 87 183 0 87 183 0 87 183 0 87 183 0 87 183 0 87 183 0 87 183 
0 87 183 0 87 183 0 87 183 0 87 183 0 87 183 0 87 183 0 87 183 0 87 183 0 87 183 0 87 183 0 87 183 0 87 183 0 87 183 0 87 183 0 87 183 0 87 183 0 87 183 0 87 183 0 87 183 0 87 183 0 87 183 0 87 183 0 87 183 0 87 183 0 87 183 0 87 183 0 87 183 0 87 183 0 87 183 0 87 183 0 87 183 0 87 183 0 87 183 0 87 183 0 87 183 0 87 183 0 87 183 0 87 183 0 87 183 0 87 183 0 87 183 0 87 183 0 87 183 0 87 183 0 87 183 0 87 183 0 87 183 0 87 183 0 87 183 0 87 183 0 87 183 0 87 183 0 87 183 0 87 183 0 87 183 0 87 183 0 87 183 0 87 183 0 87 183 0 87 183 0 87 183 0 87 183 0 87 183 0 87 183 0 87 183 0 87 183 0 87 183 0 87 183 0 87 183 0 87 183 0 87 183 0 87 183 0 87 183 0 87 183 0 87 183 0 87 183 0 87 183 0 87 183 0 87 183 0 87 183 0 87 183 0 87 183 0 87 183 0 87 183 0 87 183 0 87 183 0 87 183 0 87 183 0 87 183 0 87 183 0 87 183 0 87 183 0 87 183 0 87 183 0 87 183 0 87 183 0 87 183 0 87 183 0 87 183 0 87 183 0 87 183 0 87 183 0 87 183 0 87 183 0 87 183 0 87 183 0 87 183 0 87 183 0 87 183 0 87 183 0 87 183 0 87 183 0 87 183 0 87 183 0 87 183 0 87 183 0 87 183 0 87 183 0 87 183 0 87 183 0 87 183 0 87 183 0 87 183 0 87 183 0 87 183 0 87 183 0 87 183 0 87 183 0 87 183 0 87 183 0 87 183 0 87 183 0 87 183 0 87 183 0 87 183 0 87 183 0 87 183 0 87 183 0 87 183 0 87 183 0 87 183 0 87 183 0 87 183 0 87 183 0 87 183 0 87 183 0 87 183 0 87 183 0 87 183 0 87 183 0 87 183 0 87 183 0 87 183 0 87 183 0 87 183 0 87 183 0 87 183 0 87 183 0 87 183 0 87 183 0 87 183 0 87 183 0 87 183 0 87 183 0 87 183 0 87 183 0 87 183 0 87 183 0 87 183 0 87 183 0 87 183 0 87 183 0 87 183 0 87 183 0 87 183 0 87 183 0 87 183 0 87 183 0 87 183 0 87 183 0 87 183 0 87 183 0 87 183 0 87 183 0 87 183 0 87 183 0 87 183 0 87 183 0 87 183 0 87 183 0 87 183 0 87 183 0 87 183 0 87 183 0 87 183 0 87 183 0 87 183 0 87 183 0 87 183 0 87 183 0 87 183 0 87 183 0 87 183 0 87 183 0 87 183 0 87 183 0 87 183 0 87 183 0 87 183 0 87 183 0 87 183 0 87 183 0 87 183 0 87 183 0 87 183 0 87 183 0 87 183 0 87 183 0 87 183 0 87 183 0 87 183 0 87 183 0 87 183 0 87 183 0 87 183 0 87 183 0 87 183 0 87 183 0 87 183 0 87 183 0 87 183 0 87 183 0 87 183 0 87 183 0 87 183 0 87 183 0 87 183 0 87 183 0 87 183 0 87 183 0 87 183 0 87 183 0 87 183 0 87 183 0 87 183 0 87 183 0 87 183 0 87 183 0 87 183 0 87 183 0 87 183 0 87 183 0 87 183 0 87 183 0 87 183 0 87 183 0 87 183 0 87 183 0 87 183 0 87 183 0 87 183 0 87 183 0 87 183 0 87 183 0 87 183 0 87 183 0 87 183 0 87 183 0 87 183 0 87 183 0 87 183 0 87 183 0 87 183 0 87 183 0 87 183 0 87 183 0 87 183 0 87 183 0 87 183 0 87 183 0 87 183 0 87 183 0 87 183 0 87 183 0 87 183 0 87 183 0 87 183 0 87 183 0 87 183 0 87 183 0 87 183 0 87 183 0 87 183 0 87 183 0 87 183 0 87 183 0 87 183 0 87 183 0 87 183 0 87 183 
0 87 183 0 87 183 0 87 183 0 87 183 0 87 183 0 87 183 0 87 183 0 87 183 0 87 183 0 87 183 0 87 183 0 87 183 0 87 183 0 87 183 0 87 183 0 87 183 0 87 183 0 87 183 0 87 183 0 87 183 0 87 183 0 87 183 0 87 183 0 87 183 0 87 183 0 87 183 0 87 183 0 87 183 0 87 183 0 87 183 0 87 183 0 87 183 0 87 183 0 87 183 0 87 183 0 87 183 0 87 183 0 87 183 0 87 183 0 87 183 0 87 183 0 87 183 0 87 183 0 87 183 0 87 183 0 87 183 0 87 183 0 87 183 0 87 183 0 87 183 0 87 183 0 87 183 0 87 183 0 87 183 0 87 183 0 87 183 0 87 183 0 87 183 0 87 183 0 87 183 0 87 183 0 87 183 0 87 183 0 87 183 0 87 183 0 87 183 0 87 183 0 87 183 0 87 183 0 87 183 0 87 183 0 87 183 0 87 183 0 87 183 0 87 183 0 87 183 0 87 183 0 87 183 0 87 183 0 87 183 0 87 183 0 87 183 0 87 183 0 87 183 0 87 183 0 87 183 0 87 183 0 87 183 0 87 183 0 87 183 0 87 183 0 87 183 0 87 183 0 87 183 0 87 183 0 87 183 0 87 183 0 87 183 0 87 183 0 87 183 0 87 183 0 87 183 0 87 183 0 87 183 0 87 183 0 87 183 0 87 183 0 87 183 0 87 183 0 87 183 0 87 183 0 87 183 0 87 183 0 87 183 0 87 183 0 87 183 0 87 183 0 87 183 0 87 183 0 87 183 0 87 183 0 87 183 0 87 183 0 87 183 0 87 183 0 87 183 0 87 183 0 87 183 0 87 183 0 87 183 0 87 183 0 87 183 0 87 183 0 87 183 0 87 183 0 87 183 0 87 183 0 87 183 0 87 183 0 87 183 0 87 183 0 87 183 0 87 183 0 87 183 0 87 183 0 87 183 0 87 183 0 87 183 0 87 183 0 87 183 0 87 183 0 87 183 0 87 183 0 87 183 0 87 183 0 87 183 0 87 183 0 87 183 0 87 183 0 87 183 0 87 183 0 87 183 0 87 183 0 87 183 0 87 183 0 87 183 0 87 183 0 87 183 0 87 183 0 87 183 0 87 183 0 87 183 0 87 183 0 87 183 0 87 183 0 87 183 0 87 183 0 87 183 0 87 183 0 87 183 0 87 183 0 87 183 0 87 183 0 87 183 0 87 183 0 87 183 0 87 183 0 87 183 0 87 183 0 87 183 0 87 183 0 87 183 0 87 183 0 87 183 0 87 183 0 87 183 0 87 183 0 87 183 0 87 183 0 87 183 0 87 183 0 87 183 0 87 183 0 87 183 0 87 183 0 87 183 0 87 183 0 87 183 0 87 183 0 87 183 0 87 183 0 87 183 0 87 183 0 87 183 0 87 183 0 87 183 0 87 183 0 87 183 0 87 183 0 87 183 0 87 183 0 87 183 0 87 183 0 87 183 0 87 183 0 87 183 0 87 183 0 87 183 0 87 183 0 87 183 0 87 183 0 87 183 0 87 183 0 87 183 0 87 183 0 87 183 0 87 183 0 87 183 0 87 183 0 87 183 0 87 183 0 87 183 0 87 183 0 87 183 0 87 183 0 87 183 0 87 183 0 87 183 0 87 183 0 87 183 0 87 183 0 87 183 0 87 183 0 87 183 0 87 183 0 87 183 0 87 183 0 87 183 0 87 183 0 87 183 0 87 183 0 87 183 0 87 183 0 87 183 0 87 183 0 87 183 0 87 183 0 87 183 0 87 183 0 87 183 0 87 183 0 87 183 0 87 183 0 87 183 0 87 183 0 87 183 0 87 183 0 87 183 0 87 183 0 87 183 0 87 183 0 87 183 0 87 183 0 87 183 0 87 183 0 87 183 0 87 183 0 87 183 0 87 183 0 87 183 0 87 183 0 87 183 0 87 183 0 87 183 0 87 183 0 87 183 0 87 183 0 87 183 0 87 183 0 87 183 
0 87 183 0 87 183 0 87 183 0 87 183 0 87 183 0 87 183 0 87 183 0 87 183 0 87 183 0 87 183 0 87 183 0 87 183 0 87 183 0 87 183 0 87 183 0 87 183 0 87 183 0 87 183 0 87 183 0 87 183 0 87 183 0 87 183 0 87 183 0 87 183 0 87 183 0 87 183 0 87 183 0 87 183 0 87 183 0 87 183 0 87 183 0 87 183 0 87 183 0 87 183 0 87 183 0 87 183 0 87 183 0 87 183 0 87 183 0 87 183 0 87 183 0 87 183 0 87 183 0 87 183 0 87 183 0 87 183 0 87 183 0 87 183 0 87 183 0 87 183 0 87 183 0 87 183 0 87 183 0 87 183 0 87 183 0 87 183 0 87 183 0 87 183 0 87 183 0 87 183 0 87 183 0 87 183 0 87 183 0 87 183 0 87 183 0 87 183 0 87 183 0 87 183 0 87 183 0 87 183 0 87 183 0 87 183 0 87 183 0 87 183 0 87 183 0 87 183 0 87 183 0 87 183 0 87 183 0 87 183 0 87 183 0 87 183 0 87 183 0 87 183 0 87 183 0 87 183 0 87 183 0 87 183 0 87 183 0 87 183 0 87 183 0 87 183 0 87 183 0 87 183 0 87 183 0 87 183 0 87 183 0 87 183 0 87 183 0 87 183 0 87 183 0 87 183 0 87 183 0 87 183 0 87 183 0 87 183 0 87 183 0 87 183 0 87 183 0 87 183 0 87 183 0 87 183 0 87 183 0 87 183 0 87 183 0 87 183 0 87 183 0 87 183 0 87 183 0 87 183 0 87 183 0 87 183 0 87 183 0 87 183 0 87 183 0 87 183 0 87 183 0 87 183 0 87 183 0 87 183 0 87 183 0 87 183 0 87 183 0 87 183 0 87 183 0 87 183 0 87 183 0 87 183 0 87 183 0 87 183 0 87 183 0 87 183 0 87 183 0 87 183 0 87 183 0 87 183 0 87 183 0 87 183 0 87 183 0 87 183 0 87 183 0 87 183 0 87 183 0 87 183 0 87 183 0 87 183 0 87 183 0 87 183 0 87 183 0 87 183 0 87 183 0 87 183 0 87 183 0 87 183 0 87 183 0 87 183 0 87 183 0 87 183 0 87 183 0 87 183 0 87 183 0 87 183 0 87 183 0 87 183 0 87 183 0 87 183 0 87 183 0 87 183 0 87 183 0 87 183 0 87 183 0 87 183 0 87 183 0 87 183 0 87 183 0 87 183 0 87 183 0 87 183 0 87 183 0 87 183 0 87 183 0 87 183 0 87 183 0 87 183 0 87 183 0 87 183 0 87 183 0 87 183 0 87 183 0 87 183 0 87 183 0 87 183 0 87 183 0 87 183 0 87 183 0 87 183 0 87 183 0 87 183 0 87 183 0 87 183 0 87 183 0 87 183 0 87 183 0 87 183 0 87 183 0 87 183 0 87 183 0 87 183 0 87 183 0 87 183 0 87 183 0 87 183 0 87 183 0 87 183 0 87 183 0 87 183 0 87 183 0 87 183 0 87 183 0 87 183 0 87 183 0 87 183 0 87 183 0 87 183 0 87 183 0 87 183 0 87 183 0 87 183 0 87 183 0 87 183 0 87 183 0 87 183 0 87 183 0 87 183 0 87 183 0 87 183 0 87 183 0 87 183 0 87 183 0 87 183 0 87 183 0 87 183 0 87 183 0 87 183 0 87 183 0 87 183 0 87 183 0 87 183 0 87 183 0 87 183 0 87 183 0 87 183 0 87 183 0 87 183 0 87 183 0 87 183 0 87 183 0 87 183 0 87 183 0 87 183 0 87 183 0 87 183 0 87 183 0 87 183 0 87 183 0 87 183 0 87 183 0 87 183 0 87 183 0 87 183 0 87 183 0 87 183 0 87 183 0 87 183 0 87 183 0 87 183 0 87 183 0 87 183 0 87 183 0 87 183 0 87 183 0 87 183 0 87 183 0 87 183 0 87 183 0 87 183 0 87 183 0 87 183 0 87 183 0 87 183 
0 87 183 0 87 183 0 87 183 0 87 183 0 87 183 0 87 183 0 87 183 0 87 183 0 87 183 0 87 183 0 87 183 0 87 183 0 87 183 0 87 183 0 87 183 0 87 183 0 87 183 0 87 183 0 87 183 0 87 183 0 87 183 0 87 183 0 87 183 0 87 183 0 87 183 0 87 183 0 87 183 0 87 183 0 87 183 0 87 183 0 87 183 0 87 183 0 87 183 0 87 183 0 87 183 0 87 183 0 87 183 0 87 183 0 87 183 0 87 183 0 87 183 0 87 183 0 87 183 0 87 183 0 87 183 0 87 183 0 87 183 0 87 183 0 87 183 0 87 183 0 87 183 0 87 183 0 87 183 0 87 183 0 87 183 0 87 183 0 87 183 0 87 183 0 87 183 0 87 183 0 87 183 0 87 183 0 87 183 0 87 183 0 87 183 0 87 183 0 87 183 0 87 183 0 87 183 0 87 183 0 87 183 0 87 183 0 87 183 0 87 183 0 87 183 0 87 183 0 87 183 0 87 183 0 87 183 0 87 183 0 87 183 0 87 183 0 87 183 0 87 183 0 87 183 0 87 183 0 87 183 0 87 183 0 87 183 0 87 183 0 87 183 0 87 183 0 87 183 0 87 183 0 87 183 0 87 183 0 87 183 0 87 183 0 87 183 0 87 183 0 87 183 0 87 183 0 87 183 0 87 183 0 87 183 0 87 183 0 87 183 0 87 183 0 87 183 0 87 183 0 87 183 0 87 183 0 87 183 0 87 183 0 87 183 0 87 183 0 87 183 0 87 183 0 87 183 0 87 183 0 87 183 0 87 183 0 87 183 0 87 183 0 87 183 0 87 183 0 87 183 0 87 183 0 87 183 0 87 183 0 87 183 0 87 183 0 87 183 0 87 183 0 87 183 0 87 183 0 87 183 0 87 183 0 87 183 0 87 183 0 87 183 0 87 183 0 87 183 0 87 183 0 87 183 0 87 183 0 87 183 0 87 183 0 87 183 0 87 183 0 87 183 0 87 183 0 87 183 0 87 183 0 87 183 0 87 183 0 87 183 0 87 183 0 87 183 0 87 183 0 87 183 0 87 183 0 87 183 0 87 183 0 87 183 0 87 183 0 87 183 0 87 183 0 87 183 0 87 183 0 87 183 0 87 183 0 87 183 0 87 183 0 87 183 0 87 183 0 87 183 0 87 183 0 87 183 0 87 183 0 87 183 0 87 183 0 87 183 0 87 183 0 87 183 0 87 183 0 87 183 0 87 183 0 87 183 0 87 183 0 87 183 0 87 183 0 87 183 0 87 183 0 87 183 0 87 183 0 87 183 0 87 183 0 87 183 0 87 183 0 87 183 0 87 183 0 87 183 0 87 183 0 87 183 0 87 183 0 87 183 0 87 183 0 87 183 0 87 183 0 87 183 0 87 183 0 87 183 0 87 183 0 87 183 0 87 183 0 87 183 0 87 183 0 87 183 0 87 183 0 87 183 0 87 183 0 87 183 0 87 183 0 87 183 0 87 183 0 87 183 0 87 183 0 87 183 0 87 183 0 87 183 0 87 183 0 87 183 0 87 183 0 87 183 0 87 183 0 87 183 0 87 183 0 87 183 0 87 183 0 87 183 0 87 183 0 87 183 0 87 183 0 87 183 0 87 183 0 87 183 0 87 183 0 87 183 0 87 183 0 87 183 0 87 183 0 87 183 0 87 183 0 87 183 0 87 183 0 87 183 0 87 183 0 87 183 0 87 183 0 87 183 0 87 183 0 87 183 0 87 183 0 87 183 0 87 183 0 87 183 0 87 183 0 87 183 0 87 183 0 87 183 0 87 183 0 87 183 0 87 183 0 87 183 0 87 183 0 87 183 0 87 183 0 87 183 0 87 183 0 87 183 0 87 183 0 87 183 0 87 183 0 87 183 0 87 183 0 87 183 0 87 183 0 87 183 0 87 183 0 87 183 0 87 183 0 87 183 0 87 183 0 87 183 0 87 183 0 87 183 0 87 183 0 87 183 0 87 183 
0 87 183 0 87 183 0 87 183 0 87 183 0 87 183 0 87 183 0 87 183 0 87 183 0 87 183 0 87 183 0 87 183 0 87 183 0 87 183 0 87 183 0 87 183 0 87 183 0 87 183 0 87 183 0 87 183 0 87 183 0 87 183 0 87 183 0 87 183 0 87 183 0 87 183 0 87 183 0 87 183 0 87 183 0 87 183 0 87 183 0 87 183 0 87 183 0 87 183 0 87 183 0 87 183 0 87 183 0 87 183 0 87 183 0 87 183 0 87 183 0 87 183 0 87 183 0 87 183 0 87 183 0 87 183 0 87 183 0 87 183 0 87 183 0 87 183 0 87 183 0 87 183 0 87 183 0 87 183 0 87 183 0 87 183 0 87 183 0 87 183 0 87 183 0 87 183 0 87 183 0 87 183 0 87 183 0 87 183 0 87 183 0 87 183 0 87 183 0 87 183 0 87 183 0 87 183 0 87 183 0 87 183 0 87 183 0 87 183 0 87 183 0 87 183 0 87 183 0 87 183 0 87 183 0 87 183 0 87 183 0 87 183 0 87 183 0 87 183 0 87 183 0 87 183 0 87 183 0 87 183 0 87 183 0 87 183 0 87 183 0 87 183 0 87 183 0 87 183 0 87 183 0 87 183 0 87 183 0 87 183 0 87 183 0 87 183 0 87 183 0 87 183 0 87 183 0 87 183 0 87 183 0 87 183 0 87 183 0 87 183 0 87 183 0 87 183 0 87 183 0 87 183 0 87 183 0 87 183 0 87 183 0 87 183 0 87 183 0 87 183 0 87 183 0 87 183 0 87 183 0 87 183 0 87 183 0 87 183 0 87 183 0 87 183 0 87 183 0 87 183 0 87 183 0 87 183 0 87 183 0 87 183 0 87 183 0 87 183 0 87 183 0 87 183 0 87 183 0 87 183 0 87 183 0 87 183 0 87 183 0 87 183 0 87 183 0 87 183 0 87 183 0 87 183 0 87 183 0 87 183 0 87 183 0 87 183 0 87 183 0 87 183 0 87 183 0 87 183 0 87 183 0 87 183 0 87 183 0 87 183 0 87 183 0 87 183 0 87 183 0 87 183 0 87 183 0 87 183 0 87 183 0 87 183 0 87 183 0 87 183 0 87 183 0 87 183 0 87 183 0 87 183 0 87 183 0 87 183 0 87 183 0 87 183 0 87 183 0 87 183 0 87 183 0 87 183 0 87 183 0 87 183 0 87 183 0 87 183 0 87 183 0 87 183 0 87 183 0 87 183 0 87 183 0 87 183 0 87 183 0 87 183 0 87 183 0 87 183 0 87 183 0 87 183 0 87 183 0 87 183 0 87 183 0 87 183 0 87 183 0 87 183 0 87 183 0 87 183 0 87 183 0 87 183 0 87 183 0 87 183 0 87 183 0 87 183 0 87 183 0 87 183 0 87 183 0 87 183 0 87 183 0 87 183 0 87 183 0 87 183 0 87 183 0 87 183 0 87 183 0 87 183 0 87 183 0 87 183 0 87 183 0 87 183 0 87 183 0 87 183 0 87 183 0 87 183 0 87 183 0 87 183 0 87 183 0 87 183 0 87 183 0 87 183 0 87 183 0 87 183 0 87 183 0 87 183 0 87 183 0 87 183 0 87 183 0 87 183 0 87 183 0 87 183 0 87 183 0 87 183 0 87 183 0 87 183 0 87 183 0 87 183 0 87 183 0 87 183 0 87 183 0 87 183 0 87 183 0 87 183 0 87 183 0 87 183 0 87 183 0 87 183 0 87 183 0 87 183 0 87 183 0 87 183 0 87 183 0 87 183 0 87 183 0 87 183 0 87 183 0 87 183 0 87 183 0 87 183 0 87 183 0 87 183 0 87 183 0 87 183 0 87 183 0 87 183 0 87 183 0 87 183 0 87 183 0 87 183 0 87 183 0 87 183 0 87 183 0 87 183 0 87 183 0 87 183 0 87 183 0 87 183 0 87 183 0 87 183 0 87 183 0 87 183 0 87 183 0 87 183 0 87 183 0 87 183 0 87 183 
0 87 183 0 87 183 0 87 183 0 87 183 0 87 183 0 87 183 0 87 183 0 87 183 0 87 183 0 87 183 0 87 183 0 87 183 0 87 183 0 87 183 0 87 183 0 87 183 0 87 183 0 87 183 0 87 183 0 87 183 0 87 183 0 87 183 0 87 183 0 87 183 0 87 183 0 87 183 0 87 183 0 87 183 0 87 183 0 87 183 0 87 183 0 87 183 0 87 183 0 87 183 0 87 183 0 87 183 0 87 183 0 87 183 0 87 183 0 87 183 0 87 183 0 87 183 0 87 183 0 87 183 0 87 183 0 87 183 0 87 183 0 87 183 0 87 183 0 87 183 0 87 183 0 87 183 0 87 183 0 87 183 0 87 183 0 87 183 0 87 183 0 87 183 0 87 183 0 87 183 0 87 183 0 87 183 0 87 183 0 87 183 0 87 183 0 87 183 0 87 183 0 87 183 0 87 183 0 87 183 0 87 183 0 87 183 0 87 183 0 87 183 0 87 183 0 87 183 0 87 183 0 87 183 0 87 183 0 87 183 0 87 183 0 87 183 0 87 183 0 87 183 0 87 183 0 87 183 0 87 183 0 87 183 0 87 183 0 87 183 0 87 183 0 87 183 0 87 183 0 87 183 0 87 183 0 87 183 0 87 183 0 87 183 0 87 183 0 87 183 0 87 183 0 87 183 0 87 183 0 87 183 0 87 183 0 87 183 0 87 183 0 87 183 0 87 183 0 87 183 0 87 183 0 87 183 0 87 183 0 87 183 0 87 183 0 87 183 0 87 183 0 87 183 0 87 183 0 87 183 0 87 183 0 87 183 0 87 183 0 87 183 0 87 183 0 87 183 0 87 183 0 87 183 0 87 183 0 87 183 0 87 183 0 87 183 0 87 183 0 87 183 0 87 183 0 87 183 0 87 183 0 87 183 0 87 183 0 87 183 0 87 183 0 87 183 0 87 183 0 87 183 0 87 183 0 87 183 0 87 183 0 87 183 0 87 183 0 87 183 0 87 183 0 87 183 0 87 183 0 87 183 0 87 183 0 87 183 0 87 183 0 87 183 0 87 183 0 87 183 0 87 183 0 87 183 0 87 183 0 87 183 0 87 183 0 87 183 0 87 183 0 87 183 0 87 183 0 87 183 0 87 183 0 87 183 0 87 183 0 87 183 0 87 183 0 87 183 0 87 183 0 87 183 0 87 183 0 87 183 0 87 183 0 87 183 0 87 183 0 87 183 0 87 183 0 87 183 0 87 183 0 87 183 0 87 183 0 87 183 0 87 183 0 87 183 0 87 183 0 87 183 0 87 183 0 87 183 0 87 183 0 87 183 0 87 183 0 87 183 0 87 183 0 87 183 0 87 183 0 87 183 0 87 183 0 87 183 0 87 183 0 87 183 0 87 183 0 87 183 0 87 183 0 87 183 0 87 183 0 87 183 0 87 183 0 87 183 0 87 183 0 87 183 0 87 183 0 87 183 0 87 183 0 87 183 0 87 183 0 87 183 0 87 183 0 87 183 0 87 183 0 87 183 0 87 183 0 87 183 0 87 183 0 87 183 0 87 183 0 87 183 0 87 183 0 87 183 0 87 183 0 87 183 0 87 183 0 87 183 0 87 183 0 87 183 0 87 183 0 87 183 0 87 183 0 87 183 0 87 183 0 87 183 0 87 183 0 87 183 0 87 183 0 87 183 0 87 183 0 87 183 0 87 183 0 87 183 0 87 183 0 87 183 0 87 183 0 87 183 0 87 183 0 87 183 0 87 183 0 87 183 0 87 183 0 87 183 0 87 183 0 87 183 0 87 183 0 87 183 0 87 183 0 87 183 0 87 183 0 87 183 0 87 183 0 87 183 0 87 183 0 87 183 0 87 183 0 87 183 0 87 183 0 87 183 0 87 183 0 87 183 0 87 183 0 87 183 0 87 183 0 87 183 0 87 183 0 87 183 0 87 183 0 87 183 0 87 183 0 87 183 0 87 183 0 87 183 0 87 183 0 87 183 0 87 183 0 87 183 
0 87 183 0 87 183 0 87 183 0 87 183 0 87 183 0 87 183 0 87 183 0 87 183 0 87 183 0 87 183 0 87 183 0 87 183 0 87 183 0 87 183 0 87 183 0 87 183 0 87 183 0 87 183 0 87 183 0 87 183 0 87 183 0 87 183 0 87 183 0 87 183 0 87 183 0 87 183 0 87 183 0 87 183 0 87 183 0 87 183 0 87 183 0 87 183 0 87 183 0 87 183 0 87 183 0 87 183 0 87 183 0 87 183 0 87 183 0 87 183 0 87 183 0 87 183 0 87 183 0 87 183 0 87 183 0 87 183 0 87 183 0 87 183 0 87 183 0 87 183 0 87 183 0 87 183 0 87 183 0 87 183 0 87 183 0 87 183 0 87 183 0 87 183 0 87 183 0 87 183 0 87 183 0 87 183 0 87 183 0 87 183 0 87 183 0 87 183 0 87 183 0 87 183 0 87 183 0 87 183 0 87 183 0 87 183 0 87 183 0 87 183 0 87 183 0 87 183 0 87 183 0 87 183 0 87 183 0 87 183 0 87 183 0 87 183 0 87 183 0 87 183 0 87 183 0 87 183 0 87 183 0 87 183 0 87 183 0 87 183 0 87 183 0 87 183 0 87 183 0 87 183 0 87 183 0 87 183 0 87 183 0 87 183 0 87 183 0 87 183 0 87 183 0 87 183 0 87 183 0 87 183 0 87 183 0 87 183 0 87 183 0 87 183 0 87 183 0 87 183 0 87 183 0 87 183 0 87 183 0 87 183 0 87 183 0 87 183 0 87 183 0 87 183 0 87 183 0 87 183 0 87 183 0 87 183 0 87 183 0 87 183 0 87 183 0 87 183 0 87 183 0 87 183 0 87 183 0 87 183 0 87 183 0 87 183 0 87 183 0 87 183 0 87 183 0 87 183 0 87 183 0 87 183 0 87 183 0 87 183 0 87 183 0 87 183 0 87 183 0 87 183 0 87 183 0 87 183 0 87 183 0 87 183 0 87 183 0 87 183 0 87 183 0 87 183 0 87 183 0 87 183 0 87 183 0 87 183 0 87 183 0 87 183 0 87 183 0 87 183 0 87 183 0 87 183 0 87 183 0 87 183 0 87 183 0 87 183 0 87 183 0 87 183 0 87 183 0 87 183 0 87 183 0 87 183 0 87 183 0 87 183 0 87 183 0 87 183 0 87 183 0 87 183 0 87 183 0 87 183 0 87 183 0 87 183 0 87 183 0 87 183 0 87 183 0 87 183 0 87 183 0 87 183 0 87 183 0 87 183 0 87 183 0 87 183 0 87 183 0 87 183 0 87 183 0 87 183 0 87 183 0 87 183 0 87 183 0 87 183 0 87 183 0 87 183 0 87 183 0 87 183 0 87 183 0 87 183 0 87 183 0 87 183 0 87 183 0 87 183 0 87 183 0 87 183 0 87 183 0 87 183 0 87 183 0 87 183 0 87 183 0 87 183 0 87 183 0 87 183 0 87 183 0 87 183 0 87 183 0 87 183 0 87 183 0 87 183 0 87 183 0 87 183 0 87 183 0 87 183 0 87 183 0 87 183 0 87 183 0 87 183 0 87 183 0 87 183 0 87 183 0 87 183 0 87 183 0 87 183 0 87 183 0 87 183 0 87 183 0 87 183 0 87 183 0 87 183 0 87 183 0 87 183 0 87 183 0 87 183 0 87 183 0 87 183 0 87 183 0 87 183 0 87 183 0 87 183 0 87 183 0 87 183 0 87 183 0 87 183 0 87 183 0 87 183 0 87 183 0 87 183 0 87 183 0 87 183 0 87 183 0 87 183 0 87 183 0 87 183 0 87 183 0 87 183 0 87 183 0 87 183 0 87 183 0 87 183 0 87 183 0 87 183 0 87 183 0 87 183 0 87 183 0 87 183 0 87 183 0 87 183 0 87 183 0 87 183 0 87 183 0 87 183 0 87 183 0 87 183 0 87 183 0 87 183 0 87 183 0 87 183 0 87 183 0 87 183 0 87 183 0 87 183 0 87 183 0 87 183 
0 87 183 0 87 183 0 87 183 0 87 183 0 87 183 0 87 183 0 87 183 0 87 183 0 87 183 0 87 183 0 87 183 0 87 183 0 87 183 0 87 183 0 87 183 0 87 183 0 87 183 0 87 183 0 87 183 0 87 183 0 87 183 0 87 183 0 87 183 0 87 183 0 87 183 0 87 183 0 87 183 0 87 183 0 87 183 0 87 183 0 87 183 0 87 183 0 87 183 0 87 183 0 87 183 0 87 183 0 87 183 0 87 183 0 87 183 0 87 183 0 87 183 0 87 183 0 87 183 0 87 183 0 87 183 0 87 183 0 87 183 0 87 183 0 87 183 0 87 183 0 87 183 0 87 183 0 87 183 0 87 183 0 87 183 0 87 183 0 87 183 0 87 183 0 87 183 0 87 183 0 87 183 0 87 183 0 87 183 0 87 183 0 87 183 0 87 183 0 87 183 0 87 183 0 87 183 0 87 183 0 87 183 0 87 183 0 87 183 0 87 183 0 87 183 0 87 183 0 87 183 0 87 183 0 87 183 0 87 183 0 87 183 0 87 183 0 87 183 0 87 183 0 87 183 0 87 183 0 87 183 0 87 183 0 87 183 0 87 183 0 87 183 0 87 183 0 87 183 0 87 183 0 87 183 0 87 183 0 87 183 0 87 183 0 87 183 0 87 183 0 87 183 0 87 183 0 87 183 0 87 183 0 87 183 0 87 183 0 87 183 0 87 183 0 87 183 0 87 183 0 87 183 0 87 183 0 87 183 0 87 183 0 87 183 0 87 183 0 87 183 0 87 183 0 87 183 0 87 183 0 87 183 0 87 183 0 87 183 0 87 183 0 87 183 0 87 183 0 87 183 0 87 183 0 87 183 0 87 183 0 87 183 0 87 183 0 87 183 0 87 183 0 87 183 0 87 183 0 87 183 0 87 183 0 87 183 0 87 183 0 87 183 0 87 183 0 87 183 0 87 183 0 87 183 0 87 183 0 87 183 0 87 183 0 87 183 0 87 183 0 87 183 0 87 183 0 87 183 0 87 183 0 87 183 0 87 183 0 87 183 0 87 183 0 87 183 0 87 183 0 87 183 0 87 183 0 87 183 0 87 183 0 87 183 0 87 183 0 87 183 0 87 183 0 87 183 0 87 183 0 87 183 0 87 183 0 87 183 0 87 183 0 87 183 0 87 183 0 87 183 0 87 183 0 87 183 0 87 183 0 87 183 0 87 183 0 87 183 0 87 183 0 87 183 0 87 183 0 87 183 0 87 183 0 87 183 0 87 183 0 87 183 0 87 183 0 87 183 0 87 183 0 87 183 0 87 183 0 87 183 0 87 183 0 87 183 0 87 183 0 87 183 0 87 183 0 87 183 0 87 183 0 87 183 0 87 183 0 87 183 0 87 183 0 87 183 0 87 183 0 87 183 0 87 183 0 87 183 0 87 183 0 87 183 0 87 183 0 87 183 0 87 183 0 87 183 0 87 183 0 87 183 0 87 183 0 87 183 0 87 183 0 87 183 0 87 183 0 87 183 0 87 183 0 87 183 0 87 183 0 87 183 0 87 183 0 87 183 0 87 183 0 87 183 0 87 183 0 87 183 0 87 183 0 87 183 0 87 183 0 87 183 0 87 183 0 87 183 0 87 183 0 87 183 0 87 183 0 87 183 0 87 183 0 87 183 0 87 183 0 87 183 0 87 183 0 87 183 0 87 183 0 87 183 0 87 183 0 87 183 0 87 183 0 87 183 0 87 183 0 87 183 0 87 183 0 87 183 0 87 183 0 87 183 0 87 183 0 87 183 0 87 183 0 87 183 0 87 183 0 87 183 0 87 183 0 87 183 0 87 183 0 87 183 0 87 183 0 87 183 0 87 183 0 87 183 0 87 183 0 87 183 0 87 183 0 87 183 0 87 183 0 87 183 0 87 183 0 87 183 0 87 183 0 87 183 0 87 183 0 87 183 0 87 183 0 87 183 0 87 183 0 87 183 0 87 183 0 87 183 0 87 183 0 87 183 0 87 183 
0 87 183 0 87 183 0 87 183 0 87 183 0 87 183 0 87 183 0 87 183 0 87 183 0 87 183 0 87 183 0 87 183 0 87 183 0 87 183 0 87 183 0 87 183 0 87 183 0 87 183 0 87 183 0 87 183 0 87 183 0 87 183 0 87 183 0 87 183 0 87 183 0 87 183 0 87 183 0 87 183 0 87 183 0 87 183 0 87 183 0 87 183 0 87 183 0 87 183 0 87 183 0 87 183 0 87 183 0 87 183 0 87 183 0 87 183 0 87 183 0 87 183 0 87 183 0 87 183 0 87 183 0 87 183 0 87 183 0 87 183 0 87 183 0 87 183 0 87 183 0 87 183 0 87 183 0 87 183 0 87 183 0 87 183 0 87 183 0 87 183 0 87 183 0 87 183 0 87 183 0 87 183 0 87 183 0 87 183 0 87 183 0 87 183 0 87 183 0 87 183 0 87 183 0 87 183 0 87 183 0 87 183 0 87 183 0 87 183 0 87 183 0 87 183 0 87 183 0 87 183 0 87 183 0 87 183 0 87 183 0 87 183 0 87 183 0 87 183 0 87 183 0 87 183 0 87 183 0 87 183 0 87 183 0 87 183 0 87 183 0 87 183 0 87 183 0 87 183 0 87 183 0 87 183 0 87 183 0 87 183 0 87 183 0 87 183 0 87 183 0 87 183 0 87 183 0 87 183 0 87 183 0 87 183 0 87 183 0 87 183 0 87 183 0 87 183 0 87 183 0 87 183 0 87 183 0 87 183 0 87 183 0 87 183 0 87 183 0 87 183 0 87 183 0 87 183 0 87 183 0 87 183 0 87 183 0 87 183 0 87 183 0 87 183 0 87 183 0 87 183 0 87 183 0 87 183 0 87 183 0 87 183 0 87 183 0 87 183 0 87 183 0 87 183 0 87 183 0 87 183 0 87 183 0 87 183 0 87 183 0 87 183 0 87 183 0 87 183 0 87 183 0 87 183 0 87 183 0 87 183 0 87 183 0 87 183 0 87 183 0 87 183 0 87 183 0 87 183 0 87 183 0 87 183 0 87 183 0 87 183 0 87 183 0 87 183 0 87 183 0 87 183 0 87 183 0 87 183 0 87 183 0 87 183 0 87 183 0 87 183 0 87 183 0 87 183 0 87 183 0 87 183 0 87 183 0 87 183 0 87 183 0 87 183 0 87 183 0 87 183 0 87 183 0 87 183 0 87 183 0 87 183 0 87 183 0 87 183 0 87 183 0 87 183 0 87 183 0 87 183 0 87 183 0 87 183 0 87 183 0 87 183 0 87 183 0 87 183 0 87 183 0 87 183 0 87 183 0 87 183 0 87 183 0 87 183 0 87 183 0 87 183 0 87 183 0 87 183 0 87 183 0 87 183 0 87 183 0 87 183 0 87 183 0 87 183 0 87 183 0 87 183 0 87 183 0 87 183 0 87 183 0 87 183 0 87 183 0 87 183 0 87 183 0 87 183 0 87 183 0 87 183 0 87 183 0 87 183 0 87 183 0 87 183 0 87 183 0 87 183 0 87 183 0 87 183 0 87 183 0 87 183 0 87 183 0 87 183 0 87 183 0 87 183 0 87 183 0 87 183 0 87 183 0 87 183 0 87 183 0 87 183 0 87 183 0 87 183 0 87 183 0 87 183 0 87 183 0 87 183 0 87 183 0 87 183 0 87 183 0 87 183 0 87 183 0 87 183 0 87 183 0 87 183 0 87 183 0 87 183 0 87 183 0 87 183 0 87 183 0 87 183 0 87 183 0 87 183 0 87 183 0 87 183 0 87 183 0 87 183 0 87 183 0 87 183 0 87 183 0 87 183 0 87 183 0 87 183 0 87 183 0 87 183 0 87 183 0 87 183 0 87 183 0 87 183 0 87 183 0 87 183 0 87 183 0 87 183 0 87 183 0 87 183 0 87 183 0 87 183 0 87 183 0 87 183 0 87 183 0 87 183 0 87 183 0 87 183 0 87 183 0 87 183 0 87 183 0 87 183 0 87 183 0 87 183 0 87 183 
0 87 183 0 87 183 0 87 183 0 87 183 0 87 183 0 87 183 0 87 183 0 87 183 0 87 183 0 87 183 0 87 183 0 87 183 0 87 183 0 87 183 0 87 183 0 87 183 0 87 183 0 87 183 0 87 183 0 87 183 0 87 183 0 87 183 0 87 183 0 87 183 0 87 183 0 87 183 0 87 183 0 87 183 0 87 183 0 87 183 0 87 183 0 87 183 0 87 183 0 87 183 0 87 183 0 87 183 0 87 183 0 87 183 0 87 183 0 87 183 0 87 183 0 87 183 0 87 183 0 87 183 0 87 183 0 87 183 0 87 183 0 87 183 0 87 183 0 87 183 0 87 183 0 87 183 0 87 183 0 87 183 0 87 183 0 87 183 0 87 183 0 87 183 0 87 183 0 87 183 0 87 183 0 87 183 0 87 183 0 87 183 0 87 183 0 87 183 0 87 183 0 87 183 0 87 183 0 87 183 0 87 183 0 87 183 0 87 183 0 87 183 0 87 183 0 87 183 0 87 183 0 87 183 0 87 183 0 87 183 0 87 183 0 87 183 0 87 183 0 87 183 0 87 183 0 87 183 0 87 183 0 87 183 0 87 183 0 87 183 0 87 183 0 87 183 0 87 183 0 87 183 0 87 183 0 87 183 0 87 183 0 87 183 0 87 183 0 87 183 0 87 183 0 87 183 0 87 183 0 87 183 0 87 183 0 87 183 0 87 183 0 87 183 0 87 183 0 87 183 0 87 183 0 87 183 0 87 183 0 87 183 0 87 183 0 87 183 0 87 183 0 87 183 0 87 183 0 87 183 0 87 183 0 87 183 0 87 183 0 87 183 0 87 183 0 87 183 0 87 183 0 87 183 0 87 183 0 87 183 0 87 183 0 87 183 0 87 183 0 87 183 0 87 183 0 87 183 0 87 183 0 87 183 0 87 183 0 87 183 0 87 183 0 87 183 0 87 183 0 87 183 0 87 183 0 87 183 0 87 183 0 87 183 0 87 183 0 87 183 0 87 183 0 87 183 0 87 183 0 87 183 0 87 183 0 87 183 0 87 183 0 87 183 0 87 183 0 87 183 0 87 183 0 87 183 0 87 183 0 87 183 0 87 183 0 87 183 0 87 183 0 87 183 0 87 183 0 87 183 0 87 183 0 87 183 0 87 183 0 87 183 0 87 183 0 87 183 0 87 183 0 87 183 0 87 183 0 87 183 0 87 183 0 87 183 0 87 183 0 87 183 0 87 183 0 87 183 0 87 183 0 87 183 0 87 183 0 87 183 0 87 183 0 87 183 0 87 183 0 87 183 0 87 183 0 87 183 0 87 183 0 87 183 0 87 183 0 87 183 0 87 183 0 87 183 0 87 183 0 87 183 0 87 183 0 87 183 0 87 183 0 87 183 0 87 183 0 87 183 0 87 183 0 87 183 0 87 183 0 87 183 0 87 183 0 87 183 0 87 183 0 87 183 0 87 183 0 87 183 0 87 183 0 87 183 0 87 183 0 87 183 0 87 183 0 87 183 0 87 183 0 87 183 0 87 183 0 87 183 0 87 183 0 87 183 0 87 183 0 87 183 0 87 183 0 87 183 0 87 183 0 87 183 0 87 183 0 87 183 0 87 183 0 87 183 0 87 183 0 87 183 0 87 183 0 87 183 0 87 183 0 87 183 0 87 183 0 87 183 0 87 183 0 87 183 0 87 183 0 87 183 0 87 183 0 87 183 0 87 183 0 87 183 0 87 183 0 87 183 0 87 183 0 87 183 0 87 183 0 87 183 0 87 183 0 87 183 0 87 183 0 87 183 0 87 183 0 87 183 0 87 183 0 87 183 0 87 183 0 87 183 0 87 183 0 87 183 0 87 183 0 87 183 0 87 183 0 87 183 0 87 183 0 87 183 0 87 183 0 87 183 0 87 183 0 87 183 0 87 183 0 87 183 0 87 183 0 87 183 0 87 183 0 87 183 0 87 183 0 87 183 0 87 183 0 87 183 0 87 183 0 87 183 0 87 183 0 87 183 
0 87 183 0 87 183 0 87 183 0 87 183 0 87 183 0 87 183 0 87 183 0 87 183 0 87 183 0 87 183 0 87 183 0 87 183 0 87 183 0 87 183 0 87 183 0 87 183 0 87 183 0 87 183 0 87 183 0 87 183 0 87 183 0 87 183 0 87 183 0 87 183 0 87 183 0 87 183 0 87 183 0 87 183 0 87 183 0 87 183 0 87 183 0 87 183 0 87 183 0 87 183 0 87 183 0 87 183 0 87 183 0 87 183 0 87 183 0 87 183 0 87 183 0 87 183 0 87 183 0 87 183 0 87 183 0 87 183 0 87 183 0 87 183 0 87 183 0 87 183 0 87 183 0 87 183 0 87 183 0 87 183 0 87 183 0 87 183 0 87 183 0 87 183 0 87 183 0 87 183 0 87 183 0 87 183 0 87 183 0 87 183 0 87 183 0 87 183 0 87 183 0 87 183 0 87 183 0 87 183 0 87 183 0 87 183 0 87 183 0 87 183 0 87 183 0 87 183 0 87 183 0 87 183 0 87 183 0 87 183 0 87 183 0 87 183 0 87 183 0 87 183 0 87 183 0 87 183 0 87 183 0 87 183 0 87 183 0 87 183 0 87 183 0 87 183 0 87 183 0 87 183 0 87 183 0 87 183 0 87 183 0 87 183 0 87 183 0 87 183 0 87 183 0 87 183 0 87 183 0 87 183 0 87 183 0 87 183 0 87 183 0 87 183 0 87 183 0 87 183 0 87 183 0 87 183 0 87 183 0 87 183 0 87 183 0 87 183 0 87 183 0 87 183 0 87 183 0 87 183 0 87 183 0 87 183 0 87 183 0 87 183 0 87 183 0 87 183 0 87 183 0 87 183 0 87 183 0 87 183 0 87 183 0 87 183 0 87 183 0 87 183 0 87 183 0 87 183 0 87 183 0 87 183 0 87 183 0 87 183 0 87 183 0 87 183 0 87 183 0 87 183 0 87 183 0 87 183 0 87 183 0 87 183 0 87 183 0 87 183 0 87 183 0 87 183 0 87 183 0 87 183 0 87 183 0 87 183 0 87 183 0 87 183 0 87 183 0 87 183 0 87 183 0 87 183 0 87 183 0 87 183 0 87 183 0 87 183 0 87 183 0 87 183 0 87 183 0 87 183 0 87 183 0 87 183 0 87 183 0 87 183 0 87 183 0 87 183 0 87 183 0 87 183 0 87 183 0 87 183 0 87 183 0 87 183 0 87 183 0 87 183 0 87 183 0 87 183 0 87 183 0 87 183 0 87 183 0 87 183 0 87 183 0 87 183 0 87 183 0 87 183 0 87 183 0 87 183 0 87 183 0 87 183 0 87 183 0 87 183 0 87 183 0 87 183 0 87 183 0 87 183 0 87 183 0 87 183 0 87 183 0 87 183 0 87 183 0 87 183 0 87 183 0 87 183 0 87 183 0 87 183 0 87 183 0 87 183 0 87 183 0 87 183 0 87 183 0 87 183 0 87 183 0 87 183 0 87 183 0 87 183 0 87 183 0 87 183 0 87 183 0 87 183 0 87 183 0 87 183 0 87 183 0 87 183 0 87 183 0 87 183 0 87 183 0 87 183 0 87 183 0 87 183 0 87 183 0 87 183 0 87 183 0 87 183 0 87 183 0 87 183 0 87 183 0 87 183 0 87 183 0 87 183 0 87 183 0 87 183 0 87 183 0 87 183 0 87 183 0 87 183 0 87 183 0 87 183 0 87 183 0 87 183 0 87 183 0 87 183 0 87 183 0 87 183 0 87 183 0 87 183 0 87 183 0 87 183 0 87 183 0 87 183 0 87 183 0 87 183 0 87 183 0 87 183 0 87 183 0 87 183 0 87 183 0 87 183 0 87 183 0 87 183 0 87 183 0 87 183 0 87 183 0 87 183 0 87 183 0 87 183 0 87 183 0 87 183 0 87 183 0 87 183 0 87 183 0 87 183 0 87 183 0 87 183 0 87 183 0 87 183 0 87 183 0 87 183 0 87 183 0 87 183 0 87 183 0 87 183 
0 87 183 0 87 183 0 87 183 0 87 183 0 87 183 0 87 183 0 87 183 0 87 183 0 87 183 0 87 183 0 87 183 0 87 183 0 87 183 0 87 183 0 87 183 0 87 183 0 87 183 0 87 183 0 87 183 0 87 183 0 87 183 0 87 183 0 87 183 0 87 183 0 87 183 0 87 183 0 87 183 0 87 183 0 87 183 0 87 183 0 87 183 0 87 183 0 87 183 0 87 183 0 87 183 0 87 183 0 87 183 0 87 183 0 87 183 0 87 183 0 87 183 0 87 183 0 87 183 0 87 183 0 87 183 0 87 183 0 87 183 0 87 183 0 87 183 0 87 183 0 87 183 0 87 183 0 87 183 0 87 183 0 87 183 0 87 183 0 87 183 0 87 183 0 87 183 0 87 183 0 87 183 0 87 183 0 87 183 0 87 183 0 87 183 0 87 183 0 87 183 0 87 183 0 87 183 0 87 183 0 87 183 0 87 183 0 87 183 0 87 183 0 87 183 0 87 183 0 87 183 0 87 183 0 87 183 0 87 183 0 87 183 0 87 183 0 87 183 0 87 183 0 87 183 0 87 183 0 87 183 0 87 183 0 87 183 0 87 183 0 87 183 0 87 183 0 87 183 0 87 183 0 87 183 0 87 183 0 87 183 0 87 183 0 87 183 0 87 183 0 87 183 0 87 183 0 87 183 0 87 183 0 87 183 0 87 183 0 87 183 0 87 183 0 87 183 0 87 183 0 87 183 0 87 183 0 87 183 0 87 183 0 87 183 0 87 183 0 87 183 0 87 183 0 87 183 0 87 183 0 87 183 0 87 183 0 87 183 0 87 183 0 87 183 0 87 183 0 87 183 0 87 183 0 87 183 0 87 183 0 87 183 0 87 183 0 87 183 0 87 183 0 87 183 0 87 183 0 87 183 0 87 183 0 87 183 0 87 183 0 87 183 0 87 183 0 87 183 0 87 183 0 87 183 0 87 183 0 87 183 0 87 183 0 87 183 0 87 183 0 87 183 0 87 183 0 87 183 0 87 183 0 87 183 0 87 183 0 87 183 0 87 183 0 87 183 0 87 183 0 87 183 0 87 183 0 87 183 0 87 183 0 87 183 0 87 183 0 87 183 0 87 183 0 87 183 0 87 183 0 87 183 0 87 183 0 87 183 0 87 183 0 87 183 0 87 183 0 87 183 0 87 183 0 87 183 0 87 183 0 87 183 0 87 183 0 87 183 0 87 183 0 87 183 0 87 183 0 87 183 0 87 183 0 87 183 0 87 183 0 87 183 0 87 183 0 87 183 0 87 183 0 87 183 0 87 183 0 87 183 0 87 183 0 87 183 0 87 183 0 87 183 0 87 183 0 87 183 0 87 183 0 87 183 0 87 183 0 87 183 0 87 183 0 87 183 0 87 183 0 87 183 0 87 183 0 87 183 0 87 183 0 87 183 0 87 183 0 87 183 0 87 183 0 87 183 0 87 183 0 87 183 0 87 183 0 87 183 0 87 183 0 87 183 0 87 183 0 87 183 0 87 183 0 87 183 0 87 183 0 87 183 0 87 183 0 87 183 0 87 183 0 87 183 0 87 183 0 87 183 0 87 183 0 87 183 0 87 183 0 87 183 0 87 183 0 87 183 0 87 183 0 87 183 0 87 183 0 87 183 0 87 183 0 87 183 0 87 183 0 87 183 0 87 183 0 87 183 0 87 183 0 87 183 0 87 183 0 87 183 0 87 183 0 87 183 0 87 183 0 87 183 0 87 183 0 87 183 0 87 183 0 87 183 0 87 183 0 87 183 0 87 183 0 87 183 0 87 183 0 87 183 0 87 183 0 87 183 0 87 183 0 87 183 0 87 183 0 87 183 0 87 183 0 87 183 0 87 183 0 87 183 0 87 183 0 87 183 0 87 183 0 87 183 0 87 183 0 87 183 0 87 183 0 87 183 0 87 183 0 87 183 0 87 183 0 87 183 0 87 183 0 87 183 0 87 183 0 87 183 0 87 183 0 87 183 0 87 183 
0 87 183 0 87 183 0 87 183 0 87 183 0 87 183 0 87 183 0 87 183 0 87 183 0 87 183 0 87 183 0 87 183 0 87 183 0 87 183 0 87 183 0 87 183 0 87 183 0 87 183 0 87 183 0 87 183 0 87 183 0 87 183 0 87 183 0 87 183 0 87 183 0 87 183 0 87 183 0 87 183 0 87 183 0 87 183 0 87 183 0 87 183 0 87 183 0 87 183 0 87 183 0 87 183 0 87 183 0 87 183 0 87 183 0 87 183 0 87 183 0 87 183 0 87 183 0 87 183 0 87 183 0 87 183 0 87 183 0 87 183 0 87 183 0 87 183 0 87 183 0 87 183 0 87 183 0 87 183 0 87 183 0 87 183 0 87 183 0 87 183 0 87 183 0 87 183 0 87 183 0 87 183 0 87 183 0 87 183 0 87 183 0 87 183 0 87 183 0 87 183 0 87 183 0 87 183 0 87 183 0 87 183 0 87 183 0 87 183 0 87 183 0 87 183 0 87 183 0 87 183 0 87 183 0 87 183 0 87 183 0 87 183 0 87 183 0 87 183 0 87 183 0 87 183 0 87 183 0 87 183 0 87 183 0 87 183 0 87 183 0 87 183 0 87 183 0 87 183 0 87 183 0 87 183 0 87 183 0 87 183 0 87 183 0 87 183 0 87 183 0 87 183 0 87 183 0 87 183 0 87 183 0 87 183 0 87 183 0 87 183 0 87 183 0 87 183 0 87 183 0 87 183 0 87 183 0 87 183 0 87 183 0 87 183 0 87 183 0 87 183 0 87 183 0 87 183 0 87 183 0 87 183 0 87 183 0 87 183 0 87 183 0 87 183 0 87 183 0 87 183 0 87 183 0 87 183 0 87 183 0 87 183 0 87 183 0 87 183 0 87 183 0 87 183 0 87 183 0 87 183 0 87 183 0 87 183 0 87 183 0 87 183 0 87 183 0 87 183 0 87 183 0 87 183 0 87 183 0 87 183 0 87 183 0 87 183 0 87 183 0 87 183 0 87 183 0 87 183 0 87 183 0 87 183 0 87 183 0 87 183 0 87 183 0 87 183 0 87 183 0 87 183 0 87 183 0 87 183 0 87 183 0 87 183 0 87 183 0 87 183 0 87 183 0 87 183 0 87 183 0 87 183 0 87 183 0 87 183 0 87 183 0 87 183 0 87 183 0 87 183 0 87 183 0 87 183 0 87 183 0 87 183 0 87 183 0 87 183 0 87 183 0 87 183 0 87 183 0 87 183 0 87 183 0 87 183 0 87 183 0 87 183 0 87 183 0 87 183 0 87 183 0 87 183 0 87 183 0 87 183 0 87 183 0 87 183 0 87 183 0 87 183 0 87 183 0 87 183 0 87 183 0 87 183 0 87 183 0 87 183 0 87 183 0 87 183 0 87 183 0 87 183 0 87 183 0 87 183 0 87 183 0 87 183 0 87 183 0 87 183 0 87 183 0 87 183 0 87 183 0 87 183 0 87 183 0 87 183 0 87 183 0 87 183 0 87 183 0 87 183 0 87 183 0 87 183 0 87 183 0 87 183 0 87 183 0 87 183 0 87 183 0 87 183 0 87 183 0 87 183 0 87 183 0 87 183 0 87 183 0 87 183 0 87 183 0 87 183 0 87 183 0 87 183 0 87 183 0 87 183 0 87 183 0 87 183 0 87 183 0 87 183 0 87 183 0 87 183 0 87 183 0 87 183 0 87 183 0 87 183 0 87 183 0 87 183 0 87 183 0 87 183 0 87 183 0 87 183 0 87 183 0 87 183 0 87 183 0 87 183 0 87 183 0 87 183 0 87 183 0 87 183 0 87 183 0 87 183 0 87 183 0 87 183 0 87 183 0 87 183 0 87 183 0 87 183 0 87 183 0 87 183 0 87 183 0 87 183 0 87 183 0 87 183 0 87 183 0 87 183 0 87 183 0 87 183 0 87 183 0 87 183 0 87 183 0 87 183 0 87 183 0 87 183 0 87 183 0 87 183 0 87 183 0 87 183 0 87 183 
0 87 183 0 87 183 0 87 183 0 87 183 0 87 183 0 87 183 0 87 183 0 87 183 0 87 183 0 87 183 0 87 183 0 87 183 0 87 183 0 87 183 0 87 183 0 87 183 0 87 183 0 87 183 0 87 183 0 87 183 0 87 183 0 87 183 0 87 183 0 87 183 0 87 183 0 87 183 0 87 183 0 87 183 0 87 183 0 87 183 0 87 183 0 87 183 0 87 183 0 87 183 0 87 183 0 87 183 0 87 183 0 87 183 0 87 183 0 87 183 0 87 183 0 87 183 0 87 183 0 87 183 0 87 183 0 87 183 0 87 183 0 87 183 0 87 183 0 87 183 0 87 183 0 87 183 0 87 183 0 87 183 0 87 183 0 87 183 0 87 183 0 87 183 0 87 183 0 87 183 0 87 183 0 87 183 0 87 183 0 87 183 0 87 183 0 87 183 0 87 183 0 87 183 0 87 183 0 87 183 0 87 183 0 87 183 0 87 183 0 87 183 0 87 183 0 87 183 0 87 183 0 87 183 0 87 183 0 87 183 0 87 183 0 87 183 0 87 183 0 87 183 0 87 183 0 87 183 0 87 183 0 87 183 0 87 183 0 87 183 0 87 183 0 87 183 0 87 183 0 87 183 0 87 183 0 87 183 0 87 183 0 87 183 0 87 183 0 87 183 0 87 183 0 87 183 0 87 183 0 87 183 0 87 183 0 87 183 0 87 183 0 87 183 0 87 183 0 87 183 0 87 183 0 87 183 0 87 183 0 87 183 0 87 183 0 87 183 0 87 183 0 87 183 0 87 183 0 87 183 0 87 183 0 87 183 0 87 183 0 87 183 0 87 183 0 87 183 0 87 183 0 87 183 0 87 183 0 87 183 0 87 183 0 87 183 0 87 183 0 87 183 0 87 183 0 87 183 0 87 183 0 87 183 0 87 183 0 87 183 0 87 183 0 87 183 0 87 183 0 87 183 0 87 183 0 87 183 0 87 183 0 87 183 0 87 183 0 87 183 0 87 183 0 87 183 0 87 183 0 87 183 0 87 183 0 87 183 0 87 183 0 87 183 0 87 183 0 87 183 0 87 183 0 87 183 0 87 183 0 87 183 0 87 183 0 87 183 0 87 183 0 87 183 0 87 183 0 87 183 0 87 183 0 87 183 0 87 183 0 87 183 0 87 183 0 87 183 0 87 183 0 87 183 0 87 183 0 87 183 0 87 183 0 87 183 0 87 183 0 87 183 0 87 183 0 87 183 0 87 183 0 87 183 0 87 183 0 87 183 0 87 183 0 87 183 0 87 183 0 87 183 0 87 183 0 87 183 0 87 183 0 87 183 0 87 183 0 87 183 0 87 183 0 87 183 0 87 183 0 87 183 0 87 183 0 87 183 0 87 183 0 87 183 0 87 183 0 87 183 0 87 183 0 87 183 0 87 183 0 87 183 0 87 183 0 87 183 0 87 183 0 87 183 0 87 183 0 87 183 0 87 183 0 87 183 0 87 183 0 87 183 0 87 183 0 87 183 0 87 183 0 87 183 0 87 183 0 87 183 0 87 183 0 87 183 0 87 183 0 87 183 0 87 183 0 87 183 0 87 183 0 87 183 0 87 183 0 87 183 0 87 183 0 87 183 0 87 183 0 87 183 0 87 183 0 87 183 0 87 183 0 87 183 0 87 183 0 87 183 0 87 183 0 87 183 0 87 183 0 87 183 0 87 183 0 87 183 0 87 183 0 87 183 0 87 183 0 87 183 0 87 183 0 87 183 0 87 183 0 87 183 0 87 183 0 87 183 0 87 183 0 87 183 0 87 183 0 87 183 0 87 183 0 87 183 0 87 183 0 87 183 0 87 183 0 87 183 0 87 183 0 87 183 0 87 183 0 87 183 0 87 183 0 87 183 0 87 183 0 87 183 0 87 183 0 87 183 0 87 183 0 87 183 0 87 183 0 87 183 0 87 183 0 87 183 0 87 183 0 87 183 0 87 183 0 87 183 0 87 183 0 87 183 0 87 183 0 87 183 
0 87 183 0 87 183 0 87 183 0 87 183 0 87 183 0 87 183 0 87 183 0 87 183 0 87 183 0 87 183 0 87 183 0 87 183 0 87 183 0 87 183 0 87 183 0 87 183 0 87 183 0 87 183 0 87 183 0 87 183 0 87 183 0 87 183 0 87 183 0 87 183 0 87 183 0 87 183 0 87 183 0 87 183 0 87 183 0 87 183 0 87 183 0 87 183 0 87 183 0 87 183 0 87 183 0 87 183 0 87 183 0 87 183 0 87 183 0 87 183 0 87 183 0 87 183 0 87 183 0 87 183 0 87 183 0 87 183 0 87 183 0 87 183 0 87 183 0 87 183 0 87 183 0 87 183 0 87 183 0 87 183 0 87 183 0 87 183 0 87 183 0 87 183 0 87 183 0 87 183 0 87 183 0 87 183 0 87 183 0 87 183 0 87 183 0 87 183 0 87 183 0 87 183 0 87 183 0 87 183 0 87 183 0 87 183 0 87 183 0 87 183 0 87 183 0 87 183 0 87 183 0 87 183 0 87 183 0 87 183 0 87 183 0 87 183 0 87 183 0 87 183 0 87 183 0 87 183 0 87 183 0 87 183 0 87 183 0 87 183 0 87 183 0 87 183 0 87 183 0 87 183 0 87 183 0 87 183 0 87 183 0 87 183 0 87 183 0 87 183 0 87 183 0 87 183 0 87 183 0 87 183 0 87 183 0 87 183 0 87 183 0 87 183 0 87 183 0 87 183 0 87 183 0 87 183 0 87 183 0 87 183 0 87 183 0 87 183 0 87 183 0 87 183 0 87 183 0 87 183 0 87 183 0 87 183 0 87 183 0 87 183 0 87 183 0 87 183 0 87 183 0 87 183 0 87 183 0 87 183 0 87 183 0 87 183 0 87 183 0 87 183 0 87 183 0 87 183 0 87 183 0 87 183 0 87 183 0 87 183 0 87 183 0 87 183 0 87 183 0 87 183 0 87 183 0 87 183 0 87 183 0 87 183 0 87 183 0 87 183 0 87 183 0 87 183 0 87 183 0 87 183 0 87 183 0 87 183 0 87 183 0 87 183 0 87 183 0 87 183 0 87 183 0 87 183 0 87 183 0 87 183 0 87 183 0 87 183 0 87 183 0 87 183 0 87 183 0 87 183 0 87 183 0 87 183 0 87 183 0 87 183 0 87 183 0 87 183 0 87 183 0 87 183 0 87 183 0 87 183 0 87 183 0 87 183 0 87 183 0 87 183 0 87 183 0 87 183 0 87 183 0 87 183 0 87 183 0 87 183 0 87 183 0 87 183 0 87 183 0 87 183 0 87 183 0 87 183 0 87 183 0 87 183 0 87 183 0 87 183 0 87 183 0 87 183 0 87 183 0 87 183 0 87 183 0 87 183 0 87 183 0 87 183 0 87 183 0 87 183 0 87 183 0 87 183 0 87 183 0 87 183 0 87 183 0 87 183 0 87 183 0 87 183 0 87 183 0 87 183 0 87 183 0 87 183 0 87 183 0 87 183 0 87 183 0 87 183 0 87 183 0 87 183 0 87 183 0 87 183 0 87 183 0 87 183 0 87 183 0 87 183 0 87 183 0 87 183 0 87 183 0 87 183 0 87 183 0 87 183 0 87 183 0 87 183 0 87 183 0 87 183 0 87 183 0 87 183 0 87 183 0 87 183 0 87 183 0 87 183 0 87 183 0 87 183 0 87 183 0 87 183 0 87 183 0 87 183 0 87 183 0 87 183 0 87 183 0 87 183 0 87 183 0 87 183 0 87 183 0 87 183 0 87 183 0 87 183 0 87 183 0 87 183 0 87 183 0 87 183 0 87 183 0 87 183 0 87 183 0 87 183 0 87 183 0 87 183 0 87 183 0 87 183 0 87 183 0 87 183 0 87 183 0 87 183 0 87 183 0 87 183 0 87 183 0 87 183 0 87 183 0 87 183 0 87 183 0 87 183 0 87 183 0 87 183 0 87 183 0 87 183 0 87 183 0 87 183 0 87 183 0 87 183 0 87 183 0 87 183 
0 87 183 0 87 183 0 87 183 0 87 183 0 87 183 0 87 183 0 87 183 0 87 183 0 87 183 0 87 183 0 87 183 0 87 183 0 87 183 0 87 183 0 87 183 0 87 183 0 87 183 0 87 183 0 87 183 0 87 183 0 87 183 0 87 183 0 87 183 0 87 183 0 87 183 0 87 183 0 87 183 0 87 183 0 87 183 0 87 183 0 87 183 0 87 183 0 87 183 0 87 183 0 87 183 0 87 183 0 87 183 0 87 183 0 87 183 0 87 183 0 87 183 0 87 183 0 87 183 0 87 183 0 87 183 0 87 183 0 87 183 0 87 183 0 87 183 0 87 183 0 87 183 0 87 183 0 87 183 0 87 183 0 87 183 0 87 183 0 87 183 0 87 183 0 87 183 0 87 183 0 87 183 0 87 183 0 87 183 0 87 183 0 87 183 0 87 183 0 87 183 0 87 183 0 87 183 0 87 183 0 87 183 0 87 183 0 87 183 0 87 183 0 87 183 0 87 183 0 87 183 0 87 183 0 87 183 0 87 183 0 87 183 0 87 183 0 87 183 0 87 183 0 87 183 0 87 183 0 87 183 0 87 183 0 87 183 0 87 183 0 87 183 0 87 183 0 87 183 0 87 183 0 87 183 0 87 183 0 87 183 0 87 183 0 87 183 0 87 183 0 87 183 0 87 183 0 87 183 0 87 183 0 87 183 0 87 183 0 87 183 0 87 183 0 87 183 0 87 183 0 87 183 0 87 183 0 87 183 0 87 183 0 87 183 0 87 183 0 87 183 0 87 183 0 87 183 0 87 183 0 87 183 0 87 183 0 87 183 0 87 183 0 87 183 0 87 183 0 87 183 0 87 183 0 87 183 0 87 183 0 87 183 0 87 183 0 87 183 0 87 183 0 87 183 0 87 183 0 87 183 0 87 183 0 87 183 0 87 183 0 87 183 0 87 183 0 87 183 0 87 183 0 87 183 0 87 183 0 87 183 0 87 183 0 87 183 0 87 183 0 87 183 0 87 183 0 87 183 0 87 183 0 87 183 0 87 183 0 87 183 0 87 183 0 87 183 0 87 183 0 87 183 0 87 183 0 87 183 0 87 183 0 87 183 0 87 183 0 87 183 0 87 183 0 87 183 0 87 183 0 87 183 0 87 183 0 87 183 0 87 183 0 87 183 0 87 183 0 87 183 0 87 183 0 87 183 0 87 183 0 87 183 0 87 183 0 87 183 0 87 183 0 87 183 0 87 183 0 87 183 0 87 183 0 87 183 0 87 183 0 87 183 0 87 183 0 87 183 0 87 183 0 87 183 0 87 183 0 87 183 0 87 183 0 87 183 0 87 183 0 87 183 0 87 183 0 87 183 0 87 183 0 87 183 0 87 183 0 87 183 0 87 183 0 87 183 0 87 183 0 87 183 0 87 183 0 87 183 0 87 183 0 87 183 0 87 183 0 87 183 0 87 183 0 87 183 0 87 183 0 87 183 0 87 183 0 87 183 0 87 183 0 87 183 0 87 183 0 87 183 0 87 183 0 87 183 0 87 183 0 87 183 0 87 183 0 87 183 0 87 183 0 87 183 0 87 183 0 87 183 0 87 183 0 87 183 0 87 183 0 87 183 0 87 183 0 87 183 0 87 183 0 87 183 0 87 183 0 87 183 0 87 183 0 87 183 0 87 183 0 87 183 0 87 183 0 87 183 0 87 183 0 87 183 0 87 183 0 87 183 0 87 183 0 87 183 0 87 183 0 87 183 0 87 183 0 87 183 0 87 183 0 87 183 0 87 183 0 87 183 0 87 183 0 87 183 0 87 183 0 87 183 0 87 183 0 87 183 0 87 183 0 87 183 0 87 183 0 87 183 0 87 183 0 87 183 0 87 183 0 87 183 0 87 183 0 87 183 0 87 183 0 87 183 0 87 183 0 87 183 0 87 183 0 87 183 0 87 183 0 87 183 0 87 183 0 87 183 0 87 183 0 87 183 0 87 183 0 87 183 0 87 183 0 87 183 0 87 183 
0 87 183 0 87 183 0 87 183 0 87 183 0 87 183 0 87 183 0 87 183 0 87 183 0 87 183 0 87 183 0 87 183 0 87 183 0 87 183 0 87 183 0 87 183 0 87 183 0 87 183 0 87 183 0 87 183 0 87 183 0 87 183 0 87 183 0 87 183 0 87 183 0 87 183 0 87 183 0 87 183 0 87 183 0 87 183 0 87 183 0 87 183 0 87 183 0 87 183 0 87 183 0 87 183 0 87 183 0 87 183 0 87 183 0 87 183 0 87 183 0 87 183 0 87 183 0 87 183 0 87 183 0 87 183 0 87 183 0 87 183 0 87 183 0 87 183 0 87 183 0 87 183 0 87 183 0 87 183 0 87 183 0 87 183 0 87 183 0 87 183 0 87 183 0 87 183 0 87 183 0 87 183 0 87 183 0 87 183 0 87 183 0 87 183 0 87 183 0 87 183 0 87 183 0 87 183 0 87 183 0 87 183 0 87 183 0 87 183 0 87 183 0 87 183 0 87 183 0 87 183 0 87 183 0 87 183 0 87 183 0 87 183 0 87 183 0 87 183 0 87 183 0 87 183 0 87 183 0 87 183 0 87 183 0 87 183 0 87 183 0 87 183 0 87 183 0 87 183 0 87 183 0 87 183 0 87 183 0 87 183 0 87 183 0 87 183 0 87 183 0 87 183 0 87 183 0 87 183 0 87 183 0 87 183 0 87 183 0 87 183 0 87 183 0 87 183 0 87 183 0 87 183 0 87 183 0 87 183 0 87 183 0 87 183 0 87 183 0 87 183 0 87 183 0 87 183 0 87 183 0 87 183 0 87 183 0 87 183 0 87 183 0 87 183 0 87 183 0 87 183 0 87 183 0 87 183 0 87 183 0 87 183 0 87 183 0 87 183 0 87 183 0 87 183 0 87 183 0 87 183 0 87 183 0 87 183 0 87 183 0 87 183 0 87 183 0 87 183 0 87 183 0 87 183 0 87 183 0 87 183 0 87 183 0 87 183 0 87 183 0 87 183 0 87 183 0 87 183 0 87 183 0 87 183 0 87 183 0 87 183 0 87 183 0 87 183 0 87 183 0 87 183 0 87 183 0 87 183 0 87 183 0 87 183 0 87 183 0 87 183 0 87 183 0 87 183 0 87 183 0 87 183 0 87 183 0 87 183 0 87 183 0 87 183 0 87 183 0 87 183 0 87 183 0 87 183 0 87 183 0 87 183 0 87 183 0 87 183 0 87 183 0 87 183 0 87 183 0 87 183 0 87 183 0 87 183 0 87 183 0 87 183 0 87 183 0 87 183 0 87 183 0 87 183 0 87 183 0 87 183 0 87 183 0 87 183 0 87 183 0 87 183 0 87 183 0 87 183 0 87 183 0 87 183 0 87 183 0 87 183 0 87 183 0 87 183 0 87 183 0 87 183 0 87 183 0 87 183 0 87 183 0 87 183 0 87 183 0 87 183 0 87 183 0 87 183 0 87 183 0 87 183 0 87 183 0 87 183 0 87 183 0 87 183 0 87 183 0 87 183 0 87 183 0 87 183 0 87 183 0 87 183 0 87 183 0 87 183 0 87 183 0 87 183 0 87 183 0 87 183 0 87 183 0 87 183 0 87 183 0 87 183 0 87 183 0 87 183 0 87 183 0 87 183 0 87 183 0 87 183 0 87 183 0 87 183 0 87 183 0 87 183 0 87 183 0 87 183 0 87 183 0 87 183 0 87 183 0 87 183 0 87 183 0 87 183 0 87 183 0 87 183 0 87 183 0 87 183 0 87 183 0 87 183 0 87 183 0 87 183 0 87 183 0 87 183 0 87 183 0 87 183 0 87 183 0 87 183 0 87 183 0 87 183 0 87 183 0 87 183 0 87 183 0 87 183 0 87 183 0 87 183 0 87 183 0 87 183 0 87 183 0 87 183 0 87 183 0 87 183 0 87 183 0 87 183 0 87 183 0 87 183 0 87 183 0 87 183 0 87 183 0 87 183 0 87 183 0 87 183 0 87 183 0 87 183 0 87 183 
0 87 183 0 87 183 0 87 183 0 87 183 0 87 183 0 87 183 0 87 183 0 87 183 0 87 183 0 87 183 0 87 183 0 87 183 0 87 183 0 87 183 0 87 183 0 87 183 0 87 183 0 87 183 0 87 183 0 87 183 0 87 183 0 87 183 0 87 183 0 87 183 0 87 183 0 87 183 0 87 183 0 87 183 0 87 183 0 87 183 0 87 183 0 87 183 0 87 183 0 87 183 0 87 183 0 87 183 0 87 183 0 87 183 0 87 183 0 87 183 0 87 183 0 87 183 0 87 183 0 87 183 0 87 183 0 87 183 0 87 183 0 87 183 0 87 183 0 87 183 0 87 183 0 87 183 0 87 183 0 87 183 0 87 183 0 87 183 0 87 183 0 87 183 0 87 183 0 87 183 0 87 183 0 87 183 0 87 183 0 87 183 0 87 183 0 87 183 0 87 183 0 87 183 0 87 183 0 87 183 0 87 183 0 87 183 0 87 183 0 87 183 0 87 183 0 87 183 0 87 183 0 87 183 0 87 183 0 87 183 0 87 183 0 87 183 0 87 183 0 87 183 0 87 183 0 87 183 0 87 183 0 87 183 0 87 183 0 87 183 0 87 183 0 87 183 0 87 183 0 87 183 0 87 183 0 87 183 0 87 183 0 87 183 0 87 183 0 87 183 0 87 183 0 87 183 0 87 183 0 87 183 0 87 183 0 87 183 0 87 183 0 87 183 0 87 183 0 87 183 0 87 183 0 87 183 0 87 183 0 87 183 0 87 183 0 87 183 0 87 183 0 87 183 0 87 183 0 87 183 0 87 183 0 87 183 0 87 183 0 87 183 0 87 183 0 87 183 0 87 183 0 87 183 0 87 183 0 87 183 0 87 183 0 87 183 0 87 183 0 87 183 0 87 183 0 87 183 0 87 183 0 87 183 0 87 183 0 87 183 0 87 183 0 87 183 0 87 183 0 87 183 0 87 183 0 87 183 0 87 183 0 87 183 0 87 183 0 87 183 0 87 183 0 87 183 0 87 183 0 87 183 0 87 183 0 87 183 0 87 183 0 87 183 0 87 183 0 87 183 0 87 183 0 87 183 0 87 183 0 87 183 0 87 183 0 87 183 0 87 183 0 87 183 0 87 183 0 87 183 0 87 183 0 87 183 0 87 183 0 87 183 0 87 183 0 87 183 0 87 183 0 87 183 0 87 183 0 87 183 0 87 183 0 87 183 0 87 183 0 87 183 0 87 183 0 87 183 0 87 183 0 87 183 0 87 183 0 87 183 0 87 183 0 87 183 0 87 183 0 87 183 0 87 183 0 87 183 0 87 183 0 87 183 0 87 183 0 87 183 0 87 183 0 87 183 0 87 183 0 87 183 0 87 183 0 87 183 0 87 183 0 87 183 0 87 183 0 87 183 0 87 183 0 87 183 0 87 183 0 87 183 0 87 183 0 87 183 0 87 183 0 87 183 0 87 183 0 87 183 0 87 183 0 87 183 0 87 183 0 87 183 0 87 183 0 87 183 0 87 183 0 87 183 0 87 183 0 87 183 0 87 183 0 87 183 0 87 183 0 87 183 0 87 183 0 87 183 0 87 183 0 87 183 0 87 183 0 87 183 0 87 183 0 87 183 0 87 183 0 87 183 0 87 183 0 87 183 0 87 183 0 87 183 0 87 183 0 87 183 0 87 183 0 87 183 0 87 183 0 87 183 0 87 183 0 87 183 0 87 183 0 87 183 0 87 183 0 87 183 0 87 183 0 87 183 0 87 183 0 87 183 0 87 183 0 87 183 0 87 183 0 87 183 0 87 183 0 87 183 0 87 183 0 87 183 0 87 183 0 87 183 0 87 183 0 87 183 0 87 183 0 87 183 0 87 183 0 87 183 0 87 183 0 87 183 0 87 183 0 87 183 0 87 183 0 87 183 0 87 183 0 87 183 0 87 183 0 87 183 0 87 183 0 87 183 0 87 183 0 87 183 0 87 183 0 87 183 0 87 183 0 87 183 0 87 183 0 87 183 
0 87 183 0 87 183 0 87 183 0 87 183 0 87 183 0 87 183 0 87 183 0 87 183 0 87 183 0 87 183 0 87 183 0 87 183 0 87 183 0 87 183 0 87 183 0 87 183 0 87 183 0 87 183 0 87 183 0 87 183 0 87 183 0 87 183 0 87 183 0 87 183 0 87 183 0 87 183 0 87 183 0 87 183 0 87 183 0 87 183 0 87 183 0 87 183 0 87 183 0 87 183 0 87 183 0 87 183 0 87 183 0 87 183 0 87 183 0 87 183 0 87 183 0 87 183 0 87 183 0 87 183 0 87 183 0 87 183 0 87 183 0 87 183 0 87 183 0 87 183 0 87 183 0 87 183 0 87 183 0 87 183 0 87 183 0 87 183 0 87 183 0 87 183 0 87 183 0 87 183 0 87 183 0 87 183 0 87 183 0 87 183 0 87 183 0 87 183 0 87 183 0 87 183 0 87 183 0 87 183 0 87 183 0 87 183 0 87 183 0 87 183 0 87 183 0 87 183 0 87 183 0 87 183 0 87 183 0 87 183 0 87 183 0 87 183 0 87 183 0 87 183 0 87 183 0 87 183 0 87 183 0 87 183 0 87 183 0 87 183 0 87 183 0 87 183 0 87 183 0 87 183 0 87 183 0 87 183 0 87 183 0 87 183 0 87 183 0 87 183 0 87 183 0 87 183 0 87 183 0 87 183 0 87 183 0 87 183 0 87 183 0 87 183 0 87 183 0 87 183 0 87 183 0 87 183 0 87 183 0 87 183 0 87 183 0 87 183 0 87 183 0 87 183 0 87 183 0 87 183 0 87 183 0 87 183 0 87 183 0 87 183 0 87 183 0 87 183 0 87 183 0 87 183 0 87 183 0 87 183 0 87 183 0 87 183 0 87 183 0 87 183 0 87 183 0 87 183 0 87 183 0 87 183 0 87 183 0 87 183 0 87 183 0 87 183 0 87 183 0 87 183 0 87 183 0 87 183 0 87 183 0 87 183 0 87 183 0 87 183 0 87 183 0 87 183 0 87 183 0 87 183 0 87 183 0 87 183 0 87 183 0 87 183 0 87 183 0 87 183 0 87 183 0 87 183 0 87 183 0 87 183 0 87 183 0 87 183 0 87 183 0 87 183 0 87 183 0 87 183 0 87 183 0 87 183 0 87 183 0 87 183 0 87 183 0 87 183 0 87 183 0 87 183 0 87 183 0 87 183 0 87 183 0 87 183 0 87 183 0 87 183 0 87 183 0 87 183 0 87 183 0 87 183 0 87 183 0 87 183 0 87 183 0 87 183 0 87 183 0 87 183 0 87 183 0 87 183 0 87 183 0 87 183 0 87 183 0 87 183 0 87 183 0 87 183 0 87 183 0 87 183 0 87 183 0 87 183 0 87 183 0 87 183 0 87 183 0 87 183 0 87 183 0 87 183 0 87 183 0 87 183 0 87 183 0 87 183 0 87 183 0 87 183 0 87 183 0 87 183 0 87 183 0 87 183 0 87 183 0 87 183 0 87 183 0 87 183 0 87 183 0 87 183 0 87 183 0 87 183 0 87 183 0 87 183 0 87 183 0 87 183 0 87 183 0 87 183 0 87 183 0 87 183 0 87 183 0 87 183 0 87 183 0 87 183 0 87 183 0 87 183 0 87 183 0 87 183 0 87 183 0 87 183 0 87 183 0 87 183 0 87 183 0 87 183 0 87 183 0 87 183 0 87 183 0 87 183 0 87 183 0 87 183 0 87 183 0 87 183 0 87 183 0 87 183 0 87 183 0 87 183 0 87 183 0 87 183 0 87 183 0 87 183 0 87 183 0 87 183 0 87 183 0 87 183 0 87 183 0 87 183 0 87 183 0 87 183 0 87 183 0 87 183 0 87 183 0 87 183 0 87 183 0 87 183 0 87 183 0 87 183 0 87 183 0 87 183 0 87 183 0 87 183 0 87 183 0 87 183 0 87 183 0 87 183 0 87 183 0 87 183 0 87 183 0 87 183 0 87 183 0 87 183 0 87 183 0 87 183 
0 87 183 0 87 183 0 87 183 0 87 183 0 87 183 0 87 183 0 87 183 0 87 183 0 87 183 0 87 183 0 87 183 0 87 183 0 87 183 0 87 183 0 87 183 0 87 183 0 87 183 0 87 183 0 87 183 0 87 183 0 87 183 0 87 183 0 87 183 0 87 183 0 87 183 0 87 183 0 87 183 0 87 183 0 87 183 0 87 183 0 87 183 0 87 183 0 87 183 0 87 183 0 87 183 0 87 183 0 87 183 0 87 183 0 87 183 0 87 183 0 87 183 0 87 183 0 87 183 0 87 183 0 87 183 0 87 183 0 87 183 0 87 183 0 87 183 0 87 183 0 87 183 0 87 183 0 87 183 0 87 183 0 87 183 0 87 183 0 87 183 0 87 183 0 87 183 0 87 183 0 87 183 0 87 183 0 87 183 0 87 183 0 87 183 0 87 183 0 87 183 0 87 183 0 87 183 0 87 183 0 87 183 0 87 183 0 87 183 0 87 183 0 87 183 0 87 183 0 87 183 0 87 183 0 87 183 0 87 183 0 87 183 0 87 183 0 87 183 0 87 183 0 87 183 0 87 183 0 87 183 0 87 183 0 87 183 0 87 183 0 87 183 0 87 183 0 87 183 0 87 183 0 87 183 0 87 183 0 87 183 0 87 183 0 87 183 0 87 183 0 87 183 0 87 183 0 87 183 0 87 183 0 87 183 0 87 183 0 87 183 0 87 183 0 87 183 0 87 183 0 87 183 0 87 183 0 87 183 0 87 183 0 87 183 0 87 183 0 87 183 0 87 183 0 87 183 0 87 183 0 87 183 0 87 183 0 87 183 0 87 183 0 87 183 0 87 183 0 87 183 0 87 183 0 87 183 0 87 183 0 87 183 0 87 183 0 87 183 0 87 183 0 87 183 0 87 183 0 87 183 0 87 183 0 87 183 0 87 183 0 87 183 0 87 183 0 87 183 0 87 183 0 87 183 0 87 183 0 87 183 0 87 183 0 87 183 0 87 183 0 87 183 0 87 183 0 87 183 0 87 183 0 87 183 0 87 183 0 87 183 0 87 183 0 87 183 0 87 183 0 87 183 0 87 183 0 87 183 0 87 183 0 87 183 0 87 183 0 87 183 0 87 183 0 87 183 0 87 183 0 87 183 0 87 183 0 87 183 0 87 183 0 87 183 0 87 183 0 87 183 0 87 183 0 87 183 0 87 183 0 87 183 0 87 183 0 87 183 0 87 183 0 87 183 0 87 183 0 87 183 0 87 183 0 87 183 0 87 183 0 87 183 0 87 183 0 87 183 0 87 183 0 87 183 0 87 183 0 87 183 0 87 183 0 87 183 0 87 183 0 87 183 0 87 183 0 87 183 0 87 183 0 87 183 0 87 183 0 87 183 0 87 183 0 87 183 0 87 183 0 87 183 0 87 183 0 87 183 0 87 183 0 87 183 0 87 183 0 87 183 0 87 183 0 87 183 0 87 183 0 87 183 0 87 183 0 87 183 0 87 183 0 87 183 0 87 183 0 87 183 0 87 183 0 87 183 0 87 183 0 87 183 0 87 183 0 87 183 0 87 183 0 87 183 0 87 183 0 87 183 0 87 183 0 87 183 0 87 183 0 87 183 0 87 183 0 87 183 0 87 183 0 87 183 0 87 183 0 87 183 0 87 183 0 87 183 0 87 183 0 87 183 0 87 183 0 87 183 0 87 183 0 87 183 0 87 183 0 87 183 0 87 183 0 87 183 0 87 183 0 87 183 0 87 183 0 87 183 0 87 183 0 87 183 0 87 183 0 87 183 0 87 183 0 87 183 0 87 183 0 87 183 0 87 183 0 87 183 0 87 183 0 87 183 0 87 183 0 87 183 0 87 183 0 87 183 0 87 183 0 87 183 0 87 183 0 87 183 0 87 183 0 87 183 0 87 183 0 87 183 0 87 183 0 87 183 0 87 183 0 87 183 0 87 183 0 87 183 0 87 183 0 87 183 0 87 183 0 87 183 0 87 183 0 87 183 0 87 183 
0 87 183 0 87 183 0 87 183 0 87 183 0 87 183 0 87 183 0 87 183 0 87 183 0 87 183 0 87 183 0 87 183 0 87 183 0 87 183 0 87 183 0 87 183 0 87 183 0 87 183 0 87 183 0 87 183 0 87 183 0 87 183 0 87 183 0 87 183 0 87 183 0 87 183 0 87 183 0 87 183 0 87 183 0 87 183 0 87 183 0 87 183 0 87 183 0 87 183 0 87 183 0 87 183 0 87 183 0 87 183 0 87 183 0 87 183 0 87 183 0 87 183 0 87 183 0 87 183 0 87 183 0 87 183 0 87 183 0 87 183 0 87 183 0 87 183 0 87 183 0 87 183 0 87 183 0 87 183 0 87 183 0 87 183 0 87 183 0 87 183 0 87 183 0 87 183 0 87 183 0 87 183 0 87 183 0 87 183 0 87 183 0 87 183 0 87 183 0 87 183 0 87 183 0 87 183 0 87 183 0 87 183 0 87 183 0 87 183 0 87 183 0 87 183 0 87 183 0 87 183 0 87 183 0 87 183 0 87 183 0 87 183 0 87 183 0 87 183 0 87 183 0 87 183 0 87 183 0 87 183 0 87 183 0 87 183 0 87 183 0 87 183 0 87 183 0 87 183 0 87 183 0 87 183 0 87 183 0 87 183 0 87 183 0 87 183 0 87 183 0 87 183 0 87 183 0 87 183 0 87 183 0 87 183 0 87 183 0 87 183 0 87 183 0 87 183 0 87 183 0 87 183 0 87 183 0 87 183 0 87 183 0 87 183 0 87 183 0 87 183 0 87 183 0 87 183 0 87 183 0 87 183 0 87 183 0 87 183 0 87 183 0 87 183 0 87 183 0 87 183 0 87 183 0 87 183 0 87 183 0 87 183 0 87 183 0 87 183 0 87 183 0 87 183 0 87 183 0 87 183 0 87 183 0 87 183 0 87 183 0 87 183 0 87 183 0 87 183 0 87 183 0 87 183 0 87 183 0 87 183 0 87 183 0 87 183 0 87 183 0 87 183 0 87 183 0 87 183 0 87 183 0 87 183 0 87 183 0 87 183 0 87 183 0 87 183 0 87 183 0 87 183 0 87 183 0 87 183 0 87 183 0 87 183 0 87 183 0 87 183 0 87 183 0 87 183 0 87 183 0 87 183 0 87 183 0 87 183 0 87 183 0 87 183 0 87 183 0 87 183 0 87 183 0 87 183 0 87 183 0 87 183 0 87 183 0 87 183 0 87 183 0 87 183 0 87 183 0 87 183 0 87 183 0 87 183 0 87 183 0 87 183 0 87 183 0 87 183 0 87 183 0 87 183 0 87 183 0 87 183 0 87 183 0 87 183 0 87 183 0 87 183 0 87 183 0 87 183 0 87 183 0 87 183 0 87 183 0 87 183 0 87 183 0 87 183 0 87 183 0 87 183 0 87 183 0 87 183 0 87 183 0 87 183 0 87 183 0 87 183 0 87 183 0 87 183 0 87 183 0 87 183 0 87 183 0 87 183 0 87 183 0 87 183 0 87 183 0 87 183 0 87 183 0 87 183 0 87 183 0 87 183 0 87 183 0 87 183 0 87 183 0 87 183 0 87 183 0 87 183 0 87 183 0 87 183 0 87 183 0 87 183 0 87 183 0 87 183 0 87 183 0 87 183 0 87 183 0 87 183 0 87 183 0 87 183 0 87 183 0 87 183 0 87 183 0 87 183 0 87 183 0 87 183 0 87 183 0 87 183 0 87 183 0 87 183 0 87 183 0 87 183 0 87 183 0 87 183 0 87 183 0 87 183 0 87 183 0 87 183 0 87 183 0 87 183 0 87 183 0 87 183 0 87 183 0 87 183 0 87 183 0 87 183 0 87 183 0 87 183 0 87 183 0 87 183 0 87 183 0 87 183 0 87 183 0 87 183 0 87 183 0 87 183 0 87 183 0 87 183 0 87 183 0 87 183 0 87 183 0 87 183 0 87 183 0 87 183 0 87 183 0 87 183 0 87 183 0 87 183 0 87 183 0 87 183 0 87 183 
0 87 183 0 87 183 0 87 183 0 87 183 0 87 183 0 87 183 0 87 183 0 87 183 0 87 183 0 87 183 0 87 183 0 87 183 0 87 183 0 87 183 0 87 183 0 87 183 0 87 183 0 87 183 0 87 183 0 87 183 0 87 183 0 87 183 0 87 183 0 87 183 0 87 183 0 87 183 0 87 183 0 87 183 0 87 183 0 87 183 0 87 183 0 87 183 0 87 183 0 87 183 0 87 183 0 87 183 0 87 183 0 87 183 0 87 183 0 87 183 0 87 183 0 87 183 0 87 183 0 87 183 0 87 183 0 87 183 0 87 183 0 87 183 0 87 183 0 87 183 0 87 183 0 87 183 0 87 183 0 87 183 0 87 183 0 87 183 0 87 183 0 87 183 0 87 183 0 87 183 0 87 183 0 87 183 0 87 183 0 87 183 0 87 183 0 87 183 0 87 183 0 87 183 0 87 183 0 87 183 0 87 183 0 87 183 0 87 183 0 87 183 0 87 183 0 87 183 0 87 183 0 87 183 0 87 183 0 87 183 0 87 183 0 87 183 0 87 183 0 87 183 0 87 183 0 87 183 0 87 183 0 87 183 0 87 183 0 87 183 0 87 183 0 87 183 0 87 183 0 87 183 0 87 183 0 87 183 0 87 183 0 87 183 0 87 183 0 87 183 0 87 183 0 87 183 0 87 183 0 87 183 0 87 183 0 87 183 0 87 183 0 87 183 0 87 183 0 87 183 0 87 183 0 87 183 0 87 183 0 87 183 0 87 183 0 87 183 0 87 183 0 87 183 0 87 183 0 87 183 0 87 183 0 87 183 0 87 183 0 87 183 0 87 183 0 87 183 0 87 183 0 87 183 0 87 183 0 87 183 0 87 183 0 87 183 0 87 183 0 87 183 0 87 183 0 87 183 0 87 183 0 87 183 0 87 183 0 87 183 0 87 183 0 87 183 0 87 183 0 87 183 0 87 183 0 87 183 0 87 183 0 87 183 0 87 183 0 87 183 0 87 183 0 87 183 0 87 183 0 87 183 0 87 183 0 87 183 0 87 183 0 87 183 0 87 183 0 87 183 0 87 183 0 87 183 0 87 183 0 87 183 0 87 183 0 87 183 0 87 183 0 87 183 0 87 183 0 87 183 0 87 183 0 87 183 0 87 183 0 87 183 0 87 183 0 87 183 0 87 183 0 87 183 0 87 183 0 87 183 0 87 183 0 87 183 0 87 183 0 87 183 0 87 183 0 87 183 0 87 183 0 87 183 0 87 183 0 87 183 0 87 183 0 87 183 0 87 183 0 87 183 0 87 183 0 87 183 0 87 183 0 87 183 0 87 183 0 87 183 0 87 183 0 87 183 0 87 183 0 87 183 0 87 183 0 87 183 0 87 183 0 87 183 0 87 183 0 87 183 0 87 183 0 87 183 0 87 183 0 87 183 0 87 183 0 87 183 0 87 183 0 87 183 0 87 183 0 87 183 0 87 183 0 87 183 0 87 183 0 87 183 0 87 183 0 87 183 0 87 183 0 87 183 0 87 183 0 87 183 0 87 183 0 87 183 0 87 183 0 87 183 0 87 183 0 87 183 0 87 183 0 87 183 0 87 183 0 87 183 0 87 183 0 87 183 0 87 183 0 87 183 0 87 183 0 87 183 0 87 183 0 87 183 0 87 183 0 87 183 0 87 183 0 87 183 0 87 183 0 87 183 0 87 183 0 87 183 0 87 183 0 87 183 0 87 183 0 87 183 0 87 183 0 87 183 0 87 183 0 87 183 0 87 183 0 87 183 0 87 183 0 87 183 0 87 183 0 87 183 0 87 183 0 87 183 0 87 183 0 87 183 0 87 183 0 87 183 0 87 183 0 87 183 0 87 183 0 87 183 0 87 183 0 87 183 0 87 183 0 87 183 0 87 183 0 87 183 0 87 183 0 87 183 0 87 183 0 87 183 0 87 183 0 87 183 0 87 183 0 87 183 0 87 183 0 87 183 0 87 183 0 87 183 0 87 183 0 87 183 
0 87 183 0 87 183 0 87 183 0 87 183 0 87 183 0 87 183 0 87 183 0 87 183 0 87 183 0 87 183 0 87 183 0 87 183 0 87 183 0 87 183 0 87 183 0 87 183 0 87 183 0 87 183 0 87 183 0 87 183 0 87 183 0 87 183 0 87 183 0 87 183 0 87 183 0 87 183 0 87 183 0 87 183 0 87 183 0 87 183 0 87 183 0 87 183 0 87 183 0 87 183 0 87 183 0 87 183 0 87 183 0 87 183 0 87 183 0 87 183 0 87 183 0 87 183 0 87 183 0 87 183 0 87 183 0 87 183 0 87 183 0 87 183 0 87 183 0 87 183 0 87 183 0 87 183 0 87 183 0 87 183 0 87 183 0 87 183 0 87 183 0 87 183 0 87 183 0 87 183 0 87 183 0 87 183 0 87 183 0 87 183 0 87 183 0 87 183 0 87 183 0 87 183 0 87 183 0 87 183 0 87 183 0 87 183 0 87 183 0 87 183 0 87 183 0 87 183 0 87 183 0 87 183 0 87 183 0 87 183 0 87 183 0 87 183 0 87 183 0 87 183 0 87 183 0 87 183 0 87 183 0 87 183 0 87 183 0 87 183 0 87 183 0 87 183 0 87 183 0 87 183 0 87 183 0 87 183 0 87 183 0 87 183 0 87 183 0 87 183 0 87 183 0 87 183 0 87 183 0 87 183 0 87 183 0 87 183 0 87 183 0 87 183 0 87 183 0 87 183 0 87 183 0 87 183 0 87 183 0 87 183 0 87 183 0 87 183 0 87 183 0 87 183 0 87 183 0 87 183 0 87 183 0 87 183 0 87 183 0 87 183 0 87 183 0 87 183 0 87 183 0 87 183 0 87 183 0 87 183 0 87 183 0 87 183 0 87 183 0 87 183 0 87 183 0 87 183 0 87 183 0 87 183 0 87 183 0 87 183 0 87 183 0 87 183 0 87 183 0 87 183 0 87 183 0 87 183 0 87 183 0 87 183 0 87 183 0 87 183 0 87 183 0 87 183 0 87 183 0 87 183 0 87 183 0 87 183 0 87 183 0 87 183 0 87 183 0 87 183 0 87 183 0 87 183 0 87 183 0 87 183 0 87 183 0 87 183 0 87 183 0 87 183 0 87 183 0 87 183 0 87 183 0 87 183 0 87 183 0 87 183 0 87 183 0 87 183 0 87 183 0 87 183 0 87 183 0 87 183 0 87 183 0 87 183 0 87 183 0 87 183 0 87 183 0 87 183 0 87 183 0 87 183 0 87 183 0 87 183 0 87 183 0 87 183 0 87 183 0 87 183 0 87 183 0 87 183 0 87 183 0 87 183 0 87 183 0 87 183 0 87 183 0 87 183 0 87 183 0 87 183 0 87 183 0 87 183 0 87 183 0 87 183 0 87 183 0 87 183 0 87 183 0 87 183 0 87 183 0 87 183 0 87 183 0 87 183 0 87 183 0 87 183 0 87 183 0 87 183 0 87 183 0 87 183 0 87 183 0 87 183 0 87 183 0 87 183 0 87 183 0 87 183 0 87 183 0 87 183 0 87 183 0 87 183 0 87 183 0 87 183 0 87 183 0 87 183 0 87 183 0 87 183 0 87 183 0 87 183 0 87 183 0 87 183 0 87 183 0 87 183 0 87 183 0 87 183 0 87 183 0 87 183 0 87 183 0 87 183 0 87 183 0 87 183 0 87 183 0 87 183 0 87 183 0 87 183 0 87 183 0 87 183 0 87 183 0 87 183 0 87 183 0 87 183 0 87 183 0 87 183 0 87 183 0 87 183 0 87 183 0 87 183 0 87 183 0 87 183 0 87 183 0 87 183 0 87 183 0 87 183 0 87 183 0 87 183 0 87 183 0 87 183 0 87 183 0 87 183 0 87 183 0 87 183 0 87 183 0 87 183 0 87 183 0 87 183 0 87 183 0 87 183 0 87 183 0 87 183 0 87 183 0 87 183 0 87 183 0 87 183 0 87 183 0 87 183 0 87 183 0 87 183 0 87 183 0 87 183 
0 87 183 0 87 183 0 87 183 0 87 183 0 87 183 0 87 183 0 87 183 0 87 183 0 87 183 0 87 183 0 87 183 0 87 183 0 87 183 0 87 183 0 87 183 0 87 183 0 87 183 0 87 183 0 87 183 0 87 183 0 87 183 0 87 183 0 87 183 0 87 183 0 87 183 0 87 183 0 87 183 0 87 183 0 87 183 0 87 183 0 87 183 0 87 183 0 87 183 0 87 183 0 87 183 0 87 183 0 87 183 0 87 183 0 87 183 0 87 183 0 87 183 0 87 183 0 87 183 0 87 183 0 87 183 0 87 183 0 87 183 0 87 183 0 87 183 0 87 183 0 87 183 0 87 183 0 87 183 0 87 183 0 87 183 0 87 183 0 87 183 0 87 183 0 87 183 0 87 183 0 87 183 0 87 183 0 87 183 0 87 183 0 87 183 0 87 183 0 87 183 0 87 183 0 87 183 0 87 183 0 87 183 0 87 183 0 87 183 0 87 183 0 87 183 0 87 183 0 87 183 0 87 183 0 87 183 0 87 183 0 87 183 0 87 183 0 87 183 0 87 183 0 87 183 0 87 183 0 87 183 0 87 183 0 87 183 0 87 183 0 87 183 0 87 183 0 87 183 0 87 183 0 87 183 0 87 183 0 87 183 0 87 183 0 87 183 0 87 183 0 87 183 0 87 183 0 87 183 0 87 183 0 87 183 0 87 183 0 87 183 0 87 183 0 87 183 0 87 183 0 87 183 0 87 183 0 87 183 0 87 183 0 87 183 0 87 183 0 87 183 0 87 183 0 87 183 0 87 183 0 87 183 0 87 183 0 87 183 0 87 183 0 87 183 0 87 183 0 87 183 0 87 183 0 87 183 0 87 183 0 87 183 0 87 183 0 87 183 0 87 183 0 87 183 0 87 183 0 87 183 0 87 183 0 87 183 0 87 183 0 87 183 0 87 183 0 87 183 0 87 183 0 87 183 0 87 183 0 87 183 0 87 183 0 87 183 0 87 183 0 87 183 0 87 183 0 87 183 0 87 183 0 87 183 0 87 183 0 87 183 0 87 183 0 87 183 0 87 183 0 87 183 0 87 183 0 87 183 0 87 183 0 87 183 0 87 183 0 87 183 0 87 183 0 87 183 0 87 183 0 87 183 0 87 183 0 87 183 0 87 183 0 87 183 0 87 183 0 87 183 0 87 183 0 87 183 0 87 183 0 87 183 0 87 183 0 87 183 0 87 183 0 87 183 0 87 183 0 87 183 0 87 183 0 87 183 0 87 183 0 87 183 0 87 183 0 87 183 0 87 183 0 87 183 0 87 183 0 87 183 0 87 183 0 87 183 0 87 183 0 87 183 0 87 183 0 87 183 0 87 183 0 87 183 0 87 183 0 87 183 0 87 183 0 87 183 0 87 183 0 87 183 0 87 183 0 87 183 0 87 183 0 87 183 0 87 183 0 87 183 0 87 183 0 87 183 0 87 183 0 87 183 0 87 183 0 87 183 0 87 183 0 87 183 0 87 183 0 87 183 0 87 183 0 87 183 0 87 183 0 87 183 0 87 183 0 87 183 0 87 183 0 87 183 0 87 183 0 87 183 0 87 183 0 87 183 0 87 183 0 87 183 0 87 183 0 87 183 0 87 183 0 87 183 0 87 183 0 87 183 0 87 183 0 87 183 0 87 183 0 87 183 0 87 183 0 87 183 0 87 183 0 87 183 0 87 183 0 87 183 0 87 183 0 87 183 0 87 183 0 87 183 0 87 183 0 87 183 0 87 183 0 87 183 0 87 183 0 87 183 0 87 183 0 87 183 0 87 183 0 87 183 0 87 183 0 87 183 0 87 183 0 87 183 0 87 183 0 87 183 0 87 183 0 87 183 0 87 183 0 87 183 0 87 183 0 87 183 0 87 183 0 87 183 0 87 183 0 87 183 0 87 183 0 87 183 0 87 183 0 87 183 0 87 183 0 87 183 0 87 183 0 87 183 0 87 183 0 87 183 0 87 183 0 87 183 0 87 183 
0 87 183 0 87 183 0 87 183 0 87 183 0 87 183 0 87 183 0 87 183 0 87 183 0 87 183 0 87 183 0 87 183 0 87 183 0 87 183 0 87 183 0 87 183 0 87 183 0 87 183 0 87 183 0 87 183 0 87 183 0 87 183 0 87 183 0 87 183 0 87 183 0 87 183 0 87 183 0 87 183 0 87 183 0 87 183 0 87 183 0 87 183 0 87 183 0 87 183 0 87 183 0 87 183 0 87 183 0 87 183 0 87 183 0 87 183 0 87 183 0 87 183 0 87 183 0 87 183 0 87 183 0 87 183 0 87 183 0 87 183 0 87 183 0 87 183 0 87 183 0 87 183 0 87 183 0 87 183 0 87 183 0 87 183 0 87 183 0 87 183 0 87 183 0 87 183 0 87 183 0 87 183 0 87 183 0 87 183 0 87 183 0 87 183 0 87 183 0 87 183 0 87 183 0 87 183 0 87 183 0 87 183 0 87 183 0 87 183 0 87 183 0 87 183 0 87 183 0 87 183 0 87 183 0 87 183 0 87 183 0 87 183 0 87 183 0 87 183 0 87 183 0 87 183 0 87 183 0 87 183 0 87 183 0 87 183 0 87 183 0 87 183 0 87 183 0 87 183 0 87 183 0 87 183 0 87 183 0 87 183 0 87 183 0 87 183 0 87 183 0 87 183 0 87 183 0 87 183 0 87 183 0 87 183 0 87 183 0 87 183 0 87 183 0 87 183 0 87 183 0 87 183 0 87 183 0 87 183 0 87 183 0 87 183 0 87 183 0 87 183 0 87 183 0 87 183 0 87 183 0 87 183 0 87 183 0 87 183 0 87 183 0 87 183 0 87 183 0 87 183 0 87 183 0 87 183 0 87 183 0 87 183 0 87 183 0 87 183 0 87 183 0 87 183 0 87 183 0 87 183 0 87 183 0 87 183 0 87 183 0 87 183 0 87 183 0 87 183 0 87 183 0 87 183 0 87 183 0 87 183 0 87 183 0 87 183 0 87 183 0 87 183 0 87 183 0 87 183 0 87 183 0 87 183 0 87 183 0 87 183 0 87 183 0 87 183 0 87 183 0 87 183 0 87 183 0 87 183 0 87 183 0 87 183 0 87 183 0 87 183 0 87 183 0 87 183 0 87 183 0 87 183 0 87 183 0 87 183 0 87 183 0 87 183 0 87 183 0 87 183 0 87 183 0 87 183 0 87 183 0 87 183 0 87 183 0 87 183 0 87 183 0 87 183 0 87 183 0 87 183 0 87 183 0 87 183 0 87 183 0 87 183 0 87 183 0 87 183 0 87 183 0 87 183 0 87 183 0 87 183 0 87 183 0 87 183 0 87 183 0 87 183 0 87 183 0 87 183 0 87 183 0 87 183 0 87 183 0 87 183 0 87 183 0 87 183 0 87 183 0 87 183 0 87 183 0 87 183 0 87 183 0 87 183 0 87 183 0 87 183 0 87 183 0 87 183 0 87 183 0 87 183 0 87 183 0 87 183 0 87 183 0 87 183 0 87 183 0 87 183 0 87 183 0 87 183 0 87 183 0 87 183 0 87 183 0 87 183 0 87 183 0 87 183 0 87 183 0 87 183 0 87 183 0 87 183 0 87 183 0 87 183 0 87 183 0 87 183 0 87 183 0 87 183 0 87 183 0 87 183 0 87 183 0 87 183 0 87 183 0 87 183 0 87 183 0 87 183 0 87 183 0 87 183 0 87 183 0 87 183 0 87 183 0 87 183 0 87 183 0 87 183 0 87 183 0 87 183 0 87 183 0 87 183 0 87 183 0 87 183 0 87 183 0 87 183 0 87 183 0 87 183 0 87 183 0 87 183 0 87 183 0 87 183 0 87 183 0 87 183 0 87 183 0 87 183 0 87 183 0 87 183 0 87 183 0 87 183 0 87 183 0 87 183 0 87 183 0 87 183 0 87 183 0 87 183 0 87 183 0 87 183 0 87 183 0 87 183 0 87 183 0 87 183 0 87 183 0 87 183 0 87 183 0 87 183 0 87 183 
0 87 183 0 87 183 0 87 183 0 87 183 0 87 183 0 87 183 0 87 183 0 87 183 0 87 183 0 87 183 0 87 183 0 87 183 0 87 183 0 87 183 0 87 183 0 87 183 0 87 183 0 87 183 0 87 183 0 87 183 0 87 183 0 87 183 0 87 183 0 87 183 0 87 183 0 87 183 0 87 183 0 87 183 0 87 183 0 87 183 0 87 183 0 87 183 0 87 183 0 87 183 0 87 183 0 87 183 0 87 183 0 87 183 0 87 183 0 87 183 0 87 183 0 87 183 0 87 183 0 87 183 0 87 183 0 87 183 0 87 183 0 87 183 0 87 183 0 87 183 0 87 183 0 87 183 0 87 183 0 87 183 0 87 183 0 87 183 0 87 183 0 87 183 0 87 183 0 87 183 0 87 183 0 87 183 0 87 183 0 87 183 0 87 183 0 87 183 0 87 183 0 87 183 0 87 183 0 87 183 0 87 183 0 87 183 0 87 183 0 87 183 0 87 183 0 87 183 0 87 183 0 87 183 0 87 183 0 87 183 0 87 183 0 87 183 0 87 183 0 87 183 0 87 183 0 87 183 0 87 183 0 87 183 0 87 183 0 87 183 0 87 183 0 87 183 0 87 183 0 87 183 0 87 183 0 87 183 0 87 183 0 87 183 0 87 183 0 87 183 0 87 183 0 87 183 0 87 183 0 87 183 0 87 183 0 87 183 0 87 183 0 87 183 0 87 183 0 87 183 0 87 183 0 87 183 0 87 183 0 87 183 0 87 183 0 87 183 0 87 183 0 87 183 0 87 183 0 87 183 0 87 183 0 87 183 0 87 183 0 87 183 0 87 183 0 87 183 0 87 183 0 87 183 0 87 183 0 87 183 0 87 183 0 87 183 0 87 183 0 87 183 0 87 183 0 87 183 0 87 183 0 87 183 0 87 183 0 87 183 0 87 183 0 87 183 0 87 183 0 87 183 0 87 183 0 87 183 0 87 183 0 87 183 0 87 183 0 87 183 0 87 183 0 87 183 0 87 183 0 87 183 0 87 183 0 87 183 0 87 183 0 87 183 0 87 183 0 87 183 0 87 183 0 87 183 0 87 183 0 87 183 0 87 183 0 87 183 0 87 183 0 87 183 0 87 183 0 87 183 0 87 183 0 87 183 0 87 183 0 87 183 0 87 183 0 87 183 0 87 183 0 87 183 0 87 183 0 87 183 0 87 183 0 87 183 0 87 183 0 87 183 0 87 183 0 87 183 0 87 183 0 87 183 0 87 183 0 87 183 0 87 183 0 87 183 0 87 183 0 87 183 0 87 183 0 87 183 0 87 183 0 87 183 0 87 183 0 87 183 0 87 183 0 87 183 0 87 183 0 87 183 0 87 183 0 87 183 0 87 183 0 87 183 0 87 183 0 87 183 0 87 183 0 87 183 0 87 183 0 87 183 0 87 183 0 87 183 0 87 183 0 87 183 0 87 183 0 87 183 0 87 183 0 87 183 0 87 183 0 87 183 0 87 183 0 87 183 0 87 183 0 87 183 0 87 183 0 87 183 0 87 183 0 87 183 0 87 183 0 87 183 0 87 183 0 87 183 0 87 183 0 87 183 0 87 183 0 87 183 0 87 183 0 87 183 0 87 183 0 87 183 0 87 183 0 87 183 0 87 183 0 87 183 0 87 183 0 87 183 0 87 183 0 87 183 0 87 183 0 87 183 0 87 183 0 87 183 0 87 183 0 87 183 0 87 183 0 87 183 0 87 183 0 87 183 0 87 183 0 87 183 0 87 183 0 87 183 0 87 183 0 87 183 0 87 183 0 87 183 0 87 183 0 87 183 0 87 183 0 87 183 0 87 183 0 87 183 0 87 183 0 87 183 0 87 183 0 87 183 0 87 183 0 87 183 0 87 183 0 87 183 0 87 183 0 87 183 0 87 183 0 87 183 0 87 183 0 87 183 0 87 183 0 87 183 0 87 183 0 87 183 0 87 183 0 87 183 0 87 183 0 87 183 0 87 183 0 87 183 
0 87 183 0 87 183 0 87 183 0 87 183 0 87 183 0 87 183 0 87 183 0 87 183 0 87 183 0 87 183 0 87 183 0 87 183 0 87 183 0 87 183 0 87 183 0 87 183 0 87 183 0 87 183 0 87 183 0 87 183 0 87 183 0 87 183 0 87 183 0 87 183 0 87 183 0 87 183 0 87 183 0 87 183 0 87 183 0 87 183 0 87 183 0 87 183 0 87 183 0 87 183 0 87 183 0 87 183 0 87 183 0 87 183 0 87 183 0 87 183 0 87 183 0 87 183 0 87 183 0 87 183 0 87 183 0 87 183 0 87 183 0 87 183 0 87 183 0 87 183 0 87 183 0 87 183 0 87 183 0 87 183 0 87 183 0 87 183 0 87 183 0 87 183 0 87 183 0 87 183 0 87 183 0 87 183 0 87 183 0 87 183 0 87 183 0 87 183 0 87 183 0 87 183 0 87 183 0 87 183 0 87 183 0 87 183 0 87 183 0 87 183 0 87 183 0 87 183 0 87 183 0 87 183 0 87 183 0 87 183 0 87 183 0 87 183 0 87 183 0 87 183 0 87 183 0 87 183 0 87 183 0 87 183 0 87 183 0 87 183 0 87 183 0 87 183 0 87 183 0 87 183 0 87 183 0 87 183 0 87 183 0 87 183 0 87 183 0 87 183 0 87 183 0 87 183 0 87 183 0 87 183 0 87 183 0 87 183 0 87 183 0 87 183 0 87 183 0 87 183 0 87 183 0 87 183 0 87 183 0 87 183 0 87 183 0 87 183 0 87 183 0 87 183 0 87 183 0 87 183 0 87 183 0 87 183 0 87 183 0 87 183 0 87 183 0 87 183 0 87 183 0 87 183 0 87 183 0 87 183 0 87 183 0 87 183 0 87 183 0 87 183 0 87 183 0 87 183 0 87 183 0 87 183 0 87 183 0 87 183 0 87 183 0 87 183 0 87 183 0 87 183 0 87 183 0 87 183 0 87 183 0 87 183 0 87 183 0 87 183 0 87 183 0 87 183 0 87 183 0 87 183 0 87 183 0 87 183 0 87 183 0 87 183 0 87 183 0 87 183 0 87 183 0 87 183 0 87 183 0 87 183 0 87 183 0 87 183 0 87 183 0 87 183 0 87 183 0 87 183 0 87 183 0 87 183 0 87 183 0 87 183 0 87 183 0 87 183 0 87 183 0 87 183 0 87 183 0 87 183 0 87 183 0 87 183 0 87 183 0 87 183 0 87 183 0 87 183 0 87 183 0 87 183 0 87 183 0 87 183 0 87 183 0 87 183 0 87 183 0 87 183 0 87 183 0 87 183 0 87 183 0 87 183 0 87 183 0 87 183 0 87 183 0 87 183 0 87 183 0 87 183 0 87 183 0 87 183 0 87 183 0 87 183 0 87 183 0 87 183 0 87 183 0 87 183 0 87 183 0 87 183 0 87 183 0 87 183 0 87 183 0 87 183 0 87 183 0 87 183 0 87 183 0 87 183 0 87 183 0 87 183 0 87 183 0 87 183 0 87 183 0 87 183 0 87 183 0 87 183 0 87 183 0 87 183 0 87 183 0 87 183 0 87 183 0 87 183 0 87 183 0 87 183 0 87 183 0 87 183 0 87 183 0 87 183 0 87 183 0 87 183 0 87 183 0 87 183 0 87 183 0 87 183 0 87 183 0 87 183 0 87 183 0 87 183 0 87 183 0 87 183 0 87 183 0 87 183 0 87 183 0 87 183 0 87 183 0 87 183 0 87 183 0 87 183 0 87 183 0 87 183 0 87 183 0 87 183 0 87 183 0 87 183 0 87 183 0 87 183 0 87 183 0 87 183 0 87 183 0 87 183 0 87 183 0 87 183 0 87 183 0 87 183 0 87 183 0 87 183 0 87 183 0 87 183 0 87 183 0 87 183 0 87 183 0 87 183 0 87 183 0 87 183 0 87 183 0 87 183 0 87 183 0 87 183 0 87 183 0 87 183 0 87 183 0 87 183 0 87 183 0 87 183 0 87 183 0 87 183 
0 87 183 0 87 183 0 87 183 0 87 183 0 87 183 0 87 183 0 87 183 0 87 183 0 87 183 0 87 183 0 87 183 0 87 183 0 87 183 0 87 183 0 87 183 0 87 183 0 87 183 0 87 183 0 87 183 0 87 183 0 87 183 0 87 183 0 87 183 0 87 183 0 87 183 0 87 183 0 87 183 0 87 183 0 87 183 0 87 183 0 87 183 0 87 183 0 87 183 0 87 183 0 87 183 0 87 183 0 87 183 0 87 183 0 87 183 0 87 183 0 87 183 0 87 183 0 87 183 0 87 183 0 87 183 0 87 183 0 87 183 0 87 183 0 87 183 0 87 183 0 87 183 0 87 183 0 87 183 0 87 183 0 87 183 0 87 183 0 87 183 0 87 183 0 87 183 0 87 183 0 87 183 0 87 183 0 87 183 0 87 183 0 87 183 0 87 183 0 87 183 0 87 183 0 87 183 0 87 183 0 87 183 0 87 183 0 87 183 0 87 183 0 87 183 0 87 183 0 87 183 0 87 183 0 87 183 0 87 183 0 87 183 0 87 183 0 87 183 0 87 183 0 87 183 0 87 183 0 87 183 0 87 183 0 87 183 0 87 183 0 87 183 0 87 183 0 87 183 0 87 183 0 87 183 0 87 183 0 87 183 0 87 183 0 87 183 0 87 183 0 87 183 0 87 183 0 87 183 0 87 183 0 87 183 0 87 183 0 87 183 0 87 183 0 87 183 0 87 183 0 87 183 0 87 183 0 87 183 0 87 183 0 87 183 0 87 183 0 87 183 0 87 183 0 87 183 0 87 183 0 87 183 0 87 183 0 87 183 0 87 183 0 87 183 0 87 183 0 87 183 0 87 183 0 87 183 0 87 183 0 87 183 0 87 183 0 87 183 0 87 183 0 87 183 0 87 183 0 87 183 0 87 183 0 87 183 0 87 183 0 87 183 0 87 183 0 87 183 0 87 183 0 87 183 0 87 183 0 87 183 0 87 183 0 87 183 0 87 183 0 87 183 0 87 183 0 87 183 0 87 183 0 87 183 0 87 183 0 87 183 0 87 183 0 87 183 0 87 183 0 87 183 0 87 183 0 87 183 0 87 183 0 87 183 0 87 183 0 87 183 0 87 183 0 87 183 0 87 183 0 87 183 0 87 183 0 87 183 0 87 183 0 87 183 0 87 183 0 87 183 0 87 183 0 87 183 0 87 183 0 87 183 0 87 183 0 87 183 0 87 183 0 87 183 0 87 183 0 87 183 0 87 183 0 87 183 0 87 183 0 87 183 0 87 183 0 87 183 0 87 183 0 87 183 0 87 183 0 87 183 0 87 183 0 87 183 0 87 183 0 87 183 0 87 183 0 87 183 0 87 183 0 87 183 0 87 183 0 87 183 0 87 183 0 87 183 0 87 183 0 87 183 0 87 183 0 87 183 0 87 183 0 87 183 0 87 183 0 87 183 0 87 183 0 87 183 0 87 183 0 87 183 0 87 183 0 87 183 0 87 183 0 87 183 0 87 183 0 87 183 0 87 183 0 87 183 0 87 183 0 87 183 0 87 183 0 87 183 0 87 183 0 87 183 0 87 183 0 87 183 0 87 183 0 87 183 0 87 183 0 87 183 0 87 183 0 87 183 0 87 183 0 87 183 0 87 183 0 87 183 0 87 183 0 87 183 0 87 183 0 87 183 0 87 183 0 87 183 0 87 183 0 87 183 0 87 183 0 87 183 0 87 183 0 87 183 0 87 183 0 87 183 0 87 183 0 87 183 0 87 183 0 87 183 0 87 183 0 87 183 0 87 183 0 87 183 0 87 183 0 87 183 0 87 183 0 87 183 0 87 183 0 87 183 0 87 183 0 87 183 0 87 183 0 87 183 0 87 183 0 87 183 0 87 183 0 87 183 0 87 183 0 87 183 0 87 183 0 87 183 0 87 183 0 87 183 0 87 183 0 87 183 0 87 183 0 87 183 0 87 183 0 87 183 0 87 183 0 87 183 0 87 183 0 87 183 0 87 183 
0 87 183 0 87 183 0 87 183 0 87 183 0 87 183 0 87 183 0 87 183 0 87 183 0 87 183 0 87 183 0 87 183 0 87 183 0 87 183 0 87 183 0 87 183 0 87 183 0 87 183 0 87 183 0 87 183 0 87 183 0 87 183 0 87 183 0 87 183 0 87 183 0 87 183 0 87 183 0 87 183 0 87 183 0 87 183 0 87 183 0 87 183 0 87 183 0 87 183 0 87 183 0 87 183 0 87 183 0 87 183 0 87 183 0 87 183 0 87 183 0 87 183 0 87 183 0 87 183 0 87 183 0 87 183 0 87 183 0 87 183 0 87 183 0 87 183 0 87 183 0 87 183 0 87 183 0 87 183 0 87 183 0 87 183 0 87 183 0 87 183 0 87 183 0 87 183 0 87 183 0 87 183 0 87 183 0 87 183 0 87 183 0 87 183 0 87 183 0 87 183 0 87 183 0 87 183 0 87 183 0 87 183 0 87 183 0 87 183 0 87 183 0 87 183 0 87 183 0 87 183 0 87 183 0 87 183 0 87 183 0 87 183 0 87 183 0 87 183 0 87 183 0 87 183 0 87 183 0 87 183 0 87 183 0 87 183 0 87 183 0 87 183 0 87 183 0 87 183 0 87 183 0 87 183 0 87 183 0 87 183 0 87 183 0 87 183 0 87 183 0 87 183 0 87 183 0 87 183 0 87 183 0 87 183 0 87 183 0 87 183 0 87 183 0 87 183 0 87 183 0 87 183 0 87 183 0 87 183 0 87 183 0 87 183 0 87 183 0 87 183 0 87 183 0 87 183 0 87 183 0 87 183 0 87 183 0 87 183 0 87 183 0 87 183 0 87 183 0 87 183 0 87 183 0 87 183 0 87 183 0 87 183 0 87 183 0 87 183 0 87 183 0 87 183 0 87 183 0 87 183 0 87 183 0 87 183 0 87 183 0 87 183 0 87 183 0 87 183 0 87 183 0 87 183 0 87 183 0 87 183 0 87 183 0 87 183 0 87 183 0 87 183 0 87 183 0 87 183 0 87 183 0 87 183 0 87 183 0 87 183 0 87 183 0 87 183 0 87 183 0 87 183 0 87 183 0 87 183 0 87 183 0 87 183 0 87 183 0 87 183 0 87 183 0 87 183 0 87 183 0 87 183 0 87 183 0 87 183 0 87 183 0 87 183 0 87 183 0 87 183 0 87 183 0 87 183 0 87 183 0 87 183 0 87 183 0 87 183 0 87 183 0 87 183 0 87 183 0 87 183 0 87 183 0 87 183 0 87 183 0 87 183 0 87 183 0 87 183 0 87 183 0 87 183 0 87 183 0 87 183 0 87 183 0 87 183 0 87 183 0 87 183 0 87 183 0 87 183 0 87 183 0 87 183 0 87 183 0 87 183 0 87 183 0 87 183 0 87 183 0 87 183 0 87 183 0 87 183 0 87 183 0 87 183 0 87 183 0 87 183 0 87 183 0 87 183 0 87 183 0 87 183 0 87 183 0 87 183 0 87 183 0 87 183 0 87 183 0 87 183 0 87 183 0 87 183 0 87 183 0 87 183 0 87 183 0 87 183 0 87 183 0 87 183 0 87 183 0 87 183 0 87 183 0 87 183 0 87 183 0 87 183 0 87 183 0 87 183 0 87 183 0 87 183 0 87 183 0 87 183 0 87 183 0 87 183 0 87 183 0 87 183 0 87 183 0 87 183 0 87 183 0 87 183 0 87 183 0 87 183 0 87 183 0 87 183 0 87 183 0 87 183 0 87 183 0 87 183 0 87 183 0 87 183 0 87 183 0 87 183 0 87 183 0 87 183 0 87 183 0 87 183 0 87 183 0 87 183 0 87 183 0 87 183 0 87 183 0 87 183 0 87 183 0 87 183 0 87 183 0 87 183 0 87 183 0 87 183 0 87 183 0 87 183 0 87 183 0 87 183 0 87 183 0 87 183 0 87 183 0 87 183 0 87 183 0 87 183 0 87 183 0 87 183 0 87 183 0 87 183 0 87 183 0 87 183 0 87 183 
0 87 183 0 87 183 0 87 183 0 87 183 0 87 183 0 87 183 0 87 183 0 87 183 0 87 183 0 87 183 0 87 183 0 87 183 0 87 183 0 87 183 0 87 183 0 87 183 0 87 183 0 87 183 0 87 183 0 87 183 0 87 183 0 87 183 0 87 183 0 87 183 0 87 183 0 87 183 0 87 183 0 87 183 0 87 183 0 87 183 0 87 183 0 87 183 0 87 183 0 87 183 0 87 183 0 87 183 0 87 183 0 87 183 0 87 183 0 87 183 0 87 183 0 87 183 0 87 183 0 87 183 0 87 183 0 87 183 0 87 183 0 87 183 0 87 183 0 87 183 0 87 183 0 87 183 0 87 183 0 87 183 0 87 183 0 87 183 0 87 183 0 87 183 0 87 183 0 87 183 0 87 183 0 87 183 0 87 183 0 87 183 0 87 183 0 87 183 0 87 183 0 87 183 0 87 183 0 87 183 0 87 183 0 87 183 0 87 183 0 87 183 0 87 183 0 87 183 0 87 183 0 87 183 0 87 183 0 87 183 0 87 183 0 87 183 0 87 183 0 87 183 0 87 183 0 87 183 0 87 183 0 87 183 0 87 183 0 87 183 0 87 183 0 87 183 0 87 183 0 87 183 0 87 183 0 87 183 0 87 183 0 87 183 0 87 183 0 87 183 0 87 183 0 87 183 0 87 183 0 87 183 0 87 183 0 87 183 0 87 183 0 87 183 0 87 183 0 87 183 0 87 183 0 87 183 0 87 183 0 87 183 0 87 183 0 87 183 0 87 183 0 87 183 0 87 183 0 87 183 0 87 183 0 87 183 0 87 183 0 87 183 0 87 183 0 87 183 0 87 183 0 87 183 0 87 183 0 87 183 0 87 183 0 87 183 0 87 183 0 87 183 0 87 183 0 87 183 0 87 183 0 87 183 0 87 183 0 87 183 0 87 183 0 87 183 0 87 183 0 87 183 0 87 183 0 87 183 0 87 183 0 87 183 0 87 183 0 87 183 0 87 183 0 87 183 0 87 183 0 87 183 0 87 183 0 87 183 0 87 183 0 87 183 0 87 183 0 87 183 0 87 183 0 87 183 0 87 183 0 87 183 0 87 183 0 87 183 0 87 183 0 87 183 0 87 183 0 87 183 0 87 183 0 87 183 0 87 183 0 87 183 0 87 183 0 87 183 0 87 183 0 87 183 0 87 183 0 87 183 0 87 183 0 87 183 0 87 183 0 87 183 0 87 183 0 87 183 0 87 183 0 87 183 0 87 183 0 87 183 0 87 183 0 87 183 0 87 183 0 87 183 0 87 183 0 87 183 0 87 183 0 87 183 0 87 183 0 87 183 0 87 183 0 87 183 0 87 183 0 87 183 0 87 183 0 87 183 0 87 183 0 87 183 0 87 183 0 87 183 0 87 183 0 87 183 0 87 183 0 87 183 0 87 183 0 87 183 0 87 183 0 87 183 0 87 183 0 87 183 0 87 183 0 87 183 0 87 183 0 87 183 0 87 183 0 87 183 0 87 183 0 87 183 0 87 183 0 87 183 0 87 183 0 87 183 0 87 183 0 87 183 0 87 183 0 87 183 0 87 183 0 87 183 0 87 183 0 87 183 0 87 183 0 87 183 0 87 183 0 87 183 0 87 183 0 87 183 0 87 183 0 87 183 0 87 183 0 87 183 0 87 183 0 87 183 0 87 183 0 87 183 0 87 183 0 87 183 0 87 183 0 87 183 0 87 183 0 87 183 0 87 183 0 87 183 0 87 183 0 87 183 0 87 183 0 87 183 0 87 183 0 87 183 0 87 183 0 87 183 0 87 183 0 87 183 0 87 183 0 87 183 0 87 183 0 87 183 0 87 183 0 87 183 0 87 183 0 87 183 0 87 183 0 87 183 0 87 183 0 87 183 0 87 183 0 87 183 0 87 183 0 87 183 0 87 183 0 87 183 0 87 183 0 87 183 0 87 183 0 87 183 0 87 183 0 87 183 0 87 183 0 87 183 0 87 183 0 87 183 
0 87 183 0 87 183 0 87 183 0 87 183 0 87 183 0 87 183 0 87 183 0 87 183 0 87 183 0 87 183 0 87 183 0 87 183 0 87 183 0 87 183 0 87 183 0 87 183 0 87 183 0 87 183 0 87 183 0 87 183 0 87 183 0 87 183 0 87 183 0 87 183 0 87 183 0 87 183 0 87 183 0 87 183 0 87 183 0 87 183 0 87 183 0 87 183 0 87 183 0 87 183 0 87 183 0 87 183 0 87 183 0 87 183 0 87 183 0 87 183 0 87 183 0 87 183 0 87 183 0 87 183 0 87 183 0 87 183 0 87 183 0 87 183 0 87 183 0 87 183 0 87 183 0 87 183 0 87 183 0 87 183 0 87 183 0 87 183 0 87 183 0 87 183 0 87 183 0 87 183 0 87 183 0 87 183 0 87 183 0 87 183 0 87 183 0 87 183 0 87 183 0 87 183 0 87 183 0 87 183 0 87 183 0 87 183 0 87 183 0 87 183 0 87 183 0 87 183 0 87 183 0 87 183 0 87 183 0 87 183 0 87 183 0 87 183 0 87 183 0 87 183 0 87 183 0 87 183 0 87 183 0 87 183 0 87 183 0 87 183 0 87 183 0 87 183 0 87 183 0 87 183 0 87 183 0 87 183 0 87 183 0 87 183 0 87 183 0 87 183 0 87 183 0 87 183 0 87 183 0 87 183 0 87 183 0 87 183 0 87 183 0 87 183 0 87 183 0 87 183 0 87 183 0 87 183 0 87 183 0 87 183 0 87 183 0 87 183 0 87 183 0 87 183 0 87 183 0 87 183 0 87 183 0 87 183 0 87 183 0 87 183 0 87 183 0 87 183 0 87 183 0 87 183 0 87 183 0 87 183 0 87 183 0 87 183 0 87 183 0 87 183 0 87 183 0 87 183 0 87 183 0 87 183 0 87 183 0 87 183 0 87 183 0 87 183 0 87 183 0 87 183 0 87 183 0 87 183 0 87 183 0 87 183 0 87 183 0 87 183 0 87 183 0 87 183 0 87 183 0 87 183 0 87 183 0 87 183 0 87 183 0 87 183 0 87 183 0 87 183 0 87 183 0 87 183 0 87 183 0 87 183 0 87 183 0 87 183 0 87 183 0 87 183 0 87 183 0 87 183 0 87 183 0 87 183 0 87 183 0 87 183 0 87 183 0 87 183 0 87 183 0 87 183 0 87 183 0 87 183 0 87 183 0 87 183 0 87 183 0 87 183 0 87 183 0 87 183 0 87 183 0 87 183 0 87 183 0 87 183 0 87 183 0 87 183 0 87 183 0 87 183 0 87 183 0 87 183 0 87 183 0 87 183 0 87 183 0 87 183 0 87 183 0 87 183 0 87 183 0 87 183 0 87 183 0 87 183 0 87 183 0 87 183 0 87 183 0 87 183 0 87 183 0 87 183 0 87 183 0 87 183 0 87 183 0 87 183 0 87 183 0 87 183 0 87 183 0 87 183 0 87 183 0 87 183 0 87 183 0 87 183 0 87 183 0 87 183 0 87 183 0 87 183 0 87 183 0 87 183 0 87 183 0 87 183 0 87 183 0 87 183 0 87 183 0 87 183 0 87 183 0 87 183 0 87 183 0 87 183 0 87 183 0 87 183 0 87 183 0 87 183 0 87 183 0 87 183 0 87 183 0 87 183 0 87 183 0 87 183 0 87 183 0 87 183 0 87 183 0 87 183 0 87 183 0 87 183 0 87 183 0 87 183 0 87 183 0 87 183 0 87 183 0 87 183 0 87 183 0 87 183 0 87 183 0 87 183 0 87 183 0 87 183 0 87 183 0 87 183 0 87 183 0 87 183 0 87 183 0 87 183 0 87 183 0 87 183 0 87 183 0 87 183 0 87 183 0 87 183 0 87 183 0 87 183 0 87 183 0 87 183 0 87 183 0 87 183 0 87 183 0 87 183 0 87 183 0 87 183 0 87 183 0 87 183 0 87 183 0 87 183 0 87 183 0 87 183 0 87 183 0 87 183 0 87 183 0 87 183 
0 87 183 0 87 183 0 87 183 0 87 183 0 87 183 0 87 183 0 87 183 0 87 183 0 87 183 0 87 183 0 87 183 0 87 183 0 87 183 0 87 183 0 87 183 0 87 183 0 87 183 0 87 183 0 87 183 0 87 183 0 87 183 0 87 183 0 87 183 0 87 183 0 87 183 0 87 183 0 87 183 0 87 183 0 87 183 0 87 183 0 87 183 0 87 183 0 87 183 0 87 183 0 87 183 0 87 183 0 87 183 0 87 183 0 87 183 0 87 183 0 87 183 0 87 183 0 87 183 0 87 183 0 87 183 0 87 183 0 87 183 0 87 183 0 87 183 0 87 183 0 87 183 0 87 183 0 87 183 0 87 183 0 87 183 0 87 183 0 87 183 0 87 183 0 87 183 0 87 183 0 87 183 0 87 183 0 87 183 0 87 183 0 87 183 0 87 183 0 87 183 0 87 183 0 87 183 0 87 183 0 87 183 0 87 183 0 87 183 0 87 183 0 87 183 0 87 183 0 87 183 0 87 183 0 87 183 0 87 183 0 87 183 0 87 183 0 87 183 0 87 183 0 87 183 0 87 183 0 87 183 0 87 183 0 87 183 0 87 183 0 87 183 0 87 183 0 87 183 0 87 183 0 87 183 0 87 183 0 87 183 0 87 183 0 87 183 0 87 183 0 87 183 0 87 183 0 87 183 0 87 183 0 87 183 0 87 183 0 87 183 0 87 183 0 87 183 0 87 183 0 87 183 0 87 183 0 87 183 0 87 183 0 87 183 0 87 183 0 87 183 0 87 183 0 87 183 0 87 183 0 87 183 0 87 183 0 87 183 0 87 183 0 87 183 0 87 183 0 87 183 0 87 183 0 87 183 0 87 183 0 87 183 0 87 183 0 87 183 0 87 183 0 87 183 0 87 183 0 87 183 0 87 183 0 87 183 0 87 183 0 87 183 0 87 183 0 87 183 0 87 183 0 87 183 0 87 183 0 87 183 0 87 183 0 87 183 0 87 183 0 87 183 0 87 183 0 87 183 0 87 183 0 87 183 0 87 183 0 87 183 0 87 183 0 87 183 0 87 183 0 87 183 0 87 183 0 87 183 0 87 183 0 87 183 0 87 183 0 87 183 0 87 183 0 87 183 0 87 183 0 87 183 0 87 183 0 87 183 0 87 183 0 87 183 0 87 183 0 87 183 0 87 183 0 87 183 0 87 183 0 87 183 0 87 183 0 87 183 0 87 183 0 87 183 0 87 183 0 87 183 0 87 183 0 87 183 0 87 183 0 87 183 0 87 183 0 87 183 0 87 183 0 87 183 0 87 183 0 87 183 0 87 183 0 87 183 0 87 183 0 87 183 0 87 183 0 87 183 0 87 183 0 87 183 0 87 183 0 87 183 0 87 183 0 87 183 0 87 183 0 87 183 0 87 183 0 87 183 0 87 183 0 87 183 0 87 183 0 87 183 0 87 183 0 87 183 0 87 183 0 87 183 0 87 183 0 87 183 0 87 183 0 87 183 0 87 183 0 87 183 0 87 183 0 87 183 0 87 183 0 87 183 0 87 183 0 87 183 0 87 183 0 87 183 0 87 183 0 87 183 0 87 183 0 87 183 0 87 183 0 87 183 0 87 183 0 87 183 0 87 183 0 87 183 0 87 183 0 87 183 0 87 183 0 87 183 0 87 183 0 87 183 0 87 183 0 87 183 0 87 183 0 87 183 0 87 183 0 87 183 0 87 183 0 87 183 0 87 183 0 87 183 0 87 183 0 87 183 0 87 183 0 87 183 0 87 183 0 87 183 0 87 183 0 87 183 0 87 183 0 87 183 0 87 183 0 87 183 0 87 183 0 87 183 0 87 183 0 87 183 0 87 183 0 87 183 0 87 183 0 87 183 0 87 183 0 87 183 0 87 183 0 87 183 0 87 183 0 87 183 0 87 183 0 87 183 0 87 183 0 87 183 0 87 183 0 87 183 0 87 183 0 87 183 0 87 183 0 87 183 0 87 183 0 87 183 0 87 183 
0 87 183 0 87 183 0 87 183 0 87 183 0 87 183 0 87 183 0 87 183 0 87 183 0 87 183 0 87 183 0 87 183 0 87 183 0 87 183 0 87 183 0 87 183 0 87 183 0 87 183 0 87 183 0 87 183 0 87 183 0 87 183 0 87 183 0 87 183 0 87 183 0 87 183 0 87 183 0 87 183 0 87 183 0 87 183 0 87 183 0 87 183 0 87 183 0 87 183 0 87 183 0 87 183 0 87 183 0 87 183 0 87 183 0 87 183 0 87 183 0 87 183 0 87 183 0 87 183 0 87 183 0 87 183 0 87 183 0 87 183 0 87 183 0 87 183 0 87 183 0 87 183 0 87 183 0 87 183 0 87 183 0 87 183 0 87 183 0 87 183 0 87 183 0 87 183 0 87 183 0 87 183 0 87 183 0 87 183 0 87 183 0 87 183 0 87 183 0 87 183 0 87 183 0 87 183 0 87 183 0 87 183 0 87 183 0 87 183 0 87 183 0 87 183 0 87 183 0 87 183 0 87 183 0 87 183 0 87 183 0 87 183 0 87 183 0 87 183 0 87 183 0 87 183 0 87 183 0 87 183 0 87 183 0 87 183 0 87 183 0 87 183 0 87 183 0 87 183 0 87 183 0 87 183 0 87 183 0 87 183 0 87 183 0 87 183 0 87 183 0 87 183 0 87 183 0 87 183 0 87 183 0 87 183 0 87 183 0 87 183 0 87 183 0 87 183 0 87 183 0 87 183 0 87 183 0 87 183 0 87 183 0 87 183 0 87 183 0 87 183 0 87 183 0 87 183 0 87 183 0 87 183 0 87 183 0 87 183 0 87 183 0 87 183 0 87 183 0 87 183 0 87 183 0 87 183 0 87 183 0 87 183 0 87 183 0 87 183 0 87 183 0 87 183 0 87 183 0 87 183 0 87 183 0 87 183 0 87 183 0 87 183 0 87 183 0 87 183 0 87 183 0 87 183 0 87 183 0 87 183 0 87 183 0 87 183 0 87 183 0 87 183 0 87 183 0 87 183 0 87 183 0 87 183 0 87 183 0 87 183 0 87 183 0 87 183 0 87 183 0 87 183 0 87 183 0 87 183 0 87 183 0 87 183 0 87 183 0 87 183 0 87 183 0 87 183 0 87 183 0 87 183 0 87 183 0 87 183 0 87 183 0 87 183 0 87 183 0 87 183 0 87 183 0 87 183 0 87 183 0 87 183 0 87 183 0 87 183 0 87 183 0 87 183 0 87 183 0 87 183 0 87 183 0 87 183 0 87 183 0 87 183 0 87 183 0 87 183 0 87 183 0 87 183 0 87 183 0 87 183 0 87 183 0 87 183 0 87 183 0 87 183 0 87 183 0 87 183 0 87 183 0 87 183 0 87 183 0 87 183 0 87 183 0 87 183 0 87 183 0 87 183 0 87 183 0 87 183 0 87 183 0 87 183 0 87 183 0 87 183 0 87 183 0 87 183 0 87 183 0 87 183 0 87 183 0 87 183 0 87 183 0 87 183 0 87 183 0 87 183 0 87 183 0 87 183 0 87 183 0 87 183 0 87 183 0 87 183 0 87 183 0 87 183 0 87 183 0 87 183 0 87 183 0 87 183 0 87 183 0 87 183 0 87 183 0 87 183 0 87 183 0 87 183 0 87 183 0 87 183 0 87 183 0 87 183 0 87 183 0 87 183 0 87 183 0 87 183 0 87 183 0 87 183 0 87 183 0 87 183 0 87 183 0 87 183 0 87 183 0 87 183 0 87 183 0 87 183 0 87 183 0 87 183 0 87 183 0 87 183 0 87 183 0 87 183 0 87 183 0 87 183 0 87 183 0 87 183 0 87 183 0 87 183 0 87 183 0 87 183 0 87 183 0 87 183 0 87 183 0 87 183 0 87 183 0 87 183 0 87 183 0 87 183 0 87 183 0 87 183 0 87 183 0 87 183 0 87 183 0 87 183 0 87 183 0 87 183 0 87 183 0 87 183 0 87 183 0 87 183 0 87 183 0 87 183 0 87 183 
0 87 183 0 87 183 0 87 183 0 87 183 0 87 183 0 87 183 0 87 183 0 87 183 0 87 183 0 87 183 0 87 183 0 87 183 0 87 183 0 87 183 0 87 183 0 87 183 0 87 183 0 87 183 0 87 183 0 87 183 0 87 183 0 87 183 0 87 183 0 87 183 0 87 183 0 87 183 0 87 183 0 87 183 0 87 183 0 87 183 0 87 183 0 87 183 0 87 183 0 87 183 0 87 183 0 87 183 0 87 183 0 87 183 0 87 183 0 87 183 0 87 183 0 87 183 0 87 183 0 87 183 0 87 183 0 87 183 0 87 183 0 87 183 0 87 183 0 87 183 0 87 183 0 87 183 0 87 183 0 87 183 0 87 183 0 87 183 0 87 183 0 87 183 0 87 183 0 87 183 0 87 183 0 87 183 0 87 183 0 87 183 0 87 183 0 87 183 0 87 183 0 87 183 0 87 183 0 87 183 0 87 183 0 87 183 0 87 183 0 87 183 0 87 183 0 87 183 0 87 183 0 87 183 0 87 183 0 87 183 0 87 183 0 87 183 0 87 183 0 87 183 0 87 183 0 87 183 0 87 183 0 87 183 0 87 183 0 87 183 0 87 183 0 87 183 0 87 183 0 87 183 0 87 183 0 87 183 0 87 183 0 87 183 0 87 183 0 87 183 0 87 183 0 87 183 0 87 183 0 87 183 0 87 183 0 87 183 0 87 183 0 87 183 0 87 183 0 87 183 0 87 183 0 87 183 0 87 183 0 87 183 0 87 183 0 87 183 0 87 183 0 87 183 0 87 183 0 87 183 0 87 183 0 87 183 0 87 183 0 87 183 0 87 183 0 87 183 0 87 183 0 87 183 0 87 183 0 87 183 0 87 183 0 87 183 0 87 183 0 87 183 0 87 183 0 87 183 0 87 183 0 87 183 0 87 183 0 87 183 0 87 183 0 87 183 0 87 183 0 87 183 0 87 183 0 87 183 0 87 183 0 87 183 0 87 183 0 87 183 0 87 183 0 87 183 0 87 183 0 87 183 0 87 183 0 87 183 0 87 183 0 87 183 0 87 183 0 87 183 0 87 183 0 87 183 0 87 183 0 87 183 0 87 183 0 87 183 0 87 183 0 87 183 0 87 183 0 87 183 0 87 183 0 87 183 0 87 183 0 87 183 0 87 183 0 87 183 0 87 183 0 87 183 0 87 183 0 87 183 0 87 183 0 87 183 0 87 183 0 87 183 0 87 183 0 87 183 0 87 183 0 87 183 0 87 183 0 87 183 0 87 183 0 87 183 0 87 183 0 87 183 0 87 183 0 87 183 0 87 183 0 87 183 0 87 183 0 87 183 0 87 183 0 87 183 0 87 183 0 87 183 0 87 183 0 87 183 0 87 183 0 87 183 0 87 183 0 87 183 0 87 183 0 87 183 0 87 183 0 87 183 0 87 183 0 87 183 0 87 183 0 87 183 0 87 183 0 87 183 0 87 183 0 87 183 0 87 183 0 87 183 0 87 183 0 87 183 0 87 183 0 87 183 0 87 183 0 87 183 0 87 183 0 87 183 0 87 183 0 87 183 0 87 183 0 87 183 0 87 183 0 87 183 0 87 183 0 87 183 0 87 183 0 87 183 0 87 183 0 87 183 0 87 183 0 87 183 0 87 183 0 87 183 0 87 183 0 87 183 0 87 183 0 87 183 0 87 183 0 87 183 0 87 183 0 87 183 0 87 183 0 87 183 0 87 183 0 87 183 0 87 183 0 87 183 0 87 183 0 87 183 0 87 183 0 87 183 0 87 183 0 87 183 0 87 183 0 87 183 0 87 183 0 87 183 0 87 183 0 87 183 0 87 183 0 87 183 0 87 183 0 87 183 0 87 183 0 87 183 0 87 183 0 87 183 0 87 183 0 87 183 0 87 183 0 87 183 0 87 183 0 87 183 0 87 183 0 87 183 0 87 183 0 87 183 0 87 183 0 87 183 0 87 183 0 87 183 0 87 183 0 87 183 0 87 183 0 87 183 
0 87 183 0 87 183 0 87 183 0 87 183 0 87 183 0 87 183 0 87 183 0 87 183 0 87 183 0 87 183 0 87 183 0 87 183 0 87 183 0 87 183 0 87 183 0 87 183 0 87 183 0 87 183 0 87 183 0 87 183 0 87 183 0 87 183 0 87 183 0 87 183 0 87 183 0 87 183 0 87 183 0 87 183 0 87 183 0 87 183 0 87 183 0 87 183 0 87 183 0 87 183 0 87 183 0 87 183 0 87 183 0 87 183 0 87 183 0 87 183 0 87 183 0 87 183 0 87 183 0 87 183 0 87 183 0 87 183 0 87 183 0 87 183 0 87 183 0 87 183 0 87 183 0 87 183 0 87 183 0 87 183 0 87 183 0 87 183 0 87 183 0 87 183 0 87 183 0 87 183 0 87 183 0 87 183 0 87 183 0 87 183 0 87 183 0 87 183 0 87 183 0 87 183 0 87 183 0 87 183 0 87 183 0 87 183 0 87 183 0 87 183 0 87 183 0 87 183 0 87 183 0 87 183 0 87 183 0 87 183 0 87 183 0 87 183 0 87 183 0 87 183 0 87 183 0 87 183 0 87 183 0 87 183 0 87 183 0 87 183 0 87 183 0 87 183 0 87 183 0 87 183 0 87 183 0 87 183 0 87 183 0 87 183 0 87 183 0 87 183 0 87 183 0 87 183 0 87 183 0 87 183 0 87 183 0 87 183 0 87 183 0 87 183 0 87 183 0 87 183 0 87 183 0 87 183 0 87 183 0 87 183 0 87 183 0 87 183 0 87 183 0 87 183 0 87 183 0 87 183 0 87 183 0 87 183 0 87 183 0 87 183 0 87 183 0 87 183 0 87 183 0 87 183 0 87 183 0 87 183 0 87 183 0 87 183 0 87 183 0 87 183 0 87 183 0 87 183 0 87 183 0 87 183 0 87 183 0 87 183 0 87 183 0 87 183 0 87 183 0 87 183 0 87 183 0 87 183 0 87 183 0 87 183 0 87 183 0 87 183 0 87 183 0 87 183 0 87 183 0 87 183 0 87 183 0 87 183 0 87 183 0 87 183 0 87 183 0 87 183 0 87 183 0 87 183 0 87 183 0 87 183 0 87 183 0 87 183 0 87 183 0 87 183 0 87 183 0 87 183 0 87 183 0 87 183 0 87 183 0 87 183 0 87 183 0 87 183 0 87 183 0 87 183 0 87 183 0 87 183 0 87 183 0 87 183 0 87 183 0 87 183 0 87 183 0 87 183 0 87 183 0 87 183 0 87 183 0 87 183 0 87 183 0 87 183 0 87 183 0 87 183 0 87 183 0 87 183 0 87 183 0 87 183 0 87 183 0 87 183 0 87 183 0 87 183 0 87 183 0 87 183 0 87 183 0 87 183 0 87 183 0 87 183 0 87 183 0 87 183 0 87 183 0 87 183 0 87 183 0 87 183 0 87 183 0 87 183 0 87 183 0 87 183 0 87 183 0 87 183 0 87 183 0 87 183 0 87 183 0 87 183 0 87 183 0 87 183 0 87 183 0 87 183 0 87 183 0 87 183 0 87 183 0 87 183 0 87 183 0 87 183 0 87 183 0 87 183 0 87 183 0 87 183 0 87 183 0 87 183 0 87 183 0 87 183 0 87 183 0 87 183 0 87 183 0 87 183 0 87 183 0 87 183 0 87 183 0 87 183 0 87 183 0 87 183 0 87 183 0 87 183 0 87 183 0 87 183 0 87 183 0 87 183 0 87 183 0 87 183 0 87 183 0 87 183 0 87 183 0 87 183 0 87 183 0 87 183 0 87 183 0 87 183 0 87 183 0 87 183 0 87 183 0 87 183 0 87 183 0 87 183 0 87 183 0 87 183 0 87 183 0 87 183 0 87 183 0 87 183 0 87 183 0 87 183 0 87 183 0 87 183 0 87 183 0 87 183 0 87 183 0 87 183 0 87 183 0 87 183 0 87 183 0 87 183 0 87 183 0 87 183 0 87 183 0 87 183 0 87 183 0 87 183 0 87 183 0 87 183 
0 87 183 0 87 183 0 87 183 0 87 183 0 87 183 0 87 183 0 87 183 0 87 183 0 87 183 0 87 183 0 87 183 0 87 183 0 87 183 0 87 183 0 87 183 0 87 183 0 87 183 0 87 183 0 87 183 0 87 183 0 87 183 0 87 183 0 87 183 0 87 183 0 87 183 0 87 183 0 87 183 0 87 183 0 87 183 0 87 183 0 87 183 0 87 183 0 87 183 0 87 183 0 87 183 0 87 183 0 87 183 0 87 183 0 87 183 0 87 183 0 87 183 0 87 183 0 87 183 0 87 183 0 87 183 0 87 183 0 87 183 0 87 183 0 87 183 0 87 183 0 87 183 0 87 183 0 87 183 0 87 183 0 87 183 0 87 183 0 87 183 0 87 183 0 87 183 0 87 183 0 87 183 0 87 183 0 87 183 0 87 183 0 87 183 0 87 183 0 87 183 0 87 183 0 87 183 0 87 183 0 87 183 0 87 183 0 87 183 0 87 183 0 87 183 0 87 183 0 87 183 0 87 183 0 87 183 0 87 183 0 87 183 0 87 183 0 87 183 0 87 183 0 87 183 0 87 183 0 87 183 0 87 183 0 87 183 0 87 183 0 87 183 0 87 183 0 87 183 0 87 183 0 87 183 0 87 183 0 87 183 0 87 183 0 87 183 0 87 183 0 87 183 0 87 183 0 87 183 0 87 183 0 87 183 0 87 183 0 87 183 0 87 183 0 87 183 0 87 183 0 87 183 0 87 183 0 87 183 0 87 183 0 87 183 0 87 183 0 87 183 0 87 183 0 87 183 0 87 183 0 87 183 0 87 183 0 87 183 0 87 183 0 87 183 0 87 183 0 87 183 0 87 183 0 87 183 0 87 183 0 87 183 0 87 183 0 87 183 0 87 183 0 87 183 0 87 183 0 87 183 0 87 183 0 87 183 0 87 183 0 87 183 0 87 183 0 87 183 0 87 183 0 87 183 0 87 183 0 87 183 0 87 183 0 87 183 0 87 183 0 87 183 0 87 183 0 87 183 0 87 183 0 87 183 0 87 183 0 87 183 0 87 183 0 87 183 0 87 183 0 87 183 0 87 183 0 87 183 0 87 183 0 87 183 0 87 183 0 87 183 0 87 183 0 87 183 0 87 183 0 87 183 0 87 183 0 87 183 0 87 183 0 87 183 0 87 183 0 87 183 0 87 183 0 87 183 0 87 183 0 87 183 0 87 183 0 87 183 0 87 183 0 87 183 0 87 183 0 87 183 0 87 183 0 87 183 0 87 183 0 87 183 0 87 183 0 87 183 0 87 183 0 87 183 0 87 183 0 87 183 0 87 183 0 87 183 0 87 183 0 87 183 0 87 183 0 87 183 0 87 183 0 87 183 0 87 183 0 87 183 0 87 183 0 87 183 0 87 183 0 87 183 0 87 183 0 87 183 0 87 183 0 87 183 0 87 183 0 87 183 0 87 183 0 87 183 0 87 183 0 87 183 0 87 183 0 87 183 0 87 183 0 87 183 0 87 183 0 87 183 0 87 183 0 87 183 0 87 183 0 87 183 0 87 183 0 87 183 0 87 183 0 87 183 0 87 183 0 87 183 0 87 183 0 87 183 0 87 183 0 87 183 0 87 183 0 87 183 0 87 183 0 87 183 0 87 183 0 87 183 0 87 183 0 87 183 0 87 183 0 87 183 0 87 183 0 87 183 0 87 183 0 87 183 0 87 183 0 87 183 0 87 183 0 87 183 0 87 183 0 87 183 0 87 183 0 87 183 0 87 183 0 87 183 0 87 183 0 87 183 0 87 183 0 87 183 0 87 183 0 87 183 0 87 183 0 87 183 0 87 183 0 87 183 0 87 183 0 87 183 0 87 183 0 87 183 0 87 183 0 87 183 0 87 183 0 87 183 0 87 183 0 87 183 0 87 183 0 87 183 0 87 183 0 87 183 0 87 183 0 87 183 0 87 183 0 87 183 0 87 183 0 87 183 0 87 183 0 87 183 0 87 183 0 87 183 0 87 183 
0 87 183 0 87 183 0 87 183 0 87 183 0 87 183 0 87 183 0 87 183 0 87 183 0 87 183 0 87 183 0 87 183 0 87 183 0 87 183 0 87 183 0 87 183 0 87 183 0 87 183 0 87 183 0 87 183 0 87 183 0 87 183 0 87 183 0 87 183 0 87 183 0 87 183 0 87 183 0 87 183 0 87 183 0 87 183 0 87 183 0 87 183 0 87 183 0 87 183 0 87 183 0 87 183 0 87 183 0 87 183 0 87 183 0 87 183 0 87 183 0 87 183 0 87 183 0 87 183 0 87 183 0 87 183 0 87 183 0 87 183 0 87 183 0 87 183 0 87 183 0 87 183 0 87 183 0 87 183 0 87 183 0 87 183 0 87 183 0 87 183 0 87 183 0 87 183 0 87 183 0 87 183 0 87 183 0 87 183 0 87 183 0 87 183 0 87 183 0 87 183 0 87 183 0 87 183 0 87 183 0 87 183 0 87 183 0 87 183 0 87 183 0 87 183 0 87 183 0 87 183 0 87 183 0 87 183 0 87 183 0 87 183 0 87 183 0 87 183 0 87 183 0 87 183 0 87 183 0 87 183 0 87 183 0 87 183 0 87 183 0 87 183 0 87 183 0 87 183 0 87 183 0 87 183 0 87 183 0 87 183 0 87 183 0 87 183 0 87 183 0 87 183 0 87 183 0 87 183 0 87 183 0 87 183 0 87 183 0 87 183 0 87 183 0 87 183 0 87 183 0 87 183 0 87 183 0 87 183 0 87 183 0 87 183 0 87 183 0 87 183 0 87 183 0 87 183 0 87 183 0 87 183 0 87 183 0 87 183 0 87 183 0 87 183 0 87 183 0 87 183 0 87 183 0 87 183 0 87 183 0 87 183 0 87 183 0 87 183 0 87 183 0 87 183 0 87 183 0 87 183 0 87 183 0 87 183 0 87 183 0 87 183 0 87 183 0 87 183 0 87 183 0 87 183 0 87 183 0 87 183 0 87 183 0 87 183 0 87 183 0 87 183 0 87 183 0 87 183 0 87 183 0 87 183 0 87 183 0 87 183 0 87 183 0 87 183 0 87 183 0 87 183 0 87 183 0 87 183 0 87 183 0 87 183 0 87 183 0 87 183 0 87 183 0 87 183 0 87 183 0 87 183 0 87 183 0 87 183 0 87 183 0 87 183 0 87 183 0 87 183 0 87 183 0 87 183 0 87 183 0 87 183 0 87 183 0 87 183 0 87 183 0 87 183 0 87 183 0 87 183 0 87 183 0 87 183 0 87 183 0 87 183 0 87 183 0 87 183 0 87 183 0 87 183 0 87 183 0 87 183 0 87 183 0 87 183 0 87 183 0 87 183 0 87 183 0 87 183 0 87 183 0 87 183 0 87 183 0 87 183 0 87 183 0 87 183 0 87 183 0 87 183 0 87 183 0 87 183 0 87 183 0 87 183 0 87 183 0 87 183 0 87 183 0 87 183 0 87 183 0 87 183 0 87 183 0 87 183 0 87 183 0 87 183 0 87 183 0 87 183 0 87 183 0 87 183 0 87 183 0 87 183 0 87 183 0 87 183 0 87 183 0 87 183 0 87 183 0 87 183 0 87 183 0 87 183 0 87 183 0 87 183 0 87 183 0 87 183 0 87 183 0 87 183 0 87 183 0 87 183 0 87 183 0 87 183 0 87 183 0 87 183 0 87 183 0 87 183 0 87 183 0 87 183 0 87 183 0 87 183 0 87 183 0 87 183 0 87 183 0 87 183 0 87 183 0 87 183 0 87 183 0 87 183 0 87 183 0 87 183 0 87 183 0 87 183 0 87 183 0 87 183 0 87 183 0 87 183 0 87 183 0 87 183 0 87 183 0 87 183 0 87 183 0 87 183 0 87 183 0 87 183 0 87 183 0 87 183 0 87 183 0 87 183 0 87 183 0 87 183 0 87 183 0 87 183 0 87 183 0 87 183 0 87 183 0 87 183 0 87 183 0 87 183 0 87 183 0 87 183 0 87 183 0 87 183 0 87 183 
0 87 183 0 87 183 0 87 183 0 87 183 0 87 183 0 87 183 0 87 183 0 87 183 0 87 183 0 87 183 0 87 183 0 87 183 0 87 183 0 87 183 0 87 183 0 87 183 0 87 183 0 87 183 0 87 183 0 87 183 0 87 183 0 87 183 0 87 183 0 87 183 0 87 183 0 87 183 0 87 183 0 87 183 0 87 183 0 87 183 0 87 183 0 87 183 0 87 183 0 87 183 0 87 183 0 87 183 0 87 183 0 87 183 0 87 183 0 87 183 0 87 183 0 87 183 0 87 183 0 87 183 0 87 183 0 87 183 0 87 183 0 87 183 0 87 183 0 87 183 0 87 183 0 87 183 0 87 183 0 87 183 0 87 183 0 87 183 0 87 183 0 87 183 0 87 183 0 87 183 0 87 183 0 87 183 0 87 183 0 87 183 0 87 183 0 87 183 0 87 183 0 87 183 0 87 183 0 87 183 0 87 183 0 87 183 0 87 183 0 87 183 0 87 183 0 87 183 0 87 183 0 87 183 0 87 183 0 87 183 0 87 183 0 87 183 0 87 183 0 87 183 0 87 183 0 87 183 0 87 183 0 87 183 0 87 183 0 87 183 0 87 183 0 87 183 0 87 183 0 87 183 0 87 183 0 87 183 0 87 183 0 87 183 0 87 183 0 87 183 0 87 183 0 87 183 0 87 183 0 87 183 0 87 183 0 87 183 0 87 183 0 87 183 0 87 183 0 87 183 0 87 183 0 87 183 0 87 183 0 87 183 0 87 183 0 87 183 0 87 183 0 87 183 0 87 183 0 87 183 0 87 183 0 87 183 0 87 183 0 87 183 0 87 183 0 87 183 0 87 183 0 87 183 0 87 183 0 87 183 0 87 183 0 87 183 0 87 183 0 87 183 0 87 183 0 87 183 0 87 183 0 87 183 0 87 183 0 87 183 0 87 183 0 87 183 0 87 183 0 87 183 0 87 183 0 87 183 0 87 183 0 87 183 0 87 183 0 87 183 0 87 183 0 87 183 0 87 183 0 87 183 0 87 183 0 87 183 0 87 183 0 87 183 0 87 183 0 87 183 0 87 183 0 87 183 0 87 183 0 87 183 0 87 183 0 87 183 0 87 183 0 87 183 0 87 183 0 87 183 0 87 183 0 87 183 0 87 183 0 87 183 0 87 183 0 87 183 0 87 183 0 87 183 0 87 183 0 87 183 0 87 183 0 87 183 0 87 183 0 87 183 0 87 183 0 87 183 0 87 183 0 87 183 0 87 183 0 87 183 0 87 183 0 87 183 0 87 183 0 87 183 0 87 183 0 87 183 0 87 183 0 87 183 0 87 183 0 87 183 0 87 183 0 87 183 0 87 183 0 87 183 0 87 183 0 87 183 0 87 183 0 87 183 0 87 183 0 87 183 0 87 183 0 87 183 0 87 183 0 87 183 0 87 183 0 87 183 0 87 183 0 87 183 0 87 183 0 87 183 0 87 183 0 87 183 0 87 183 0 87 183 0 87 183 0 87 183 0 87 183 0 87 183 0 87 183 0 87 183 0 87 183 0 87 183 0 87 183 0 87 183 0 87 183 0 87 183 0 87 183 0 87 183 0 87 183 0 87 183 0 87 183 0 87 183 0 87 183 0 87 183 0 87 183 0 87 183 0 87 183 0 87 183 0 87 183 0 87 183 0 87 183 0 87 183 0 87 183 0 87 183 0 87 183 0 87 183 0 87 183 0 87 183 0 87 183 0 87 183 0 87 183 0 87 183 0 87 183 0 87 183 0 87 183 0 87 183 0 87 183 0 87 183 0 87 183 0 87 183 0 87 183 0 87 183 0 87 183 0 87 183 0 87 183 0 87 183 0 87 183 0 87 183 0 87 183 0 87 183 0 87 183 0 87 183 0 87 183 0 87 183 0 87 183 0 87 183 0 87 183 0 87 183 0 87 183 0 87 183 0 87 183 0 87 183 0 87 183 0 87 183 0 87 183 0 87 183 0 87 183 0 87 183 0 87 183 0 87 183 
0 87 183 0 87 183 0 87 183 0 87 183 0 87 183 0 87 183 0 87 183 0 87 183 0 87 183 0 87 183 0 87 183 0 87 183 0 87 183 0 87 183 0 87 183 0 87 183 0 87 183 0 87 183 0 87 183 0 87 183 0 87 183 0 87 183 0 87 183 0 87 183 0 87 183 0 87 183 0 87 183 0 87 183 0 87 183 0 87 183 0 87 183 0 87 183 0 87 183 0 87 183 0 87 183 0 87 183 0 87 183 0 87 183 0 87 183 0 87 183 0 87 183 0 87 183 0 87 183 0 87 183 0 87 183 0 87 183 0 87 183 0 87 183 0 87 183 0 87 183 0 87 183 0 87 183 0 87 183 0 87 183 0 87 183 0 87 183 0 87 183 0 87 183 0 87 183 0 87 183 0 87 183 0 87 183 0 87 183 0 87 183 0 87 183 0 87 183 0 87 183 0 87 183 0 87 183 0 87 183 0 87 183 0 87 183 0 87 183 0 87 183 0 87 183 0 87 183 0 87 183 0 87 183 0 87 183 0 87 183 0 87 183 0 87 183 0 87 183 0 87 183 0 87 183 0 87 183 0 87 183 0 87 183 0 87 183 0 87 183 0 87 183 0 87 183 0 87 183 0 87 183 0 87 183 0 87 183 0 87 183 0 87 183 0 87 183 0 87 183 0 87 183 0 87 183 0 87 183 0 87 183 0 87 183 0 87 183 0 87 183 0 87 183 0 87 183 0 87 183 0 87 183 0 87 183 0 87 183 0 87 183 0 87 183 0 87 183 0 87 183 0 87 183 0 87 183 0 87 183 0 87 183 0 87 183 0 87 183 0 87 183 0 87 183 0 87 183 0 87 183 0 87 183 0 87 183 0 87 183 0 87 183 0 87 183 0 87 183 0 87 183 0 87 183 0 87 183 0 87 183 0 87 183 0 87 183 0 87 183 0 87 183 0 87 183 0 87 183 0 87 183 0 87 183 0 87 183 0 87 183 0 87 183 0 87 183 0 87 183 0 87 183 0 87 183 0 87 183 0 87 183 0 87 183 0 87 183 0 87 183 0 87 183 0 87 183 0 87 183 0 87 183 0 87 183 0 87 183 0 87 183 0 87 183 0 87 183 0 87 183 0 87 183 0 87 183 0 87 183 0 87 183 0 87 183 0 87 183 0 87 183 0 87 183 0 87 183 0 87 183 0 87 183 0 87 183 0 87 183 0 87 183 0 87 183 0 87 183 0 87 183 0 87 183 0 87 183 0 87 183 0 87 183 0 87 183 0 87 183 0 87 183 0 87 183 0 87 183 0 87 183 0 87 183 0 87 183 0 87 183 0 87 183 0 87 183 0 87 183 0 87 183 0 87 183 0 87 183 0 87 183 0 87 183 0 87 183 0 87 183 0 87 183 0 87 183 0 87 183 0 87 183 0 87 183 0 87 183 0 87 183 0 87 183 0 87 183 0 87 183 0 87 183 0 87 183 0 87 183 0 87 183 0 87 183 0 87 183 0 87 183 0 87 183 0 87 183 0 87 183 0 87 183 0 87 183 0 87 183 0 87 183 0 87 183 0 87 183 0 87 183 0 87 183 0 87 183 0 87 183 0 87 183 0 87 183 0 87 183 0 87 183 0 87 183 0 87 183 0 87 183 0 87 183 0 87 183 0 87 183 0 87 183 0 87 183 0 87 183 0 87 183 0 87 183 0 87 183 0 87 183 0 87 183 0 87 183 0 87 183 0 87 183 0 87 183 0 87 183 0 87 183 0 87 183 0 87 183 0 87 183 0 87 183 0 87 183 0 87 183 0 87 183 0 87 183 0 87 183 0 87 183 0 87 183 0 87 183 0 87 183 0 87 183 0 87 183 0 87 183 0 87 183 0 87 183 0 87 183 0 87 183 0 87 183 0 87 183 0 87 183 0 87 183 0 87 183 0 87 183 0 87 183 0 87 183 0 87 183 0 87 183 0 87 183 0 87 183 0 87 183 0 87 183 0 87 183 0 87 183 0 87 183 0 87 183 0 87 183 
0 87 183 0 87 183 0 87 183 0 87 183 0 87 183 0 87 183 0 87 183 0 87 183 0 87 183 0 87 183 0 87 183 0 87 183 0 87 183 0 87 183 0 87 183 0 87 183 0 87 183 0 87 183 0 87 183 0 87 183 0 87 183 0 87 183 0 87 183 0 87 183 0 87 183 0 87 183 0 87 183 0 87 183 0 87 183 0 87 183 0 87 183 0 87 183 0 87 183 0 87 183 0 87 183 0 87 183 0 87 183 0 87 183 0 87 183 0 87 183 0 87 183 0 87 183 0 87 183 0 87 183 0 87 183 0 87 183 0 87 183 0 87 183 0 87 183 0 87 183 0 87 183 0 87 183 0 87 183 0 87 183 0 87 183 0 87 183 0 87 183 0 87 183 0 87 183 0 87 183 0 87 183 0 87 183 0 87 183 0 87 183 0 87 183 0 87 183 0 87 183 0 87 183 0 87 183 0 87 183 0 87 183 0 87 183 0 87 183 0 87 183 0 87 183 0 87 183 0 87 183 0 87 183 0 87 183 0 87 183 0 87 183 0 87 183 0 87 183 0 87 183 0 87 183 0 87 183 0 87 183 0 87 183 0 87 183 0 87 183 0 87 183 0 87 183 0 87 183 0 87 183 0 87 183 0 87 183 0 87 183 0 87 183 0 87 183 0 87 183 0 87 183 0 87 183 0 87 183 0 87 183 0 87 183 0 87 183 0 87 183 0 87 183 0 87 183 0 87 183 0 87 183 0 87 183 0 87 183 0 87 183 0 87 183 0 87 183 0 87 183 0 87 183 0 87 183 0 87 183 0 87 183 0 87 183 0 87 183 0 87 183 0 87 183 0 87 183 0 87 183 0 87 183 0 87 183 0 87 183 0 87 183 0 87 183 0 87 183 0 87 183 0 87 183 0 87 183 0 87 183 0 87 183 0 87 183 0 87 183 0 87 183 0 87 183 0 87 183 0 87 183 0 87 183 0 87 183 0 87 183 0 87 183 0 87 183 0 87 183 0 87 183 0 87 183 0 87 183 0 87 183 0 87 183 0 87 183 0 87 183 0 87 183 0 87 183 0 87 183 0 87 183 0 87 183 0 87 183 0 87 183 0 87 183 0 87 183 0 87 183 0 87 183 0 87 183 0 87 183 0 87 183 0 87 183 0 87 183 0 87 183 0 87 183 0 87 183 0 87 183 0 87 183 0 87 183 0 87 183 0 87 183 0 87 183 0 87 183 0 87 183 0 87 183 0 87 183 0 87 183 0 87 183 0 87 183 0 87 183 0 87 183 0 87 183 0 87 183 0 87 183 0 87 183 0 87 183 0 87 183 0 87 183 0 87 183 0 87 183 0 87 183 0 87 183 0 87 183 0 87 183 0 87 183 0 87 183 0 87 183 0 87 183 0 87 183 0 87 183 0 87 183 0 87 183 0 87 183 0 87 183 0 87 183 0 87 183 0 87 183 0 87 183 0 87 183 0 87 183 0 87 183 0 87 183 0 87 183 0 87 183 0 87 183 0 87 183 0 87 183 0 87 183 0 87 183 0 87 183 0 87 183 0 87 183 0 87 183 0 87 183 0 87 183 0 87 183 0 87 183 0 87 183 0 87 183 0 87 183 0 87 183 0 87 183 0 87 183 0 87 183 0 87 183 0 87 183 0 87 183 0 87 183 0 87 183 0 87 183 0 87 183 0 87 183 0 87 183 0 87 183 0 87 183 0 87 183 0 87 183 0 87 183 0 87 183 0 87 183 0 87 183 0 87 183 0 87 183 0 87 183 0 87 183 0 87 183 0 87 183 0 87 183 0 87 183 0 87 183 0 87 183 0 87 183 0 87 183 0 87 183 0 87 183 0 87 183 0 87 183 0 87 183 0 87 183 0 87 183 0 87 183 0 87 183 0 87 183 0 87 183 0 87 183 0 87 183 0 87 183 0 87 183 0 87 183 0 87 183 0 87 183 0 87 183 0 87 183 0 87 183 0 87 183 0 87 183 0 87 183 0 87 183 0 87 183 0 87 183 
0 87 183 0 87 183 0 87 183 0 87 183 0 87 183 0 87 183 0 87 183 0 87 183 0 87 183 0 87 183 0 87 183 0 87 183 0 87 183 0 87 183 0 87 183 0 87 183 0 87 183 0 87 183 0 87 183 0 87 183 0 87 183 0 87 183 0 87 183 0 87 183 0 87 183 0 87 183 0 87 183 0 87 183 0 87 183 0 87 183 0 87 183 0 87 183 0 87 183 0 87 183 0 87 183 0 87 183 0 87 183 0 87 183 0 87 183 0 87 183 0 87 183 0 87 183 0 87 183 0 87 183 0 87 183 0 87 183 0 87 183 0 87 183 0 87 183 0 87 183 0 87 183 0 87 183 0 87 183 0 87 183 0 87 183 0 87 183 0 87 183 0 87 183 0 87 183 0 87 183 0 87 183 0 87 183 0 87 183 0 87 183 0 87 183 0 87 183 0 87 183 0 87 183 0 87 183 0 87 183 0 87 183 0 87 183 0 87 183 0 87 183 0 87 183 0 87 183 0 87 183 0 87 183 0 87 183 0 87 183 0 87 183 0 87 183 0 87 183 0 87 183 0 87 183 0 87 183 0 87 183 0 87 183 0 87 183 0 87 183 0 87 183 0 87 183 0 87 183 0 87 183 0 87 183 0 87 183 0 87 183 0 87 183 0 87 183 0 87 183 0 87 183 0 87 183 0 87 183 0 87 183 0 87 183 0 87 183 0 87 183 0 87 183 0 87 183 0 87 183 0 87 183 0 87 183 0 87 183 0 87 183 0 87 183 0 87 183 0 87 183 0 87 183 0 87 183 0 87 183 0 87 183 0 87 183 0 87 183 0 87 183 0 87 183 0 87 183 0 87 183 0 87 183 0 87 183 0 87 183 0 87 183 0 87 183 0 87 183 0 87 183 0 87 183 0 87 183 0 87 183 0 87 183 0 87 183 0 87 183 0 87 183 0 87 183 0 87 183 0 87 183 0 87 183 0 87 183 0 87 183 0 87 183 0 87 183 0 87 183 0 87 183 0 87 183 0 87 183 0 87 183 0 87 183 0 87 183 0 87 183 0 87 183 0 87 183 0 87 183 0 87 183 0 87 183 0 87 183 0 87 183 0 87 183 0 87 183 0 87 183 0 87 183 0 87 183 0 87 183 0 87 183 0 87 183 0 87 183 0 87 183 0 87 183 0 87 183 0 87 183 0 87 183 0 87 183 0 87 183 0 87 183 0 87 183 0 87 183 0 87 183 0 87 183 0 87 183 0 87 183 0 87 183 0 87 183 0 87 183 0 87 183 0 87 183 0 87 183 0 87 183 0 87 183 0 87 183 0 87 183 0 87 183 0 87 183 0 87 183 0 87 183 0 87 183 0 87 183 0 87 183 0 87 183 0 87 183 0 87 183 0 87 183 0 87 183 0 87 183 0 87 183 0 87 183 0 87 183 0 87 183 0 87 183 0 87 183 0 87 183 0 87 183 0 87 183 0 87 183 0 87 183 0 87 183 0 87 183 0 87 183 0 87 183 0 87 183 0 87 183 0 87 183 0 87 183 0 87 183 0 87 183 0 87 183 0 87 183 0 87 183 0 87 183 0 87 183 0 87 183 0 87 183 0 87 183 0 87 183 0 87 183 0 87 183 0 87 183 0 87 183 0 87 183 0 87 183 0 87 183 0 87 183 0 87 183 0 87 183 0 87 183 0 87 183 0 87 183 0 87 183 0 87 183 0 87 183 0 87 183 0 87 183 0 87 183 0 87 183 0 87 183 0 87 183 0 87 183 0 87 183 0 87 183 0 87 183 0 87 183 0 87 183 0 87 183 0 87 183 0 87 183 0 87 183 0 87 183 0 87 183 0 87 183 0 87 183 0 87 183 0 87 183 0 87 183 0 87 183 0 87 183 0 87 183 0 87 183 0 87 183 0 87 183 0 87 183 0 87 183 0 87 183 0 87 183 0 87 183 0 87 183 0 87 183 0 87 183 0 87 183 0 87 183 0 87 183 0 87 183 0 87 183 0 87 183 0 87 183 
0 87 183 0 87 183 0 87 183 0 87 183 0 87 183 0 87 183 0 87 183 0 87 183 0 87 183 0 87 183 0 87 183 0 87 183 0 87 183 0 87 183 0 87 183 0 87 183 0 87 183 0 87 183 0 87 183 0 87 183 0 87 183 0 87 183 0 87 183 0 87 183 0 87 183 0 87 183 0 87 183 0 87 183 0 87 183 0 87 183 0 87 183 0 87 183 0 87 183 0 87 183 0 87 183 0 87 183 0 87 183 0 87 183 0 87 183 0 87 183 0 87 183 0 87 183 0 87 183 0 87 183 0 87 183 0 87 183 0 87 183 0 87 183 0 87 183 0 87 183 0 87 183 0 87 183 0 87 183 0 87 183 0 87 183 0 87 183 0 87 183 0 87 183 0 87 183 0 87 183 0 87 183 0 87 183 0 87 183 0 87 183 0 87 183 0 87 183 0 87 183 0 87 183 0 87 183 0 87 183 0 87 183 0 87 183 0 87 183 0 87 183 0 87 183 0 87 183 0 87 183 0 87 183 0 87 183 0 87 183 0 87 183 0 87 183 0 87 183 0 87 183 0 87 183 0 87 183 0 87 183 0 87 183 0 87 183 0 87 183 0 87 183 0 87 183 0 87 183 0 87 183 0 87 183 0 87 183 0 87 183 0 87 183 0 87 183 0 87 183 0 87 183 0 87 183 0 87 183 0 87 183 0 87 183 0 87 183 0 87 183 0 87 183 0 87 183 0 87 183 0 87 183 0 87 183 0 87 183 0 87 183 0 87 183 0 87 183 0 87 183 0 87 183 0 87 183 0 87 183 0 87 183 0 87 183 0 87 183 0 87 183 0 87 183 0 87 183 0 87 183 0 87 183 0 87 183 0 87 183 0 87 183 0 87 183 0 87 183 0 87 183 0 87 183 0 87 183 0 87 183 0 87 183 0 87 183 0 87 183 0 87 183 0 87 183 0 87 183 0 87 183 0 87 183 0 87 183 0 87 183 0 87 183 0 87 183 0 87 183 0 87 183 0 87 183 0 87 183 0 87 183 0 87 183 0 87 183 0 87 183 0 87 183 0 87 183 0 87 183 0 87 183 0 87 183 0 87 183 0 87 183 0 87 183 0 87 183 0 87 183 0 87 183 0 87 183 0 87 183 0 87 183 0 87 183 0 87 183 0 87 183 0 87 183 0 87 183 0 87 183 0 87 183 0 87 183 0 87 183 0 87 183 0 87 183 0 87 183 0 87 183 0 87 183 0 87 183 0 87 183 0 87 183 0 87 183 0 87 183 0 87 183 0 87 183 0 87 183 0 87 183 0 87 183 0 87 183 0 87 183 0 87 183 0 87 183 0 87 183 0 87 183 0 87 183 0 87 183 0 87 183 0 87 183 0 87 183 0 87 183 0 87 183 0 87 183 0 87 183 0 87 183 0 87 183 0 87 183 0 87 183 0 87 183 0 87 183 0 87 183 0 87 183 0 87 183 0 87 183 0 87 183 0 87 183 0 87 183 0 87 183 0 87 183 0 87 183 0 87 183 0 87 183 0 87 183 0 87 183 0 87 183 0 87 183 0 87 183 0 87 183 0 87 183 0 87 183 0 87 183 0 87 183 0 87 183 0 87 183 0 87 183 0 87 183 0 87 183 0 87 183 0 87 183 0 87 183 0 87 183 0 87 183 0 87 183 0 87 183 0 87 183 0 87 183 0 87 183 0 87 183 0 87 183 0 87 183 0 87 183 0 87 183 0 87 183 0 87 183 0 87 183 0 87 183 0 87 183 0 87 183 0 87 183 0 87 183 0 87 183 0 87 183 0 87 183 0 87 183 0 87 183 0 87 183 0 87 183 0 87 183 0 87 183 0 87 183 0 87 183 0 87 183 0 87 183 0 87 183 0 87 183 0 87 183 0 87 183 0 87 183 0 87 183 0 87 183 0 87 183 0 87 183 0 87 183 0 87 183 0 87 183 0 87 183 0 87 183 0 87 183 0 87 183 0 87 183 0 87 183 0 87 183 0 87 183 0 87 183 
0 87 183 0 87 183 0 87 183 0 87 183 0 87 183 0 87 183 0 87 183 0 87 183 0 87 183 0 87 183 0 87 183 0 87 183 0 87 183 0 87 183 0 87 183 0 87 183 0 87 183 0 87 183 0 87 183 0 87 183 0 87 183 0 87 183 0 87 183 0 87 183 0 87 183 0 87 183 0 87 183 0 87 183 0 87 183 0 87 183 0 87 183 0 87 183 0 87 183 0 87 183 0 87 183 0 87 183 0 87 183 0 87 183 0 87 183 0 87 183 0 87 183 0 87 183 0 87 183 0 87 183 0 87 183 0 87 183 0 87 183 0 87 183 0 87 183 0 87 183 0 87 183 0 87 183 0 87 183 0 87 183 0 87 183 0 87 183 0 87 183 0 87 183 0 87 183 0 87 183 0 87 183 0 87 183 0 87 183 0 87 183 0 87 183 0 87 183 0 87 183 0 87 183 0 87 183 0 87 183 0 87 183 0 87 183 0 87 183 0 87 183 0 87 183 0 87 183 0 87 183 0 87 183 0 87 183 0 87 183 0 87 183 0 87 183 0 87 183 0 87 183 0 87 183 0 87 183 0 87 183 0 87 183 0 87 183 0 87 183 0 87 183 0 87 183 0 87 183 0 87 183 0 87 183 0 87 183 0 87 183 0 87 183 0 87 183 0 87 183 0 87 183 0 87 183 0 87 183 0 87 183 0 87 183 0 87 183 0 87 183 0 87 183 0 87 183 0 87 183 0 87 183 0 87 183 0 87 183 0 87 183 0 87 183 0 87 183 0 87 183 0 87 183 0 87 183 0 87 183 0 87 183 0 87 183 0 87 183 0 87 183 0 87 183 0 87 183 0 87 183 0 87 183 0 87 183 0 87 183 0 87 183 0 87 183 0 87 183 0 87 183 0 87 183 0 87 183 0 87 183 0 87 183 0 87 183 0 87 183 0 87 183 0 87 183 0 87 183 0 87 183 0 87 183 0 87 183 0 87 183 0 87 183 0 87 183 0 87 183 0 87 183 0 87 183 0 87 183 0 87 183 0 87 183 0 87 183 0 87 183 0 87 183 0 87 183 0 87 183 0 87 183 0 87 183 0 87 183 0 87 183 0 87 183 0 87 183 0 87 183 0 87 183 0 87 183 0 87 183 0 87 183 0 87 183 0 87 183 0 87 183 0 87 183 0 87 183 0 87 183 0 87 183 0 87 183 0 87 183 0 87 183 0 87 183 0 87 183 0 87 183 0 87 183 0 87 183 0 87 183 0 87 183 0 87 183 0 87 183 0 87 183 0 87 183 0 87 183 0 87 183 0 87 183 0 87 183 0 87 183 0 87 183 0 87 183 0 87 183 0 87 183 0 87 183 0 87 183 0 87 183 0 87 183 0 87 183 0 87 183 0 87 183 0 87 183 0 87 183 0 87 183 0 87 183 0 87 183 0 87 183 0 87 183 0 87 183 0 87 183 0 87 183 0 87 183 0 87 183 0 87 183 0 87 183 0 87 183 0 87 183 0 87 183 0 87 183 0 87 183 0 87 183 0 87 183 0 87 183 0 87 183 0 87 183 0 87 183 0 87 183 0 87 183 0 87 183 0 87 183 0 87 183 0 87 183 0 87 183 0 87 183 0 87 183 0 87 183 0 87 183 0 87 183 0 87 183 0 87 183 0 87 183 0 87 183 0 87 183 0 87 183 0 87 183 0 87 183 0 87 183 0 87 183 0 87 183 0 87 183 0 87 183 0 87 183 0 87 183 0 87 183 0 87 183 0 87 183 0 87 183 0 87 183 0 87 183 0 87 183 0 87 183 0 87 183 0 87 183 0 87 183 0 87 183 0 87 183 0 87 183 0 87 183 0 87 183 0 87 183 0 87 183 0 87 183 0 87 183 0 87 183 0 87 183 0 87 183 0 87 183 0 87 183 0 87 183 0 87 183 0 87 183 0 87 183 0 87 183 0 87 183 0 87 183 0 87 183 0 87 183 0 87 183 0 87 183 0 87 183 0 87 183 0 87 183 0 87 183 
0 87 183 0 87 183 0 87 183 0 87 183 0 87 183 0 87 183 0 87 183 0 87 183 0 87 183 0 87 183 0 87 183 0 87 183 0 87 183 0 87 183 0 87 183 0 87 183 0 87 183 0 87 183 0 87 183 0 87 183 0 87 183 0 87 183 0 87 183 0 87 183 0 87 183 0 87 183 0 87 183 0 87 183 0 87 183 0 87 183 0 87 183 0 87 183 0 87 183 0 87 183 0 87 183 0 87 183 0 87 183 0 87 183 0 87 183 0 87 183 0 87 183 0 87 183 0 87 183 0 87 183 0 87 183 0 87 183 0 87 183 0 87 183 0 87 183 0 87 183 0 87 183 0 87 183 0 87 183 0 87 183 0 87 183 0 87 183 0 87 183 0 87 183 0 87 183 0 87 183 0 87 183 0 87 183 0 87 183 0 87 183 0 87 183 0 87 183 0 87 183 0 87 183 0 87 183 0 87 183 0 87 183 0 87 183 0 87 183 0 87 183 0 87 183 0 87 183 0 87 183 0 87 183 0 87 183 0 87 183 0 87 183 0 87 183 0 87 183 0 87 183 0 87 183 0 87 183 0 87 183 0 87 183 0 87 183 0 87 183 0 87 183 0 87 183 0 87 183 0 87 183 0 87 183 0 87 183 0 87 183 0 87 183 0 87 183 0 87 183 0 87 183 0 87 183 0 87 183 0 87 183 0 87 183 0 87 183 0 87 183 0 87 183 0 87 183 0 87 183 0 87 183 0 87 183 0 87 183 0 87 183 0 87 183 0 87 183 0 87 183 0 87 183 0 87 183 0 87 183 0 87 183 0 87 183 0 87 183 0 87 183 0 87 183 0 87 183 0 87 183 0 87 183 0 87 183 0 87 183 0 87 183 0 87 183 0 87 183 0 87 183 0 87 183 0 87 183 0 87 183 0 87 183 0 87 183 0 87 183 0 87 183 0 87 183 0 87 183 0 87 183 0 87 183 0 87 183 0 87 183 0 87 183 0 87 183 0 87 183 0 87 183 0 87 183 0 87 183 0 87 183 0 87 183 0 87 183 0 87 183 0 87 183 0 87 183 0 87 183 0 87 183 0 87 183 0 87 183 0 87 183 0 87 183 0 87 183 0 87 183 0 87 183 0 87 183 0 87 183 0 87 183 0 87 183 0 87 183 0 87 183 0 87 183 0 87 183 0 87 183 0 87 183 0 87 183 0 87 183 0 87 183 0 87 183 0 87 183 0 87 183 0 87 183 0 87 183 0 87 183 0 87 183 0 87 183 0 87 183 0 87 183 0 87 183 0 87 183 0 87 183 0 87 183 0 87 183 0 87 183 0 87 183 0 87 183 0 87 183 0 87 183 0 87 183 0 87 183 0 87 183 0 87 183 0 87 183 0 87 183 0 87 183 0 87 183 0 87 183 0 87 183 0 87 183 0 87 183 0 87 183 0 87 183 0 87 183 0 87 183 0 87 183 0 87 183 0 87 183 0 87 183 0 87 183 0 87 183 0 87 183 0 87 183 0 87 183 0 87 183 0 87 183 0 87 183 0 87 183 0 87 183 0 87 183 0 87 183 0 87 183 0 87 183 0 87 183 0 87 183 0 87 183 0 87 183 0 87 183 0 87 183 0 87 183 0 87 183 0 87 183 0 87 183 0 87 183 0 87 183 0 87 183 0 87 183 0 87 183 0 87 183 0 87 183 0 87 183 0 87 183 0 87 183 0 87 183 0 87 183 0 87 183 0 87 183 0 87 183 0 87 183 0 87 183 0 87 183 0 87 183 0 87 183 0 87 183 0 87 183 0 87 183 0 87 183 0 87 183 0 87 183 0 87 183 0 87 183 0 87 183 0 87 183 0 87 183 0 87 183 0 87 183 0 87 183 0 87 183 0 87 183 0 87 183 0 87 183 0 87 183 0 87 183 0 87 183 0 87 183 0 87 183 0 87 183 0 87 183 0 87 183 0 87 183 0 87 183 0 87 183 0 87 183 0 87 183 0 87 183 0 87 183 0 87 183 0 87 183 
0 87 183 0 87 183 0 87 183 0 87 183 0 87 183 0 87 183 0 87 183 0 87 183 0 87 183 0 87 183 0 87 183 0 87 183 0 87 183 0 87 183 0 87 183 0 87 183 0 87 183 0 87 183 0 87 183 0 87 183 0 87 183 0 87 183 0 87 183 0 87 183 0 87 183 0 87 183 0 87 183 0 87 183 0 87 183 0 87 183 0 87 183 0 87 183 0 87 183 0 87 183 0 87 183 0 87 183 0 87 183 0 87 183 0 87 183 0 87 183 0 87 183 0 87 183 0 87 183 0 87 183 0 87 183 0 87 183 0 87 183 0 87 183 0 87 183 0 87 183 0 87 183 0 87 183 0 87 183 0 87 183 0 87 183 0 87 183 0 87 183 0 87 183 0 87 183 0 87 183 0 87 183 0 87 183 0 87 183 0 87 183 0 87 183 0 87 183 0 87 183 0 87 183 0 87 183 0 87 183 0 87 183 0 87 183 0 87 183 0 87 183 0 87 183 0 87 183 0 87 183 0 87 183 0 87 183 0 87 183 0 87 183 0 87 183 0 87 183 0 87 183 0 87 183 0 87 183 0 87 183 0 87 183 0 87 183 0 87 183 0 87 183 0 87 183 0 87 183 0 87 183 0 87 183 0 87 183 0 87 183 0 87 183 0 87 183 0 87 183 0 87 183 0 87 183 0 87 183 0 87 183 0 87 183 0 87 183 0 87 183 0 87 183 0 87 183 0 87 183 0 87 183 0 87 183 0 87 183 0 87 183 0 87 183 0 87 183 0 87 183 0 87 183 0 87 183 0 87 183 0 87 183 0 87 183 0 87 183 0 87 183 0 87 183 0 87 183 0 87 183 0 87 183 0 87 183 0 87 183 0 87 183 0 87 183 0 87 183 0 87 183 0 87 183 0 87 183 0 87 183 0 87 183 0 87 183 0 87 183 0 87 183 0 87 183 0 87 183 0 87 183 0 87 183 0 87 183 0 87 183 0 87 183 0 87 183 0 87 183 0 87 183 0 87 183 0 87 183 0 87 183 0 87 183 0 87 183 0 87 183 0 87 183 0 87 183 0 87 183 0 87 183 0 87 183 0 87 183 0 87 183 0 87 183 0 87 183 0 87 183 0 87 183 0 87 183 0 87 183 0 87 183 0 87 183 0 87 183 0 87 183 0 87 183 0 87 183 0 87 183 0 87 183 0 87 183 0 87 183 0 87 183 0 87 183 0 87 183 0 87 183 0 87 183 0 87 183 0 87 183 0 87 183 0 87 183 0 87 183 0 87 183 0 87 183 0 87 183 0 87 183 0 87 183 0 87 183 0 87 183 0 87 183 0 87 183 0 87 183 0 87 183 0 87 183 0 87 183 0 87 183 0 87 183 0 87 183 0 87 183 0 87 183 0 87 183 0 87 183 0 87 183 0 87 183 0 87 183 0 87 183 0 87 183 0 87 183 0 87 183 0 87 183 0 87 183 0 87 183 0 87 183 0 87 183 0 87 183 0 87 183 0 87 183 0 87 183 0 87 183 0 87 183 0 87 183 0 87 183 0 87 183 0 87 183 0 87 183 0 87 183 0 87 183 0 87 183 0 87 183 0 87 183 0 87 183 0 87 183 0 87 183 0 87 183 0 87 183 0 87 183 0 87 183 0 87 183 0 87 183 0 87 183 0 87 183 0 87 183 0 87 183 0 87 183 0 87 183 0 87 183 0 87 183 0 87 183 0 87 183 0 87 183 0 87 183 0 87 183 0 87 183 0 87 183 0 87 183 0 87 183 0 87 183 0 87 183 0 87 183 0 87 183 0 87 183 0 87 183 0 87 183 0 87 183 0 87 183 0 87 183 0 87 183 0 87 183 0 87 183 0 87 183 0 87 183 0 87 183 0 87 183 0 87 183 0 87 183 0 87 183 0 87 183 0 87 183 0 87 183 0 87 183 0 87 183 0 87 183 0 87 183 0 87 183 0 87 183 0 87 183 0 87 183 0 87 183 0 87 183 0 87 183 0 87 183 0 87 183 
0 87 183 0 87 183 0 87 183 0 87 183 0 87 183 0 87 183 0 87 183 0 87 183 0 87 183 0 87 183 0 87 183 0 87 183 0 87 183 0 87 183 0 87 183 0 87 183 0 87 183 0 87 183 0 87 183 0 87 183 0 87 183 0 87 183 0 87 183 0 87 183 0 87 183 0 87 183 0 87 183 0 87 183 0 87 183 0 87 183 0 87 183 0 87 183 0 87 183 0 87 183 0 87 183 0 87 183 0 87 183 0 87 183 0 87 183 0 87 183 0 87 183 0 87 183 0 87 183 0 87 183 0 87 183 0 87 183 0 87 183 0 87 183 0 87 183 0 87 183 0 87 183 0 87 183 0 87 183 0 87 183 0 87 183 0 87 183 0 87 183 0 87 183 0 87 183 0 87 183 0 87 183 0 87 183 0 87 183 0 87 183 0 87 183 0 87 183 0 87 183 0 87 183 0 87 183 0 87 183 0 87 183 0 87 183 0 87 183 0 87 183 0 87 183 0 87 183 0 87 183 0 87 183 0 87 183 0 87 183 0 87 183 0 87 183 0 87 183 0 87 183 0 87 183 0 87 183 0 87 183 0 87 183 0 87 183 0 87 183 0 87 183 0 87 183 0 87 183 0 87 183 0 87 183 0 87 183 0 87 183 0 87 183 0 87 183 0 87 183 0 87 183 0 87 183 0 87 183 0 87 183 0 87 183 0 87 183 0 87 183 0 87 183 0 87 183 0 87 183 0 87 183 0 87 183 0 87 183 0 87 183 0 87 183 0 87 183 0 87 183 0 87 183 0 87 183 0 87 183 0 87 183 0 87 183 0 87 183 0 87 183 0 87 183 0 87 183 0 87 183 0 87 183 0 87 183 0 87 183 0 87 183 0 87 183 0 87 183 0 87 183 0 87 183 0 87 183 0 87 183 0 87 183 0 87 183 0 87 183 0 87 183 0 87 183 0 87 183 0 87 183 0 87 183 0 87 183 0 87 183 0 87 183 0 87 183 0 87 183 0 87 183 0 87 183 0 87 183 0 87 183 0 87 183 0 87 183 0 87 183 0 87 183 0 87 183 0 87 183 0 87 183 0 87 183 0 87 183 0 87 183 0 87 183 0 87 183 0 87 183 0 87 183 0 87 183 0 87 183 0 87 183 0 87 183 0 87 183 0 87 183 0 87 183 0 87 183 0 87 183 0 87 183 0 87 183 0 87 183 0 87 183 0 87 183 0 87 183 0 87 183 0 87 183 0 87 183 0 87 183 0 87 183 0 87 183 0 87 183 0 87 183 0 87 183 0 87 183 0 87 183 0 87 183 0 87 183 0 87 183 0 87 183 0 87 183 0 87 183 0 87 183 0 87 183 0 87 183 0 87 183 0 87 183 0 87 183 0 87 183 0 87 183 0 87 183 0 87 183 0 87 183 0 87 183 0 87 183 0 87 183 0 87 183 0 87 183 0 87 183 0 87 183 0 87 183 0 87 183 0 87 183 0 87 183 0 87 183 0 87 183 0 87 183 0 87 183 0 87 183 0 87 183 0 87 183 0 87 183 0 87 183 0 87 183 0 87 183 0 87 183 0 87 183 0 87 183 0 87 183 0 87 183 0 87 183 0 87 183 0 87 183 0 87 183 0 87 183 0 87 183 0 87 183 0 87 183 0 87 183 0 87 183 0 87 183 0 87 183 0 87 183 0 87 183 0 87 183 0 87 183 0 87 183 0 87 183 0 87 183 0 87 183 0 87 183 0 87 183 0 87 183 0 87 183 0 87 183 0 87 183 0 87 183 0 87 183 0 87 183 0 87 183 0 87 183 0 87 183 0 87 183 0 87 183 0 87 183 0 87 183 0 87 183 0 87 183 0 87 183 0 87 183 0 87 183 0 87 183 0 87 183 0 87 183 0 87 183 0 87 183 0 87 183 0 87 183 0 87 183 0 87 183 0 87 183 0 87 183 0 87 183 0 87 183 0 87 183 0 87 183 0 87 183 0 87 183 0 87 183 0 87 183 0 87 183 0 87 183 
0 87 183 0 87 183 0 87 183 0 87 183 0 87 183 0 87 183 0 87 183 0 87 183 0 87 183 0 87 183 0 87 183 0 87 183 0 87 183 0 87 183 0 87 183 0 87 183 0 87 183 0 87 183 0 87 183 0 87 183 0 87 183 0 87 183 0 87 183 0 87 183 0 87 183 0 87 183 0 87 183 0 87 183 0 87 183 0 87 183 0 87 183 0 87 183 0 87 183 0 87 183 0 87 183 0 87 183 0 87 183 0 87 183 0 87 183 0 87 183 0 87 183 0 87 183 0 87 183 0 87 183 0 87 183 0 87 183 0 87 183 0 87 183 0 87 183 0 87 183 0 87 183 0 87 183 0 87 183 0 87 183 0 87 183 0 87 183 0 87 183 0 87 183 0 87 183 0 87 183 0 87 183 0 87 183 0 87 183 0 87 183 0 87 183 0 87 183 0 87 183 0 87 183 0 87 183 0 87 183 0 87 183 0 87 183 0 87 183 0 87 183 0 87 183 0 87 183 0 87 183 0 87 183 0 87 183 0 87 183 0 87 183 0 87 183 0 87 183 0 87 183 0 87 183 0 87 183 0 87 183 0 87 183 0 87 183 0 87 183 0 87 183 0 87 183 0 87 183 0 87 183 0 87 183 0 87 183 0 87 183 0 87 183 0 87 183 0 87 183 0 87 183 0 87 183 0 87 183 0 87 183 0 87 183 0 87 183 0 87 183 0 87 183 0 87 183 0 87 183 0 87 183 0 87 183 0 87 183 0 87 183 0 87 183 0 87 183 0 87 183 0 87 183 0 87 183 0 87 183 0 87 183 0 87 183 0 87 183 0 87 183 0 87 183 0 87 183 0 87 183 0 87 183 0 87 183 0 87 183 0 87 183 0 87 183 0 87 183 0 87 183 0 87 183 0 87 183 0 87 183 0 87 183 0 87 183 0 87 183 0 87 183 0 87 183 0 87 183 0 87 183 0 87 183 0 87 183 0 87 183 0 87 183 0 87 183 0 87 183 0 87 183 0 87 183 0 87 183 0 87 183 0 87 183 0 87 183 0 87 183 0 87 183 0 87 183 0 87 183 0 87 183 0 87 183 0 87 183 0 87 183 0 87 183 0 87 183 0 87 183 0 87 183 0 87 183 0 87 183 0 87 183 0 87 183 0 87 183 0 87 183 0 87 183 0 87 183 0 87 183 0 87 183 0 87 183 0 87 183 0 87 183 0 87 183 0 87 183 0 87 183 0 87 183 0 87 183 0 87 183 0 87 183 0 87 183 0 87 183 0 87 183 0 87 183 0 87 183 0 87 183 0 87 183 0 87 183 0 87 183 0 87 183 0 87 183 0 87 183 0 87 183 0 87 183 0 87 183 0 87 183 0 87 183 0 87 183 0 87 183 0 87 183 0 87 183 0 87 183 0 87 183 0 87 183 0 87 183 0 87 183 0 87 183 0 87 183 0 87 183 0 87 183 0 87 183 0 87 183 0 87 183 0 87 183 0 87 183 0 87 183 0 87 183 0 87 183 0 87 183 0 87 183 0 87 183 0 87 183 0 87 183 0 87 183 0 87 183 0 87 183 0 87 183 0 87 183 0 87 183 0 87 183 0 87 183 0 87 183 0 87 183 0 87 183 0 87 183 0 87 183 0 87 183 0 87 183 0 87 183 0 87 183 0 87 183 0 87 183 0 87 183 0 87 183 0 87 183 0 87 183 0 87 183 0 87 183 0 87 183 0 87 183 0 87 183 0 87 183 0 87 183 0 87 183 0 87 183 0 87 183 0 87 183 0 87 183 0 87 183 0 87 183 0 87 183 0 87 183 0 87 183 0 87 183 0 87 183 0 87 183 0 87 183 0 87 183 0 87 183 0 87 183 0 87 183 0 87 183 0 87 183 0 87 183 0 87 183 0 87 183 0 87 183 0 87 183 0 87 183 0 87 183 0 87 183 0 87 183 0 87 183 0 87 183 0 87 183 0 87 183 0 87 183 0 87 183 0 87 183 0 87 183 0 87 183 0 87 183 
0 87 183 0 87 183 0 87 183 0 87 183 0 87 183 0 87 183 0 87 183 0 87 183 0 87 183 0 87 183 0 87 183 0 87 183 0 87 183 0 87 183 0 87 183 0 87 183 0 87 183 0 87 183 0 87 183 0 87 183 0 87 183 0 87 183 0 87 183 0 87 183 0 87 183 0 87 183 0 87 183 0 87 183 0 87 183 0 87 183 0 87 183 0 87 183 0 87 183 0 87 183 0 87 183 0 87 183 0 87 183 0 87 183 0 87 183 0 87 183 0 87 183 0 87 183 0 87 183 0 87 183 0 87 183 0 87 183 0 87 183 0 87 183 0 87 183 0 87 183 0 87 183 0 87 183 0 87 183 0 87 183 0 87 183 0 87 183 0 87 183 0 87 183 0 87 183 0 87 183 0 87 183 0 87 183 0 87 183 0 87 183 0 87 183 0 87 183 0 87 183 0 87 183 0 87 183 0 87 183 0 87 183 0 87 183 0 87 183 0 87 183 0 87 183 0 87 183 0 87 183 0 87 183 0 87 183 0 87 183 0 87 183 0 87 183 0 87 183 0 87 183 0 87 183 0 87 183 0 87 183 0 87 183 0 87 183 0 87 183 0 87 183 0 87 183 0 87 183 0 87 183 0 87 183 0 87 183 0 87 183 0 87 183 0 87 183 0 87 183 0 87 183 0 87 183 0 87 183 0 87 183 0 87 183 0 87 183 0 87 183 0 87 183 0 87 183 0 87 183 0 87 183 0 87 183 0 87 183 0 87 183 0 87 183 0 87 183 0 87 183 0 87 183 0 87 183 0 87 183 0 87 183 0 87 183 0 87 183 0 87 183 0 87 183 0 87 183 0 87 183 0 87 183 0 87 183 0 87 183 0 87 183 0 87 183 0 87 183 0 87 183 0 87 183 0 87 183 0 87 183 0 87 183 0 87 183 0 87 183 0 87 183 0 87 183 0 87 183 0 87 183 0 87 183 0 87 183 0 87 183 0 87 183 0 87 183 0 87 183 0 87 183 0 87 183 0 87 183 0 87 183 0 87 183 0 87 183 0 87 183 0 87 183 0 87 183 0 87 183 0 87 183 0 87 183 0 87 183 0 87 183 0 87 183 0 87 183 0 87 183 0 87 183 0 87 183 0 87 183 0 87 183 0 87 183 0 87 183 0 87 183 0 87 183 0 87 183 0 87 183 0 87 183 0 87 183 0 87 183 0 87 183 0 87 183 0 87 183 0 87 183 0 87 183 0 87 183 0 87 183 0 87 183 0 87 183 0 87 183 0 87 183 0 87 183 0 87 183 0 87 183 0 87 183 0 87 183 0 87 183 0 87 183 0 87 183 0 87 183 0 87 183 0 87 183 0 87 183 0 87 183 0 87 183 0 87 183 0 87 183 0 87 183 0 87 183 0 87 183 0 87 183 0 87 183 0 87 183 0 87 183 0 87 183 0 87 183 0 87 183 0 87 183 0 87 183 0 87 183 0 87 183 0 87 183 0 87 183 0 87 183 0 87 183 0 87 183 0 87 183 0 87 183 0 87 183 0 87 183 0 87 183 0 87 183 0 87 183 0 87 183 0 87 183 0 87 183 0 87 183 0 87 183 0 87 183 0 87 183 0 87 183 0 87 183 0 87 183 0 87 183 0 87 183 0 87 183 0 87 183 0 87 183 0 87 183 0 87 183 0 87 183 0 87 183 0 87 183 0 87 183 0 87 183 0 87 183 0 87 183 0 87 183 0 87 183 0 87 183 0 87 183 0 87 183 0 87 183 0 87 183 0 87 183 0 87 183 0 87 183 0 87 183 0 87 183 0 87 183 0 87 183 0 87 183 0 87 183 0 87 183 0 87 183 0 87 183 0 87 183 0 87 183 0 87 183 0 87 183 0 87 183 0 87 183 0 87 183 0 87 183 0 87 183 0 87 183 0 87 183 0 87 183 0 87 183 0 87 183 0 87 183 0 87 183 0 87 183 0 87 183 0 87 183 0 87 183 0 87 183 0 87 183 0 87 183 0 87 183 
0 87 183 0 87 183 0 87 183 0 87 183 0 87 183 0 87 183 0 87 183 0 87 183 0 87 183 0 87 183 0 87 183 0 87 183 0 87 183 0 87 183 0 87 183 0 87 183 0 87 183 0 87 183 0 87 183 0 87 183 0 87 183 0 87 183 0 87 183 0 87 183 0 87 183 0 87 183 0 87 183 0 87 183 0 87 183 0 87 183 0 87 183 0 87 183 0 87 183 0 87 183 0 87 183 0 87 183 0 87 183 0 87 183 0 87 183 0 87 183 0 87 183 0 87 183 0 87 183 0 87 183 0 87 183 0 87 183 0 87 183 0 87 183 0 87 183 0 87 183 0 87 183 0 87 183 0 87 183 0 87 183 0 87 183 0 87 183 0 87 183 0 87 183 0 87 183 0 87 183 0 87 183 0 87 183 0 87 183 0 87 183 0 87 183 0 87 183 0 87 183 0 87 183 0 87 183 0 87 183 0 87 183 0 87 183 0 87 183 0 87 183 0 87 183 0 87 183 0 87 183 0 87 183 0 87 183 0 87 183 0 87 183 0 87 183 0 87 183 0 87 183 0 87 183 0 87 183 0 87 183 0 87 183 0 87 183 0 87 183 0 87 183 0 87 183 0 87 183 0 87 183 0 87 183 0 87 183 0 87 183 0 87 183 0 87 183 0 87 183 0 87 183 0 87 183 0 87 183 0 87 183 0 87 183 0 87 183 0 87 183 0 87 183 0 87 183 0 87 183 0 87 183 0 87 183 0 87 183 0 87 183 0 87 183 0 87 183 0 87 183 0 87 183 0 87 183 0 87 183 0 87 183 0 87 183 0 87 183 0 87 183 0 87 183 0 87 183 0 87 183 0 87 183 0 87 183 0 87 183 0 87 183 0 87 183 0 87 183 0 87 183 0 87 183 0 87 183 0 87 183 0 87 183 0 87 183 0 87 183 0 87 183 0 87 183 0 87 183 0 87 183 0 87 183 0 87 183 0 87 183 0 87 183 0 87 183 0 87 183 0 87 183 0 87 183 0 87 183 0 87 183 0 87 183 0 87 183 0 87 183 0 87 183 0 87 183 0 87 183 0 87 183 0 87 183 0 87 183 0 87 183 0 87 183 0 87 183 0 87 183 0 87 183 0 87 183 0 87 183 0 87 183 0 87 183 0 87 183 0 87 183 0 87 183 0 87 183 0 87 183 0 87 183 0 87 183 0 87 183 0 87 183 0 87 183 0 87 183 0 87 183 0 87 183 0 87 183 0 87 183 0 87 183 0 87 183 0 87 183 0 87 183 0 87 183 0 87 183 0 87 183 0 87 183 0 87 183 0 87 183 0 87 183 0 87 183 0 87 183 0 87 183 0 87 183 0 87 183 0 87 183 0 87 183 0 87 183 0 87 183 0 87 183 0 87 183 0 87 183 0 87 183 0 87 183 0 87 183 0 87 183 0 87 183 0 87 183 0 87 183 0 87 183 0 87 183 0 87 183 0 87 183 0 87 183 0 87 183 0 87 183 0 87 183 0 87 183 0 87 183 0 87 183 0 87 183 0 87 183 0 87 183 0 87 183 0 87 183 0 87 183 0 87 183 0 87 183 0 87 183 0 87 183 0 87 183 0 87 183 0 87 183 0 87 183 0 87 183 0 87 183 0 87 183 0 87 183 0 87 183 0 87 183 0 87 183 0 87 183 0 87 183 0 87 183 0 87 183 0 87 183 0 87 183 0 87 183 0 87 183 0 87 183 0 87 183 0 87 183 0 87 183 0 87 183 0 87 183 0 87 183 0 87 183 0 87 183 0 87 183 0 87 183 0 87 183 0 87 183 0 87 183 0 87 183 0 87 183 0 87 183 0 87 183 0 87 183 0 87 183 0 87 183 0 87 183 0 87 183 0 87 183 0 87 183 0 87 183 0 87 183 0 87 183 0 87 183 0 87 183 0 87 183 0 87 183 0 87 183 0 87 183 0 87 183 0 87 183 0 87 183 0 87 183 0 87 183 0 87 183 0 87 183 0 87 183 0 87 183 
0 87 183 0 87 183 0 87 183 0 87 183 0 87 183 0 87 183 0 87 183 0 87 183 0 87 183 0 87 183 0 87 183 0 87 183 0 87 183 0 87 183 0 87 183 0 87 183 0 87 183 0 87 183 0 87 183 0 87 183 0 87 183 0 87 183 0 87 183 0 87 183 0 87 183 0 87 183 0 87 183 0 87 183 0 87 183 0 87 183 0 87 183 0 87 183 0 87 183 0 87 183 0 87 183 0 87 183 0 87 183 0 87 183 0 87 183 0 87 183 0 87 183 0 87 183 0 87 183 0 87 183 0 87 183 0 87 183 0 87 183 0 87 183 0 87 183 0 87 183 0 87 183 0 87 183 0 87 183 0 87 183 0 87 183 0 87 183 0 87 183 0 87 183 0 87 183 0 87 183 0 87 183 0 87 183 0 87 183 0 87 183 0 87 183 0 87 183 0 87 183 0 87 183 0 87 183 0 87 183 0 87 183 0 87 183 0 87 183 0 87 183 0 87 183 0 87 183 0 87 183 0 87 183 0 87 183 0 87 183 0 87 183 0 87 183 0 87 183 0 87 183 0 87 183 0 87 183 0 87 183 0 87 183 0 87 183 0 87 183 0 87 183 0 87 183 0 87 183 0 87 183 0 87 183 0 87 183 0 87 183 0 87 183 0 87 183 0 87 183 0 87 183 0 87 183 0 87 183 0 87 183 0 87 183 0 87 183 0 87 183 0 87 183 0 87 183 0 87 183 0 87 183 0 87 183 0 87 183 0 87 183 0 87 183 0 87 183 0 87 183 0 87 183 0 87 183 0 87 183 0 87 183 0 87 183 0 87 183 0 87 183 0 87 183 0 87 183 0 87 183 0 87 183 0 87 183 0 87 183 0 87 183 0 87 183 0 87 183 0 87 183 0 87 183 0 87 183 0 87 183 0 87 183 0 87 183 0 87 183 0 87 183 0 87 183 0 87 183 0 87 183 0 87 183 0 87 183 0 87 183 0 87 183 0 87 183 0 87 183 0 87 183 0 87 183 0 87 183 0 87 183 0 87 183 0 87 183 0 87 183 0 87 183 0 87 183 0 87 183 0 87 183 0 87 183 0 87 183 0 87 183 0 87 183 0 87 183 0 87 183 0 87 183 0 87 183 0 87 183 0 87 183 0 87 183 0 87 183 0 87 183 0 87 183 0 87 183 0 87 183 0 87 183 0 87 183 0 87 183 0 87 183 0 87 183 0 87 183 0 87 183 0 87 183 0 87 183 0 87 183 0 87 183 0 87 183 0 87 183 0 87 183 0 87 183 0 87 183 0 87 183 0 87 183 0 87 183 0 87 183 0 87 183 0 87 183 0 87 183 0 87 183 0 87 183 0 87 183 0 87 183 0 87 183 0 87 183 0 87 183 0 87 183 0 87 183 0 87 183 0 87 183 0 87 183 0 87 183 0 87 183 0 87 183 0 87 183 0 87 183 0 87 183 0 87 183 0 87 183 0 87 183 0 87 183 0 87 183 0 87 183 0 87 183 0 87 183 0 87 183 0 87 183 0 87 183 0 87 183 0 87 183 0 87 183 0 87 183 0 87 183 0 87 183 0 87 183 0 87 183 0 87 183 0 87 183 0 87 183 0 87 183 0 87 183 0 87 183 0 87 183 0 87 183 0 87 183 0 87 183 0 87 183 0 87 183 0 87 183 0 87 183 0 87 183 0 87 183 0 87 183 0 87 183 0 87 183 0 87 183 0 87 183 0 87 183 0 87 183 0 87 183 0 87 183 0 87 183 0 87 183 0 87 183 0 87 183 0 87 183 0 87 183 0 87 183 0 87 183 0 87 183 0 87 183 0 87 183 0 87 183 0 87 183 0 87 183 0 87 183 0 87 183 0 87 183 0 87 183 0 87 183 0 87 183 0 87 183 0 87 183 0 87 183 0 87 183 0 87 183 0 87 183 0 87 183 0 87 183 0 87 183 0 87 183 0 87 183 0 87 183 0 87 183 0 87 183 0 87 183 0 87 183 0 87 183 0 87 183 
0 87 183 0 87 183 0 87 183 0 87 183 0 87 183 0 87 183 0 87 183 0 87 183 0 87 183 0 87 183 0 87 183 0 87 183 0 87 183 0 87 183 0 87 183 0 87 183 0 87 183 0 87 183 0 87 183 0 87 183 0 87 183 0 87 183 0 87 183 0 87 183 0 87 183 0 87 183 0 87 183 0 87 183 0 87 183 0 87 183 0 87 183 0 87 183 0 87 183 0 87 183 0 87 183 0 87 183 0 87 183 0 87 183 0 87 183 0 87 183 0 87 183 0 87 183 0 87 183 0 87 183 0 87 183 0 87 183 0 87 183 0 87 183 0 87 183 0 87 183 0 87 183 0 87 183 0 87 183 0 87 183 0 87 183 0 87 183 0 87 183 0 87 183 0 87 183 0 87 183 0 87 183 0 87 183 0 87 183 0 87 183 0 87 183 0 87 183 0 87 183 0 87 183 0 87 183 0 87 183 0 87 183 0 87 183 0 87 183 0 87 183 0 87 183 0 87 183 0 87 183 0 87 183 0 87 183 0 87 183 0 87 183 0 87 183 0 87 183 0 87 183 0 87 183 0 87 183 0 87 183 0 87 183 0 87 183 0 87 183 0 87 183 0 87 183 0 87 183 0 87 183 0 87 183 0 87 183 0 87 183 0 87 183 0 87 183 0 87 183 0 87 183 0 87 183 0 87 183 0 87 183 0 87 183 0 87 183 0 87 183 0 87 183 0 87 183 0 87 183 0 87 183 0 87 183 0 87 183 0 87 183 0 87 183 0 87 183 0 87 183 0 87 183 0 87 183 0 87 183 0 87 183 0 87 183 0 87 183 0 87 183 0 87 183 0 87 183 0 87 183 0 87 183 0 87 183 0 87 183 0 87 183 0 87 183 0 87 183 0 87 183 0 87 183 0 87 183 0 87 183 0 87 183 0 87 183 0 87 183 0 87 183 0 87 183 0 87 183 0 87 183 0 87 183 0 87 183 0 87 183 0 87 183 0 87 183 0 87 183 0 87 183 0 87 183 0 87 183 0 87 183 0 87 183 0 87 183 0 87 183 0 87 183 0 87 183 0 87 183 0 87 183 0 87 183 0 87 183 0 87 183 0 87 183 0 87 183 0 87 183 0 87 183 0 87 183 0 87 183 0 87 183 0 87 183 0 87 183 0 87 183 0 87 183 0 87 183 0 87 183 0 87 183 0 87 183 0 87 183 0 87 183 0 87 183 0 87 183 0 87 183 0 87 183 0 87 183 0 87 183 0 87 183 0 87 183 0 87 183 0 87 183 0 87 183 0 87 183 0 87 183 0 87 183 0 87 183 0 87 183 0 87 183 0 87 183 0 87 183 0 87 183 0 87 183 0 87 183 0 87 183 0 87 183 0 87 183 0 87 183 0 87 183 0 87 183 0 87 183 0 87 183 0 87 183 0 87 183 0 87 183 0 87 183 0 87 183 0 87 183 0 87 183 0 87 183 0 87 183 0 87 183 0 87 183 0 87 183 0 87 183 0 87 183 0 87 183 0 87 183 0 87 183 0 87 183 0 87 183 0 87 183 0 87 183 0 87 183 0 87 183 0 87 183 0 87 183 0 87 183 0 87 183 0 87 183 0 87 183 0 87 183 0 87 183 0 87 183 0 87 183 0 87 183 0 87 183 0 87 183 0 87 183 0 87 183 0 87 183 0 87 183 0 87 183 0 87 183 0 87 183 0 87 183 0 87 183 0 87 183 0 87 183 0 87 183 0 87 183 0 87 183 0 87 183 0 87 183 0 87 183 0 87 183 0 87 183 0 87 183 0 87 183 0 87 183 0 87 183 0 87 183 0 87 183 0 87 183 0 87 183 0 87 183 0 87 183 0 87 183 0 87 183 0 87 183 0 87 183 0 87 183 0 87 183 0 87 183 0 87 183 0 87 183 0 87 183 0 87 183 0 87 183 0 87 183 0 87 183 0 87 183 0 87 183 0 87 183 0 87 183 0 87 183 0 87 183 0 87 183 0 87 183 0 87 183 0 87 183 
0 87 183 0 87 183 0 87 183 0 87 183 0 87 183 0 87 183 0 87 183 0 87 183 0 87 183 0 87 183 0 87 183 0 87 183 0 87 183 0 87 183 0 87 183 0 87 183 0 87 183 0 87 183 0 87 183 0 87 183 0 87 183 0 87 183 0 87 183 0 87 183 0 87 183 0 87 183 0 87 183 0 87 183 0 87 183 0 87 183 0 87 183 0 87 183 0 87 183 0 87 183 0 87 183 0 87 183 0 87 183 0 87 183 0 87 183 0 87 183 0 87 183 0 87 183 0 87 183 0 87 183 0 87 183 0 87 183 0 87 183 0 87 183 0 87 183 0 87 183 0 87 183 0 87 183 0 87 183 0 87 183 0 87 183 0 87 183 0 87 183 0 87 183 0 87 183 0 87 183 0 87 183 0 87 183 0 87 183 0 87 183 0 87 183 0 87 183 0 87 183 0 87 183 0 87 183 0 87 183 0 87 183 0 87 183 0 87 183 0 87 183 0 87 183 0 87 183 0 87 183 0 87 183 0 87 183 0 87 183 0 87 183 0 87 183 0 87 183 0 87 183 0 87 183 0 87 183 0 87 183 0 87 183 0 87 183 0 87 183 0 87 183 0 87 183 0 87 183 0 87 183 0 87 183 0 87 183 0 87 183 0 87 183 0 87 183 0 87 183 0 87 183 0 87 183 0 87 183 0 87 183 0 87 183 0 87 183 0 87 183 0 87 183 0 87 183 0 87 183 0 87 183 0 87 183 0 87 183 0 87 183 0 87 183 0 87 183 0 87 183 0 87 183 0 87 183 0 87 183 0 87 183 0 87 183 0 87 183 0 87 183 0 87 183 0 87 183 0 87 183 0 87 183 0 87 183 0 87 183 0 87 183 0 87 183 0 87 183 0 87 183 0 87 183 0 87 183 0 87 183 0 87 183 0 87 183 0 87 183 0 87 183 0 87 183 0 87 183 0 87 183 0 87 183 0 87 183 0 87 183 0 87 183 0 87 183 0 87 183 0 87 183 0 87 183 0 87 183 0 87 183 0 87 183 0 87 183 0 87 183 0 87 183 0 87 183 0 87 183 0 87 183 0 87 183 0 87 183 0 87 183 0 87 183 0 87 183 0 87 183 0 87 183 0 87 183 0 87 183 0 87 183 0 87 183 0 87 183 0 87 183 0 87 183 0 87 183 0 87 183 0 87 183 0 87 183 0 87 183 0 87 183 0 87 183 0 87 183 0 87 183 0 87 183 0 87 183 0 87 183 0 87 183 0 87 183 0 87 183 0 87 183 0 87 183 0 87 183 0 87 183 0 87 183 0 87 183 0 87 183 0 87 183 0 87 183 0 87 183 0 87 183 0 87 183 0 87 183 0 87 183 0 87 183 0 87 183 0 87 183 0 87 183 0 87 183 0 87 183 0 87 183 0 87 183 0 87 183 0 87 183 0 87 183 0 87 183 0 87 183 0 87 183 0 87 183 0 87 183 0 87 183 0 87 183 0 87 183 0 87 183 0 87 183 0 87 183 0 87 183 0 87 183 0 87 183 0 87 183 0 87 183 0 87 183 0 87 183 0 87 183 0 87 183 0 87 183 0 87 183 0 87 183 0 87 183 0 87 183 0 87 183 0 87 183 0 87 183 0 87 183 0 87 183 0 87 183 0 87 183 0 87 183 0 87 183 0 87 183 0 87 183 0 87 183 0 87 183 0 87 183 0 87 183 0 87 183 0 87 183 0 87 183 0 87 183 0 87 183 0 87 183 0 87 183 0 87 183 0 87 183 0 87 183 0 87 183 0 87 183 0 87 183 0 87 183 0 87 183 0 87 183 0 87 183 0 87 183 0 87 183 0 87 183 0 87 183 0 87 183 0 87 183 0 87 183 0 87 183 0 87 183 0 87 183 0 87 183 0 87 183 0 87 183 0 87 183 0 87 183 0 87 183 0 87 183 0 87 183 0 87 183 0 87 183 0 87 183 0 87 183 0 87 183 0 87 183 0 87 183 0 87 183 0 87 183 0 87 183 
0 87 183 0 87 183 0 87 183 0 87 183 0 87 183 0 87 183 0 87 183 0 87 183 0 87 183 0 87 183 0 87 183 0 87 183 0 87 183 0 87 183 0 87 183 0 87 183 0 87 183 0 87 183 0 87 183 0 87 183 0 87 183 0 87 183 0 87 183 0 87 183 0 87 183 0 87 183 0 87 183 0 87 183 0 87 183 0 87 183 0 87 183 0 87 183 0 87 183 0 87 183 0 87 183 0 87 183 0 87 183 0 87 183 0 87 183 0 87 183 0 87 183 0 87 183 0 87 183 0 87 183 0 87 183 0 87 183 0 87 183 0 87 183 0 87 183 0 87 183 0 87 183 0 87 183 0 87 183 0 87 183 0 87 183 0 87 183 0 87 183 0 87 183 0 87 183 0 87 183 0 87 183 0 87 183 0 87 183 0 87 183 0 87 183 0 87 183 0 87 183 0 87 183 0 87 183 0 87 183 0 87 183 0 87 183 0 87 183 0 87 183 0 87 183 0 87 183 0 87 183 0 87 183 0 87 183 0 87 183 0 87 183 0 87 183 0 87 183 0 87 183 0 87 183 0 87 183 0 87 183 0 87 183 0 87 183 0 87 183 0 87 183 0 87 183 0 87 183 0 87 183 0 87 183 0 87 183 0 87 183 0 87 183 0 87 183 0 87 183 0 87 183 0 87 183 0 87 183 0 87 183 0 87 183 0 87 183 0 87 183 0 87 183 0 87 183 0 87 183 0 87 183 0 87 183 0 87 183 0 87 183 0 87 183 0 87 183 0 87 183 0 87 183 0 87 183 0 87 183 0 87 183 0 87 183 0 87 183 0 87 183 0 87 183 0 87 183 0 87 183 0 87 183 0 87 183 0 87 183 0 87 183 0 87 183 0 87 183 0 87 183 0 87 183 0 87 183 0 87 183 0 87 183 0 87 183 0 87 183 0 87 183 0 87 183 0 87 183 0 87 183 0 87 183 0 87 183 0 87 183 0 87 183 0 87 183 0 87 183 0 87 183 0 87 183 0 87 183 0 87 183 0 87 183 0 87 183 0 87 183 0 87 183 0 87 183 0 87 183 0 87 183 0 87 183 0 87 183 0 87 183 0 87 183 0 87 183 0 87 183 0 87 183 0 87 183 0 87 183 0 87 183 0 87 183 0 87 183 0 87 183 0 87 183 0 87 183 0 87 183 0 87 183 0 87 183 0 87 183 0 87 183 0 87 183 0 87 183 0 87 183 0 87 183 0 87 183 0 87 183 0 87 183 0 87 183 0 87 183 0 87 183 0 87 183 0 87 183 0 87 183 0 87 183 0 87 183 0 87 183 0 87 183 0 87 183 0 87 183 0 87 183 0 87 183 0 87 183 0 87 183 0 87 183 0 87 183 0 87 183 0 87 183 0 87 183 0 87 183 0 87 183 0 87 183 0 87 183 0 87 183 0 87 183 0 87 183 0 87 183 0 87 183 0 87 183 0 87 183 0 87 183 0 87 183 0 87 183 0 87 183 0 87 183 0 87 183 0 87 183 0 87 183 0 87 183 0 87 183 0 87 183 0 87 183 0 87 183 0 87 183 0 87 183 0 87 183 0 87 183 0 87 183 0 87 183 0 87 183 0 87 183 0 87 183 0 87 183 0 87 183 0 87 183 0 87 183 0 87 183 0 87 183 0 87 183 0 87 183 0 87 183 0 87 183 0 87 183 0 87 183 0 87 183 0 87 183 0 87 183 0 87 183 0 87 183 0 87 183 0 87 183 0 87 183 0 87 183 0 87 183 0 87 183 0 87 183 0 87 183 0 87 183 0 87 183 0 87 183 0 87 183 0 87 183 0 87 183 0 87 183 0 87 183 0 87 183 0 87 183 0 87 183 0 87 183 0 87 183 0 87 183 0 87 183 0 87 183 0 87 183 0 87 183 0 87 183 0 87 183 0 87 183 0 87 183 0 87 183 0 87 183 0 87 183 0 87 183 0 87 183 0 87 183 0 87 183 0 87 183 0 87 183 0 87 183 0 87 183 
0 87 183 0 87 183 0 87 183 0 87 183 0 87 183 0 87 183 0 87 183 0 87 183 0 87 183 0 87 183 0 87 183 0 87 183 0 87 183 0 87 183 0 87 183 0 87 183 0 87 183 0 87 183 0 87 183 0 87 183 0 87 183 0 87 183 0 87 183 0 87 183 0 87 183 0 87 183 0 87 183 0 87 183 0 87 183 0 87 183 0 87 183 0 87 183 0 87 183 0 87 183 0 87 183 0 87 183 0 87 183 0 87 183 0 87 183 0 87 183 0 87 183 0 87 183 0 87 183 0 87 183 0 87 183 0 87 183 0 87 183 0 87 183 0 87 183 0 87 183 0 87 183 0 87 183 0 87 183 0 87 183 0 87 183 0 87 183 0 87 183 0 87 183 0 87 183 0 87 183 0 87 183 0 87 183 0 87 183 0 87 183 0 87 183 0 87 183 0 87 183 0 87 183 0 87 183 0 87 183 0 87 183 0 87 183 0 87 183 0 87 183 0 87 183 0 87 183 0 87 183 0 87 183 0 87 183 0 87 183 0 87 183 0 87 183 0 87 183 0 87 183 0 87 183 0 87 183 0 87 183 0 87 183 0 87 183 0 87 183 0 87 183 0 87 183 0 87 183 0 87 183 0 87 183 0 87 183 0 87 183 0 87 183 0 87 183 0 87 183 0 87 183 0 87 183 0 87 183 0 87 183 0 87 183 0 87 183 0 87 183 0 87 183 0 87 183 0 87 183 0 87 183 0 87 183 0 87 183 0 87 183 0 87 183 0 87 183 0 87 183 0 87 183 0 87 183 0 87 183 0 87 183 0 87 183 0 87 183 0 87 183 0 87 183 0 87 183 0 87 183 0 87 183 0 87 183 0 87 183 0 87 183 0 87 183 0 87 183 0 87 183 0 87 183 0 87 183 0 87 183 0 87 183 0 87 183 0 87 183 0 87 183 0 87 183 0 87 183 0 87 183 0 87 183 0 87 183 0 87 183 0 87 183 0 87 183 0 87 183 0 87 183 0 87 183 0 87 183 0 87 183 0 87 183 0 87 183 0 87 183 0 87 183 0 87 183 0 87 183 0 87 183 0 87 183 0 87 183 0 87 183 0 87 183 0 87 183 0 87 183 0 87 183 0 87 183 0 87 183 0 87 183 0 87 183 0 87 183 0 87 183 0 87 183 0 87 183 0 87 183 0 87 183 0 87 183 0 87 183 0 87 183 0 87 183 0 87 183 0 87 183 0 87 183 0 87 183 0 87 183 0 87 183 0 87 183 0 87 183 0 87 183 0 87 183 0 87 183 0 87 183 0 87 183 0 87 183 0 87 183 0 87 183 0 87 183 0 87 183 0 87 183 0 87 183 0 87 183 0 87 183 0 87 183 0 87 183 0 87 183 0 87 183 0 87 183 0 87 183 0 87 183 0 87 183 0 87 183 0 87 183 0 87 183 0 87 183 0 87 183 0 87 183 0 87 183 0 87 183 0 87 183 0 87 183 0 87 183 0 87 183 0 87 183 0 87 183 0 87 183 0 87 183 0 87 183 0 87 183 0 87 183 0 87 183 0 87 183 0 87 183 0 87 183 0 87 183 0 87 183 0 87 183 0 87 183 0 87 183 0 87 183 0 87 183 0 87 183 0 87 183 0 87 183 0 87 183 0 87 183 0 87 183 0 87 183 0 87 183 0 87 183 0 87 183 0 87 183 0 87 183 0 87 183 0 87 183 0 87 183 0 87 183 0 87 183 0 87 183 0 87 183 0 87 183 0 87 183 0 87 183 0 87 183 0 87 183 0 87 183 0 87 183 0 87 183 0 87 183 0 87 183 0 87 183 0 87 183 0 87 183 0 87 183 0 87 183 0 87 183 0 87 183 0 87 183 0 87 183 0 87 183 0 87 183 0 87 183 0 87 183 0 87 183 0 87 183 0 87 183 0 87 183 0 87 183 0 87 183 0 87 183 0 87 183 0 87 183 0 87 183 0 87 183 0 87 183 0 87 183 0 87 183 0 87 183 0 87 183 
0 87 183 0 87 183 0 87 183 0 87 183 0 87 183 0 87 183 0 87 183 0 87 183 0 87 183 0 87 183 0 87 183 0 87 183 0 87 183 0 87 183 0 87 183 0 87 183 0 87 183 0 87 183 0 87 183 0 87 183 0 87 183 0 87 183 0 87 183 0 87 183 0 87 183 0 87 183 0 87 183 0 87 183 0 87 183 0 87 183 0 87 183 0 87 183 0 87 183 0 87 183 0 87 183 0 87 183 0 87 183 0 87 183 0 87 183 0 87 183 0 87 183 0 87 183 0 87 183 0 87 183 0 87 183 0 87 183 0 87 183 0 87 183 0 87 183 0 87 183 0 87 183 0 87 183 0 87 183 0 87 183 0 87 183 0 87 183 0 87 183 0 87 183 0 87 183 0 87 183 0 87 183 0 87 183 0 87 183 0 87 183 0 87 183 0 87 183 0 87 183 0 87 183 0 87 183 0 87 183 0 87 183 0 87 183 0 87 183 0 87 183 0 87 183 0 87 183 0 87 183 0 87 183 0 87 183 0 87 183 0 87 183 0 87 183 0 87 183 0 87 183 0 87 183 0 87 183 0 87 183 0 87 183 0 87 183 0 87 183 0 87 183 0 87 183 0 87 183 0 87 183 0 87 183 0 87 183 0 87 183 0 87 183 0 87 183 0 87 183 0 87 183 0 87 183 0 87 183 0 87 183 0 87 183 0 87 183 0 87 183 0 87 183 0 87 183 0 87 183 0 87 183 0 87 183 0 87 183 0 87 183 0 87 183 0 87 183 0 87 183 0 87 183 0 87 183 0 87 183 0 87 183 0 87 183 0 87 183 0 87 183 0 87 183 0 87 183 0 87 183 0 87 183 0 87 183 0 87 183 0 87 183 0 87 183 0 87 183 0 87 183 0 87 183 0 87 183 0 87 183 0 87 183 0 87 183 0 87 183 0 87 183 0 87 183 0 87 183 0 87 183 0 87 183 0 87 183 0 87 183 0 87 183 0 87 183 0 87 183 0 87 183 0 87 183 0 87 183 0 87 183 0 87 183 0 87 183 0 87 183 0 87 183 0 87 183 0 87 183 0 87 183 0 87 183 0 87 183 0 87 183 0 87 183 0 87 183 0 87 183 0 87 183 0 87 183 0 87 183 0 87 183 0 87 183 0 87 183 0 87 183 0 87 183 0 87 183 0 87 183 0 87 183 0 87 183 0 87 183 0 87 183 0 87 183 0 87 183 0 87 183 0 87 183 0 87 183 0 87 183 0 87 183 0 87 183 0 87 183 0 87 183 0 87 183 0 87 183 0 87 183 0 87 183 0 87 183 0 87 183 0 87 183 0 87 183 0 87 183 0 87 183 0 87 183 0 87 183 0 87 183 0 87 183 0 87 183 0 87 183 0 87 183 0 87 183 0 87 183 0 87 183 0 87 183 0 87 183 0 87 183 0 87 183 0 87 183 0 87 183 0 87 183 0 87 183 0 87 183 0 87 183 0 87 183 0 87 183 0 87 183 0 87 183 0 87 183 0 87 183 0 87 183 0 87 183 0 87 183 0 87 183 0 87 183 0 87 183 0 87 183 0 87 183 0 87 183 0 87 183 0 87 183 0 87 183 0 87 183 0 87 183 0 87 183 0 87 183 0 87 183 0 87 183 0 87 183 0 87 183 0 87 183 0 87 183 0 87 183 0 87 183 0 87 183 0 87 183 0 87 183 0 87 183 0 87 183 0 87 183 0 87 183 0 87 183 0 87 183 0 87 183 0 87 183 0 87 183 0 87 183 0 87 183 0 87 183 0 87 183 0 87 183 0 87 183 0 87 183 0 87 183 0 87 183 0 87 183 0 87 183 0 87 183 0 87 183 0 87 183 0 87 183 0 87 183 0 87 183 0 87 183 0 87 183 0 87 183 0 87 183 0 87 183 0 87 183 0 87 183 0 87 183 0 87 183 0 87 183 0 87 183 0 87 183 0 87 183 0 87 183 0 87 183 0 87 183 0 87 183 0 87 183 0 87 183 0 87 183 
0 87 183 0 87 183 0 87 183 0 87 183 0 87 183 0 87 183 0 87 183 0 87 183 0 87 183 0 87 183 0 87 183 0 87 183 0 87 183 0 87 183 0 87 183 0 87 183 0 87 183 0 87 183 0 87 183 0 87 183 0 87 183 0 87 183 0 87 183 0 87 183 0 87 183 0 87 183 0 87 183 0 87 183 0 87 183 0 87 183 0 87 183 0 87 183 0 87 183 0 87 183 0 87 183 0 87 183 0 87 183 0 87 183 0 87 183 0 87 183 0 87 183 0 87 183 0 87 183 0 87 183 0 87 183 0 87 183 0 87 183 0 87 183 0 87 183 0 87 183 0 87 183 0 87 183 0 87 183 0 87 183 0 87 183 0 87 183 0 87 183 0 87 183 0 87 183 0 87 183 0 87 183 0 87 183 0 87 183 0 87 183 0 87 183 0 87 183 0 87 183 0 87 183 0 87 183 0 87 183 0 87 183 0 87 183 0 87 183 0 87 183 0 87 183 0 87 183 0 87 183 0 87 183 0 87 183 0 87 183 0 87 183 0 87 183 0 87 183 0 87 183 0 87 183 0 87 183 0 87 183 0 87 183 0 87 183 0 87 183 0 87 183 0 87 183 0 87 183 0 87 183 0 87 183 0 87 183 0 87 183 0 87 183 0 87 183 0 87 183 0 87 183 0 87 183 0 87 183 0 87 183 0 87 183 0 87 183 0 87 183 0 87 183 0 87 183 0 87 183 0 87 183 0 87 183 0 87 183 0 87 183 0 87 183 0 87 183 0 87 183 0 87 183 0 87 183 0 87 183 0 87 183 0 87 183 0 87 183 0 87 183 0 87 183 0 87 183 0 87 183 0 87 183 0 87 183 0 87 183 0 87 183 0 87 183 0 87 183 0 87 183 0 87 183 0 87 183 0 87 183 0 87 183 0 87 183 0 87 183 0 87 183 0 87 183 0 87 183 0 87 183 0 87 183 0 87 183 0 87 183 0 87 183 0 87 183 0 87 183 0 87 183 0 87 183 0 87 183 0 87 183 0 87 183 0 87 183 0 87 183 0 87 183 0 87 183 0 87 183 0 87 183 0 87 183 0 87 183 0 87 183 0 87 183 0 87 183 0 87 183 0 87 183 0 87 183 0 87 183 0 87 183 0 87 183 0 87 183 0 87 183 0 87 183 0 87 183 0 87 183 0 87 183 0 87 183 0 87 183 0 87 183 0 87 183 0 87 183 0 87 183 0 87 183 0 87 183 0 87 183 0 87 183 0 87 183 0 87 183 0 87 183 0 87 183 0 87 183 0 87 183 0 87 183 0 87 183 0 87 183 0 87 183 0 87 183 0 87 183 0 87 183 0 87 183 0 87 183 0 87 183 0 87 183 0 87 183 0 87 183 0 87 183 0 87 183 0 87 183 0 87 183 0 87 183 0 87 183 0 87 183 0 87 183 0 87 183 0 87 183 0 87 183 0 87 183 0 87 183 0 87 183 0 87 183 0 87 183 0 87 183 0 87 183 0 87 183 0 87 183 0 87 183 0 87 183 0 87 183 0 87 183 0 87 183 0 87 183 0 87 183 0 87 183 0 87 183 0 87 183 0 87 183 0 87 183 0 87 183 0 87 183 0 87 183 0 87 183 0 87 183 0 87 183 0 87 183 0 87 183 0 87 183 0 87 183 0 87 183 0 87 183 0 87 183 0 87 183 0 87 183 0 87 183 0 87 183 0 87 183 0 87 183 0 87 183 0 87 183 0 87 183 0 87 183 0 87 183 0 87 183 0 87 183 0 87 183 0 87 183 0 87 183 0 87 183 0 87 183 0 87 183 0 87 183 0 87 183 0 87 183 0 87 183 0 87 183 0 87 183 0 87 183 0 87 183 0 87 183 0 87 183 0 87 183 0 87 183 0 87 183 0 87 183 0 87 183 0 87 183 0 87 183 0 87 183 0 87 183 0 87 183 0 87 183 0 87 183 0 87 183 0 87 183 0 87 183 0 87 183 0 87 183 0 87 183 0 87 183 
0 87 183 0 87 183 0 87 183 0 87 183 0 87 183 0 87 183 0 87 183 0 87 183 0 87 183 0 87 183 0 87 183 0 87 183 0 87 183 0 87 183 0 87 183 0 87 183 0 87 183 0 87 183 0 87 183 0 87 183 0 87 183 0 87 183 0 87 183 0 87 183 0 87 183 0 87 183 0 87 183 0 87 183 0 87 183 0 87 183 0 87 183 0 87 183 0 87 183 0 87 183 0 87 183 0 87 183 0 87 183 0 87 183 0 87 183 0 87 183 0 87 183 0 87 183 0 87 183 0 87 183 0 87 183 0 87 183 0 87 183 0 87 183 0 87 183 0 87 183 0 87 183 0 87 183 0 87 183 0 87 183 0 87 183 0 87 183 0 87 183 0 87 183 0 87 183 0 87 183 0 87 183 0 87 183 0 87 183 0 87 183 0 87 183 0 87 183 0 87 183 0 87 183 0 87 183 0 87 183 0 87 183 0 87 183 0 87 183 0 87 183 0 87 183 0 87 183 0 87 183 0 87 183 0 87 183 0 87 183 0 87 183 0 87 183 0 87 183 0 87 183 0 87 183 0 87 183 0 87 183 0 87 183 0 87 183 0 87 183 0 87 183 0 87 183 0 87 183 0 87 183 0 87 183 0 87 183 0 87 183 0 87 183 0 87 183 0 87 183 0 87 183 0 87 183 0 87 183 0 87 183 0 87 183 0 87 183 0 87 183 0 87 183 0 87 183 0 87 183 0 87 183 0 87 183 0 87 183 0 87 183 0 87 183 0 87 183 0 87 183 0 87 183 0 87 183 0 87 183 0 87 183 0 87 183 0 87 183 0 87 183 0 87 183 0 87 183 0 87 183 0 87 183 0 87 183 0 87 183 0 87 183 0 87 183 0 87 183 0 87 183 0 87 183 0 87 183 0 87 183 0 87 183 0 87 183 0 87 183 0 87 183 0 87 183 0 87 183 0 87 183 0 87 183 0 87 183 0 87 183 0 87 183 0 87 183 0 87 183 0 87 183 0 87 183 0 87 183 0 87 183 0 87 183 0 87 183 0 87 183 0 87 183 0 87 183 0 87 183 0 87 183 0 87 183 0 87 183 0 87 183 0 87 183 0 87 183 0 87 183 0 87 183 0 87 183 0 87 183 0 87 183 0 87 183 0 87 183 0 87 183 0 87 183 0 87 183 0 87 183 0 87 183 0 87 183 0 87 183 0 87 183 0 87 183 0 87 183 0 87 183 0 87 183 0 87 183 0 87 183 0 87 183 0 87 183 0 87 183 0 87 183 0 87 183 0 87 183 0 87 183 0 87 183 0 87 183 0 87 183 0 87 183 0 87 183 0 87 183 0 87 183 0 87 183 0 87 183 0 87 183 0 87 183 0 87 183 0 87 183 0 87 183 0 87 183 0 87 183 0 87 183 0 87 183 0 87 183 0 87 183 0 87 183 0 87 183 0 87 183 0 87 183 0 87 183 0 87 183 0 87 183 0 87 183 0 87 183 0 87 183 0 87 183 0 87 183 0 87 183 0 87 183 0 87 183 0 87 183 0 87 183 0 87 183 0 87 183 0 87 183 0 87 183 0 87 183 0 87 183 0 87 183 0 87 183 0 87 183 0 87 183 0 87 183 0 87 183 0 87 183 0 87 183 0 87 183 0 87 183 0 87 183 0 87 183 0 87 183 0 87 183 0 87 183 0 87 183 0 87 183 0 87 183 0 87 183 0 87 183 0 87 183 0 87 183 0 87 183 0 87 183 0 87 183 0 87 183 0 87 183 0 87 183 0 87 183 0 87 183 0 87 183 0 87 183 0 87 183 0 87 183 0 87 183 0 87 183 0 87 183 0 87 183 0 87 183 0 87 183 0 87 183 0 87 183 0 87 183 0 87 183 0 87 183 0 87 183 0 87 183 0 87 183 0 87 183 0 87 183 0 87 183 0 87 183 0 87 183 0 87 183 0 87 183 0 87 183 0 87 183 0 87 183 0 87 183 0 87 183 0 87 183 0 87 183 0 87 183 
0 87 183 0 87 183 0 87 183 0 87 183 0 87 183 0 87 183 0 87 183 0 87 183 0 87 183 0 87 183 0 87 183 0 87 183 0 87 183 0 87 183 0 87 183 0 87 183 0 87 183 0 87 183 0 87 183 0 87 183 0 87 183 0 87 183 0 87 183 0 87 183 0 87 183 0 87 183 0 87 183 0 87 183 0 87 183 0 87 183 0 87 183 0 87 183 0 87 183 0 87 183 0 87 183 0 87 183 0 87 183 0 87 183 0 87 183 0 87 183 0 87 183 0 87 183 0 87 183 0 87 183 0 87 183 0 87 183 0 87 183 0 87 183 0 87 183 0 87 183 0 87 183 0 87 183 0 87 183 0 87 183 0 87 183 0 87 183 0 87 183 0 87 183 0 87 183 0 87 183 0 87 183 0 87 183 0 87 183 0 87 183 0 87 183 0 87 183 0 87 183 0 87 183 0 87 183 0 87 183 0 87 183 0 87 183 0 87 183 0 87 183 0 87 183 0 87 183 0 87 183 0 87 183 0 87 183 0 87 183 0 87 183 0 87 183 0 87 183 0 87 183 0 87 183 0 87 183 0 87 183 0 87 183 0 87 183 0 87 183 0 87 183 0 87 183 0 87 183 0 87 183 0 87 183 0 87 183 0 87 183 0 87 183 0 87 183 0 87 183 0 87 183 0 87 183 0 87 183 0 87 183 0 87 183 0 87 183 0 87 183 0 87 183 0 87 183 0 87 183 0 87 183 0 87 183 0 87 183 0 87 183 0 87 183 0 87 183 0 87 183 0 87 183 0 87 183 0 87 183 0 87 183 0 87 183 0 87 183 0 87 183 0 87 183 0 87 183 0 87 183 0 87 183 0 87 183 0 87 183 0 87 183 0 87 183 0 87 183 0 87 183 0 87 183 0 87 183 0 87 183 0 87 183 0 87 183 0 87 183 0 87 183 0 87 183 0 87 183 0 87 183 0 87 183 0 87 183 0 87 183 0 87 183 0 87 183 0 87 183 0 87 183 0 87 183 0 87 183 0 87 183 0 87 183 0 87 183 0 87 183 0 87 183 0 87 183 0 87 183 0 87 183 0 87 183 0 87 183 0 87 183 0 87 183 0 87 183 0 87 183 0 87 183 0 87 183 0 87 183 0 87 183 0 87 183 0 87 183 0 87 183 0 87 183 0 87 183 0 87 183 0 87 183 0 87 183 0 87 183 0 87 183 0 87 183 0 87 183 0 87 183 0 87 183 0 87 183 0 87 183 0 87 183 0 87 183 0 87 183 0 87 183 0 87 183 0 87 183 0 87 183 0 87 183 0 87 183 0 87 183 0 87 183 0 87 183 0 87 183 0 87 183 0 87 183 0 87 183 0 87 183 0 87 183 0 87 183 0 87 183 0 87 183 0 87 183 0 87 183 0 87 183 0 87 183 0 87 183 0 87 183 0 87 183 0 87 183 0 87 183 0 87 183 0 87 183 0 87 183 0 87 183 0 87 183 0 87 183 0 87 183 0 87 183 0 87 183 0 87 183 0 87 183 0 87 183 0 87 183 0 87 183 0 87 183 0 87 183 0 87 183 0 87 183 0 87 183 0 87 183 0 87 183 0 87 183 0 87 183 0 87 183 0 87 183 0 87 183 0 87 183 0 87 183 0 87 183 0 87 183 0 87 183 0 87 183 0 87 183 0 87 183 0 87 183 0 87 183 0 87 183 0 87 183 0 87 183 0 87 183 0 87 183 0 87 183 0 87 183 0 87 183 0 87 183 0 87 183 0 87 183 0 87 183 0 87 183 0 87 183 0 87 183 0 87 183 0 87 183 0 87 183 0 87 183 0 87 183 0 87 183 0 87 183 0 87 183 0 87 183 0 87 183 0 87 183 0 87 183 0 87 183 0 87 183 0 87 183 0 87 183 0 87 183 0 87 183 0 87 183 0 87 183 0 87 183 0 87 183 0 87 183 0 87 183 0 87 183 0 87 183 0 87 183 0 87 183 0 87 183 0 87 183 0 87 183 0 87 183 
0 87 183 0 87 183 0 87 183 0 87 183 0 87 183 0 87 183 0 87 183 0 87 183 0 87 183 0 87 183 0 87 183 0 87 183 0 87 183 0 87 183 0 87 183 0 87 183 0 87 183 0 87 183 0 87 183 0 87 183 0 87 183 0 87 183 0 87 183 0 87 183 0 87 183 0 87 183 0 87 183 0 87 183 0 87 183 0 87 183 0 87 183 0 87 183 0 87 183 0 87 183 0 87 183 0 87 183 0 87 183 0 87 183 0 87 183 0 87 183 0 87 183 0 87 183 0 87 183 0 87 183 0 87 183 0 87 183 0 87 183 0 87 183 0 87 183 0 87 183 0 87 183 0 87 183 0 87 183 0 87 183 0 87 183 0 87 183 0 87 183 0 87 183 0 87 183 0 87 183 0 87 183 0 87 183 0 87 183 0 87 183 0 87 183 0 87 183 0 87 183 0 87 183 0 87 183 0 87 183 0 87 183 0 87 183 0 87 183 0 87 183 0 87 183 0 87 183 0 87 183 0 87 183 0 87 183 0 87 183 0 87 183 0 87 183 0 87 183 0 87 183 0 87 183 0 87 183 0 87 183 0 87 183 0 87 183 0 87 183 0 87 183 0 87 183 0 87 183 0 87 183 0 87 183 0 87 183 0 87 183 0 87 183 0 87 183 0 87 183 0 87 183 0 87 183 0 87 183 0 87 183 0 87 183 0 87 183 0 87 183 0 87 183 0 87 183 0 87 183 0 87 183 0 87 183 0 87 183 0 87 183 0 87 183 0 87 183 0 87 183 0 87 183 0 87 183 0 87 183 0 87 183 0 87 183 0 87 183 0 87 183 0 87 183 0 87 183 0 87 183 0 87 183 0 87 183 0 87 183 0 87 183 0 87 183 0 87 183 0 87 183 0 87 183 0 87 183 0 87 183 0 87 183 0 87 183 0 87 183 0 87 183 0 87 183 0 87 183 0 87 183 0 87 183 0 87 183 0 87 183 0 87 183 0 87 183 0 87 183 0 87 183 0 87 183 0 87 183 0 87 183 0 87 183 0 87 183 0 87 183 0 87 183 0 87 183 0 87 183 0 87 183 0 87 183 0 87 183 0 87 183 0 87 183 0 87 183 0 87 183 0 87 183 0 87 183 0 87 183 0 87 183 0 87 183 0 87 183 0 87 183 0 87 183 0 87 183 0 87 183 0 87 183 0 87 183 0 87 183 0 87 183 0 87 183 0 87 183 0 87 183 0 87 183 0 87 183 0 87 183 0 87 183 0 87 183 0 87 183 0 87 183 0 87 183 0 87 183 0 87 183 0 87 183 0 87 183 0 87 183 0 87 183 0 87 183 0 87 183 0 87 183 0 87 183 0 87 183 0 87 183 0 87 183 0 87 183 0 87 183 0 87 183 0 87 183 0 87 183 0 87 183 0 87 183 0 87 183 0 87 183 0 87 183 0 87 183 0 87 183 0 87 183 0 87 183 0 87 183 0 87 183 0 87 183 0 87 183 0 87 183 0 87 183 0 87 183 0 87 183 0 87 183 0 87 183 0 87 183 0 87 183 0 87 183 0 87 183 0 87 183 0 87 183 0 87 183 0 87 183 0 87 183 0 87 183 0 87 183 0 87 183 0 87 183 0 87 183 0 87 183 0 87 183 0 87 183 0 87 183 0 87 183 0 87 183 0 87 183 0 87 183 0 87 183 0 87 183 0 87 183 0 87 183 0 87 183 0 87 183 0 87 183 0 87 183 0 87 183 0 87 183 0 87 183 0 87 183 0 87 183 0 87 183 0 87 183 0 87 183 0 87 183 0 87 183 0 87 183 0 87 183 0 87 183 0 87 183 0 87 183 0 87 183 0 87 183 0 87 183 0 87 183 0 87 183 0 87 183 0 87 183 0 87 183 0 87 183 0 87 183 0 87 183 0 87 183 0 87 183 0 87 183 0 87 183 0 87 183 0 87 183 0 87 183 0 87 183 0 87 183 0 87 183 0 87 183 0 87 183 0 87 183 0 87 183 0 87 183 
0 87 183 0 87 183 0 87 183 0 87 183 0 87 183 0 87 183 0 87 183 0 87 183 0 87 183 0 87 183 0 87 183 0 87 183 0 87 183 0 87 183 0 87 183 0 87 183 0 87 183 0 87 183 0 87 183 0 87 183 0 87 183 0 87 183 0 87 183 0 87 183 0 87 183 0 87 183 0 87 183 0 87 183 0 87 183 0 87 183 0 87 183 0 87 183 0 87 183 0 87 183 0 87 183 0 87 183 0 87 183 0 87 183 0 87 183 0 87 183 0 87 183 0 87 183 0 87 183 0 87 183 0 87 183 0 87 183 0 87 183 0 87 183 0 87 183 0 87 183 0 87 183 0 87 183 0 87 183 0 87 183 0 87 183 0 87 183 0 87 183 0 87 183 0 87 183 0 87 183 0 87 183 0 87 183 0 87 183 0 87 183 0 87 183 0 87 183 0 87 183 0 87 183 0 87 183 0 87 183 0 87 183 0 87 183 0 87 183 0 87 183 0 87 183 0 87 183 0 87 183 0 87 183 0 87 183 0 87 183 0 87 183 0 87 183 0 87 183 0 87 183 0 87 183 0 87 183 0 87 183 0 87 183 0 87 183 0 87 183 0 87 183 0 87 183 0 87 183 0 87 183 0 87 183 0 87 183 0 87 183 0 87 183 0 87 183 0 87 183 0 87 183 0 87 183 0 87 183 0 87 183 0 87 183 0 87 183 0 87 183 0 87 183 0 87 183 0 87 183 0 87 183 0 87 183 0 87 183 0 87 183 0 87 183 0 87 183 0 87 183 0 87 183 0 87 183 0 87 183 0 87 183 0 87 183 0 87 183 0 87 183 0 87 183 0 87 183 0 87 183 0 87 183 0 87 183 0 87 183 0 87 183 0 87 183 0 87 183 0 87 183 0 87 183 0 87 183 0 87 183 0 87 183 0 87 183 0 87 183 0 87 183 0 87 183 0 87 183 0 87 183 0 87 183 0 87 183 0 87 183 0 87 183 0 87 183 0 87 183 0 87 183 0 87 183 0 87 183 0 87 183 0 87 183 0 87 183 0 87 183 0 87 183 0 87 183 0 87 183 0 87 183 0 87 183 0 87 183 0 87 183 0 87 183 0 87 183 0 87 183 0 87 183 0 87 183 0 87 183 0 87 183 0 87 183 0 87 183 0 87 183 0 87 183 0 87 183 0 87 183 0 87 183 0 87 183 0 87 183 0 87 183 0 87 183 0 87 183 0 87 183 0 87 183 0 87 183 0 87 183 0 87 183 0 87 183 0 87 183 0 87 183 0 87 183 0 87 183 0 87 183 0 87 183 0 87 183 0 87 183 0 87 183 0 87 183 0 87 183 0 87 183 0 87 183 0 87 183 0 87 183 0 87 183 0 87 183 0 87 183 0 87 183 0 87 183 0 87 183 0 87 183 0 87 183 0 87 183 0 87 183 0 87 183 0 87 183 0 87 183 0 87 183 0 87 183 0 87 183 0 87 183 0 87 183 0 87 183 0 87 183 0 87 183 0 87 183 0 87 183 0 87 183 0 87 183 0 87 183 0 87 183 0 87 183 0 87 183 0 87 183 0 87 183 0 87 183 0 87 183 0 87 183 0 87 183 0 87 183 0 87 183 0 87 183 0 87 183 0 87 183 0 87 183 0 87 183 0 87 183 0 87 183 0 87 183 0 87 183 0 87 183 0 87 183 0 87 183 0 87 183 0 87 183 0 87 183 0 87 183 0 87 183 0 87 183 0 87 183 0 87 183 0 87 183 0 87 183 0 87 183 0 87 183 0 87 183 0 87 183 0 87 183 0 87 183 0 87 183 0 87 183 0 87 183 0 87 183 0 87 183 0 87 183 0 87 183 0 87 183 0 87 183 0 87 183 0 87 183 0 87 183 0 87 183 0 87 183 0 87 183 0 87 183 0 87 183 0 87 183 0 87 183 0 87 183 0 87 183 0 87 183 0 87 183 0 87 183 0 87 183 0 87 183 0 87 183 0 87 183 0 87 183 0 87 183 0 87 183 
0 87 183 0 87 183 0 87 183 0 87 183 0 87 183 0 87 183 0 87 183 0 87 183 0 87 183 0 87 183 0 87 183 0 87 183 0 87 183 0 87 183 0 87 183 0 87 183 0 87 183 0 87 183 0 87 183 0 87 183 0 87 183 0 87 183 0 87 183 0 87 183 0 87 183 0 87 183 0 87 183 0 87 183 0 87 183 0 87 183 0 87 183 0 87 183 0 87 183 0 87 183 0 87 183 0 87 183 0 87 183 0 87 183 0 87 183 0 87 183 0 87 183 0 87 183 0 87 183 0 87 183 0 87 183 0 87 183 0 87 183 0 87 183 0 87 183 0 87 183 0 87 183 0 87 183 0 87 183 0 87 183 0 87 183 0 87 183 0 87 183 0 87 183 0 87 183 0 87 183 0 87 183 0 87 183 0 87 183 0 87 183 0 87 183 0 87 183 0 87 183 0 87 183 0 87 183 0 87 183 0 87 183 0 87 183 0 87 183 0 87 183 0 87 183 0 87 183 0 87 183 0 87 183 0 87 183 0 87 183 0 87 183 0 87 183 0 87 183 0 87 183 0 87 183 0 87 183 0 87 183 0 87 183 0 87 183 0 87 183 0 87 183 0 87 183 0 87 183 0 87 183 0 87 183 0 87 183 0 87 183 0 87 183 0 87 183 0 87 183 0 87 183 0 87 183 0 87 183 0 87 183 0 87 183 0 87 183 0 87 183 0 87 183 0 87 183 0 87 183 0 87 183 0 87 183 0 87 183 0 87 183 0 87 183 0 87 183 0 87 183 0 87 183 0 87 183 0 87 183 0 87 183 0 87 183 0 87 183 0 87 183 0 87 183 0 87 183 0 87 183 0 87 183 0 87 183 0 87 183 0 87 183 0 87 183 0 87 183 0 87 183 0 87 183 0 87 183 0 87 183 0 87 183 0 87 183 0 87 183 0 87 183 0 87 183 0 87 183 0 87 183 0 87 183 0 87 183 0 87 183 0 87 183 0 87 183 0 87 183 0 87 183 0 87 183 0 87 183 0 87 183 0 87 183 0 87 183 0 87 183 0 87 183 0 87 183 0 87 183 0 87 183 0 87 183 0 87 183 0 87 183 0 87 183 0 87 183 0 87 183 0 87 183 0 87 183 0 87 183 0 87 183 0 87 183 0 87 183 0 87 183 0 87 183 0 87 183 0 87 183 0 87 183 0 87 183 0 87 183 0 87 183 0 87 183 0 87 183 0 87 183 0 87 183 0 87 183 0 87 183 0 87 183 0 87 183 0 87 183 0 87 183 0 87 183 0 87 183 0 87 183 0 87 183 0 87 183 0 87 183 0 87 183 0 87 183 0 87 183 0 87 183 0 87 183 0 87 183 0 87 183 0 87 183 0 87 183 0 87 183 0 87 183 0 87 183 0 87 183 0 87 183 0 87 183 0 87 183 0 87 183 0 87 183 0 87 183 0 87 183 0 87 183 0 87 183 0 87 183 0 87 183 0 87 183 0 87 183 0 87 183 0 87 183 0 87 183 0 87 183 0 87 183 0 87 183 0 87 183 0 87 183 0 87 183 0 87 183 0 87 183 0 87 183 0 87 183 0 87 183 0 87 183 0 87 183 0 87 183 0 87 183 0 87 183 0 87 183 0 87 183 0 87 183 0 87 183 0 87 183 0 87 183 0 87 183 0 87 183 0 87 183 0 87 183 0 87 183 0 87 183 0 87 183 0 87 183 0 87 183 0 87 183 0 87 183 0 87 183 0 87 183 0 87 183 0 87 183 0 87 183 0 87 183 0 87 183 0 87 183 0 87 183 0 87 183 0 87 183 0 87 183 0 87 183 0 87 183 0 87 183 0 87 183 0 87 183 0 87 183 0 87 183 0 87 183 0 87 183 0 87 183 0 87 183 0 87 183 0 87 183 0 87 183 0 87 183 0 87 183 0 87 183 0 87 183 0 87 183 0 87 183 0 87 183 0 87 183 0 87 183 0 87 183 0 87 183 0 87 183 0 87 183 0 87 183 0 87 183 
0 87 183 0 87 183 0 87 183 0 87 183 0 87 183 0 87 183 0 87 183 0 87 183 0 87 183 0 87 183 0 87 183 0 87 183 0 87 183 0 87 183 0 87 183 0 87 183 0 87 183 0 87 183 0 87 183 0 87 183 0 87 183 0 87 183 0 87 183 0 87 183 0 87 183 0 87 183 0 87 183 0 87 183 0 87 183 0 87 183 0 87 183 0 87 183 0 87 183 0 87 183 0 87 183 0 87 183 0 87 183 0 87 183 0 87 183 0 87 183 0 87 183 0 87 183 0 87 183 0 87 183 0 87 183 0 87 183 0 87 183 0 87 183 0 87 183 0 87 183 0 87 183 0 87 183 0 87 183 0 87 183 0 87 183 0 87 183 0 87 183 0 87 183 0 87 183 0 87 183 0 87 183 0 87 183 0 87 183 0 87 183 0 87 183 0 87 183 0 87 183 0 87 183 0 87 183 0 87 183 0 87 183 0 87 183 0 87 183 0 87 183 0 87 183 0 87 183 0 87 183 0 87 183 0 87 183 0 87 183 0 87 183 0 87 183 0 87 183 0 87 183 0 87 183 0 87 183 0 87 183 0 87 183 0 87 183 0 87 183 0 87 183 0 87 183 0 87 183 0 87 183 0 87 183 0 87 183 0 87 183 0 87 183 0 87 183 0 87 183 0 87 183 0 87 183 0 87 183 0 87 183 0 87 183 0 87 183 0 87 183 0 87 183 0 87 183 0 87 183 0 87 183 0 87 183 0 87 183 0 87 183 0 87 183 0 87 183 0 87 183 0 87 183 0 87 183 0 87 183 0 87 183 0 87 183 0 87 183 0 87 183 0 87 183 0 87 183 0 87 183 0 87 183 0 87 183 0 87 183 0 87 183 0 87 183 0 87 183 0 87 183 0 87 183 0 87 183 0 87 183 0 87 183 0 87 183 0 87 183 0 87 183 0 87 183 0 87 183 0 87 183 0 87 183 0 87 183 0 87 183 0 87 183 0 87 183 0 87 183 0 87 183 0 87 183 0 87 183 0 87 183 0 87 183 0 87 183 0 87 183 0 87 183 0 87 183 0 87 183 0 87 183 0 87 183 0 87 183 0 87 183 0 87 183 0 87 183 0 87 183 0 87 183 0 87 183 0 87 183 0 87 183 0 87 183 0 87 183 0 87 183 0 87 183 0 87 183 0 87 183 0 87 183 0 87 183 0 87 183 0 87 183 0 87 183 0 87 183 0 87 183 0 87 183 0 87 183 0 87 183 0 87 183 0 87 183 0 87 183 0 87 183 0 87 183 0 87 183 0 87 183 0 87 183 0 87 183 0 87 183 0 87 183 0 87 183 0 87 183 0 87 183 0 87 183 0 87 183 0 87 183 0 87 183 0 87 183 0 87 183 0 87 183 0 87 183 0 87 183 0 87 183 0 87 183 0 87 183 0 87 183 0 87 183 0 87 183 0 87 183 0 87 183 0 87 183 0 87 183 0 87 183 0 87 183 0 87 183 0 87 183 0 87 183 0 87 183 0 87 183 0 87 183 0 87 183 0 87 183 0 87 183 0 87 183 0 87 183 0 87 183 0 87 183 0 87 183 0 87 183 0 87 183 0 87 183 0 87 183 0 87 183 0 87 183 0 87 183 0 87 183 0 87 183 0 87 183 0 87 183 0 87 183 0 87 183 0 87 183 0 87 183 0 87 183 0 87 183 0 87 183 0 87 183 0 87 183 0 87 183 0 87 183 0 87 183 0 87 183 0 87 183 0 87 183 0 87 183 0 87 183 0 87 183 0 87 183 0 87 183 0 87 183 0 87 183 0 87 183 0 87 183 0 87 183 0 87 183 0 87 183 0 87 183 0 87 183 0 87 183 0 87 183 0 87 183 0 87 183 0 87 183 0 87 183 0 87 183 0 87 183 0 87 183 0 87 183 0 87 183 0 87 183 0 87 183 0 87 183 0 87 183 0 87 183 0 87 183 0 87 183 0 87 183 0 87 183 0 87 183 0 87 183 0 87 183 0 87 183 
255 215 0 255 215 0 255 215 0 255 215 0 255 215 0 255 215 0 255 215 0 255 215 0 255 215 0 255 215 0 255 215 0 255 215 0 255 215 0 255 215 0 255 215 0 255 215 0 255 215 0 255 215 0 255 215 0 255 215 0 255 215 0 255 215 0 255 215 0 255 215 0 255 215 0 255 215 0 255 215 0 255 215 0 255 215 0 255 215 0 255 215 0 255 215 0 255 215 0 255 215 0 255 215 0 255 215 0 255 215 0 255 215 0 255 215 0 255 215 0 255 215 0 255 215 0 255 215 0 255 215 0 255 215 0 255 215 0 255 215 0 255 215 0 255 215 0 255 215 0 255 215 0 255 215 0 255 215 0 255 215 0 255 215 0 255 215 0 255 215 0 255 215 0 255 215 0 255 215 0 255 215 0 255 215 0 255 215 0 255 215 0 255 215 0 255 215 0 255 215 0 255 215 0 255 215 0 255 215 0 255 215 0 255 215 0 255 215 0 255 215 0 255 215 0 255 215 0 255 215 0 255 215 0 255 215 0 255 215 0 255 215 0 255 215 0 255 215 0 255 215 0 255 215 0 255 215 0 255 215 0 255 215 0 255 215 0 255 215 0 255 215 0 255 215 0 255 215 0 255 215 0 255 215 0 255 215 0 255 215 0 255 215 0 255 215 0 255 215 0 255 215 0 255 215 0 255 215 0 255 215 0 255 215 0 255 215 0 255 215 0 255 215 0 255 215 0 255 215 0 255 215 0 255 215 0 255 215 0 255 215 0 255 215 0 255 215 0 255 215 0 255 215 0 255 215 0 255 215 0 255 215 0 255 215 0 255 215 0 255 215 0 255 215 0 255 215 0 255 215 0 255 215 0 255 215 0 255 215 0 255 215 0 255 215 0 255 215 0 255 215 0 255 215 0 255 215 0 255 215 0 255 215 0 255 215 0 255 215 0 255 215 0 255 215 0 255 215 0 255 215 0 255 215 0 255 215 0 255 215 0 255 215 0 255 215 0 255 215 0 255 215 0 255 215 0 255 215 0 255 215 0 255 215 0 255 215 0 255 215 0 255 215 0 255 215 0 255 215 0 255 215 0 255 215 0 255 215 0 255 215 0 255 215 0 255 215 0 255 215 0 255 215 0 255 215 0 255 215 0 255 215 0 255 215 0 255 215 0 255 215 0 255 215 0 255 215 0 255 215 0 255 215 0 255 215 0 255 215 0 255 215 0 255 215 0 255 215 0 255 215 0 255 215 0 255 215 0 255 215 0 255 215 0 255 215 0 255 215 0 255 215 0 255 215 0 255 215 0 255 215 0 255 215 0 255 215 0 255 215 0 255 215 0 255 215 0 255 215 0 255 215 0 255 215 0 255 215 0 255 215 0 255 215 0 255 215 0 255 215 0 255 215 0 255 215 0 255 215 0 255 215 0 255 215 0 255 215 0 255 215 0 255 215 0 255 215 0 255 215 0 255 215 0 255 215 0 255 215 0 255 215 0 255 215 0 255 215 0 255 215 0 255 215 0 255 215 0 255 215 0 255 215 0 255 215 0 255 215 0 255 215 0 255 215 0 255 215 0 255 215 0 255 215 0 255 215 0 255 215 0 255 215 0 255 215 0 255 215 0 255 215 0 255 215 0 255 215 0 255 215 0 255 215 0 255 215 0 255 215 0 255 215 0 255 215 0 255 215 0 255 215 0 255 215 0 255 215 0 255 215 0 255 215 0 255 215 0 255 215 0 255 215 0 255 215 0 255 215 0 255 215 0 255 215 0 255 215 0 255 215 0 255 215 0 255 215 0 255 215 0 255 215 0 255 215 0 255 215 0 255 215 0 255 215 0 255 215 0 255 215 0 255 215 0 255 215 0 255 215 0 255 215 0 255 215 0 255 215 0 255 215 0 255 215 0 255 215 0 255 215 0 255 215 0 255 215 0 255 215 0 255 215 0 255 215 0 255 215 0 255 215 0 255 215 0 255 215 0 255 215 0 255 215 0 255 215 0 255 215 0 255 215 0 255 215 0 255 215 0 
255 215 0 255 215 0 255 215 0 255 215 0 255 215 0 255 215 0 255 215 0 255 215 0 255 215 0 255 215 0 255 215 0 255 215 0 255 215 0 255 215 0 255 215 0 255 215 0 255 215 0 255 215 0 255 215 0 255 215 0 255 215 0 255 215 0 255 215 0 255 215 0 255 215 0 255 215 0 255 215 0 255 215 0 255 215 0 255 215 0 255 215 0 255 215 0 255 215 0 255 215 0 255 215 0 255 215 0 255 215 0 255 215 0 255 215 0 255 215 0 255 215 0 255 215 0 255 215 0 255 215 0 255 215 0 255 215 0 255 215 0 255 215 0 255 215 0 255 215 0 255 215 0 255 215 0 255 215 0 255 215 0 255 215 0 255 215 0 255 215 0 255 215 0 255 215 0 255 215 0 255 215 0 255 215 0 255 215 0 255 215 0 255 215 0 255 215 0 255 215 0 255 215 0 255 215 0 255 215 0 255 215 0 255 215 0 255 215 0 255 215 0 255 215 0 255 215 0 255 215 0 255 215 0 255 215 0 255 215 0 255 215 0 255 215 0 255 215 0 255 215 0 255 215 0 255 215 0 255 215 0 255 215 0 255 215 0 255 215 0 255 215 0 255 215 0 255 215 0 255 215 0 255 215 0 255 215 0 255 215 0 255 215 0 255 215 0 255 215 0 255 215 0 255 215 0 255 215 0 255 215 0 255 215 0 255 215 0 255 215 0 255 215 0 255 215 0 255 215 0 255 215 0 255 215 0 255 215 0 255 215 0 255 215 0 255 215 0 255 215 0 255 215 0 255 215 0 255 215 0 255 215 0 255 215 0 255 215 0 255 215 0 255 215 0 255 215 0 255 215 0 255 215 0 255 215 0 255 215 0 255 215 0 255 215 0 255 215 0 255 215 0 255 215 0 255 215 0 255 215 0 255 215 0 255 215 0 255 215 0 255 215 0 255 215 0 255 215 0 255 215 0 255 215 0 255 215 0 255 215 0 255 215 0 255 215 0 255 215 0 255 215 0 255 215 0 255 215 0 255 215 0 255 215 0 255 215 0 255 215 0 255 215 0 255 215 0 255 215 0 255 215 0 255 215 0 255 215 0 255 215 0 255 215 0 255 215 0 255 215 0 255 215 0 255 215 0 255 215 0 255 215 0 255 215 0 255 215 0 255 215 0 255 215 0 255 215 0 255 215 0 255 215 0 255 215 0 255 215 0 255 215 0 255 215 0 255 215 0 255 215 0 255 215 0 255 215 0 255 215 0 255 215 0 255 215 0 255 215 0 255 215 0 255 215 0 255 215 0 255 215 0 255 215 0 255 215 0 255 215 0 255 215 0 255 215 0 255 215 0 255 215 0 255 215 0 255 215 0 255 215 0 255 215 0 255 215 0 255 215 0 255 215 0 255 215 0 255 215 0 255 215 0 255 215 0 255 215 0 255 215 0 255 215 0 255 215 0 255 215 0 255 215 0 255 215 0 255 215 0 255 215 0 255 215 0 255 215 0 255 215 0 255 215 0 255 215 0 255 215 0 255 215 0 255 215 0 255 215 0 255 215 0 255 215 0 255 215 0 255 215 0 255 215 0 255 215 0 255 215 0 255 215 0 255 215 0 255 215 0 255 215 0 255 215 0 255 215 0 255 215 0 255 215 0 255 215 0 255 215 0 255 215 0 255 215 0 255 215 0 255 215 0 255 215 0 255 215 0 255 215 0 255 215 0 255 215 0 255 215 0 255 215 0 255 215 0 255 215 0 255 215 0 255 215 0 255 215 0 255 215 0 255 215 0 255 215 0 255 215 0 255 215 0 255 215 0 255 215 0 255 215 0 255 215 0 255 215 0 255 215 0 255 215 0 255 215 0 255 215 0 255 215 0 255 215 0 255 215 0 255 215 0 255 215 0 255 215 0 255 215 0 255 215 0 255 215 0 255 215 0 255 215 0 255 215 0 255 215 0 255 215 0 255 215 0 255 215 0 255 215 0 255 215 0 255 215 0 255 215 0 255 215 0 255 215 0 255 215 0 
255 215 0 255 215 0 255 215 0 255 215 0 255 215 0 255 215 0 255 215 0 255 215 0 255 215 0 255 215 0 255 215 0 255 215 0 255 215 0 255 215 0 255 215 0 255 215 0 255 215 0 255 215 0 255 215 0 255 215 0 255 215 0 255 215 0 255 215 0 255 215 0 255 215 0 255 215 0 255 215 0 255 215 0 255 215 0 255 215 0 255 215 0 255 215 0 255 215 0 255 215 0 255 215 0 255 215 0 255 215 0 255 215 0 255 215 0 255 215 0 255 215 0 255 215 0 255 215 0 255 215 0 255 215 0 255 215 0 255 215 0 255 215 0 255 215 0 255 215 0 255 215 0 255 215 0 255 215 0 255 215 0 255 215 0 255 215 0 255 215 0 255 215 0 255 215 0 255 215 0 255 215 0 255 215 0 255 215 0 255 215 0 255 215 0 255 215 0 255 215 0 255 215 0 255 215 0 255 215 0 255 215 0 255 215 0 255 215 0 255 215 0 255 215 0 255 215 0 255 215 0 255 215 0 255 215 0 255 215 0 255 215 0 255 215 0 255 215 0 255 215 0 255 215 0 255 215 0 255 215 0 255 215 0 255 215 0 255 215 0 255 215 0 255 215 0 255 215 0 255 215 0 255 215 0 255 215 0 255 215 0 255 215 0 255 215 0 255 215 0 255 215 0 255 215 0 255 215 0 255 215 0 255 215 0 255 215 0 255 215 0 255 215 0 255 215 0 255 215 0 255 215 0 255 215 0 255 215 0 255 215 0 255 215 0 255 215 0 255 215 0 255 215 0 255 215 0 255 215 0 255 215 0 255 215 0 255 215 0 255 215 0 255 215 0 255 215 0 255 215 0 255 215 0 255 215 0 255 215 0 255 215 0 255 215 0 255 215 0 255 215 0 255 215 0 255 215 0 255 215 0 255 215 0 255 215 0 255 215 0 255 215 0 255 215 0 255 215 0 255 215 0 255 215 0 255 215 0 255 215 0 255 215 0 255 215 0 255 215 0 255 215 0 255 215 0 255 215 0 255 215 0 255 215 0 255 215 0 255 215 0 255 215 0 255 215 0 255 215 0 255 215 0 255 215 0 255 215 0 255 215 0 255 215 0 255 215 0 255 215 0 255 215 0 255 215 0 255 215 0 255 215 0 255 215 0 255 215 0 255 215 0 255 215 0 255 215 0 255 215 0 255 215 0 255 215 0 255 215 0 255 215 0 255 215 0 255 215 0 255 215 0 255 215 0 255 215 0 255 215 0 255 215 0 255 215 0 255 215 0 255 215 0 255 215 0 255 215 0 255 215 0 255 215 0 255 215 0 255 215 0 255 215 0 255 215 0 255 215 0 255 215 0 255 215 0 255 215 0 255 215 0 255 215 0 255 215 0 255 215 0 255 215 0 255 215 0 255 215 0 255 215 0 255 215 0 255 215 0 255 215 0 255 215 0 255 215 0 255 215 0 255 215 0 255 215 0 255 215 0 255 215 0 255 215 0 255 215 0 255 215 0 255 215 0 255 215 0 255 215 0 255 215 0 255 215 0 255 215 0 255 215 0 255 215 0 255 215 0 255 215 0 255 215 0 255 215 0 255 215 0 255 215 0 255 215 0 255 215 0 255 215 0 255 215 0 255 215 0 255 215 0 255 215 0 255 215 0 255 215 0 255 215 0 255 215 0 255 215 0 255 215 0 255 215 0 255 215 0 255 215 0 255 215 0 255 215 0 255 215 0 255 215 0 255 215 0 255 215 0 255 215 0 255 215 0 255 215 0 255 215 0 255 215 0 255 215 0 255 215 0 255 215 0 255 215 0 255 215 0 255 215 0 255 215 0 255 215 0 255 215 0 255 215 0 255 215 0 255 215 0 255 215 0 255 215 0 255 215 0 255 215 0 255 215 0 255 215 0 255 215 0 255 215 0 255 215 0 255 215 0 255 215 0 255 215 0 255 215 0 255 215 0 255 215 0 255 215 0 255 215 0 255 215 0 255 215 0 255 215 0 255 215 0 255 215 0 255 215 0 
255 215 0 255 215 0 255 215 0 255 215 0 255 215 0 255 215 0 255 215 0 255 215 0 255 215 0 255 215 0 255 215 0 255 215 0 255 215 0 255 215 0 255 215 0 255 215 0 255 215 0 255 215 0 255 215 0 255 215 0 255 215 0 255 215 0 255 215 0 255 215 0 255 215 0 255 215 0 255 215 0 255 215 0 255 215 0 255 215 0 255 215 0 255 215 0 255 215 0 255 215 0 255 215 0 255 215 0 255 215 0 255 215 0 255 215 0 255 215 0 255 215 0 255 215 0 255 215 0 255 215 0 255 215 0 255 215 0 255 215 0 255 215 0 255 215 0 255 215 0 255 215 0 255 215 0 255 215 0 255 215 0 255 215 0 255 215 0 255 215 0 255 215 0 255 215 0 255 215 0 255 215 0 255 215 0 255 215 0 255 215 0 255 215 0 255 215 0 255 215 0 255 215 0 255 215 0 255 215 0 255 215 0 255 215 0 255 215 0 255 215 0 255 215 0 255 215 0 255 215 0 255 215 0 255 215 0 255 215 0 255 215 0 255 215 0 255 215 0 255 215 0 255 215 0 255 215 0 255 215 0 255 215 0 255 215 0 255 215 0 255 215 0 255 215 0 255 215 0 255 215 0 255 215 0 255 215 0 255 215 0 255 215 0 255 215 0 255 215 0 255 215 0 255 215 0 255 215 0 255 215 0 255 215 0 255 215 0 255 215 0 255 215 0 255 215 0 255 215 0 255 215 0 255 215 0 255 215 0 255 215 0 255 215 0 255 215 0 255 215 0 255 215 0 255 215 0 255 215 0 255 215 0 255 215 0 255 215 0 255 215 0 255 215 0 255 215 0 255 215 0 255 215 0 255 215 0 255 215 0 255 215 0 255 215 0 255 215 0 255 215 0 255 215 0 255 215 0 255 215 0 255 215 0 255 215 0 255 215 0 255 215 0 255 215 0 255 215 0 255 215 0 255 215 0 255 215 0 255 215 0 255 215 0 255 215 0 255 215 0 255 215 0 255 215 0 255 215 0 255 215 0 255 215 0 255 215 0 255 215 0 255 215 0 255 215 0 255 215 0 255 215 0 255 215 0 255 215 0 255 215 0 255 215 0 255 215 0 255 215 0 255 215 0 255 215 0 255 215 0 255 215 0 255 215 0 255 215 0 255 215 0 255 215 0 255 215 0 255 215 0 255 215 0 255 215 0 255 215 0 255 215 0 255 215 0 255 215 0 255 215 0 255 215 0 255 215 0 255 215 0 255 215 0 255 215 0 255 215 0 255 215 0 255 215 0 255 215 0 255 215 0 255 215 0 255 215 0 255 215 0 255 215 0 255 215 0 255 215 0 255 215 0 255 215 0 255 215 0 255 215 0 255 215 0 255 215 0 255 215 0 255 215 0 255 215 0 255 215 0 255 215 0 255 215 0 255 215 0 255 215 0 255 215 0 255 215 0 255 215 0 255 215 0 255 215 0 255 215 0 255 215 0 255 215 0 255 215 0 255 215 0 255 215 0 255 215 0 255 215 0 255 215 0 255 215 0 255 215 0 255 215 0 255 215 0 255 215 0 255 215 0 255 215 0 255 215 0 255 215 0 255 215 0 255 215 0 255 215 0 255 215 0 255 215 0 255 215 0 255 215 0 255 215 0 255 215 0 255 215 0 255 215 0 255 215 0 255 215 0 255 215 0 255 215 0 255 215 0 255 215 0 255 215 0 255 215 0 255 215 0 255 215 0 255 215 0 255 215 0 255 215 0 255 215 0 255 215 0 255 215 0 255 215 0 255 215 0 255 215 0 255 215 0 255 215 0 255 215 0 255 215 0 255 215 0 255 215 0 255 215 0 255 215 0 255 215 0 255 215 0 255 215 0 255 215 0 255 215 0 255 215 0 255 215 0 255 215 0 255 215 0 255 215 0 255 215 0 255 215 0 255 215 0 255 215 0 255 215 0 255 215 0 255 215 0 255 215 0 255 215 0 255 215 0 255 215 0 255 215 0 255 215 0 255 215 0 255 215 0 
255 215 0 255 215 0 255 215 0 255 215 0 255 215 0 255 215 0 255 215 0 255 215 0 255 215 0 255 215 0 255 215 0 255 215 0 255 215 0 255 215 0 255 215 0 255 215 0 255 215 0 255 215 0 255 215 0 255 215 0 255 215 0 255 215 0 255 215 0 255 215 0 255 215 0 255 215 0 255 215 0 255 215 0 255 215 0 255 215 0 255 215 0 255 215 0 255 215 0 255 215 0 255 215 0 255 215 0 255 215 0 255 215 0 255 215 0 255 215 0 255 215 0 255 215 0 255 215 0 255 215 0 255 215 0 255 215 0 255 215 0 255 215 0 255 215 0 255 215 0 255 215 0 255 215 0 255 215 0 255 215 0 255 215 0 255 215 0 255 215 0 255 215 0 255 215 0 255 215 0 255 215 0 255 215 0 255 215 0 255 215 0 255 215 0 255 215 0 255 215 0 255 215 0 255 215 0 255 215 0 255 215 0 255 215 0 255 215 0 255 215 0 255 215 0 255 215 0 255 215 0 255 215 0 255 215 0 255 215 0 255 215 0 255 215 0 255 215 0 255 215 0 255 215 0 255 215 0 255 215 0 255 215 0 255 215 0 255 215 0 255 215 0 255 215 0 255 215 0 255 215 0 255 215 0 255 215 0 255 215 0 255 215 0 255 215 0 255 215 0 255 215 0 255 215 0 255 215 0 255 215 0 255 215 0 255 215 0 255 215 0 255 215 0 255 215 0 255 215 0 255 215 0 255 215 0 255 215 0 255 215 0 255 215 0 255 215 0 255 215 0 255 215 0 255 215 0 255 215 0 255 215 0 255 215 0 255 215 0 255 215 0 255 215 0 255 215 0 255 215 0 255 215 0 255 215 0 255 215 0 255 215 0 255 215 0 255 215 0 255 215 0 255 215 0 255 215 0 255 215 0 255 215 0 255 215 0 255 215 0 255 215 0 255 215 0 255 215 0 255 215 0 255 215 0 255 215 0 255 215 0 255 215 0 255 215 0 255 215 0 255 215 0 255 215 0 255 215 0 255 215 0 255 215 0 255 215 0 255 215 0 255 215 0 255 215 0 255 215 0 255 215 0 255 215 0 255 215 0 255 215 0 255 215 0 255 215 0 255 215 0 255 215 0 255 215 0 255 215 0 255 215 0 255 215 0 255 215 0 255 215 0 255 215 0 255 215 0 255 215 0 255 215 0 255 215 0 255 215 0 255 215 0 255 215 0 255 215 0 255 215 0 255 215 0 255 215 0 255 215 0 255 215 0 255 215 0 255 215 0 255 215 0 255 215 0 255 215 0 255 215 0 255 215 0 255 215 0 255 215 0 255 215 0 255 215 0 255 215 0 255 215 0 255 215 0 255 215 0 255 215 0 255 215 0 255 215 0 255 215 0 255 215 0 255 215 0 255 215 0 255 215 0 255 215 0 255 215 0 255 215 0 255 215 0 255 215 0 255 215 0 255 215 0 255 215 0 255 215 0 255 215 0 255 215 0 255 215 0 255 215 0 255 215 0 255 215 0 255 215 0 255 215 0 255 215 0 255 215 0 255 215 0 255 215 0 255 215 0 255 215 0 255 215 0 255 215 0 255 215 0 255 215 0 255 215 0 255 215 0 255 215 0 255 215 0 255 215 0 255 215 0 255 215 0 255 215 0 255 215 0 255 215 0 255 215 0 255 215 0 255 215 0 255 215 0 255 215 0 255 215 0 255 215 0 255 215 0 255 215 0 255 215 0 255 215 0 255 215 0 255 215 0 255 215 0 255 215 0 255 215 0 255 215 0 255 215 0 255 215 0 255 215 0 255 215 0 255 215 0 255 215 0 255 215 0 255 215 0 255 215 0 255 215 0 255 215 0 255 215 0 255 215 0 255 215 0 255 215 0 255 215 0 255 215 0 255 215 0 255 215 0 255 215 0 255 215 0 255 215 0 255 215 0 255 215 0 255 215 0 255 215 0 255 215 0 255 215 0 255 215 0 255 215 0 255 215 0 255 215 0 255 215 0 255 215 0 255 215 0 
255 215 0 255 215 0 255 215 0 255 215 0 255 215 0 255 215 0 255 215 0 255 215 0 255 215 0 255 215 0 255 215 0 255 215 0 255 215 0 255 215 0 255 215 0 255 215 0 255 215 0 255 215 0 255 215 0 255 215 0 255 215 0 255 215 0 255 215 0 255 215 0 255 215 0 255 215 0 255 215 0 255 215 0 255 215 0 255 215 0 255 215 0 255 215 0 255 215 0 255 215 0 255 215 0 255 215 0 255 215 0 255 215 0 255 215 0 255 215 0 255 215 0 255 215 0 255 215 0 255 215 0 255 215 0 255 215 0 255 215 0 255 215 0 255 215 0 255 215 0 255 215 0 255 215 0 255 215 0 255 215 0 255 215 0 255 215 0 255 215 0 255 215 0 255 215 0 255 215 0 255 215 0 255 215 0 255 215 0 255 215 0 255 215 0 255 215 0 255 215 0 255 215 0 255 215 0 255 215 0 255 215 0 255 215 0 255 215 0 255 215 0 255 215 0 255 215 0 255 215 0 255 215 0 255 215 0 255 215 0 255 215 0 255 215 0 255 215 0 255 215 0 255 215 0 255 215 0 255 215 0 255 215 0 255 215 0 255 215 0 255 215 0 255 215 0 255 215 0 255 215 0 255 215 0 255 215 0 255 215 0 255 215 0 255 215 0 255 215 0 255 215 0 255 215 0 255 215 0 255 215 0 255 215 0 255 215 0 255 215 0 255 215 0 255 215 0 255 215 0 255 215 0 255 215 0 255 215 0 255 215 0 255 215 0 255 215 0 255 215 0 255 215 0 255 215 0 255 215 0 255 215 0 255 215 0 255 215 0 255 215 0 255 215 0 255 215 0 255 215 0 255 215 0 255 215 0 255 215 0 255 215 0 255 215 0 255 215 0 255 215 0 255 215 0 255 215 0 255 215 0 255 215 0 255 215 0 255 215 0 255 215 0 255 215 0 255 215 0 255 215 0 255 215 0 255 215 0 255 215 0 255 215 0 255 215 0 255 215 0 255 215 0 255 215 0 255 215 0 255 215 0 255 215 0 255 215 0 255 215 0 255 215 0 255 215 0 255 215 0 255 215 0 255 215 0 255 215 0 255 215 0 255 215 0 255 215 0 255 215 0 255 215 0 255 215 0 255 215 0 255 215 0 255 215 0 255 215 0 255 215 0 255 215 0 255 215 0 255 215 0 255 215 0 255 215 0 255 215 0 255 215 0 255 215 0 255 215 0 255 215 0 255 215 0 255 215 0 255 215 0 255 215 0 255 215 0 255 215 0 255 215 0 255 215 0 255 215 0 255 215 0 255 215 0 255 215 0 255 215 0 255 215 0 255 215 0 255 215 0 255 215 0 255 215 0 255 215 0 255 215 0 255 215 0 255 215 0 255 215 0 255 215 0 255 215 0 255 215 0 255 215 0 255 215 0 255 215 0 255 215 0 255 215 0 255 215 0 255 215 0 255 215 0 255 215 0 255 215 0 255 215 0 255 215 0 255 215 0 255 215 0 255 215 0 255 215 0 255 215 0 255 215 0 255 215 0 255 215 0 255 215 0 255 215 0 255 215 0 255 215 0 255 215 0 255 215 0 255 215 0 255 215 0 255 215 0 255 215 0 255 215 0 255 215 0 255 215 0 255 215 0 255 215 0 255 215 0 255 215 0 255 215 0 255 215 0 255 215 0 255 215 0 255 215 0 255 215 0 255 215 0 255 215 0 255 215 0 255 215 0 255 215 0 255 215 0 255 215 0 255 215 0 255 215 0 255 215 0 255 215 0 255 215 0 255 215 0 255 215 0 255 215 0 255 215 0 255 215 0 255 215 0 255 215 0 255 215 0 255 215 0 255 215 0 255 215 0 255 215 0 255 215 0 255 215 0 255 215 0 255 215 0 255 215 0 255 215 0 255 215 0 255 215 0 255 215 0 255 215 0 255 215 0 255 215 0 255 215 0 255 215 0 255 215 0 255 215 0 255 215 0 255 215 0 255 215 0 255 215 0 255 215 0 255 215 0 255 215 0 
255 215 0 255 215 0 255 215 0 255 215 0 255 215 0 255 215 0 255 215 0 255 215 0 255 215 0 255 215 0 255 215 0 255 215 0 255 215 0 255 215 0 255 215 0 255 215 0 255 215 0 255 215 0 255 215 0 255 215 0 255 215 0 255 215 0 255 215 0 255 215 0 255 215 0 255 215 0 255 215 0 255 215 0 255 215 0 255 215 0 255 215 0 255 215 0 255 215 0 255 215 0 255 215 0 255 215 0 255 215 0 255 215 0 255 215 0 255 215 0 255 215 0 255 215 0 255 215 0 255 215 0 255 215 0 255 215 0 255 215 0 255 215 0 255 215 0 255 215 0 255 215 0 255 215 0 255 215 0 255 215 0 255 215 0 255 215 0 255 215 0 255 215 0 255 215 0 255 215 0 255 215 0 255 215 0 255 215 0 255 215 0 255 215 0 255 215 0 255 215 0 255 215 0 255 215 0 255 215 0 255 215 0 255 215 0 255 215 0 255 215 0 255 215 0 255 215 0 255 215 0 255 215 0 255 215 0 255 215 0 255 215 0 255 215 0 255 215 0 255 215 0 255 215 0 255 215 0 255 215 0 255 215 0 255 215 0 255 215 0 255 215 0 255 215 0 255 215 0 255 215 0 255 215 0 255 215 0 255 215 0 255 215 0 255 215 0 255 215 0 255 215 0 255 215 0 255 215 0 255 215 0 255 215 0 255 215 0 255 215 0 255 215 0 255 215 0 255 215 0 255 215 0 255 215 0 255 215 0 255 215 0 255 215 0 255 215 0 255 215 0 255 215 0 255 215 0 255 215 0 255 215 0 255 215 0 255 215 0 255 215 0 255 215 0 255 215 0 255 215 0 255 215 0 255 215 0 255 215 0 255 215 0 255 215 0 255 215 0 255 215 0 255 215 0 255 215 0 255 215 0 255 215 0 255 215 0 255 215 0 255 215 0 255 215 0 255 215 0 255 215 0 255 215 0 255 215 0 255 215 0 255 215 0 255 215 0 255 215 0 255 215 0 255 215 0 255 215 0 255 215 0 255 215 0 255 215 0 255 215 0 255 215 0 255 215 0 255 215 0 255 215 0 255 215 0 255 215 0 255 215 0 255 215 0 255 215 0 255 215 0 255 215 0 255 215 0 255 215 0 255 215 0 255 215 0 255 215 0 255 215 0 255 215 0 255 215 0 255 215 0 255 215 0 255 215 0 255 215 0 255 215 0 255 215 0 255 215 0 255 215 0 255 215 0 255 215 0 255 215 0 255 215 0 255 215 0 255 215 0 255 215 0 255 215 0 255 215 0 255 215 0 255 215 0 255 215 0 255 215 0 255 215 0 255 215 0 255 215 0 255 215 0 255 215 0 255 215 0 255 215 0 255 215 0 255 215 0 255 215 0 255 215 0 255 215 0 255 215 0 255 215 0 255 215 0 255 215 0 255 215 0 255 215 0 255 215 0 255 215 0 255 215 0 255 215 0 255 215 0 255 215 0 255 215 0 255 215 0 255 215 0 255 215 0 255 215 0 255 215 0 255 215 0 255 215 0 255 215 0 255 215 0 255 215 0 255 215 0 255 215 0 255 215 0 255 215 0 255 215 0 255 215 0 255 215 0 255 215 0 255 215 0 255 215 0 255 215 0 255 215 0 255 215 0 255 215 0 255 215 0 255 215 0 255 215 0 255 215 0 255 215 0 255 215 0 255 215 0 255 215 0 255 215 0 255 215 0 255 215 0 255 215 0 255 215 0 255 215 0 255 215 0 255 215 0 255 215 0 255 215 0 255 215 0 255 215 0 255 215 0 255 215 0 255 215 0 255 215 0 255 215 0 255 215 0 255 215 0 255 215 0 255 215 0 255 215 0 255 215 0 255 215 0 255 215 0 255 215 0 255 215 0 255 215 0 255 215 0 255 215 0 255 215 0 255 215 0 255 215 0 255 215 0 255 215 0 255 215 0 255 215 0 255 215 0 255 215 0 255 215 0 255 215 0 255 215 0 255 215 0 255 215 0 255 215 0 255 215 0 
255 215 0 255 215 0 255 215 0 255 215 0 255 215 0 255 215 0 255 215 0 255 215 0 255 215 0 255 215 0 255 215 0 255 215 0 255 215 0 255 215 0 255 215 0 255 215 0 255 215 0 255 215 0 255 215 0 255 215 0 255 215 0 255 215 0 255 215 0 255 215 0 255 215 0 255 215 0 255 215 0 255 215 0 255 215 0 255 215 0 255 215 0 255 215 0 255 215 0 255 215 0 255 215 0 255 215 0 255 215 0 255 215 0 255 215 0 255 215 0 255 215 0 255 215 0 255 215 0 255 215 0 255 215 0 255 215 0 255 215 0 255 215 0 255 215 0 255 215 0 255 215 0 255 215 0 255 215 0 255 215 0 255 215 0 255 215 0 255 215 0 255 215 0 255 215 0 255 215 0 255 215 0 255 215 0 255 215 0 255 215 0 255 215 0 255 215 0 255 215 0 255 215 0 255 215 0 255 215 0 255 215 0 255 215 0 255 215 0 255 215 0 255 215 0 255 215 0 255 215 0 255 215 0 255 215 0 255 215 0 255 215 0 255 215 0 255 215 0 255 215 0 255 215 0 255 215 0 255 215 0 255 215 0 255 215 0 255 215 0 255 215 0 255 215 0 255 215 0 255 215 0 255 215 0 255 215 0 255 215 0 255 215 0 255 215 0 255 215 0 255 215 0 255 215 0 255 215 0 255 215 0 255 215 0 255 215 0 255 215 0 255 215 0 255 215 0 255 215 0 255 215 0 255 215 0 255 215 0 255 215 0 255 215 0 255 215 0 255 215 0 255 215 0 255 215 0 255 215 0 255 215 0 255 215 0 255 215 0 255 215 0 255 215 0 255 215 0 255 215 0 255 215 0 255 215 0 255 215 0 255 215 0 255 215 0 255 215 0 255 215 0 255 215 0 255 215 0 255 215 0 255 215 0 255 215 0 255 215 0 255 215 0 255 215 0 255 215 0 255 215 0 255 215 0 255 215 0 255 215 0 255 215 0 255 215 0 255 215 0 255 215 0 255 215 0 255 215 0 255 215 0 255 215 0 255 215 0 255 215 0 255 215 0 255 215 0 255 215 0 255 215 0 255 215 0 255 215 0 255 215 0 255 215 0 255 215 0 255 215 0 255 215 0 255 215 0 255 215 0 255 215 0 255 215 0 255 215 0 255 215 0 255 215 0 255 215 0 255 215 0 255 215 0 255 215 0 255 215 0 255 215 0 255 215 0 255 215 0 255 215 0 255 215 0 255 215 0 255 215 0 255 215 0 255 215 0 255 215 0 255 215 0 255 215 0 255 215 0 255 215 0 255 215 0 255 215 0 255 215 0 255 215 0 255 215 0 255 215 0 255 215 0 255 215 0 255 215 0 255 215 0 255 215 0 255 215 0 255 215 0 255 215 0 255 215 0 255 215 0 255 215 0 255 215 0 255 215 0 255 215 0 255 215 0 255 215 0 255 215 0 255 215 0 255 215 0 255 215 0 255 215 0 255 215 0 255 215 0 255 215 0 255 215 0 255 215 0 255 215 0 255 215 0 255 215 0 255 215 0 255 215 0 255 215 0 255 215 0 255 215 0 255 215 0 255 215 0 255 215 0 255 215 0 255 215 0 255 215 0 255 215 0 255 215 0 255 215 0 255 215 0 255 215 0 255 215 0 255 215 0 255 215 0 255 215 0 255 215 0 255 215 0 255 215 0 255 215 0 255 215 0 255 215 0 255 215 0 255 215 0 255 215 0 255 215 0 255 215 0 255 215 0 255 215 0 255 215 0 255 215 0 255 215 0 255 215 0 255 215 0 255 215 0 255 215 0 255 215 0 255 215 0 255 215 0 255 215 0 255 215 0 255 215 0 255 215 0 255 215 0 255 215 0 255 215 0 255 215 0 255 215 0 255 215 0 255 215 0 255 215 0 255 215 0 255 215 0 255 215 0 255 215 0 255 215 0 255 215 0 255 215 0 255 215 0 255 215 0 255 215 0 255 215 0 255 215 0 255 215 0 255 215 0 255 215 0 255 215 0 
255 215 0 255 215 0 255 215 0 255 215 0 255 215 0 255 215 0 255 215 0 255 215 0 255 215 0 255 215 0 255 215 0 255 215 0 255 215 0 255 215 0 255 215 0 255 215 0 255 215 0 255 215 0 255 215 0 255 215 0 255 215 0 255 215 0 255 215 0 255 215 0 255 215 0 255 215 0 255 215 0 255 215 0 255 215 0 255 215 0 255 215 0 255 215 0 255 215 0 255 215 0 255 215 0 255 215 0 255 215 0 255 215 0 255 215 0 255 215 0 255 215 0 255 215 0 255 215 0 255 215 0 255 215 0 255 215 0 255 215 0 255 215 0 255 215 0 255 215 0 255 215 0 255 215 0 255 215 0 255 215 0 255 215 0 255 215 0 255 215 0 255 215 0 255 215 0 255 215 0 255 215 0 255 215 0 255 215 0 255 215 0 255 215 0 255 215 0 255 215 0 255 215 0 255 215 0 255 215 0 255 215 0 255 215 0 255 215 0 255 215 0 255 215 0 255 215 0 255 215 0 255 215 0 255 215 0 255 215 0 255 215 0 255 215 0 255 215 0 255 215 0 255 215 0 255 215 0 255 215 0 255 215 0 255 215 0 255 215 0 255 215 0 255 215 0 255 215 0 255 215 0 255 215 0 255 215 0 255 215 0 255 215 0 255 215 0 255 215 0 255 215 0 255 215 0 255 215 0 255 215 0 255 215 0 255 215 0 255 215 0 255 215 0 255 215 0 255 215 0 255 215 0 255 215 0 255 215 0 255 215 0 255 215 0 255 215 0 255 215 0 255 215 0 255 215 0 255 215 0 255 215 0 255 215 0 255 215 0 255 215 0 255 215 0 255 215 0 255 215 0 255 215 0 255 215 0 255 215 0 255 215 0 255 215 0 255 215 0 255 215 0 255 215 0 255 215 0 255 215 0 255 215 0 255 215 0 255 215 0 255 215 0 255 215 0 255 215 0 255 215 0 255 215 0 255 215 0 255 215 0 255 215 0 255 215 0 255 215 0 255 215 0 255 215 0 255 215 0 255 215 0 255 215 0 255 215 0 255 215 0 255 215 0 255 215 0 255 215 0 255 215 0 255 215 0 255 215 0 255 215 0 255 215 0 255 215 0 255 215 0 255 215 0 255 215 0 255 215 0 255 215 0 255 215 0 255 215 0 255 215 0 255 215 0 255 215 0 255 215 0 255 215 0 255 215 0 255 215 0 255 215 0 255 215 0 255 215 0 255 215 0 255 215 0 255 215 0 255 215 0 255 215 0 255 215 0 255 215 0 255 215 0 255 215 0 255 215 0 255 215 0 255 215 0 255 215 0 255 215 0 255 215 0 255 215 0 255 215 0 255 215 0 255 215 0 255 215 0 255 215 0 255 215 0 255 215 0 255 215 0 255 215 0 255 215 0 255 215 0 255 215 0 255 215 0 255 215 0 255 215 0 255 215 0 255 215 0 255 215 0 255 215 0 255 215 0 255 215 0 255 215 0 255 215 0 255 215 0 255 215 0 255 215 0 255 215 0 255 215 0 255 215 0 255 215 0 255 215 0 255 215 0 255 215 0 255 215 0 255 215 0 255 215 0 255 215 0 255 215 0 255 215 0 255 215 0 255 215 0 255 215 0 255 215 0 255 215 0 255 215 0 255 215 0 255 215 0 255 215 0 255 215 0 255 215 0 255 215 0 255 215 0 255 215 0 255 215 0 255 215 0 255 215 0 255 215 0 255 215 0 255 215 0 255 215 0 255 215 0 255 215 0 255 215 0 255 215 0 255 215 0 255 215 0 255 215 0 255 215 0 255 215 0 255 215 0 255 215 0 255 215 0 255 215 0 255 215 0 255 215 0 255 215 0 255 215 0 255 215 0 255 215 0 255 215 0 255 215 0 255 215 0 255 215 0 255 215 0 255 215 0 255 215 0 255 215 0 255 215 0 255 215 0 255 215 0 255 215 0 255 215 0 255 215 0 255 215 0 255 215 0 255 215 0 255 215 0 255 215 0 255 215 0 255 215 0 255 215 0 
255 215 0 255 215 0 255 215 0 255 215 0 255 215 0 255 215 0 255 215 0 255 215 0 255 215 0 255 215 0 255 215 0 255 215 0 255 215 0 255 215 0 255 215 0 255 215 0 255 215 0 255 215 0 255 215 0 255 215 0 255 215 0 255 215 0 255 215 0 255 215 0 255 215 0 255 215 0 255 215 0 255 215 0 255 215 0 255 215 0 255 215 0 255 215 0 255 215 0 255 215 0 255 215 0 255 215 0 255 215 0 255 215 0 255 215 0 255 215 0 255 215 0 255 215 0 255 215 0 255 215 0 255 215 0 255 215 0 255 215 0 255 215 0 255 215 0 255 215 0 255 215 0 255 215 0 255 215 0 255 215 0 255 215 0 255 215 0 255 215 0 255 215 0 255 215 0 255 215 0 255 215 0 255 215 0 255 215 0 255 215 0 255 215 0 255 215 0 255 215 0 255 215 0 255 215 0 255 215 0 255 215 0 255 215 0 255 215 0 255 215 0 255 215 0 255 215 0 255 215 0 255 215 0 255 215 0 255 215 0 255 215 0 255 215 0 255 215 0 255 215 0 255 215 0 255 215 0 255 215 0 255 215 0 255 215 0 255 215 0 255 215 0 255 215 0 255 215 0 255 215 0 255 215 0 255 215 0 255 215 0 255 215 0 255 215 0 255 215 0 255 215 0 255 215 0 255 215 0 255 215 0 255 215 0 255 215 0 255 215 0 255 215 0 255 215 0 255 215 0 255 215 0 255 215 0 255 215 0 255 215 0 255 215 0 255 215 0 255 215 0 255 215 0 255 215 0 255 215 0 255 215 0 255 215 0 255 215 0 255 215 0 255 215 0 255 215 0 255 215 0 255 215 0 255 215 0 255 215 0 255 215 0 255 215 0 255 215 0 255 215 0 255 215 0 255 215 0 255 215 0 255 215 0 255 215 0 255 215 0 255 215 0 255 215 0 255 215 0 255 215 0 255 215 0 255 215 0 255 215 0 255 215 0 255 215 0 255 215 0 255 215 0 255 215 0 255 215 0 255 215 0 255 215 0 255 215 0 255 215 0 255 215 0 255 215 0 255 215 0 255 215 0 255 215 0 255 215 0 255 215 0 255 215 0 255 215 0 255 215 0 255 215 0 255 215 0 255 215 0 255 215 0 255 215 0 255 215 0 255 215 0 255 215 0 255 215 0 255 215 0 255 215 0 255 215 0 255 215 0 255 215 0 255 215 0 255 215 0 255 215 0 255 215 0 255 215 0 255 215 0 255 215 0 255 215 0 255 215 0 255 215 0 255 215 0 255 215 0 255 215 0 255 215 0 255 215 0 255 215 0 255 215 0 255 215 0 255 215 0 255 215 0 255 215 0 255 215 0 255 215 0 255 215 0 255 215 0 255 215 0 255 215 0 255 215 0 255 215 0 255 215 0 255 215 0 255 215 0 255 215 0 255 215 0 255 215 0 255 215 0 255 215 0 255 215 0 255 215 0 255 215 0 255 215 0 255 215 0 255 215 0 255 215 0 255 215 0 255 215 0 255 215 0 255 215 0 255 215 0 255 215 0 255 215 0 255 215 0 255 215 0 255 215 0 255 215 0 255 215 0 255 215 0 255 215 0 255 215 0 255 215 0 255 215 0 255 215 0 255 215 0 255 215 0 255 215 0 255 215 0 255 215 0 255 215 0 255 215 0 255 215 0 255 215 0 255 215 0 255 215 0 255 215 0 255 215 0 255 215 0 255 215 0 255 215 0 255 215 0 255 215 0 255 215 0 255 215 0 255 215 0 255 215 0 255 215 0 255 215 0 255 215 0 255 215 0 255 215 0 255 215 0 255 215 0 255 215 0 255 215 0 255 215 0 255 215 0 255 215 0 255 215 0 255 215 0 255 215 0 255 215 0 255 215 0 255 215 0 255 215 0 255 215 0 255 215 0 255 215 0 255 215 0 255 215 0 255 215 0 255 215 0 255 215 0 255 215 0 255 215 0 255 215 0 255 215 0 255 215 0 255 215 0 255 215 0 255 215 0 
255 215 0 255 215 0 255 215 0 255 215 0 255 215 0 255 215 0 255 215 0 255 215 0 255 215 0 255 215 0 255 215 0 255 215 0 255 215 0 255 215 0 255 215 0 255 215 0 255 215 0 255 215 0 255 215 0 255 215 0 255 215 0 255 215 0 255 215 0 255 215 0 255 215 0 255 215 0 255 215 0 255 215 0 255 215 0 255 215 0 255 215 0 255 215 0 255 215 0 255 215 0 255 215 0 255 215 0 255 215 0 255 215 0 255 215 0 255 215 0 255 215 0 255 215 0 255 215 0 255 215 0 255 215 0 255 215 0 255 215 0 255 215 0 255 215 0 255 215 0 255 215 0 255 215 0 255 215 0 255 215 0 255 215 0 255 215 0 255 215 0 255 215 0 255 215 0 255 215 0 255 215 0 255 215 0 255 215 0 255 215 0 255 215 0 255 215 0 255 215 0 255 215 0 255 215 0 255 215 0 255 215 0 255 215 0 255 215 0 255 215 0 255 215 0 255 215 0 255 215 0 255 215 0 255 215 0 255 215 0 255 215 0 255 215 0 255 215 0 255 215 0 255 215 0 255 215 0 255 215 0 255 215 0 255 215 0 255 215 0 255 215 0 255 215 0 255 215 0 255 215 0 255 215 0 255 215 0 255 215 0 255 215 0 255 215 0 255 215 0 255 215 0 255 215 0 255 215 0 255 215 0 255 215 0 255 215 0 255 215 0 255 215 0 255 215 0 255 215 0 255 215 0 255 215 0 255 215 0 255 215 0 255 215 0 255 215 0 255 215 0 255 215 0 255 215 0 255 215 0 255 215 0 255 215 0 255 215 0 255 215 0 255 215 0 255 215 0 255 215 0 255 215 0 255 215 0 255 215 0 255 215 0 255 215 0 255 215 0 255 215 0 255 215 0 255 215 0 255 215 0 255 215 0 255 215 0 255 215 0 255 215 0 255 215 0 255 215 0 255 215 0 255 215 0 255 215 0 255 215 0 255 215 0 255 215 0 255 215 0 255 215 0 255 215 0 255 215 0 255 215 0 255 215 0 255 215 0 255 215 0 255 215 0 255 215 0 255 215 0 255 215 0 255 215 0 255 215 0 255 215 0 255 215 0 255 215 0 255 215 0 255 215 0 255 215 0 255 215 0 255 215 0 255 215 0 255 215 0 255 215 0 255 215 0 255 215 0 255 215 0 255 215 0 255 215 0 255 215 0 255 215 0 255 215 0 255 215 0 255 215 0 255 215 0 255 215 0 255 215 0 255 215 0 255 215 0 255 215 0 255 215 0 255 215 0 255 215 0 255 215 0 255 215 0 255 215 0 255 215 0 255 215 0 255 215 0 255 215 0 255 215 0 255 215 0 255 215 0 255 215 0 255 215 0 255 215 0 255 215 0 255 215 0 255 215 0 255 215 0 255 215 0 255 215 0 255 215 0 255 215 0 255 215 0 255 215 0 255 215 0 255 215 0 255 215 0 255 215 0 255 215 0 255 215 0 255 215 0 255 215 0 255 215 0 255 215 0 255 215 0 255 215 0 255 215 0 255 215 0 255 215 0 255 215 0 255 215 0 255 215 0 255 215 0 255 215 0 255 215 0 255 215 0 255 215 0 255 215 0 255 215 0 255 215 0 255 215 0 255 215 0 255 215 0 255 215 0 255 215 0 255 215 0 255 215 0 255 215 0 255 215 0 255 215 0 255 215 0 255 215 0 255 215 0 255 215 0 255 215 0 255 215 0 255 215 0 255 215 0 255 215 0 255 215 0 255 215 0 255 215 0 255 215 0 255 215 0 255 215 0 255 215 0 255 215 0 255 215 0 255 215 0 255 215 0 255 215 0 255 215 0 255 215 0 255 215 0 255 215 0 255 215 0 255 215 0 255 215 0 255 215 0 255 215 0 255 215 0 255 215 0 255 215 0 255 215 0 255 215 0 255 215 0 255 215 0 255 215 0 255 215 0 255 215 0 255 215 0 255 215 0 255 215 0 255 215 0 255 215 0 255 215 0 255 215 0 255 215 0 
255 215 0 255 215 0 255 215 0 255 215 0 255 215 0 255 215 0 255 215 0 255 215 0 255 215 0 255 215 0 255 215 0 255 215 0 255 215 0 255 215 0 255 215 0 255 215 0 255 215 0 255 215 0 255 215 0 255 215 0 255 215 0 255 215 0 255 215 0 255 215 0 255 215 0 255 215 0 255 215 0 255 215 0 255 215 0 255 215 0 255 215 0 255 215 0 255 215 0 255 215 0 255 215 0 255 215 0 255 215 0 255 215 0 255 215 0 255 215 0 255 215 0 255 215 0 255 215 0 255 215 0 255 215 0 255 215 0 255 215 0 255 215 0 255 215 0 255 215 0 255 215 0 255 215 0 255 215 0 255 215 0 255 215 0 255 215 0 255 215 0 255 215 0 255 215 0 255 215 0 255 215 0 255 215 0 255 215 0 255 215 0 255 215 0 255 215 0 255 215 0 255 215 0 255 215 0 255 215 0 255 215 0 255 215 0 255 215 0 255 215 0 255 215 0 255 215 0 255 215 0 255 215 0 255 215 0 255 215 0 255 215 0 255 215 0 255 215 0 255 215 0 255 215 0 255 215 0 255 215 0 255 215 0 255 215 0 255 215 0 255 215 0 255 215 0 255 215 0 255 215 0 255 215 0 255 215 0 255 215 0 255 215 0 255 215 0 255 215 0 255 215 0 255 215 0 255 215 0 255 215 0 255 215 0 255 215 0 255 215 0 255 215 0 255 215 0 255 215 0 255 215 0 255 215 0 255 215 0 255 215 0 255 215 0 255 215 0 255 215 0 255 215 0 255 215 0 255 215 0 255 215 0 255 215 0 255 215 0 255 215 0 255 215 0 255 215 0 255 215 0 255 215 0 255 215 0 255 215 0 255 215 0 255 215 0 255 215 0 255 215 0 255 215 0 255 215 0 255 215 0 255 215 0 255 215 0 255 215 0 255 215 0 255 215 0 255 215 0 255 215 0 255 215 0 255 215 0 255 215 0 255 215 0 255 215 0 255 215 0 255 215 0 255 215 0 255 215 0 255 215 0 255 215 0 255 215 0 255 215 0 255 215 0 255 215 0 255 215 0 255 215 0 255 215 0 255 215 0 255 215 0 255 215 0 255 215 0 255 215 0 255 215 0 255 215 0 255 215 0 255 215 0 255 215 0 255 215 0 255 215 0 255 215 0 255 215 0 255 215 0 255 215 0 255 215 0 255 215 0 255 215 0 255 215 0 255 215 0 255 215 0 255 215 0 255 215 0 255 215 0 255 215 0 255 215 0 255 215 0 255 215 0 255 215 0 255 215 0 255 215 0 255 215 0 255 215 0 255 215 0 255 215 0 255 215 0 255 215 0 255 215 0 255 215 0 255 215 0 255 215 0 255 215 0 255 215 0 255 215 0 255 215 0 255 215 0 255 215 0 255 215 0 255 215 0 255 215 0 255 215 0 255 215 0 255 215 0 255 215 0 255 215 0 255 215 0 255 215 0 255 215 0 255 215 0 255 215 0 255 215 0 255 215 0 255 215 0 255 215 0 255 215 0 255 215 0 255 215 0 255 215 0 255 215 0 255 215 0 255 215 0 255 215 0 255 215 0 255 215 0 255 215 0 255 215 0 255 215 0 255 215 0 255 215 0 255 215 0 255 215 0 255 215 0 255 215 0 255 215 0 255 215 0 255 215 0 255 215 0 255 215 0 255 215 0 255 215 0 255 215 0 255 215 0 255 215 0 255 215 0 255 215 0 255 215 0 255 215 0 255 215 0 255 215 0 255 215 0 255 215 0 255 215 0 255 215 0 255 215 0 255 215 0 255 215 0 255 215 0 255 215 0 255 215 0 255 215 0 255 215 0 255 215 0 255 215 0 255 215 0 255 215 0 255 215 0 255 215 0 255 215 0 255 215 0 255 215 0 255 215 0 255 215 0 255 215 0 255 215 0 255 215 0 255 215 0 255 215 0 255 215 0 255 215 0 255 215 0 255 215 0 255 215 0 255 215 0 255 215 0 255 215 0 255 215 0 255 215 0 
255 215 0 255 215 0 255 215 0 255 215 0 255 215 0 255 215 0 255 215 0 255 215 0 255 215 0 255 215 0 255 215 0 255 215 0 255 215 0 255 215 0 255 215 0 255 215 0 255 215 0 255 215 0 255 215 0 255 215 0 255 215 0 255 215 0 255 215 0 255 215 0 255 215 0 255 215 0 255 215 0 255 215 0 255 215 0 255 215 0 255 215 0 255 215 0 255 215 0 255 215 0 255 215 0 255 215 0 255 215 0 255 215 0 255 215 0 255 215 0 255 215 0 255 215 0 255 215 0 255 215 0 255 215 0 255 215 0 255 215 0 255 215 0 255 215 0 255 215 0 255 215 0 255 215 0 255 215 0 255 215 0 255 215 0 255 215 0 255 215 0 255 215 0 255 215 0 255 215 0 255 215 0 255 215 0 255 215 0 255 215 0 255 215 0 255 215 0 255 215 0 255 215 0 255 215 0 255 215 0 255 215 0 255 215 0 255 215 0 255 215 0 255 215 0 255 215 0 255 215 0 255 215 0 255 215 0 255 215 0 255 215 0 255 215 0 255 215 0 255 215 0 255 215 0 255 215 0 255 215 0 255 215 0 255 215 0 255 215 0 255 215 0 255 215 0 255 215 0 255 215 0 255 215 0 255 215 0 255 215 0 255 215 0 255 215 0 255 215 0 255 215 0 255 215 0 255 215 0 255 215 0 255 215 0 255 215 0 255 215 0 255 215 0 255 215 0 255 215 0 255 215 0 255 215 0 255 215 0 255 215 0 255 215 0 255 215 0 255 215 0 255 215 0 255 215 0 255 215 0 255 215 0 255 215 0 255 215 0 255 215 0 255 215 0 255 215 0 255 215 0 255 215 0 255 215 0 255 215 0 255 215 0 255 215 0 255 215 0 255 215 0 255 215 0 255 215 0 255 215 0 255 215 0 255 215 0 255 215 0 255 215 0 255 215 0 255 215 0 255 215 0 255 215 0 255 215 0 255 215 0 255 215 0 255 215 0 255 215 0 255 215 0 255 215 0 255 215 0 255 215 0 255 215 0 255 215 0 255 215 0 255 215 0 255 215 0 255 215 0 255 215 0 255 215 0 255 215 0 255 215 0 255 215 0 255 215 0 255 215 0 255 215 0 255 215 0 255 215 0 255 215 0 255 215 0 255 215 0 255 215 0 255 215 0 255 215 0 255 215 0 255 215 0 255 215 0 255 215 0 255 215 0 255 215 0 255 215 0 255 215 0 255 215 0 255 215 0 255 215 0 255 215 0 255 215 0 255 215 0 255 215 0 255 215 0 255 215 0 255 215 0 255 215 0 255 215 0 255 215 0 255 215 0 255 215 0 255 215 0 255 215 0 255 215 0 255 215 0 255 215 0 255 215 0 255 215 0 255 215 0 255 215 0 255 215 0 255 215 0 255 215 0 255 215 0 255 215 0 255 215 0 255 215 0 255 215 0 255 215 0 255 215 0 255 215 0 255 215 0 255 215 0 255 215 0 255 215 0 255 215 0 255 215 0 255 215 0 255 215 0 255 215 0 255 215 0 255 215 0 255 215 0 255 215 0 255 215 0 255 215 0 255 215 0 255 215 0 255 215 0 255 215 0 255 215 0 255 215 0 255 215 0 255 215 0 255 215 0 255 215 0 255 215 0 255 215 0 255 215 0 255 215 0 255 215 0 255 215 0 255 215 0 255 215 0 255 215 0 255 215 0 255 215 0 255 215 0 255 215 0 255 215 0 255 215 0 255 215 0 255 215 0 255 215 0 255 215 0 255 215 0 255 215 0 255 215 0 255 215 0 255 215 0 255 215 0 255 215 0 255 215 0 255 215 0 255 215 0 255 215 0 255 215 0 255 215 0 255 215 0 255 215 0 255 215 0 255 215 0 255 215 0 255 215 0 255 215 0 255 215 0 255 215 0 255 215 0 255 215 0 255 215 0 255 215 0 255 215 0 255 215 0 255 215 0 255 215 0 255 215 0 255 215 0 255 215 0 255 215 0 255 215 0 255 215 0 255 215 0 
255 215 0 255 215 0 255 215 0 255 215 0 255 215 0 255 215 0 255 215 0 255 215 0 255 215 0 255 215 0 255 215 0 255 215 0 255 215 0 255 215 0 255 215 0 255 215 0 255 215 0 255 215 0 255 215 0 255 215 0 255 215 0 255 215 0 255 215 0 255 215 0 255 215 0 255 215 0 255 215 0 255 215 0 255 215 0 255 215 0 255 215 0 255 215 0 255 215 0 255 215 0 255 215 0 255 215 0 255 215 0 255 215 0 255 215 0 255 215 0 255 215 0 255 215 0 255 215 0 255 215 0 255 215 0 255 215 0 255 215 0 255 215 0 255 215 0 255 215 0 255 215 0 255 215 0 255 215 0 255 215 0 255 215 0 255 215 0 255 215 0 255 215 0 255 215 0 255 215 0 255 215 0 255 215 0 255 215 0 255 215 0 255 215 0 255 215 0 255 215 0 255 215 0 255 215 0 255 215 0 255 215 0 255 215 0 255 215 0 255 215 0 255 215 0 255 215 0 255 215 0 255 215 0 255 215 0 255 215 0 255 215 0 255 215 0 255 215 0 255 215 0 255 215 0 255 215 0 255 215 0 255 215 0 255 215 0 255 215 0 255 215 0 255 215 0 255 215 0 255 215 0 255 215 0 255 215 0 255 215 0 255 215 0 255 215 0 255 215 0 255 215 0 255 215 0 255 215 0 255 215 0 255 215 0 255 215 0 255 215 0 255 215 0 255 215 0 255 215 0 255 215 0 255 215 0 255 215 0 255 215 0 255 215 0 255 215 0 255 215 0 255 215 0 255 215 0 255 215 0 255 215 0 255 215 0 255 215 0 255 215 0 255 215 0 255 215 0 255 215 0 255 215 0 255 215 0 255 215 0 255 215 0 255 215 0 255 215 0 255 215 0 255 215 0 255 215 0 255 215 0 255 215 0 255 215 0 255 215 0 255 215 0 255 215 0 255 215 0 255 215 0 255 215 0 255 215 0 255 215 0 255 215 0 255 215 0 255 215 0 255 215 0 255 215 0 255 215 0 255 215 0 255 215 0 255 215 0 255 215 0 255 215 0 255 215 0 255 215 0 255 215 0 255 215 0 255 215 0 255 215 0 255 215 0 255 215 0 255 215 0 255 215 0 255 215 0 255 215 0 255 215 0 255 215 0 255 215 0 255 215 0 255 215 0 255 215 0 255 215 0 255 215 0 255 215 0 255 215 0 255 215 0 255 215 0 255 215 0 255 215 0 255 215 0 255 215 0 255 215 0 255 215 0 255 215 0 255 215 0 255 215 0 255 215 0 255 215 0 255 215 0 255 215 0 255 215 0 255 215 0 255 215 0 255 215 0 255 215 0 255 215 0 255 215 0 255 215 0 255 215 0 255 215 0 255 215 0 255 215 0 255 215 0 255 215 0 255 215 0 255 215 0 255 215 0 255 215 0 255 215 0 255 215 0 255 215 0 255 215 0 255 215 0 255 215 0 255 215 0 255 215 0 255 215 0 255 215 0 255 215 0 255 215 0 255 215 0 255 215 0 255 215 0 255 215 0 255 215 0 255 215 0 255 215 0 255 215 0 255 215 0 255 215 0 255 215 0 255 215 0 255 215 0 255 215 0 255 215 0 255 215 0 255 215 0 255 215 0 255 215 0 255 215 0 255 215 0 255 215 0 255 215 0 255 215 0 255 215 0 255 215 0 255 215 0 255 215 0 255 215 0 255 215 0 255 215 0 255 215 0 255 215 0 255 215 0 255 215 0 255 215 0 255 215 0 255 215 0 255 215 0 255 215 0 255 215 0 255 215 0 255 215 0 255 215 0 255 215 0 255 215 0 255 215 0 255 215 0 255 215 0 255 215 0 255 215 0 255 215 0 255 215 0 255 215 0 255 215 0 255 215 0 255 215 0 255 215 0 255 215 0 255 215 0 255 215 0 255 215 0 255 215 0 255 215 0 255 215 0 255 215 0 255 215 0 255 215 0 255 215 0 255 215 0 255 215 0 255 215 0 255 215 0 255 215 0 255 215 0 
255 215 0 255 215 0 255 215 0 255 215 0 255 215 0 255 215 0 255 215 0 255 215 0 255 215 0 255 215 0 255 215 0 255 215 0 255 215 0 255 215 0 255 215 0 255 215 0 255 215 0 255 215 0 255 215 0 255 215 0 255 215 0 255 215 0 255 215 0 255 215 0 255 215 0 255 215 0 255 215 0 255 215 0 255 215 0 255 215 0 255 215 0 255 215 0 255 215 0 255 215 0 255 215 0 255 215 0 255 215 0 255 215 0 255 215 0 255 215 0 255 215 0 255 215 0 255 215 0 255 215 0 255 215 0 255 215 0 255 215 0 255 215 0 255 215 0 255 215 0 255 215 0 255 215 0 255 215 0 255 215 0 255 215 0 255 215 0 255 215 0 255 215 0 255 215 0 255 215 0 255 215 0 255 215 0 255 215 0 255 215 0 255 215 0 255 215 0 255 215 0 255 215 0 255 215 0 255 215 0 255 215 0 255 215 0 255 215 0 255 215 0 255 215 0 255 215 0 255 215 0 255 215 0 255 215 0 255 215 0 255 215 0 255 215 0 255 215 0 255 215 0 255 215 0 255 215 0 255 215 0 255 215 0 255 215 0 255 215 0 255 215 0 255 215 0 255 215 0 255 215 0 255 215 0 255 215 0 255 215 0 255 215 0 255 215 0 255 215 0 255 215 0 255 215 0 255 215 0 255 215 0 255 215 0 255 215 0 255 215 0 255 215 0 255 215 0 255 215 0 255 215 0 255 215 0 255 215 0 255 215 0 255 215 0 255 215 0 255 215 0 255 215 0 255 215 0 255 215 0 255 215 0 255 215 0 255 215 0 255 215 0 255 215 0 255 215 0 255 215 0 255 215 0 255 215 0 255 215 0 255 215 0 255 215 0 255 215 0 255 215 0 255 215 0 255 215 0 255 215 0 255 215 0 255 215 0 255 215 0 255 215 0 255 215 0 255 215 0 255 215 0 255 215 0 255 215 0 255 215 0 255 215 0 255 215 0 255 215 0 255 215 0 255 215 0 255 215 0 255 215 0 255 215 0 255 215 0 255 215 0 255 215 0 255 215 0 255 215 0 255 215 0 255 215 0 255 215 0 255 215 0 255 215 0 255 215 0 255 215 0 255 215 0 255 215 0 255 215 0 255 215 0 255 215 0 255 215 0 255 215 0 255 215 0 255 215 0 255 215 0 255 215 0 255 215 0 255 215 0 255 215 0 255 215 0 255 215 0 255 215 0 255 215 0 255 215 0 255 215 0 255 215 0 255 215 0 255 215 0 255 215 0 255 215 0 255 215 0 255 215 0 255 215 0 255 215 0 255 215 0 255 215 0 255 215 0 255 215 0 255 215 0 255 215 0 255 215 0 255 215 0 255 215 0 255 215 0 255 215 0 255 215 0 255 215 0 255 215 0 255 215 0 255 215 0 255 215 0 255 215 0 255 215 0 255 215 0 255 215 0 255 215 0 255 215 0 255 215 0 255 215 0 255 215 0 255 215 0 255 215 0 255 215 0 255 215 0 255 215 0 255 215 0 255 215 0 255 215 0 255 215 0 255 215 0 255 215 0 255 215 0 255 215 0 255 215 0 255 215 0 255 215 0 255 215 0 255 215 0 255 215 0 255 215 0 255 215 0 255 215 0 255 215 0 255 215 0 255 215 0 255 215 0 255 215 0 255 215 0 255 215 0 255 215 0 255 215 0 255 215 0 255 215 0 255 215 0 255 215 0 255 215 0 255 215 0 255 215 0 255 215 0 255 215 0 255 215 0 255 215 0 255 215 0 255 215 0 255 215 0 255 215 0 255 215 0 255 215 0 255 215 0 255 215 0 255 215 0 255 215 0 255 215 0 255 215 0 255 215 0 255 215 0 255 215 0 255 215 0 255 215 0 255 215 0 255 215 0 255 215 0 255 215 0 255 215 0 255 215 0 255 215 0 255 215 0 255 215 0 255 215 0 255 215 0 255 215 0 255 215 0 255 215 0 255 215 0 255 215 0 255 215 0 255 215 0 255 215 0 
255 215 0 255 215 0 255 215 0 255 215 0 255 215 0 255 215 0 255 215 0 255 215 0 255 215 0 255 215 0 255 215 0 255 215 0 255 215 0 255 215 0 255 215 0 255 215 0 255 215 0 255 215 0 255 215 0 255 215 0 255 215 0 255 215 0 255 215 0 255 215 0 255 215 0 255 215 0 255 215 0 255 215 0 255 215 0 255 215 0 255 215 0 255 215 0 255 215 0 255 215 0 255 215 0 255 215 0 255 215 0 255 215 0 255 215 0 255 215 0 255 215 0 255 215 0 255 215 0 255 215 0 255 215 0 255 215 0 255 215 0 255 215 0 255 215 0 255 215 0 255 215 0 255 215 0 255 215 0 255 215 0 255 215 0 255 215 0 255 215 0 255 215 0 255 215 0 255 215 0 255 215 0 255 215 0 255 215 0 255 215 0 255 215 0 255 215 0 255 215 0 255 215 0 255 215 0 255 215 0 255 215 0 255 215 0 255 215 0 255 215 0 255 215 0 255 215 0 255 215 0 255 215 0 255 215 0 255 215 0 255 215 0 255 215 0 255 215 0 255 215 0 255 215 0 255 215 0 255 215 0 255 215 0 255 215 0 255 215 0 255 215 0 255 215 0 255 215 0 255 215 0 255 215 0 255 215 0 255 215 0 255 215 0 255 215 0 255 215 0 255 215 0 255 215 0 255 215 0 255 215 0 255 215 0 255 215 0 255 215 0 255 215 0 255 215 0 255 215 0 255 215 0 255 215 0 255 215 0 255 215 0 255 215 0 255 215 0 255 215 0 255 215 0 255 215 0 255 215 0 255 215 0 255 215 0 255 215 0 255 215 0 255 215 0 255 215 0 255 215 0 255 215 0 255 215 0 255 215 0 255 215 0 255 215 0 255 215 0 255 215 0 255 215 0 255 215 0 255 215 0 255 215 0 255 215 0 255 215 0 255 215 0 255 215 0 255 215 0 255 215 0 255 215 0 255 215 0 255 215 0 255 215 0 255 215 0 255 215 0 255 215 0 255 215 0 255 215 0 255 215 0 255 215 0 255 215 0 255 215 0 255 215 0 255 215 0 255 215 0 255 215 0 255 215 0 255 215 0 255 215 0 255 215 0 255 215 0 255 215 0 255 215 0 255 215 0 255 215 0 255 215 0 255 215 0 255 215 0 255 215 0 255 215 0 255 215 0 255 215 0 255 215 0 255 215 0 255 215 0 255 215 0 255 215 0 255 215 0 255 215 0 255 215 0 255 215 0 255 215 0 255 215 0 255 215 0 255 215 0 255 215 0 255 215 0 255 215 0 255 215 0 255 215 0 255 215 0 255 215 0 255 215 0 255 215 0 255 215 0 255 215 0 255 215 0 255 215 0 255 215 0 255 215 0 255 215 0 255 215 0 255 215 0 255 215 0 255 215 0 255 215 0 255 215 0 255 215 0 255 215 0 255 215 0 255 215 0 255 215 0 255 215 0 255 215 0 255 215 0 255 215 0 255 215 0 255 215 0 255 215 0 255 215 0 255 215 0 255 215 0 255 215 0 255 215 0 255 215 0 255 215 0 255 215 0 255 215 0 255 215 0 255 215 0 255 215 0 255 215 0 255 215 0 255 215 0 255 215 0 255 215 0 255 215 0 255 215 0 255 215 0 255 215 0 255 215 0 255 215 0 255 215 0 255 215 0 255 215 0 255 215 0 255 215 0 255 215 0 255 215 0 255 215 0 255 215 0 255 215 0 255 215 0 255 215 0 255 215 0 255 215 0 255 215 0 255 215 0 255 215 0 255 215 0 255 215 0 255 215 0 255 215 0 255 215 0 255 215 0 255 215 0 255 215 0 255 215 0 255 215 0 255 215 0 255 215 0 255 215 0 255 215 0 255 215 0 255 215 0 255 215 0 255 215 0 255 215 0 255 215 0 255 215 0 255 215 0 255 215 0 255 215 0 255 215 0 255 215 0 255 215 0 255 215 0 255 215 0 255 215 0 255 215 0 255 215 0 255 215 0 255 215 0 255 215 0 255 215 0 
255 215 0 255 215 0 255 215 0 255 215 0 255 215 0 255 215 0 255 215 0 255 215 0 255 215 0 255 215 0 255 215 0 255 215 0 255 215 0 255 215 0 255 215 0 255 215 0 255 215 0 255 215 0 255 215 0 255 215 0 255 215 0 255 215 0 255 215 0 255 215 0 255 215 0 255 215 0 255 215 0 255 215 0 255 215 0 255 215 0 255 215 0 255 215 0 255 215 0 255 215 0 255 215 0 255 215 0 255 215 0 255 215 0 255 215 0 255 215 0 255 215 0 255 215 0 255 215 0 255 215 0 255 215 0 255 215 0 255 215 0 255 215 0 255 215 0 255 215 0 255 215 0 255 215 0 255 215 0 255 215 0 255 215 0 255 215 0 255 215 0 255 215 0 255 215 0 255 215 0 255 215 0 255 215 0 255 215 0 255 215 0 255 215 0 255 215 0 255 215 0 255 215 0 255 215 0 255 215 0 255 215 0 255 215 0 255 215 0 255 215 0 255 215 0 255 215 0 255 215 0 255 215 0 255 215 0 255 215 0 255 215 0 255 215 0 255 215 0 255 215 0 255 215 0 255 215 0 255 215 0 255 215 0 255 215 0 255 215 0 255 215 0 255 215 0 255 215 0 255 215 0 255 215 0 255 215 0 255 215 0 255 215 0 255 215 0 255 215 0 255 215 0 255 215 0 255 215 0 255 215 0 255 215 0 255 215 0 255 215 0 255 215 0 255 215 0 255 215 0 255 215 0 255 215 0 255 215 0 255 215 0 255 215 0 255 215 0 255 215 0 255 215 0 255 215 0 255 215 0 255 215 0 255 215 0 255 215 0 255 215 0 255 215 0 255 215 0 255 215 0 255 215 0 255 215 0 255 215 0 255 215 0 255 215 0 255 215 0 255 215 0 255 215 0 255 215 0 255 215 0 255 215 0 255 215 0 255 215 0 255 215 0 255 215 0 255 215 0 255 215 0 255 215 0 255 215 0 255 215 0 255 215 0 255 215 0 255 215 0 255 215 0 255 215 0 255 215 0 255 215 0 255 215 0 255 215 0 255 215 0 255 215 0 255 215 0 255 215 0 255 215 0 255 215 0 255 215 0 255 215 0 255 215 0 255 215 0 255 215 0 255 215 0 255 215 0 255 215 0 255 215 0 255 215 0 255 215 0 255 215 0 255 215 0 255 215 0 255 215 0 255 215 0 255 215 0 255 215 0 255 215 0 255 215 0 255 215 0 255 215 0 255 215 0 255 215 0 255 215 0 255 215 0 255 215 0 255 215 0 255 215 0 255 215 0 255 215 0 255 215 0 255 215 0 255 215 0 255 215 0 255 215 0 255 215 0 255 215 0 255 215 0 255 215 0 255 215 0 255 215 0 255 215 0 255 215 0 255 215 0 255 215 0 255 215 0 255 215 0 255 215 0 255 215 0 255 215 0 255 215 0 255 215 0 255 215 0 255 215 0 255 215 0 255 215 0 255 215 0 255 215 0 255 215 0 255 215 0 255 215 0 255 215 0 255 215 0 255 215 0 255 215 0 255 215 0 255 215 0 255 215 0 255 215 0 255 215 0 255 215 0 255 215 0 255 215 0 255 215 0 255 215 0 255 215 0 255 215 0 255 215 0 255 215 0 255 215 0 255 215 0 255 215 0 255 215 0 255 215 0 255 215 0 255 215 0 255 215 0 255 215 0 255 215 0 255 215 0 255 215 0 255 215 0 255 215 0 255 215 0 255 215 0 255 215 0 255 215 0 255 215 0 255 215 0 255 215 0 255 215 0 255 215 0 255 215 0 255 215 0 255 215 0 255 215 0 255 215 0 255 215 0 255 215 0 255 215 0 255 215 0 255 215 0 255 215 0 255 215 0 255 215 0 255 215 0 255 215 0 255 215 0 255 215 0 255 215 0 255 215 0 255 215 0 255 215 0 255 215 0 255 215 0 255 215 0 255 215 0 255 215 0 255 215 0 255 215 0 255 215 0 255 215 0 255 215 0 255 215 0 255 215 0 255 215 0 255 215 0 
255 215 0 255 215 0 255 215 0 255 215 0 255 215 0 255 215 0 255 215 0 255 215 0 255 215 0 255 215 0 255 215 0 255 215 0 255 215 0 255 215 0 255 215 0 255 215 0 255 215 0 255 215 0 255 215 0 255 215 0 255 215 0 255 215 0 255 215 0 255 215 0 255 215 0 255 215 0 255 215 0 255 215 0 255 215 0 255 215 0 255 215 0 255 215 0 255 215 0 255 215 0 255 215 0 255 215 0 255 215 0 255 215 0 255 215 0 255 215 0 255 215 0 255 215 0 255 215 0 255 215 0 255 215 0 255 215 0 255 215 0 255 215 0 255 215 0 255 215 0 255 215 0 255 215 0 255 215 0 255 215 0 255 215 0 255 215 0 255 215 0 255 215 0 255 215 0 255 215 0 255 215 0 255 215 0 255 215 0 255 215 0 255 215 0 255 215 0 255 215 0 255 215 0 255 215 0 255 215 0 255 215 0 255 215 0 255 215 0 255 215 0 255 215 0 255 215 0 255 215 0 255 215 0 255 215 0 255 215 0 255 215 0 255 215 0 255 215 0 255 215 0 255 215 0 255 215 0 255 215 0 255 215 0 255 215 0 255 215 0 255 215 0 255 215 0 255 215 0 255 215 0 255 215 0 255 215 0 255 215 0 255 215 0 255 215 0 255 215 0 255 215 0 255 215 0 255 215 0 255 215 0 255 215 0 255 215 0 255 215 0 255 215 0 255 215 0 255 215 0 255 215 0 255 215 0 255 215 0 255 215 0 255 215 0 255 215 0 255 215 0 255 215 0 255 215 0 255 215 0 255 215 0 255 215 0 255 215 0 255 215 0 255 215 0 255 215 0 255 215 0 255 215 0 255 215 0 255 215 0 255 215 0 255 215 0 255 215 0 255 215 0 255 215 0 255 215 0 255 215 0 255 215 0 255 215 0 255 215 0 255 215 0 255 215 0 255 215 0 255 215 0 255 215 0 255 215 0 255 215 0 255 215 0 255 215 0 255 215 0 255 215 0 255 215 0 255 215 0 255 215 0 255 215 0 255 215 0 255 215 0 255 215 0 255 215 0 255 215 0 255 215 0 255 215 0 255 215 0 255 215 0 255 215 0 255 215 0 255 215 0 255 215 0 255 215 0 255 215 0 255 215 0 255 215 0 255 215 0 255 215 0 255 215 0 255 215 0 255 215 0 255 215 0 255 215 0 255 215 0 255 215 0 255 215 0 255 215 0 255 215 0 255 215 0 255 215 0 255 215 0 255 215 0 255 215 0 255 215 0 255 215 0 255 215 0 255 215 0 255 215 0 255 215 0 255 215 0 255 215 0 255 215 0 255 215 0 255 215 0 255 215 0 255 215 0 255 215 0 255 215 0 255 215 0 255 215 0 255 215 0 255 215 0 255 215 0 255 215 0 255 215 0 255 215 0 255 215 0 255 215 0 255 215 0 255 215 0 255 215 0 255 215 0 255 215 0 255 215 0 255 215 0 255 215 0 255 215 0 255 215 0 255 215 0 255 215 0 255 215 0 255 215 0 255 215 0 255 215 0 255 215 0 255 215 0 255 215 0 255 215 0 255 215 0 255 215 0 255 215 0 255 215 0 255 215 0 255 215 0 255 215 0 255 215 0 255 215 0 255 215 0 255 215 0 255 215 0 255 215 0 255 215 0 255 215 0 255 215 0 255 215 0 255 215 0 255 215 0 255 215 0 255 215 0 255 215 0 255 215 0 255 215 0 255 215 0 255 215 0 255 215 0 255 215 0 255 215 0 255 215 0 255 215 0 255 215 0 255 215 0 255 215 0 255 215 0 255 215 0 255 215 0 255 215 0 255 215 0 255 215 0 255 215 0 255 215 0 255 215 0 255 215 0 255 215 0 255 215 0 255 215 0 255 215 0 255 215 0 255 215 0 255 215 0 255 215 0 255 215 0 255 215 0 255 215 0 255 215 0 255 215 0 255 215 0 255 215 0 255 215 0 255 215 0 255 215 0 255 215 0 255 215 0 255 215 0 255 215 0 
255 215 0 255 215 0 255 215 0 255 215 0 255 215 0 255 215 0 255 215 0 255 215 0 255 215 0 255 215 0 255 215 0 255 215 0 255 215 0 255 215 0 255 215 0 255 215 0 255 215 0 255 215 0 255 215 0 255 215 0 255 215 0 255 215 0 255 215 0 255 215 0 255 215 0 255 215 0 255 215 0 255 215 0 255 215 0 255 215 0 255 215 0 255 215 0 255 215 0 255 215 0 255 215 0 255 215 0 255 215 0 255 215 0 255 215 0 255 215 0 255 215 0 255 215 0 255 215 0 255 215 0 255 215 0 255 215 0 255 215 0 255 215 0 255 215 0 255 215 0 255 215 0 255 215 0 255 215 0 255 215 0 255 215 0 255 215 0 255 215 0 255 215 0 255 215 0 255 215 0 255 215 0 255 215 0 255 215 0 255 215 0 255 215 0 255 215 0 255 215 0 255 215 0 255 215 0 255 215 0 255 215 0 255 215 0 255 215 0 255 215 0 255 215 0 255 215 0 255 215 0 255 215 0 255 215 0 255 215 0 255 215 0 255 215 0 255 215 0 255 215 0 255 215 0 255 215 0 255 215 0 255 215 0 255 215 0 255 215 0 255 215 0 255 215 0 255 215 0 255 215 0 255 215 0 255 215 0 255 215 0 255 215 0 255 215 0 255 215 0 255 215 0 255 215 0 255 215 0 255 215 0 255 215 0 255 215 0 255 215 0 255 215 0 255 215 0 255 215 0 255 215 0 255 215 0 255 215 0 255 215 0 255 215 0 255 215 0 255 215 0 255 215 0 255 215 0 255 215 0 255 215 0 255 215 0 255 215 0 255 215 0 255 215 0 255 215 0 255 215 0 255 215 0 255 215 0 255 215 0 255 215 0 255 215 0 255 215 0 255 215 0 255 215 0 255 215 0 255 215 0 255 215 0 255 215 0 255 215 0 255 215 0 255 215 0 255 215 0 255 215 0 255 215 0 255 215 0 255 215 0 255 215 0 255 215 0 255 215 0 255 215 0 255 215 0 255 215 0 255 215 0 255 215 0 255 215 0 255 215 0 255 215 0 255 215 0 255 215 0 255 215 0 255 215 0 255 215 0 255 215 0 255 215 0 255 215 0 255 215 0 255 215 0 255 215 0 255 215 0 255 215 0 255 215 0 255 215 0 255 215 0 255 215 0 255 215 0 255 215 0 255 215 0 255 215 0 255 215 0 255 215 0 255 215 0 255 215 0 255 215 0 255 215 0 255 215 0 255 215 0 255 215 0 255 215 0 255 215 0 255 215 0 255 215 0 255 215 0 255 215 0 255 215 0 255 215 0 255 215 0 255 215 0 255 215 0 255 215 0 255 215 0 255 215 0 255 215 0 255 215 0 255 215 0 255 215 0 255 215 0 255 215 0 255 215 0 255 215 0 255 215 0 255 215 0 255 215 0 255 215 0 255 215 0 255 215 0 255 215 0 255 215 0 255 215 0 255 215 0 255 215 0 255 215 0 255 215 0 255 215 0 255 215 0 255 215 0 255 215 0 255 215 0 255 215 0 255 215 0 255 215 0 255 215 0 255 215 0 255 215 0 255 215 0 255 215 0 255 215 0 255 215 0 255 215 0 255 215 0 255 215 0 255 215 0 255 215 0 255 215 0 255 215 0 255 215 0 255 215 0 255 215 0 255 215 0 255 215 0 255 215 0 255 215 0 255 215 0 255 215 0 255 215 0 255 215 0 255 215 0 255 215 0 255 215 0 255 215 0 255 215 0 255 215 0 255 215 0 255 215 0 255 215 0 255 215 0 255 215 0 255 215 0 255 215 0 255 215 0 255 215 0 255 215 0 255 215 0 255 215 0 255 215 0 255 215 0 255 215 0 255 215 0 255 215 0 255 215 0 255 215 0 255 215 0 255 215 0 255 215 0 255 215 0 255 215 0 255 215 0 255 215 0 255 215 0 255 215 0 255 215 0 255 215 0 255 215 0 255 215 0 255 215 0 255 215 0 255 215 0 255 215 0 255 215 0 255 215 0 
255 215 0 255 215 0 255 215 0 255 215 0 255 215 0 255 215 0 255 215 0 255 215 0 255 215 0 255 215 0 255 215 0 255 215 0 255 215 0 255 215 0 255 215 0 255 215 0 255 215 0 255 215 0 255 215 0 255 215 0 255 215 0 255 215 0 255 215 0 255 215 0 255 215 0 255 215 0 255 215 0 255 215 0 255 215 0 255 215 0 255 215 0 255 215 0 255 215 0 255 215 0 255 215 0 255 215 0 255 215 0 255 215 0 255 215 0 255 215 0 255 215 0 255 215 0 255 215 0 255 215 0 255 215 0 255 215 0 255 215 0 255 215 0 255 215 0 255 215 0 255 215 0 255 215 0 255 215 0 255 215 0 255 215 0 255 215 0 255 215 0 255 215 0 255 215 0 255 215 0 255 215 0 255 215 0 255 215 0 255 215 0 255 215 0 255 215 0 255 215 0 255 215 0 255 215 0 255 215 0 255 215 0 255 215 0 255 215 0 255 215 0 255 215 0 255 215 0 255 215 0 255 215 0 255 215 0 255 215 0 255 215 0 255 215 0 255 215 0 255 215 0 255 215 0 255 215 0 255 215 0 255 215 0 255 215 0 255 215 0 255 215 0 255 215 0 255 215 0 255 215 0 255 215 0 255 215 0 255 215 0 255 215 0 255 215 0 255 215 0 255 215 0 255 215 0 255 215 0 255 215 0 255 215 0 255 215 0 255 215 0 255 215 0 255 215 0 255 215 0 255 215 0 255 215 0 255 215 0 255 215 0 255 215 0 255 215 0 255 215 0 255 215 0 255 215 0 255 215 0 255 215 0 255 215 0 255 215 0 255 215 0 255 215 0 255 215 0 255 215 0 255 215 0 255 215 0 255 215 0 255 215 0 255 215 0 255 215 0 255 215 0 255 215 0 255 215 0 255 215 0 255 215 0 255 215 0 255 215 0 255 215 0 255 215 0 255 215 0 255 215 0 255 215 0 255 215 0 255 215 0 255 215 0 255 215 0 255 215 0 255 215 0 255 215 0 255 215 0 255 215 0 255 215 0 255 215 0 255 215 0 255 215 0 255 215 0 255 215 0 255 215 0 255 215 0 255 215 0 255 215 0 255 215 0 255 215 0 255 215 0 255 215 0 255 215 0 255 215 0 255 215 0 255 215 0 255 215 0 255 215 0 255 215 0 255 215 0 255 215 0 255 215 0 255 215 0 255 215 0 255 215 0 255 215 0 255 215 0 255 215 0 255 215 0 255 215 0 255 215 0 255 215 0 255 215 0 255 215 0 255 215 0 255 215 0 255 215 0 255 215 0 255 215 0 255 215 0 255 215 0 255 215 0 255 215 0 255 215 0 255 215 0 255 215 0 255 215 0 255 215 0 255 215 0 255 215 0 255 215 0 255 215 0 255 215 0 255 215 0 255 215 0 255 215 0 255 215 0 255 215 0 255 215 0 255 215 0 255 215 0 255 215 0 255 215 0 255 215 0 255 215 0 255 215 0 255 215 0 255 215 0 255 215 0 255 215 0 255 215 0 255 215 0 255 215 0 255 215 0 255 215 0 255 215 0 255 215 0 255 215 0 255 215 0 255 215 0 255 215 0 255 215 0 255 215 0 255 215 0 255 215 0 255 215 0 255 215 0 255 215 0 255 215 0 255 215 0 255 215 0 255 215 0 255 215 0 255 215 0 255 215 0 255 215 0 255 215 0 255 215 0 255 215 0 255 215 0 255 215 0 255 215 0 255 215 0 255 215 0 255 215 0 255 215 0 255 215 0 255 215 0 255 215 0 255 215 0 255 215 0 255 215 0 255 215 0 255 215 0 255 215 0 255 215 0 255 215 0 255 215 0 255 215 0 255 215 0 255 215 0 255 215 0 255 215 0 255 215 0 255 215 0 255 215 0 255 215 0 255 215 0 255 215 0 255 215 0 255 215 0 255 215 0 255 215 0 255 215 0 255 215 0 255 215 0 255 215 0 255 215 0 255 215 0 255 215 0 255 215 0 255 215 0 255 215 0 255 215 0 
255 215 0 255 215 0 255 215 0 255 215 0 255 215 0 255 215 0 255 215 0 255 215 0 255 215 0 255 215 0 255 215 0 255 215 0 255 215 0 255 215 0 255 215 0 255 215 0 255 215 0 255 215 0 255 215 0 255 215 0 255 215 0 255 215 0 255 215 0 255 215 0 255 215 0 255 215 0 255 215 0 255 215 0 255 215 0 255 215 0 255 215 0 255 215 0 255 215 0 255 215 0 255 215 0 255 215 0 255 215 0 255 215 0 255 215 0 255 215 0 255 215 0 255 215 0 255 215 0 255 215 0 255 215 0 255 215 0 255 215 0 255 215 0 255 215 0 255 215 0 255 215 0 255 215 0 255 215 0 255 215 0 255 215 0 255 215 0 255 215 0 255 215 0 255 215 0 255 215 0 255 215 0 255 215 0 255 215 0 255 215 0 255 215 0 255 215 0 255 215 0 255 215 0 255 215 0 255 215 0 255 215 0 255 215 0 255 215 0 255 215 0 255 215 0 255 215 0 255 215 0 255 215 0 255 215 0 255 215 0 255 215 0 255 215 0 255 215 0 255 215 0 255 215 0 255 215 0 255 215 0 255 215 0 255 215 0 255 215 0 255 215 0 255 215 0 255 215 0 255 215 0 255 215 0 255 215 0 255 215 0 255 215 0 255 215 0 255 215 0 255 215 0 255 215 0 255 215 0 255 215 0 255 215 0 255 215 0 255 215 0 255 215 0 255 215 0 255 215 0 255 215 0 255 215 0 255 215 0 255 215 0 255 215 0 255 215 0 255 215 0 255 215 0 255 215 0 255 215 0 255 215 0 255 215 0 255 215 0 255 215 0 255 215 0 255 215 0 255 215 0 255 215 0 255 215 0 255 215 0 255 215 0 255 215 0 255 215 0 255 215 0 255 215 0 255 215 0 255 215 0 255 215 0 255 215 0 255 215 0 255 215 0 255 215 0 255 215 0 255 215 0 255 215 0 255 215 0 255 215 0 255 215 0 255 215 0 255 215 0 255 215 0 255 215 0 255 215 0 255 215 0 255 215 0 255 215 0 255 215 0 255 215 0 255 215 0 255 215 0 255 215 0 255 215 0 255 215 0 255 215 0 255 215 0 255 215 0 255 215 0 255 215 0 255 215 0 255 215 0 255 215 0 255 215 0 255 215 0 255 215 0 255 215 0 255 215 0 255 215 0 255 215 0 255 215 0 255 215 0 255 215 0 255 215 0 255 215 0 255 215 0 255 215 0 255 215 0 255 215 0 255 215 0 255 215 0 255 215 0 255 215 0 255 215 0 255 215 0 255 215 0 255 215 0 255 215 0 255 215 0 255 215 0 255 215 0 255 215 0 255 215 0 255 215 0 255 215 0 255 215 0 255 215 0 255 215 0 255 215 0 255 215 0 255 215 0 255 215 0 255 215 0 255 215 0 255 215 0 255 215 0 255 215 0 255 215 0 255 215 0 255 215 0 255 215 0 255 215 0 255 215 0 255 215 0 255 215 0 255 215 0 255 215 0 255 215 0 255 215 0 255 215 0 255 215 0 255 215 0 255 215 0 255 215 0 255 215 0 255 215 0 255 215 0 255 215 0 255 215 0 255 215 0 255 215 0 255 215 0 255 215 0 255 215 0 255 215 0 255 215 0 255 215 0 255 215 0 255 215 0 255 215 0 255 215 0 255 215 0 255 215 0 255 215 0 255 215 0 255 215 0 255 215 0 255 215 0 255 215 0 255 215 0 255 215 0 255 215 0 255 215 0 255 215 0 255 215 0 255 215 0 255 215 0 255 215 0 255 215 0 255 215 0 255 215 0 255 215 0 255 215 0 255 215 0 255 215 0 255 215 0 255 215 0 255 215 0 255 215 0 255 215 0 255 215 0 255 215 0 255 215 0 255 215 0 255 215 0 255 215 0 255 215 0 255 215 0 255 215 0 255 215 0 255 215 0 255 215 0 255 215 0 255 215 0 255 215 0 255 215 0 255 215 0 255 215 0 255 215 0 255 215 0 255 215 0 255 215 0 
255 215 0 255 215 0 255 215 0 255 215 0 255 215 0 255 215 0 255 215 0 255 215 0 255 215 0 255 215 0 255 215 0 255 215 0 255 215 0 255 215 0 255 215 0 255 215 0 255 215 0 255 215 0 255 215 0 255 215 0 255 215 0 255 215 0 255 215 0 255 215 0 255 215 0 255 215 0 255 215 0 255 215 0 255 215 0 255 215 0 255 215 0 255 215 0 255 215 0 255 215 0 255 215 0 255 215 0 255 215 0 255 215 0 255 215 0 255 215 0 255 215 0 255 215 0 255 215 0 255 215 0 255 215 0 255 215 0 255 215 0 255 215 0 255 215 0 255 215 0 255 215 0 255 215 0 255 215 0 255 215 0 255 215 0 255 215 0 255 215 0 255 215 0 255 215 0 255 215 0 255 215 0 255 215 0 255 215 0 255 215 0 255 215 0 255 215 0 255 215 0 255 215 0 255 215 0 255 215 0 255 215 0 255 215 0 255 215 0 255 215 0 255 215 0 255 215 0 255 215 0 255 215 0 255 215 0 255 215 0 255 215 0 255 215 0 255 215 0 255 215 0 255 215 0 255 215 0 255 215 0 255 215 0 255 215 0 255 215 0 255 215 0 255 215 0 255 215 0 255 215 0 255 215 0 255 215 0 255 215 0 255 215 0 255 215 0 255 215 0 255 215 0 255 215 0 255 215 0 255 215 0 255 215 0 255 215 0 255 215 0 255 215 0 255 215 0 255 215 0 255 215 0 255 215 0 255 215 0 255 215 0 255 215 0 255 215 0 255 215 0 255 215 0 255 215 0 255 215 0 255 215 0 255 215 0 255 215 0 255 215 0 255 215 0 255 215 0 255 215 0 255 215 0 255 215 0 255 215 0 255 215 0 255 215 0 255 215 0 255 215 0 255 215 0 255 215 0 255 215 0 255 215 0 255 215 0 255 215 0 255 215 0 255 215 0 255 215 0 255 215 0 255 215 0 255 215 0 255 215 0 255 215 0 255 215 0 255 215 0 255 215 0 255 215 0 255 215 0 255 215 0 255 215 0 255 215 0 255 215 0 255 215 0 255 215 0 255 215 0 255 215 0 255 215 0 255 215 0 255 215 0 255 215 0 255 215 0 255 215 0 255 215 0 255 215 0 255 215 0 255 215 0 255 215 0 255 215 0 255 215 0 255 215 0 255 215 0 255 215 0 255 215 0 255 215 0 255 215 0 255 215 0 255 215 0 255 215 0 255 215 0 255 215 0 255 215 0 255 215 0 255 215 0 255 215 0 255 215 0 255 215 0 255 215 0 255 215 0 255 215 0 255 215 0 255 215 0 255 215 0 255 215 0 255 215 0 255 215 0 255 215 0 255 215 0 255 215 0 255 215 0 255 215 0 255 215 0 255 215 0 255 215 0 255 215 0 255 215 0 255 215 0 255 215 0 255 215 0 255 215 0 255 215 0 255 215 0 255 215 0 255 215 0 255 215 0 255 215 0 255 215 0 255 215 0 255 215 0 255 215 0 255 215 0 255 215 0 255 215 0 255 215 0 255 215 0 255 215 0 255 215 0 255 215 0 255 215 0 255 215 0 255 215 0 255 215 0 255 215 0 255 215 0 255 215 0 255 215 0 255 215 0 255 215 0 255 215 0 255 215 0 255 215 0 255 215 0 255 215 0 255 215 0 255 215 0 255 215 0 255 215 0 255 215 0 255 215 0 255 215 0 255 215 0 255 215 0 255 215 0 255 215 0 255 215 0 255 215 0 255 215 0 255 215 0 255 215 0 255 215 0 255 215 0 255 215 0 255 215 0 255 215 0 255 215 0 255 215 0 255 215 0 255 215 0 255 215 0 255 215 0 255 215 0 255 215 0 255 215 0 255 215 0 255 215 0 255 215 0 255 215 0 255 215 0 255 215 0 255 215 0 255 215 0 255 215 0 255 215 0 255 215 0 255 215 0 255 215 0 255 215 0 255 215 0 255 215 0 255 215 0 255 215 0 255 215 0 255 215 0 255 215 0 255 215 0 255 215 0 
255 215 0 255 215 0 255 215 0 255 215 0 255 215 0 255 215 0 255 215 0 255 215 0 255 215 0 255 215 0 255 215 0 255 215 0 255 215 0 255 215 0 255 215 0 255 215 0 255 215 0 255 215 0 255 215 0 255 215 0 255 215 0 255 215 0 255 215 0 255 215 0 255 215 0 255 215 0 255 215 0 255 215 0 255 215 0 255 215 0 255 215 0 255 215 0 255 215 0 255 215 0 255 215 0 255 215 0 255 215 0 255 215 0 255 215 0 255 215 0 255 215 0 255 215 0 255 215 0 255 215 0 255 215 0 255 215 0 255 215 0 255 215 0 255 215 0 255 215 0 255 215 0 255 215 0 255 215 0 255 215 0 255 215 0 255 215 0 255 215 0 255 215 0 255 215 0 255 215 0 255 215 0 255 215 0 255 215 0 255 215 0 255 215 0 255 215 0 255 215 0 255 215 0 255 215 0 255 215 0 255 215 0 255 215 0 255 215 0 255 215 0 255 215 0 255 215 0 255 215 0 255 215 0 255 215 0 255 215 0 255 215 0 255 215 0 255 215 0 255 215 0 255 215 0 255 215 0 255 215 0 255 215 0 255 215 0 255 215 0 255 215 0 255 215 0 255 215 0 255 215 0 255 215 0 255 215 0 255 215 0 255 215 0 255 215 0 255 215 0 255 215 0 255 215 0 255 215 0 255 215 0 255 215 0 255 215 0 255 215 0 255 215 0 255 215 0 255 215 0 255 215 0 255 215 0 255 215 0 255 215 0 255 215 0 255 215 0 255 215 0 255 215 0 255 215 0 255 215 0 255 215 0 255 215 0 255 215 0 255 215 0 255 215 0 255 215 0 255 215 0 255 215 0 255 215 0 255 215 0 255 215 0 255 215 0 255 215 0 255 215 0 255 215 0 255 215 0 255 215 0 255 215 0 255 215 0 255 215 0 255 215 0 255 215 0 255 215 0 255 215 0 255 215 0 255 215 0 255 215 0 255 215 0 255 215 0 255 215 0 255 215 0 255 215 0 255 215 0 255 215 0 255 215 0 255 215 0 255 215 0 255 215 0 255 215 0 255 215 0 255 215 0 255 215 0 255 215 0 255 215 0 255 215 0 255 215 0 255 215 0 255 215 0 255 215 0 255 215 0 255 215 0 255 215 0 255 215 0 255 215 0 255 215 0 255 215 0 255 215 0 255 215 0 255 215 0 255 215 0 255 215 0 255 215 0 255 215 0 255 215 0 255 215 0 255 215 0 255 215 0 255 215 0 255 215 0 255 215 0 255 215 0 255 215 0 255 215 0 255 215 0 255 215 0 255 215 0 255 215 0 255 215 0 255 215 0 255 215 0 255 215 0 255 215 0 255 215 0 255 215 0 255 215 0 255 215 0 255 215 0 255 215 0 255 215 0 255 215 0 255 215 0 255 215 0 255 215 0 255 215 0 255 215 0 255 215 0 255 215 0 255 215 0 255 215 0 255 215 0 255 215 0 255 215 0 255 215 0 255 215 0 255 215 0 255 215 0 255 215 0 255 215 0 255 215 0 255 215 0 255 215 0 255 215 0 255 215 0 255 215 0 255 215 0 255 215 0 255 215 0 255 215 0 255 215 0 255 215 0 255 215 0 255 215 0 255 215 0 255 215 0 255 215 0 255 215 0 255 215 0 255 215 0 255 215 0 255 215 0 255 215 0 255 215 0 255 215 0 255 215 0 255 215 0 255 215 0 255 215 0 255 215 0 255 215 0 255 215 0 255 215 0 255 215 0 255 215 0 255 215 0 255 215 0 255 215 0 255 215 0 255 215 0 255 215 0 255 215 0 255 215 0 255 215 0 255 215 0 255 215 0 255 215 0 255 215 0 255 215 0 255 215 0 255 215 0 255 215 0 255 215 0 255 215 0 255 215 0 255 215 0 255 215 0 255 215 0 255 215 0 255 215 0 255 215 0 255 215 0 255 215 0 255 215 0 255 215 0 255 215 0 255 215 0 255 215 0 255 215 0 255 215 0 255 215 0 255 215 0 
255 215 0 255 215 0 255 215 0 255 215 0 255 215 0 255 215 0 255 215 0 255 215 0 255 215 0 255 215 0 255 215 0 255 215 0 255 215 0 255 215 0 255 215 0 255 215 0 255 215 0 255 215 0 255 215 0 255 215 0 255 215 0 255 215 0 255 215 0 255 215 0 255 215 0 255 215 0 255 215 0 255 215 0 255 215 0 255 215 0 255 215 0 255 215 0 255 215 0 255 215 0 255 215 0 255 215 0 255 215 0 255 215 0 255 215 0 255 215 0 255 215 0 255 215 0 255 215 0 255 215 0 255 215 0 255 215 0 255 215 0 255 215 0 255 215 0 255 215 0 255 215 0 255 215 0 255 215 0 255 215 0 255 215 0 255 215 0 255 215 0 255 215 0 255 215 0 255 215 0 255 215 0 255 215 0 255 215 0 255 215 0 255 215 0 255 215 0 255 215 0 255 215 0 255 215 0 255 215 0 255 215 0 255 215 0 255 215 0 255 215 0 255 215 0 255 215 0 255 215 0 255 215 0 255 215 0 255 215 0 255 215 0 255 215 0 255 215 0 255 215 0 255 215 0 255 215 0 255 215 0 255 215 0 255 215 0 255 215 0 255 215 0 255 215 0 255 215 0 255 215 0 255 215 0 255 215 0 255 215 0 255 215 0 255 215 0 255 215 0 255 215 0 255 215 0 255 215 0 255 215 0 255 215 0 255 215 0 255 215 0 255 215 0 255 215 0 255 215 0 255 215 0 255 215 0 255 215 0 255 215 0 255 215 0 255 215 0 255 215 0 255 215 0 255 215 0 255 215 0 255 215 0 255 215 0 255 215 0 255 215 0 255 215 0 255 215 0 255 215 0 255 215 0 255 215 0 255 215 0 255 215 0 255 215 0 255 215 0 255 215 0 255 215 0 255 215 0 255 215 0 255 215 0 255 215 0 255 215 0 255 215 0 255 215 0 255 215 0 255 215 0 255 215 0 255 215 0 255 215 0 255 215 0 255 215 0 255 215 0 255 215 0 255 215 0 255 215 0 255 215 0 255 215 0 255 215 0 255 215 0 255 215 0 255 215 0 255 215 0 255 215 0 255 215 0 255 215 0 255 215 0 255 215 0 255 215 0 255 215 0 255 215 0 255 215 0 255 215 0 255 215 0 255 215 0 255 215 0 255 215 0 255 215 0 255 215 0 255 215 0 255 215 0 255 215 0 255 215 0 255 215 0 255 215 0 255 215 0 255 215 0 255 215 0 255 215 0 255 215 0 255 215 0 255 215 0 255 215 0 255 215 0 255 215 0 255 215 0 255 215 0 255 215 0 255 215 0 255 215 0 255 215 0 255 215 0 255 215 0 255 215 0 255 215 0 255 215 0 255 215 0 255 215 0 255 215 0 255 215 0 255 215 0 255 215 0 255 215 0 255 215 0 255 215 0 255 215 0 255 215 0 255 215 0 255 215 0 255 215 0 255 215 0 255 215 0 255 215 0 255 215 0 255 215 0 255 215 0 255 215 0 255 215 0 255 215 0 255 215 0 255 215 0 255 215 0 255 215 0 255 215 0 255 215 0 255 215 0 255 215 0 255 215 0 255 215 0 255 215 0 255 215 0 255 215 0 255 215 0 255 215 0 255 215 0 255 215 0 255 215 0 255 215 0 255 215 0 255 215 0 255 215 0 255 215 0 255 215 0 255 215 0 255 215 0 255 215 0 255 215 0 255 215 0 255 215 0 255 215 0 255 215 0 255 215 0 255 215 0 255 215 0 255 215 0 255 215 0 255 215 0 255 215 0 255 215 0 255 215 0 255 215 0 255 215 0 255 215 0 255 215 0 255 215 0 255 215 0 255 215 0 255 215 0 255 215 0 255 215 0 255 215 0 255 215 0 255 215 0 255 215 0 255 215 0 255 215 0 255 215 0 255 215 0 255 215 0 255 215 0 255 215 0 255 215 0 255 215 0 255 215 0 255 215 0 255 215 0 255 215 0 255 215 0 255 215 0 255 215 0 255 215 0 255 215 0 255 215 0 
255 215 0 255 215 0 255 215 0 255 215 0 255 215 0 255 215 0 255 215 0 255 215 0 255 215 0 255 215 0 255 215 0 255 215 0 255 215 0 255 215 0 255 215 0 255 215 0 255 215 0 255 215 0 255 215 0 255 215 0 255 215 0 255 215 0 255 215 0 255 215 0 255 215 0 255 215 0 255 215 0 255 215 0 255 215 0 255 215 0 255 215 0 255 215 0 255 215 0 255 215 0 255 215 0 255 215 0 255 215 0 255 215 0 255 215 0 255 215 0 255 215 0 255 215 0 255 215 0 255 215 0 255 215 0 255 215 0 255 215 0 255 215 0 255 215 0 255 215 0 255 215 0 255 215 0 255 215 0 255 215 0 255 215 0 255 215 0 255 215 0 255 215 0 255 215 0 255 215 0 255 215 0 255 215 0 255 215 0 255 215 0 255 215 0 255 215 0 255 215 0 255 215 0 255 215 0 255 215 0 255 215 0 255 215 0 255 215 0 255 215 0 255 215 0 255 215 0 255 215 0 255 215 0 255 215 0 255 215 0 255 215 0 255 215 0 255 215 0 255 215 0 255 215 0 255 215 0 255 215 0 255 215 0 255 215 0 255 215 0 255 215 0 255 215 0 255 215 0 255 215 0 255 215 0 255 215 0 255 215 0 255 215 0 255 215 0 255 215 0 255 215 0 255 215 0 255 215 0 255 215 0 255 215 0 255 215 0 255 215 0 255 215 0 255 215 0 255 215 0 255 215 0 255 215 0 255 215 0 255 215 0 255 215 0 255 215 0 255 215 0 255 215 0 255 215 0 255 215 0 255 215 0 255 215 0 255 215 0 255 215 0 255 215 0 255 215 0 255 215 0 255 215 0 255 215 0 255 215 0 255 215 0 255 215 0 255 215 0 255 215 0 255 215 0 255 215 0 255 215 0 255 215 0 255 215 0 255 215 0 255 215 0 255 215 0 255 215 0 255 215 0 255 215 0 255 215 0 255 215 0 255 215 0 255 215 0 255 215 0 255 215 0 255 215 0 255 215 0 255 215 0 255 215 0 255 215 0 255 215 0 255 215 0 255 215 0 255 215 0 255 215 0 255 215 0 255 215 0 255 215 0 255 215 0 255 215 0 255 215 0 255 215 0 255 215 0 255 215 0 255 215 0 255 215 0 255 215 0 255 215 0 255 215 0 255 215 0 255 215 0 255 215 0 255 215 0 255 215 0 255 215 0 255 215 0 255 215 0 255 215 0 255 215 0 255 215 0 255 215 0 255 215 0 255 215 0 255 215 0 255 215 0 255 215 0 255 215 0 255 215 0 255 215 0 255 215 0 255 215 0 255 215 0 255 215 0 255 215 0 255 215 0 255 215 0 255 215 0 255 215 0 255 215 0 255 215 0 255 215 0 255 215 0 255 215 0 255 215 0 255 215 0 255 215 0 255 215 0 255 215 0 255 215 0 255 215 0 255 215 0 255 215 0 255 215 0 255 215 0 255 215 0 255 215 0 255 215 0 255 215 0 255 215 0 255 215 0 255 215 0 255 215 0 255 215 0 255 215 0 255 215 0 255 215 0 255 215 0 255 215 0 255 215 0 255 215 0 255 215 0 255 215 0 255 215 0 255 215 0 255 215 0 255 215 0 255 215 0 255 215 0 255 215 0 255 215 0 255 215 0 255 215 0 255 215 0 255 215 0 255 215 0 255 215 0 255 215 0 255 215 0 255 215 0 255 215 0 255 215 0 255 215 0 255 215 0 255 215 0 255 215 0 255 215 0 255 215 0 255 215 0 255 215 0 255 215 0 255 215 0 255 215 0 255 215 0 255 215 0 255 215 0 255 215 0 255 215 0 255 215 0 255 215 0 255 215 0 255 215 0 255 215 0 255 215 0 255 215 0 255 215 0 255 215 0 255 215 0 255 215 0 255 215 0 255 215 0 255 215 0 255 215 0 255 215 0 255 215 0 255 215 0 255 215 0 255 215 0 255 215 0 255 215 0 255 215 0 255 215 0 255 215 0 255 215 0 255 215 0 
255 215 0 255 215 0 255 215 0 255 215 0 255 215 0 255 215 0 255 215 0 255 215 0 255 215 0 255 215 0 255 215 0 255 215 0 255 215 0 255 215 0 255 215 0 255 215 0 255 215 0 255 215 0 255 215 0 255 215 0 255 215 0 255 215 0 255 215 0 255 215 0 255 215 0 255 215 0 255 215 0 255 215 0 255 215 0 255 215 0 255 215 0 255 215 0 255 215 0 255 215 0 255 215 0 255 215 0 255 215 0 255 215 0 255 215 0 255 215 0 255 215 0 255 215 0 255 215 0 255 215 0 255 215 0 255 215 0 255 215 0 255 215 0 255 215 0 255 215 0 255 215 0 255 215 0 255 215 0 255 215 0 255 215 0 255 215 0 255 215 0 255 215 0 255 215 0 255 215 0 255 215 0 255 215 0 255 215 0 255 215 0 255 215 0 255 215 0 255 215 0 255 215 0 255 215 0 255 215 0 255 215 0 255 215 0 255 215 0 255 215 0 255 215 0 255 215 0 255 215 0 255 215 0 255 215 0 255 215 0 255 215 0 255 215 0 255 215 0 255 215 0 255 215 0 255 215 0 255 215 0 255 215 0 255 215 0 255 215 0 255 215 0 255 215 0 255 215 0 255 215 0 255 215 0 255 215 0 255 215 0 255 215 0 255 215 0 255 215 0 255 215 0 255 215 0 255 215 0 255 215 0 255 215 0 255 215 0 255 215 0 255 215 0 255 215 0 255 215 0 255 215 0 255 215 0 255 215 0 255 215 0 255 215 0 255 215 0 255 215 0 255 215 0 255 215 0 255 215 0 255 215 0 255 215 0 255 215 0 255 215 0 255 215 0 255 215 0 255 215 0 255 215 0 255 215 0 255 215 0 255 215 0 255 215 0 255 215 0 255 215 0 255 215 0 255 215 0 255 215 0 255 215 0 255 215 0 255 215 0 255 215 0 255 215 0 255 215 0 255 215 0 255 215 0 255 215 0 255 215 0 255 215 0 255 215 0 255 215 0 255 215 0 255 215 0 255 215 0 255 215 0 255 215 0 255 215 0 255 215 0 255 215 0 255 215 0 255 215 0 255 215 0 255 215 0 255 215 0 255 215 0 255 215 0 255 215 0 255 215 0 255 215 0 255 215 0 255 215 0 255 215 0 255 215 0 255 215 0 255 215 0 255 215 0 255 215 0 255 215 0 255 215 0 255 215 0 255 215 0 255 215 0 255 215 0 255 215 0 255 215 0 255 215 0 255 215 0 255 215 0 255 215 0 255 215 0 255 215 0 255 215 0 255 215 0 255 215 0 255 215 0 255 215 0 255 215 0 255 215 0 255 215 0 255 215 0 255 215 0 255 215 0 255 215 0 255 215 0 255 215 0 255 215 0 255 215 0 255 215 0 255 215 0 255 215 0 255 215 0 255 215 0 255 215 0 255 215 0 255 215 0 255 215 0 255 215 0 255 215 0 255 215 0 255 215 0 255 215 0 255 215 0 255 215 0 255 215 0 255 215 0 255 215 0 255 215 0 255 215 0 255 215 0 255 215 0 255 215 0 255 215 0 255 215 0 255 215 0 255 215 0 255 215 0 255 215 0 255 215 0 255 215 0 255 215 0 255 215 0 255 215 0 255 215 0 255 215 0 255 215 0 255 215 0 255 215 0 255 215 0 255 215 0 255 215 0 255 215 0 255 215 0 255 215 0 255 215 0 255 215 0 255 215 0 255 215 0 255 215 0 255 215 0 255 215 0 255 215 0 255 215 0 255 215 0 255 215 0 255 215 0 255 215 0 255 215 0 255 215 0 255 215 0 255 215 0 255 215 0 255 215 0 255 215 0 255 215 0 255 215 0 255 215 0 255 215 0 255 215 0 255 215 0 255 215 0 255 215 0 255 215 0 255 215 0 255 215 0 255 215 0 255 215 0 255 215 0 255 215 0 255 215 0 255 215 0 255 215 0 255 215 0 255 215 0 255 215 0 255 215 0 255 215 0 255 215 0 255 215 0 255 215 0 255 215 0 255 215 0 
255 215 0 255 215 0 255 215 0 255 215 0 255 215 0 255 215 0 255 215 0 255 215 0 255 215 0 255 215 0 255 215 0 255 215 0 255 215 0 255 215 0 255 215 0 255 215 0 255 215 0 255 215 0 255 215 0 255 215 0 255 215 0 255 215 0 255 215 0 255 215 0 255 215 0 255 215 0 255 215 0 255 215 0 255 215 0 255 215 0 255 215 0 255 215 0 255 215 0 255 215 0 255 215 0 255 215 0 255 215 0 255 215 0 255 215 0 255 215 0 255 215 0 255 215 0 255 215 0 255 215 0 255 215 0 255 215 0 255 215 0 255 215 0 255 215 0 255 215 0 255 215 0 255 215 0 255 215 0 255 215 0 255 215 0 255 215 0 255 215 0 255 215 0 255 215 0 255 215 0 255 215 0 255 215 0 255 215 0 255 215 0 255 215 0 255 215 0 255 215 0 255 215 0 255 215 0 255 215 0 255 215 0 255 215 0 255 215 0 255 215 0 255 215 0 255 215 0 255 215 0 255 215 0 255 215 0 255 215 0 255 215 0 255 215 0 255 215 0 255 215 0 255 215 0 255 215 0 255 215 0 255 215 0 255 215 0 255 215 0 255 215 0 255 215 0 255 215 0 255 215 0 255 215 0 255 215 0 255 215 0 255 215 0 255 215 0 255 215 0 255 215 0 255 215 0 255 215 0 255 215 0 255 215 0 255 215 0 255 215 0 255 215 0 255 215 0 255 215 0 255 215 0 255 215 0 255 215 0 255 215 0 255 215 0 255 215 0 255 215 0 255 215 0 255 215 0 255 215 0 255 215 0 255 215 0 255 215 0 255 215 0 255 215 0 255 215 0 255 215 0 255 215 0 255 215 0 255 215 0 255 215 0 255 215 0 255 215 0 255 215 0 255 215 0 255 215 0 255 215 0 255 215 0 255 215 0 255 215 0 255 215 0 255 215 0 255 215 0 255 215 0 255 215 0 255 215 0 255 215 0 255 215 0 255 215 0 255 215 0 255 215 0 255 215 0 255 215 0 255 215 0 255 215 0 255 215 0 255 215 0 255 215 0 255 215 0 255 215 0 255 215 0 255 215 0 255 215 0 255 215 0 255 215 0 255 215 0 255 215 0 255 215 0 255 215 0 255 215 0 255 215 0 255 215 0 255 215 0 255 215 0 255 215 0 255 215 0 255 215 0 255 215 0 255 215 0 255 215 0 255 215 0 255 215 0 255 215 0 255 215 0 255 215 0 255 215 0 255 215 0 255 215 0 255 215 0 255 215 0 255 215 0 255 215 0 255 215 0 255 215 0 255 215 0 255 215 0 255 215 0 255 215 0 255 215 0 255 215 0 255 215 0 255 215 0 255 215 0 255 215 0 255 215 0 255 215 0 255 215 0 255 215 0 255 215 0 255 215 0 255 215 0 255 215 0 255 215 0 255 215 0 255 215 0 255 215 0 255 215 0 255 215 0 255 215 0 255 215 0 255 215 0 255 215 0 255 215 0 255 215 0 255 215 0 255 215 0 255 215 0 255 215 0 255 215 0 255 215 0 255 215 0 255 215 0 255 215 0 255 215 0 255 215 0 255 215 0 255 215 0 255 215 0 255 215 0 255 215 0 255 215 0 255 215 0 255 215 0 255 215 0 255 215 0 255 215 0 255 215 0 255 215 0 255 215 0 255 215 0 255 215 0 255 215 0 255 215 0 255 215 0 255 215 0 255 215 0 255 215 0 255 215 0 255 215 0 255 215 0 255 215 0 255 215 0 255 215 0 255 215 0 255 215 0 255 215 0 255 215 0 255 215 0 255 215 0 255 215 0 255 215 0 255 215 0 255 215 0 255 215 0 255 215 0 255 215 0 255 215 0 255 215 0 255 215 0 255 215 0 255 215 0 255 215 0 255 215 0 255 215 0 255 215 0 255 215 0 255 215 0 255 215 0 255 215 0 255 215 0 255 215 0 255 215 0 255 215 0 255 215 0 255 215 0 255 215 0 255 215 0 255 215 0 255 215 0 255 215 0 
255 215 0 255 215 0 255 215 0 255 215 0 255 215 0 255 215 0 255 215 0 255 215 0 255 215 0 255 215 0 255 215 0 255 215 0 255 215 0 255 215 0 255 215 0 255 215 0 255 215 0 255 215 0 255 215 0 255 215 0 255 215 0 255 215 0 255 215 0 255 215 0 255 215 0 255 215 0 255 215 0 255 215 0 255 215 0 255 215 0 255 215 0 255 215 0 255 215 0 255 215 0 255 215 0 255 215 0 255 215 0 255 215 0 255 215 0 255 215 0 255 215 0 255 215 0 255 215 0 255 215 0 255 215 0 255 215 0 255 215 0 255 215 0 255 215 0 255 215 0 255 215 0 255 215 0 255 215 0 255 215 0 255 215 0 255 215 0 255 215 0 255 215 0 255 215 0 255 215 0 255 215 0 255 215 0 255 215 0 255 215 0 255 215 0 255 215 0 255 215 0 255 215 0 255 215 0 255 215 0 255 215 0 255 215 0 255 215 0 255 215 0 255 215 0 255 215 0 255 215 0 255 215 0 255 215 0 255 215 0 255 215 0 255 215 0 255 215 0 255 215 0 255 215 0 255 215 0 255 215 0 255 215 0 255 215 0 255 215 0 255 215 0 255 215 0 255 215 0 255 215 0 255 215 0 255 215 0 255 215 0 255 215 0 255 215 0 255 215 0 255 215 0 255 215 0 255 215 0 255 215 0 255 215 0 255 215 0 255 215 0 255 215 0 255 215 0 255 215 0 255 215 0 255 215 0 255 215 0 255 215 0 255 215 0 255 215 0 255 215 0 255 215 0 255 215 0 255 215 0 255 215 0 255 215 0 255 215 0 255 215 0 255 215 0 255 215 0 255 215 0 255 215 0 255 215 0 255 215 0 255 215 0 255 215 0 255 215 0 255 215 0 255 215 0 255 215 0 255 215 0 255 215 0 255 215 0 255 215 0 255 215 0 255 215 0 255 215 0 255 215 0 255 215 0 255 215 0 255 215 0 255 215 0 255 215 0 255 215 0 255 215 0 255 215 0 255 215 0 255 215 0 255 215 0 255 215 0 255 215 0 255 215 0 255 215 0 255 215 0 255 215 0 255 215 0 255 215 0 255 215 0 255 215 0 255 215 0 255 215 0 255 215 0 255 215 0 255 215 0 255 215 0 255 215 0 255 215 0 255 215 0 255 215 0 255 215 0 255 215 0 255 215 0 255 215 0 255 215 0 255 215 0 255 215 0 255 215 0 255 215 0 255 215 0 255 215 0 255 215 0 255 215 0 255 215 0 255 215 0 255 215 0 255 215 0 255 215 0 255 215 0 255 215 0 255 215 0 255 215 0 255 215 0 255 215 0 255 215 0 255 215 0 255 215 0 255 215 0 255 215 0 255 215 0 255 215 0 255 215 0 255 215 0 255 215 0 255 215 0 255 215 0 255 215 0 255 215 0 255 215 0 255 215 0 255 215 0 255 215 0 255 215 0 255 215 0 255 215 0 255 215 0 255 215 0 255 215 0 255 215 0 255 215 0 255 215 0 255 215 0 255 215 0 255 215 0 255 215 0 255 215 0 255 215 0 255 215 0 255 215 0 255 215 0 255 215 0 255 215 0 255 215 0 255 215 0 255 215 0 255 215 0 255 215 0 255 215 0 255 215 0 255 215 0 255 215 0 255 215 0 255 215 0 255 215 0 255 215 0 255 215 0 255 215 0 255 215 0 255 215 0 255 215 0 255 215 0 255 215 0 255 215 0 255 215 0 255 215 0 255 215 0 255 215 0 255 215 0 255 215 0 255 215 0 255 215 0 255 215 0 255 215 0 255 215 0 255 215 0 255 215 0 255 215 0 255 215 0 255 215 0 255 215 0 255 215 0 255 215 0 255 215 0 255 215 0 255 215 0 255 215 0 255 215 0 255 215 0 255 215 0 255 215 0 255 215 0 255 215 0 255 215 0 255 215 0 255 215 0 255 215 0 255 215 0 255 215 0 255 215 0 255 215 0 255 215 0 255 215 0 255 215 0 255 215 0 255 215 0 
255 215 0 255 215 0 255 215 0 255 215 0 255 215 0 255 215 0 255 215 0 255 215 0 255 215 0 255 215 0 255 215 0 255 215 0 255 215 0 255 215 0 255 215 0 255 215 0 255 215 0 255 215 0 255 215 0 255 215 0 255 215 0 255 215 0 255 215 0 255 215 0 255 215 0 255 215 0 255 215 0 255 215 0 255 215 0 255 215 0 255 215 0 255 215 0 255 215 0 255 215 0 255 215 0 255 215 0 255 215 0 255 215 0 255 215 0 255 215 0 255 215 0 255 215 0 255 215 0 255 215 0 255 215 0 255 215 0 255 215 0 255 215 0 255 215 0 255 215 0 255 215 0 255 215 0 255 215 0 255 215 0 255 215 0 255 215 0 255 215 0 255 215 0 255 215 0 255 215 0 255 215 0 255 215 0 255 215 0 255 215 0 255 215 0 255 215 0 255 215 0 255 215 0 255 215 0 255 215 0 255 215 0 255 215 0 255 215 0 255 215 0 255 215 0 255 215 0 255 215 0 255 215 0 255 215 0 255 215 0 255 215 0 255 215 0 255 215 0 255 215 0 255 215 0 255 215 0 255 215 0 255 215 0 255 215 0 255 215 0 255 215 0 255 215 0 255 215 0 255 215 0 255 215 0 255 215 0 255 215 0 255 215 0 255 215 0 255 215 0 255 215 0 255 215 0 255 215 0 255 215 0 255 215 0 255 215 0 255 215 0 255 215 0 255 215 0 255 215 0 255 215 0 255 215 0 255 215 0 255 215 0 255 215 0 255 215 0 255 215 0 255 215 0 255 215 0 255 215 0 255 215 0 255 215 0 255 215 0 255 215 0 255 215 0 255 215 0 255 215 0 255 215 0 255 215 0 255 215 0 255 215 0 255 215 0 255 215 0 255 215 0 255 215 0 255 215 0 255 215 0 255 215 0 255 215 0 255 215 0 255 215 0 255 215 0 255 215 0 255 215 0 255 215 0 255 215 0 255 215 0 255 215 0 255 215 0 255 215 0 255 215 0 255 215 0 255 215 0 255 215 0 255 215 0 255 215 0 255 215 0 255 215 0 255 215 0 255 215 0 255 215 0 255 215 0 255 215 0 255 215 0 255 215 0 255 215 0 255 215 0 255 215 0 255 215 0 255 215 0 255 215 0 255 215 0 255 215 0 255 215 0 255 215 0 255 215 0 255 215 0 255 215 0 255 215 0 255 215 0 255 215 0 255 215 0 255 215 0 255 215 0 255 215 0 255 215 0 255 215 0 255 215 0 255 215 0 255 215 0 255 215 0 255 215 0 255 215 0 255 215 0 255 215 0 255 215 0 255 215 0 255 215 0 255 215 0 255 215 0 255 215 0 255 215 0 255 215 0 255 215 0 255 215 0 255 215 0 255 215 0 255 215 0 255 215 0 255 215 0 255 215 0 255 215 0 255 215 0 255 215 0 255 215 0 255 215 0 255 215 0 255 215 0 255 215 0 255 215 0 255 215 0 255 215 0 255 215 0 255 215 0 255 215 0 255 215 0 255 215 0 255 215 0 255 215 0 255 215 0 255 215 0 255 215 0 255 215 0 255 215 0 255 215 0 255 215 0 255 215 0 255 215 0 255 215 0 255 215 0 255 215 0 255 215 0 255 215 0 255 215 0 255 215 0 255 215 0 255 215 0 255 215 0 255 215 0 255 215 0 255 215 0 255 215 0 255 215 0 255 215 0 255 215 0 255 215 0 255 215 0 255 215 0 255 215 0 255 215 0 255 215 0 255 215 0 255 215 0 255 215 0 255 215 0 255 215 0 255 215 0 255 215 0 255 215 0 255 215 0 255 215 0 255 215 0 255 215 0 255 215 0 255 215 0 255 215 0 255 215 0 255 215 0 255 215 0 255 215 0 255 215 0 255 215 0 255 215 0 255 215 0 255 215 0 255 215 0 255 215 0 255 215 0 255 215 0 255 215 0 255 215 0 255 215 0 255 215 0 255 215 0 255 215 0 255 215 0 255 215 0 255 215 0 255 215 0 255 215 0 
255 215 0 255 215 0 255 215 0 255 215 0 255 215 0 255 215 0 255 215 0 255 215 0 255 215 0 255 215 0 255 215 0 255 215 0 255 215 0 255 215 0 255 215 0 255 215 0 255 215 0 255 215 0 255 215 0 255 215 0 255 215 0 255 215 0 255 215 0 255 215 0 255 215 0 255 215 0 255 215 0 255 215 0 255 215 0 255 215 0 255 215 0 255 215 0 255 215 0 255 215 0 255 215 0 255 215 0 255 215 0 255 215 0 255 215 0 255 215 0 255 215 0 255 215 0 255 215 0 255 215 0 255 215 0 255 215 0 255 215 0 255 215 0 255 215 0 255 215 0 255 215 0 255 215 0 255 215 0 255 215 0 255 215 0 255 215 0 255 215 0 255 215 0 255 215 0 255 215 0 255 215 0 255 215 0 255 215 0 255 215 0 255 215 0 255 215 0 255 215 0 255 215 0 255 215 0 255 215 0 255 215 0 255 215 0 255 215 0 255 215 0 255 215 0 255 215 0 255 215 0 255 215 0 255 215 0 255 215 0 255 215 0 255 215 0 255 215 0 255 215 0 255 215 0 255 215 0 255 215 0 255 215 0 255 215 0 255 215 0 255 215 0 255 215 0 255 215 0 255 215 0 255 215 0 255 215 0 255 215 0 255 215 0 255 215 0 255 215 0 255 215 0 255 215 0 255 215 0 255 215 0 255 215 0 255 215 0 255 215 0 255 215 0 255 215 0 255 215 0 255 215 0 255 215 0 255 215 0 255 215 0 255 215 0 255 215 0 255 215 0 255 215 0 255 215 0 255 215 0 255 215 0 255 215 0 255 215 0 255 215 0 255 215 0 255 215 0 255 215 0 255 215 0 255 215 0 255 215 0 255 215 0 255 215 0 255 215 0 255 215 0 255 215 0 255 215 0 255 215 0 255 215 0 255 215 0 255 215 0 255 215 0 255 215 0 255 215 0 255 215 0 255 215 0 255 215 0 255 215 0 255 215 0 255 215 0 255 215 0 255 215 0 255 215 0 255 215 0 255 215 0 255 215 0 255 215 0 255 215 0 255 215 0 255 215 0 255 215 0 255 215 0 255 215 0 255 215 0 255 215 0 255 215 0 255 215 0 255 215 0 255 215 0 255 215 0 255 215 0 255 215 0 255 215 0 255 215 0 255 215 0 255 215 0 255 215 0 255 215 0 255 215 0 255 215 0 255 215 0 255 215 0 255 215 0 255 215 0 255 215 0 255 215 0 255 215 0 255 215 0 255 215 0 255 215 0 255 215 0 255 215 0 255 215 0 255 215 0 255 215 0 255 215 0 255 215 0 255 215 0 255 215 0 255 215 0 255 215 0 255 215 0 255 215 0 255 215 0 255 215 0 255 215 0 255 215 0 255 215 0 255 215 0 255 215 0 255 215 0 255 215 0 255 215 0 255 215 0 255 215 0 255 215 0 255 215 0 255 215 0 255 215 0 255 215 0 255 215 0 255 215 0 255 215 0 255 215 0 255 215 0 255 215 0 255 215 0 255 215 0 255 215 0 255 215 0 255 215 0 255 215 0 255 215 0 255 215 0 255 215 0 255 215 0 255 215 0 255 215 0 255 215 0 255 215 0 255 215 0 255 215 0 255 215 0 255 215 0 255 215 0 255 215 0 255 215 0 255 215 0 255 215 0 255 215 0 255 215 0 255 215 0 255 215 0 255 215 0 255 215 0 255 215 0 255 215 0 255 215 0 255 215 0 255 215 0 255 215 0 255 215 0 255 215 0 255 215 0 255 215 0 255 215 0 255 215 0 255 215 0 255 215 0 255 215 0 255 215 0 255 215 0 255 215 0 255 215 0 255 215 0 255 215 0 255 215 0 255 215 0 255 215 0 255 215 0 255 215 0 255 215 0 255 215 0 255 215 0 255 215 0 255 215 0 255 215 0 255 215 0 255 215 0 255 215 0 255 215 0 255 215 0 255 215 0 255 215 0 255 215 0 255 215 0 255 215 0 255 215 0 255 215 0 255 215 0 255 215 0 
255 215 0 255 215 0 255 215 0 255 215 0 255 215 0 255 215 0 255 215 0 255 215 0 255 215 0 255 215 0 255 215 0 255 215 0 255 215 0 255 215 0 255 215 0 255 215 0 255 215 0 255 215 0 255 215 0 255 215 0 255 215 0 255 215 0 255 215 0 255 215 0 255 215 0 255 215 0 255 215 0 255 215 0 255 215 0 255 215 0 255 215 0 255 215 0 255 215 0 255 215 0 255 215 0 255 215 0 255 215 0 255 215 0 255 215 0 255 215 0 255 215 0 255 215 0 255 215 0 255 215 0 255 215 0 255 215 0 255 215 0 255 215 0 255 215 0 255 215 0 255 215 0 255 215 0 255 215 0 255 215 0 255 215 0 255 215 0 255 215 0 255 215 0 255 215 0 255 215 0 255 215 0 255 215 0 255 215 0 255 215 0 255 215 0 255 215 0 255 215 0 255 215 0 255 215 0 255 215 0 255 215 0 255 215 0 255 215 0 255 215 0 255 215 0 255 215 0 255 215 0 255 215 0 255 215 0 255 215 0 255 215 0 255 215 0 255 215 0 255 215 0 255 215 0 255 215 0 255 215 0 255 215 0 255 215 0 255 215 0 255 215 0 255 215 0 255 215 0 255 215 0 255 215 0 255 215 0 255 215 0 255 215 0 255 215 0 255 215 0 255 215 0 255 215 0 255 215 0 255 215 0 255 215 0 255 215 0 255 215 0 255 215 0 255 215 0 255 215 0 255 215 0 255 215 0 255 215 0 255 215 0 255 215 0 255 215 0 255 215 0 255 215 0 255 215 0 255 215 0 255 215 0 255 215 0 255 215 0 255 215 0 255 215 0 255 215 0 255 215 0 255 215 0 255 215 0 255 215 0 255 215 0 255 215 0 255 215 0 255 215 0 255 215 0 255 215 0 255 215 0 255 215 0 255 215 0 255 215 0 255 215 0 255 215 0 255 215 0 255 215 0 255 215 0 255 215 0 255 215 0 255 215 0 255 215 0 255 215 0 255 215 0 255 215 0 255 215 0 255 215 0 255 215 0 255 215 0 255 215 0 255 215 0 255 215 0 255 215 0 255 215 0 255 215 0 255 215 0 255 215 0 255 215 0 255 215 0 255 215 0 255 215 0 255 215 0 255 215 0 255 215 0 255 215 0 255 215 0 255 215 0 255 215 0 255 215 0 255 215 0 255 215 0 255 215 0 255 215 0 255 215 0 255 215 0 255 215 0 255 215 0 255 215 0 255 215 0 255 215 0 255 215 0 255 215 0 255 215 0 255 215 0 255 215 0 255 215 0 255 215 0 255 215 0 255 215 0 255 215 0 255 215 0 255 215 0 255 215 0 255 215 0 255 215 0 255 215 0 255 215 0 255 215 0 255 215 0 255 215 0 255 215 0 255 215 0 255 215 0 255 215 0 255 215 0 255 215 0 255 215 0 255 215 0 255 215 0 255 215 0 255 215 0 255 215 0 255 215 0 255 215 0 255 215 0 255 215 0 255 215 0 255 215 0 255 215 0 255 215 0 255 215 0 255 215 0 255 215 0 255 215 0 255 215 0 255 215 0 255 215 0 255 215 0 255 215 0 255 215 0 255 215 0 255 215 0 255 215 0 255 215 0 255 215 0 255 215 0 255 215 0 255 215 0 255 215 0 255 215 0 255 215 0 255 215 0 255 215 0 255 215 0 255 215 0 255 215 0 255 215 0 255 215 0 255 215 0 255 215 0 255 215 0 255 215 0 255 215 0 255 215 0 255 215 0 255 215 0 255 215 0 255 215 0 255 215 0 255 215 0 255 215 0 255 215 0 255 215 0 255 215 0 255 215 0 255 215 0 255 215 0 255 215 0 255 215 0 255 215 0 255 215 0 255 215 0 255 215 0 255 215 0 255 215 0 255 215 0 255 215 0 255 215 0 255 215 0 255 215 0 255 215 0 255 215 0 255 215 0 255 215 0 255 215 0 255 215 0 255 215 0 255 215 0 255 215 0 255 215 0 255 215 0 255 215 0 255 215 0 
255 215 0 255 215 0 255 215 0 255 215 0 255 215 0 255 215 0 255 215 0 255 215 0 255 215 0 255 215 0 255 215 0 255 215 0 255 215 0 255 215 0 255 215 0 255 215 0 255 215 0 255 215 0 255 215 0 255 215 0 255 215 0 255 215 0 255 215 0 255 215 0 255 215 0 255 215 0 255 215 0 255 215 0 255 215 0 255 215 0 255 215 0 255 215 0 255 215 0 255 215 0 255 215 0 255 215 0 255 215 0 255 215 0 255 215 0 255 215 0 255 215 0 255 215 0 255 215 0 255 215 0 255 215 0 255 215 0 255 215 0 255 215 0 255 215 0 255 215 0 255 215 0 255 215 0 255 215 0 255 215 0 255 215 0 255 215 0 255 215 0 255 215 0 255 215 0 255 215 0 255 215 0 255 215 0 255 215 0 255 215 0 255 215 0 255 215 0 255 215 0 255 215 0 255 215 0 255 215 0 255 215 0 255 215 0 255 215 0 255 215 0 255 215 0 255 215 0 255 215 0 255 215 0 255 215 0 255 215 0 255 215 0 255 215 0 255 215 0 255 215 0 255 215 0 255 215 0 255 215 0 255 215 0 255 215 0 255 215 0 255 215 0 255 215 0 255 215 0 255 215 0 255 215 0 255 215 0 255 215 0 255 215 0 255 215 0 255 215 0 255 215 0 255 215 0 255 215 0 255 215 0 255 215 0 255 215 0 255 215 0 255 215 0 255 215 0 255 215 0 255 215 0 255 215 0 255 215 0 255 215 0 255 215 0 255 215 0 255 215 0 255 215 0 255 215 0 255 215 0 255 215 0 255 215 0 255 215 0 255 215 0 255 215 0 255 215 0 255 215 0 255 215 0 255 215 0 255 215 0 255 215 0 255 215 0 255 215 0 255 215 0 255 215 0 255 215 0 255 215 0 255 215 0 255 215 0 255 215 0 255 215 0 255 215 0 255 215 0 255 215 0 255 215 0 255 215 0 255 215 0 255 215 0 255 215 0 255 215 0 255 215 0 255 215 0 255 215 0 255 215 0 255 215 0 255 215 0 255 215 0 255 215 0 255 215 0 255 215 0 255 215 0 255 215 0 255 215 0 255 215 0 255 215 0 255 215 0 255 215 0 255 215 0 255 215 0 255 215 0 255 215 0 255 215 0 255 215 0 255 215 0 255 215 0 255 215 0 255 215 0 255 215 0 255 215 0 255 215 0 255 215 0 255 215 0 255 215 0 255 215 0 255 215 0 255 215 0 255 215 0 255 215 0 255 215 0 255 215 0 255 215 0 255 215 0 255 215 0 255 215 0 255 215 0 255 215 0 255 215 0 255 215 0 255 215 0 255 215 0 255 215 0 255 215 0 255 215 0 255 215 0 255 215 0 255 215 0 255 215 0 255 215 0 255 215 0 255 215 0 255 215 0 255 215 0 255 215 0 255 215 0 255 215 0 255 215 0 255 215 0 255 215 0 255 215 0 255 215 0 255 215 0 255 215 0 255 215 0 255 215 0 255 215 0 255 215 0 255 215 0 255 215 0 255 215 0 255 215 0 255 215 0 255 215 0 255 215 0 255 215 0 255 215 0 255 215 0 255 215 0 255 215 0 255 215 0 255 215 0 255 215 0 255 215 0 255 215 0 255 215 0 255 215 0 255 215 0 255 215 0 255 215 0 255 215 0 255 215 0 255 215 0 255 215 0 255 215 0 255 215 0 255 215 0 255 215 0 255 215 0 255 215 0 255 215 0 255 215 0 255 215 0 255 215 0 255 215 0 255 215 0 255 215 0 255 215 0 255 215 0 255 215 0 255 215 0 255 215 0 255 215 0 255 215 0 255 215 0 255 215 0 255 215 0 255 215 0 255 215 0 255 215 0 255 215 0 255 215 0 255 215 0 255 215 0 255 215 0 255 215 0 255 215 0 255 215 0 255 215 0 255 215 0 255 215 0 255 215 0 255 215 0 255 215 0 255 215 0 255 215 0 255 215 0 255 215 0 255 215 0 255 215 0 255 215 0 255 215 0 
255 215 0 255 215 0 255 215 0 255 215 0 255 215 0 255 215 0 255 215 0 255 215 0 255 215 0 255 215 0 255 215 0 255 215 0 255 215 0 255 215 0 255 215 0 255 215 0 255 215 0 255 215 0 255 215 0 255 215 0 255 215 0 255 215 0 255 215 0 255 215 0 255 215 0 255 215 0 255 215 0 255 215 0 255 215 0 255 215 0 255 215 0 255 215 0 255 215 0 255 215 0 255 215 0 255 215 0 255 215 0 255 215 0 255 215 0 255 215 0 255 215 0 255 215 0 255 215 0 255 215 0 255 215 0 255 215 0 255 215 0 255 215 0 255 215 0 255 215 0 255 215 0 255 215 0 255 215 0 255 215 0 255 215 0 255 215 0 255 215 0 255 215 0 255 215 0 255 215 0 255 215 0 255 215 0 255 215 0 255 215 0 255 215 0 255 215 0 255 215 0 255 215 0 255 215 0 255 215 0 255 215 0 255 215 0 255 215 0 255 215 0 255 215 0 255 215 0 255 215 0 255 215 0 255 215 0 255 215 0 255 215 0 255 215 0 255 215 0 255 215 0 255 215 0 255 215 0 255 215 0 255 215 0 255 215 0 255 215 0 255 215 0 255 215 0 255 215 0 255 215 0 255 215 0 255 215 0 255 215 0 255 215 0 255 215 0 255 215 0 255 215 0 255 215 0 255 215 0 255 215 0 255 215 0 255 215 0 255 215 0 255 215 0 255 215 0 255 215 0 255 215 0 255 215 0 255 215 0 255 215 0 255 215 0 255 215 0 255 215 0 255 215 0 255 215 0 255 215 0 255 215 0 255 215 0 255 215 0 255 215 0 255 215 0 255 215 0 255 215 0 255 215 0 255 215 0 255 215 0 255 215 0 255 215 0 255 215 0 255 215 0 255 215 0 255 215 0 255 215 0 255 215 0 255 215 0 255 215 0 255 215 0 255 215 0 255 215 0 255 215 0 255 215 0 255 215 0 255 215 0 255 215 0 255 215 0 255 215 0 255 215 0 255 215 0 255 215 0 255 215 0 255 215 0 255 215 0 255 215 0 255 215 0 255 215 0 255 215 0 255 215 0 255 215 0 255 215 0 255 215 0 255 215 0 255 215 0 255 215 0 255 215 0 255 215 0 255 215 0 255 215 0 255 215 0 255 215 0 255 215 0 255 215 0 255 215 0 255 215 0 255 215 0 255 215 0 255 215 0 255 215 0 255 215 0 255 215 0 255 215 0 255 215 0 255 215 0 255 215 0 255 215 0 255 215 0 255 215 0 255 215 0 255 215 0 255 215 0 255 215 0 255 215 0 255 215 0 255 215 0 255 215 0 255 215 0 255 215 0 255 215 0 255 215 0 255 215 0 255 215 0 255 215 0 255 215 0 255 215 0 255 215 0 255 215 0 255 215 0 255 215 0 255 215 0 255 215 0 255 215 0 255 215 0 255 215 0 255 215 0 255 215 0 255 215 0 255 215 0 255 215 0 255 215 0 255 215 0 255 215 0 255 215 0 255 215 0 255 215 0 255 215 0 255 215 0 255 215 0 255 215 0 255 215 0 255 215 0 255 215 0 255 215 0 255 215 0 255 215 0 255 215 0 255 215 0 255 215 0 255 215 0 255 215 0 255 215 0 255 215 0 255 215 0 255 215 0 255 215 0 255 215 0 255 215 0 255 215 0 255 215 0 255 215 0 255 215 0 255 215 0 255 215 0 255 215 0 255 215 0 255 215 0 255 215 0 255 215 0 255 215 0 255 215 0 255 215 0 255 215 0 255 215 0 255 215 0 255 215 0 255 215 0 255 215 0 255 215 0 255 215 0 255 215 0 255 215 0 255 215 0 255 215 0 255 215 0 255 215 0 255 215 0 255 215 0 255 215 0 255 215 0 255 215 0 255 215 0 255 215 0 255 215 0 255 215 0 255 215 0 255 215 0 255 215 0 255 215 0 255 215 0 255 215 0 255 215 0 255 215 0 255 215 0 255 215 0 255 215 0 255 215 0 255 215 0 255 215 0 
255 215 0 255 215 0 255 215 0 255 215 0 255 215 0 255 215 0 255 215 0 255 215 0 255 215 0 255 215 0 255 215 0 255 215 0 255 215 0 255 215 0 255 215 0 255 215 0 255 215 0 255 215 0 255 215 0 255 215 0 255 215 0 255 215 0 255 215 0 255 215 0 255 215 0 255 215 0 255 215 0 255 215 0 255 215 0 255 215 0 255 215 0 255 215 0 255 215 0 255 215 0 255 215 0 255 215 0 255 215 0 255 215 0 255 215 0 255 215 0 255 215 0 255 215 0 255 215 0 255 215 0 255 215 0 255 215 0 255 215 0 255 215 0 255 215 0 255 215 0 255 215 0 255 215 0 255 215 0 255 215 0 255 215 0 255 215 0 255 215 0 255 215 0 255 215 0 255 215 0 255 215 0 255 215 0 255 215 0 255 215 0 255 215 0 255 215 0 255 215 0 255 215 0 255 215 0 255 215 0 255 215 0 255 215 0 255 215 0 255 215 0 255 215 0 255 215 0 255 215 0 255 215 0 255 215 0 255 215 0 255 215 0 255 215 0 255 215 0 255 215 0 255 215 0 255 215 0 255 215 0 255 215 0 255 215 0 255 215 0 255 215 0 255 215 0 255 215 0 255 215 0 255 215 0 255 215 0 255 215 0 255 215 0 255 215 0 255 215 0 255 215 0 255 215 0 255 215 0 255 215 0 255 215 0 255 215 0 255 215 0 255 215 0 255 215 0 255 215 0 255 215 0 255 215 0 255 215 0 255 215 0 255 215 0 255 215 0 255 215 0 255 215 0 255 215 0 255 215 0 255 215 0 255 215 0 255 215 0 255 215 0 255 215 0 255 215 0 255 215 0 255 215 0 255 215 0 255 215 0 255 215 0 255 215 0 255 215 0 255 215 0 255 215 0 255 215 0 255 215 0 255 215 0 255 215 0 255 215 0 255 215 0 255 215 0 255 215 0 255 215 0 255 215 0 255 215 0 255 215 0 255 215 0 255 215 0 255 215 0 255 215 0 255 215 0 255 215 0 255 215 0 255 215 0 255 215 0 255 215 0 255 215 0 255 215 0 255 215 0 255 215 0 255 215 0 255 215 0 255 215 0 255 215 0 255 215 0 255 215 0 255 215 0 255 215 0 255 215 0 255 215 0 255 215 0 255 215 0 255 215 0 255 215 0 255 215 0 255 215 0 255 215 0 255 215 0 255 215 0 255 215 0 255 215 0 255 215 0 255 215 0 255 215 0 255 215 0 255 215 0 255 215 0 255 215 0 255 215 0 255 215 0 255 215 0 255 215 0 255 215 0 255 215 0 255 215 0 255 215 0 255 215 0 255 215 0 255 215 0 255 215 0 255 215 0 255 215 0 255 215 0 255 215 0 255 215 0 255 215 0 255 215 0 255 215 0 255 215 0 255 215 0 255 215 0 255 215 0 255 215 0 255 215 0 255 215 0 255 215 0 255 215 0 255 215 0 255 215 0 255 215 0 255 215 0 255 215 0 255 215 0 255 215 0 255 215 0 255 215 0 255 215 0 255 215 0 255 215 0 255 215 0 255 215 0 255 215 0 255 215 0 255 215 0 255 215 0 255 215 0 255 215 0 255 215 0 255 215 0 255 215 0 255 215 0 255 215 0 255 215 0 255 215 0 255 215 0 255 215 0 255 215 0 255 215 0 255 215 0 255 215 0 255 215 0 255 215 0 255 215 0 255 215 0 255 215 0 255 215 0 255 215 0 255 215 0 255 215 0 255 215 0 255 215 0 255 215 0 255 215 0 255 215 0 255 215 0 255 215 0 255 215 0 255 215 0 255 215 0 255 215 0 255 215 0 255 215 0 255 215 0 255 215 0 255 215 0 255 215 0 255 215 0 255 215 0 255 215 0 255 215 0 255 215 0 255 215 0 255 215 0 255 215 0 255 215 0 255 215 0 255 215 0 255 215 0 255 215 0 255 215 0 255 215 0 255 215 0 255 215 0 255 215 0 255 215 0 255 215 0 255 215 0 255 215 0 255 215 0 
255 215 0 255 215 0 255 215 0 255 215 0 255 215 0 255 215 0 255 215 0 255 215 0 255 215 0 255 215 0 255 215 0 255 215 0 255 215 0 255 215 0 255 215 0 255 215 0 255 215 0 255 215 0 255 215 0 255 215 0 255 215 0 255 215 0 255 215 0 255 215 0 255 215 0 255 215 0 255 215 0 255 215 0 255 215 0 255 215 0 255 215 0 255 215 0 255 215 0 255 215 0 255 215 0 255 215 0 255 215 0 255 215 0 255 215 0 255 215 0 255 215 0 255 215 0 255 215 0 255 215 0 255 215 0 255 215 0 255 215 0 255 215 0 255 215 0 255 215 0 255 215 0 255 215 0 255 215 0 255 215 0 255 215 0 255 215 0 255 215 0 255 215 0 255 215 0 255 215 0 255 215 0 255 215 0 255 215 0 255 215 0 255 215 0 255 215 0 255 215 0 255 215 0 255 215 0 255 215 0 255 215 0 255 215 0 255 215 0 255 215 0 255 215 0 255 215 0 255 215 0 255 215 0 255 215 0 255 215 0 255 215 0 255 215 0 255 215 0 255 215 0 255 215 0 255 215 0 255 215 0 255 215 0 255 215 0 255 215 0 255 215 0 255 215 0 255 215 0 255 215 0 255 215 0 255 215 0 255 215 0 255 215 0 255 215 0 255 215 0 255 215 0 255 215 0 255 215 0 255 215 0 255 215 0 255 215 0 255 215 0 255 215 0 255 215 0 255 215 0 255 215 0 255 215 0 255 215 0 255 215 0 255 215 0 255 215 0 255 215 0 255 215 0 255 215 0 255 215 0 255 215 0 255 215 0 255 215 0 255 215 0 255 215 0 255 215 0 255 215 0 255 215 0 255 215 0 255 215 0 255 215 0 255 215 0 255 215 0 255 215 0 255 215 0 255 215 0 255 215 0 255 215 0 255 215 0 255 215 0 255 215 0 255 215 0 255 215 0 255 215 0 255 215 0 255 215 0 255 215 0 255 215 0 255 215 0 255 215 0 255 215 0 255 215 0 255 215 0 255 215 0 255 215 0 255 215 0 255 215 0 255 215 0 255 215 0 255 215 0 255 215 0 255 215 0 255 215 0 255 215 0 255 215 0 255 215 0 255 215 0 255 215 0 255 215 0 255 215 0 255 215 0 255 215 0 255 215 0 255 215 0 255 215 0 255 215 0 255 215 0 255 215 0 255 215 0 255 215 0 255 215 0 255 215 0 255 215 0 255 215 0 255 215 0 255 215 0 255 215 0 255 215 0 255 215 0 255 215 0 255 215 0 255 215 0 255 215 0 255 215 0 255 215 0 255 215 0 255 215 0 255 215 0 255 215 0 255 215 0 255 215 0 255 215 0 255 215 0 255 215 0 255 215 0 255 215 0 255 215 0 255 215 0 255 215 0 255 215 0 255 215 0 255 215 0 255 215 0 255 215 0 255 215 0 255 215 0 255 215 0 255 215 0 255 215 0 255 215 0 255 215 0 255 215 0 255 215 0 255 215 0 255 215 0 255 215 0 255 215 0 255 215 0 255 215 0 255 215 0 255 215 0 255 215 0 255 215 0 255 215 0 255 215 0 255 215 0 255 215 0 255 215 0 255 215 0 255 215 0 255 215 0 255 215 0 255 215 0 255 215 0 255 215 0 255 215 0 255 215 0 255 215 0 255 215 0 255 215 0 255 215 0 255 215 0 255 215 0 255 215 0 255 215 0 255 215 0 255 215 0 255 215 0 255 215 0 255 215 0 255 215 0 255 215 0 255 215 0 255 215 0 255 215 0 255 215 0 255 215 0 255 215 0 255 215 0 255 215 0 255 215 0 255 215 0 255 215 0 255 215 0 255 215 0 255 215 0 255 215 0 255 215 0 255 215 0 255 215 0 255 215 0 255 215 0 255 215 0 255 215 0 255 215 0 255 215 0 255 215 0 255 215 0 255 215 0 255 215 0 255 215 0 255 215 0 255 215 0 255 215 0 255 215 0 255 215 0 255 215 0 255 215 0 255 215 0 255 215 0 
255 215 0 255 215 0 255 215 0 255 215 0 255 215 0 255 215 0 255 215 0 255 215 0 255 215 0 255 215 0 255 215 0 255 215 0 255 215 0 255 215 0 255 215 0 255 215 0 255 215 0 255 215 0 255 215 0 255 215 0 255 215 0 255 215 0 255 215 0 255 215 0 255 215 0 255 215 0 255 215 0 255 215 0 255 215 0 255 215 0 255 215 0 255 215 0 255 215 0 255 215 0 255 215 0 255 215 0 255 215 0 255 215 0 255 215 0 255 215 0 255 215 0 255 215 0 255 215 0 255 215 0 255 215 0 255 215 0 255 215 0 255 215 0 255 215 0 255 215 0 255 215 0 255 215 0 255 215 0 255 215 0 255 215 0 255 215 0 255 215 0 255 215 0 255 215 0 255 215 0 255 215 0 255 215 0 255 215 0 255 215 0 255 215 0 255 215 0 255 215 0 255 215 0 255 215 0 255 215 0 255 215 0 255 215 0 255 215 0 255 215 0 255 215 0 255 215 0 255 215 0 255 215 0 255 215 0 255 215 0 255 215 0 255 215 0 255 215 0 255 215 0 255 215 0 255 215 0 255 215 0 255 215 0 255 215 0 255 215 0 255 215 0 255 215 0 255 215 0 255 215 0 255 215 0 255 215 0 255 215 0 255 215 0 255 215 0 255 215 0 255 215 0 255 215 0 255 215 0 255 215 0 255 215 0 255 215 0 255 215 0 255 215 0 255 215 0 255 215 0 255 215 0 255 215 0 255 215 0 255 215 0 255 215 0 255 215 0 255 215 0 255 215 0 255 215 0 255 215 0 255 215 0 255 215 0 255 215 0 255 215 0 255 215 0 255 215 0 255 215 0 255 215 0 255 215 0 255 215 0 255 215 0 255 215 0 255 215 0 255 215 0 255 215 0 255 215 0 255 215 0 255 215 0 255 215 0 255 215 0 255 215 0 255 215 0 255 215 0 255 215 0 255 215 0 255 215 0 255 215 0 255 215 0 255 215 0 255 215 0 255 215 0 255 215 0 255 215 0 255 215 0 255 215 0 255 215 0 255 215 0 255 215 0 255 215 0 255 215 0 255 215 0 255 215 0 255 215 0 255 215 0 255 215 0 255 215 0 255 215 0 255 215 0 255 215 0 255 215 0 255 215 0 255 215 0 255 215 0 255 215 0 255 215 0 255 215 0 255 215 0 255 215 0 255 215 0 255 215 0 255 215 0 255 215 0 255 215 0 255 215 0 255 215 0 255 215 0 255 215 0 255 215 0 255 215 0 255 215 0 255 215 0 255 215 0 255 215 0 255 215 0 255 215 0 255 215 0 255 215 0 255 215 0 255 215 0 255 215 0 255 215 0 255 215 0 255 215 0 255 215 0 255 215 0 255 215 0 255 215 0 255 215 0 255 215 0 255 215 0 255 215 0 255 215 0 255 215 0 255 215 0 255 215 0 255 215 0 255 215 0 255 215 0 255 215 0 255 215 0 255 215 0 255 215 0 255 215 0 255 215 0 255 215 0 255 215 0 255 215 0 255 215 0 255 215 0 255 215 0 255 215 0 255 215 0 255 215 0 255 215 0 255 215 0 255 215 0 255 215 0 255 215 0 255 215 0 255 215 0 255 215 0 255 215 0 255 215 0 255 215 0 255 215 0 255 215 0 255 215 0 255 215 0 255 215 0 255 215 0 255 215 0 255 215 0 255 215 0 255 215 0 255 215 0 255 215 0 255 215 0 255 215 0 255 215 0 255 215 0 255 215 0 255 215 0 255 215 0 255 215 0 255 215 0 255 215 0 255 215 0 255 215 0 255 215 0 255 215 0 255 215 0 255 215 0 255 215 0 255 215 0 255 215 0 255 215 0 255 215 0 255 215 0 255 215 0 255 215 0 255 215 0 255 215 0 255 215 0 255 215 0 255 215 0 255 215 0 255 215 0 255 215 0 255 215 0 255 215 0 255 215 0 255 215 0 255 215 0 255 215 0 255 215 0 255 215 0 255 215 0 255 215 0 255 215 0 255 215 0 
255 215 0 255 215 0 255 215 0 255 215 0 255 215 0 255 215 0 255 215 0 255 215 0 255 215 0 255 215 0 255 215 0 255 215 0 255 215 0 255 215 0 255 215 0 255 215 0 255 215 0 255 215 0 255 215 0 255 215 0 255 215 0 255 215 0 255 215 0 255 215 0 255 215 0 255 215 0 255 215 0 255 215 0 255 215 0 255 215 0 255 215 0 255 215 0 255 215 0 255 215 0 255 215 0 255 215 0 255 215 0 255 215 0 255 215 0 255 215 0 255 215 0 255 215 0 255 215 0 255 215 0 255 215 0 255 215 0 255 215 0 255 215 0 255 215 0 255 215 0 255 215 0 255 215 0 255 215 0 255 215 0 255 215 0 255 215 0 255 215 0 255 215 0 255 215 0 255 215 0 255 215 0 255 215 0 255 215 0 255 215 0 255 215 0 255 215 0 255 215 0 255 215 0 255 215 0 255 215 0 255 215 0 255 215 0 255 215 0 255 215 0 255 215 0 255 215 0 255 215 0 255 215 0 255 215 0 255 215 0 255 215 0 255 215 0 255 215 0 255 215 0 255 215 0 255 215 0 255 215 0 255 215 0 255 215 0 255 215 0 255 215 0 255 215 0 255 215 0 255 215 0 255 215 0 255 215 0 255 215 0 255 215 0 255 215 0 255 215 0 255 215 0 255 215 0 255 215 0 255 215 0 255 215 0 255 215 0 255 215 0 255 215 0 255 215 0 255 215 0 255 215 0 255 215 0 255 215 0 255 215 0 255 215 0 255 215 0 255 215 0 255 215 0 255 215 0 255 215 0 255 215 0 255 215 0 255 215 0 255 215 0 255 215 0 255 215 0 255 215 0 255 215 0 255 215 0 255 215 0 255 215 0 255 215 0 255 215 0 255 215 0 255 215 0 255 215 0 255 215 0 255 215 0 255 215 0 255 215 0 255 215 0 255 215 0 255 215 0 255 215 0 255 215 0 255 215 0 255 215 0 255 215 0 255 215 0 255 215 0 255 215 0 255 215 0 255 215 0 255 215 0 255 215 0 255 215 0 255 215 0 255 215 0 255 215 0 255 215 0 255 215 0 255 215 0 255 215 0 255 215 0 255 215 0 255 215 0 255 215 0 255 215 0 255 215 0 255 215 0 255 215 0 255 215 0 255 215 0 255 215 0 255 215 0 255 215 0 255 215 0 255 215 0 255 215 0 255 215 0 255 215 0 255 215 0 255 215 0 255 215 0 255 215 0 255 215 0 255 215 0 255 215 0 255 215 0 255 215 0 255 215 0 255 215 0 255 215 0 255 215 0 255 215 0 255 215 0 255 215 0 255 215 0 255 215 0 255 215 0 255 215 0 255 215 0 255 215 0 255 215 0 255 215 0 255 215 0 255 215 0 255 215 0 255 215 0 255 215 0 255 215 0 255 215 0 255 215 0 255 215 0 255 215 0 255 215 0 255 215 0 255 215 0 255 215 0 255 215 0 255 215 0 255 215 0 255 215 0 255 215 0 255 215 0 255 215 0 255 215 0 255 215 0 255 215 0 255 215 0 255 215 0 255 215 0 255 215 0 255 215 0 255 215 0 255 215 0 255 215 0 255 215 0 255 215 0 255 215 0 255 215 0 255 215 0 255 215 0 255 215 0 255 215 0 255 215 0 255 215 0 255 215 0 255 215 0 255 215 0 255 215 0 255 215 0 255 215 0 255 215 0 255 215 0 255 215 0 255 215 0 255 215 0 255 215 0 255 215 0 255 215 0 255 215 0 255 215 0 255 215 0 255 215 0 255 215 0 255 215 0 255 215 0 255 215 0 255 215 0 255 215 0 255 215 0 255 215 0 255 215 0 255 215 0 255 215 0 255 215 0 255 215 0 255 215 0 255 215 0 255 215 0 255 215 0 255 215 0 255 215 0 255 215 0 255 215 0 255 215 0 255 215 0 255 215 0 255 215 0 255 215 0 255 215 0 255 215 0 255 215 0 255 215 0 255 215 0 255 215 0 255 215 0 255 215 0 255 215 0 
255 215 0 255 215 0 255 215 0 255 215 0 255 215 0 255 215 0 255 215 0 255 215 0 255 215 0 255 215 0 255 215 0 255 215 0 255 215 0 255 215 0 255 215 0 255 215 0 255 215 0 255 215 0 255 215 0 255 215 0 255 215 0 255 215 0 255 215 0 255 215 0 255 215 0 255 215 0 255 215 0 255 215 0 255 215 0 255 215 0 255 215 0 255 215 0 255 215 0 255 215 0 255 215 0 255 215 0 255 215 0 255 215 0 255 215 0 255 215 0 255 215 0 255 215 0 255 215 0 255 215 0 255 215 0 255 215 0 255 215 0 255 215 0 255 215 0 255 215 0 255 215 0 255 215 0 255 215 0 255 215 0 255 215 0 255 215 0 255 215 0 255 215 0 255 215 0 255 215 0 255 215 0 255 215 0 255 215 0 255 215 0 255 215 0 255 215 0 255 215 0 255 215 0 255 215 0 255 215 0 255 215 0 255 215 0 255 215 0 255 215 0 255 215 0 255 215 0 255 215 0 255 215 0 255 215 0 255 215 0 255 215 0 255 215 0 255 215 0 255 215 0 255 215 0 255 215 0 255 215 0 255 215 0 255 215 0 255 215 0 255 215 0 255 215 0 255 215 0 255 215 0 255 215 0 255 215 0 255 215 0 255 215 0 255 215 0 255 215 0 255 215 0 255 215 0 255 215 0 255 215 0 255 215 0 255 215 0 255 215 0 255 215 0 255 215 0 255 215 0 255 215 0 255 215 0 255 215 0 255 215 0 255 215 0 255 215 0 255 215 0 255 215 0 255 215 0 255 215 0 255 215 0 255 215 0 255 215 0 255 215 0 255 215 0 255 215 0 255 215 0 255 215 0 255 215 0 255 215 0 255 215 0 255 215 0 255 215 0 255 215 0 255 215 0 255 215 0 255 215 0 255 215 0 255 215 0 255 215 0 255 215 0 255 215 0 255 215 0 255 215 0 255 215 0 255 215 0 255 215 0 255 215 0 255 215 0 255 215 0 255 215 0 255 215 0 255 215 0 255 215 0 255 215 0 255 215 0 255 215 0 255 215 0 255 215 0 255 215 0 255 215 0 255 215 0 255 215 0 255 215 0 255 215 0 255 215 0 255 215 0 255 215 0 255 215 0 255 215 0 255 215 0 255 215 0 255 215 0 255 215 0 255 215 0 255 215 0 255 215 0 255 215 0 255 215 0 255 215 0 255 215 0 255 215 0 255 215 0 255 215 0 255 215 0 255 215 0 255 215 0 255 215 0 255 215 0 255 215 0 255 215 0 255 215 0 255 215 0 255 215 0 255 215 0 255 215 0 255 215 0 255 215 0 255 215 0 255 215 0 255 215 0 255 215 0 255 215 0 255 215 0 255 215 0 255 215 0 255 215 0 255 215 0 255 215 0 255 215 0 255 215 0 255 215 0 255 215 0 255 215 0 255 215 0 255 215 0 255 215 0 255 215 0 255 215 0 255 215 0 255 215 0 255 215 0 255 215 0 255 215 0 255 215 0 255 215 0 255 215 0 255 215 0 255 215 0 255 215 0 255 215 0 255 215 0 255 215 0 255 215 0 255 215 0 255 215 0 255 215 0 255 215 0 255 215 0 255 215 0 255 215 0 255 215 0 255 215 0 255 215 0 255 215 0 255 215 0 255 215 0 255 215 0 255 215 0 255 215 0 255 215 0 255 215 0 255 215 0 255 215 0 255 215 0 255 215 0 255 215 0 255 215 0 255 215 0 255 215 0 255 215 0 255 215 0 255 215 0 255 215 0 255 215 0 255 215 0 255 215 0 255 215 0 255 215 0 255 215 0 255 215 0 255 215 0 255 215 0 255 215 0 255 215 0 255 215 0 255 215 0 255 215 0 255 215 0 255 215 0 255 215 0 255 215 0 255 215 0 255 215 0 255 215 0 255 215 0 255 215 0 255 215 0 255 215 0 255 215 0 255 215 0 255 215 0 255 215 0 255 215 0 255 215 0 255 215 0 255 215 0 255 215 0 255 215 0 255 215 0 
255 215 0 255 215 0 255 215 0 255 215 0 255 215 0 255 215 0 255 215 0 255 215 0 255 215 0 255 215 0 255 215 0 255 215 0 255 215 0 255 215 0 255 215 0 255 215 0 255 215 0 255 215 0 255 215 0 255 215 0 255 215 0 255 215 0 255 215 0 255 215 0 255 215 0 255 215 0 255 215 0 255 215 0 255 215 0 255 215 0 255 215 0 255 215 0 255 215 0 255 215 0 255 215 0 255 215 0 255 215 0 255 215 0 255 215 0 255 215 0 255 215 0 255 215 0 255 215 0 255 215 0 255 215 0 255 215 0 255 215 0 255 215 0 255 215 0 255 215 0 255 215 0 255 215 0 255 215 0 255 215 0 255 215 0 255 215 0 255 215 0 255 215 0 255 215 0 255 215 0 255 215 0 255 215 0 255 215 0 255 215 0 255 215 0 255 215 0 255 215 0 255 215 0 255 215 0 255 215 0 255 215 0 255 215 0 255 215 0 255 215 0 255 215 0 255 215 0 255 215 0 255 215 0 255 215 0 255 215 0 255 215 0 255 215 0 255 215 0 255 215 0 255 215 0 255 215 0 255 215 0 255 215 0 255 215 0 255 215 0 255 215 0 255 215 0 255 215 0 255 215 0 255 215 0 255 215 0 255 215 0 255 215 0 255 215 0 255 215 0 255 215 0 255 215 0 255 215 0 255 215 0 255 215 0 255 215 0 255 215 0 255 215 0 255 215 0 255 215 0 255 215 0 255 215 0 255 215 0 255 215 0 255 215 0 255 215 0 255 215 0 255 215 0 255 215 0 255 215 0 255 215 0 255 215 0 255 215 0 255 215 0 255 215 0 255 215 0 255 215 0 255 215 0 255 215 0 255 215 0 255 215 0 255 215 0 255 215 0 255 215 0 255 215 0 255 215 0 255 215 0 255 215 0 255 215 0 255 215 0 255 215 0 255 215 0 255 215 0 255 215 0 255 215 0 255 215 0 255 215 0 255 215 0 255 215 0 255 215 0 255 215 0 255 215 0 255 215 0 255 215 0 255 215 0 255 215 0 255 215 0 255 215 0 255 215 0 255 215 0 255 215 0 255 215 0 255 215 0 255 215 0 255 215 0 255 215 0 255 215 0 255 215 0 255 215 0 255 215 0 255 215 0 255 215 0 255 215 0 255 215 0 255 215 0 255 215 0 255 215 0 255 215 0 255 215 0 255 215 0 255 215 0 255 215 0 255 215 0 255 215 0 255 215 0 255 215 0 255 215 0 255 215 0 255 215 0 255 215 0 255 215 0 255 215 0 255 215 0 255 215 0 255 215 0 255 215 0 255 215 0 255 215 0 255 215 0 255 215 0 255 215 0 255 215 0 255 215 0 255 215 0 255 215 0 255 215 0 255 215 0 255 215 0 255 215 0 255 215 0 255 215 0 255 215 0 255 215 0 255 215 0 255 215 0 255 215 0 255 215 0 255 215 0 255 215 0 255 215 0 255 215 0 255 215 0 255 215 0 255 215 0 255 215 0 255 215 0 255 215 0 255 215 0 255 215 0 255 215 0 255 215 0 255 215 0 255 215 0 255 215 0 255 215 0 255 215 0 255 215 0 255 215 0 255 215 0 255 215 0 255 215 0 255 215 0 255 215 0 255 215 0 255 215 0 255 215 0 255 215 0 255 215 0 255 215 0 255 215 0 255 215 0 255 215 0 255 215 0 255 215 0 255 215 0 255 215 0 255 215 0 255 215 0 255 215 0 255 215 0 255 215 0 255 215 0 255 215 0 255 215 0 255 215 0 255 215 0 255 215 0 255 215 0 255 215 0 255 215 0 255 215 0 255 215 0 255 215 0 255 215 0 255 215 0 255 215 0 255 215 0 255 215 0 255 215 0 255 215 0 255 215 0 255 215 0 255 215 0 255 215 0 255 215 0 255 215 0 255 215 0 255 215 0 255 215 0 255 215 0 255 215 0 255 215 0 255 215 0 255 215 0 255 215 0 255 215 0 255 215 0 255 215 0 255 215 0 255 215 0 
255 215 0 255 215 0 255 215 0 255 215 0 255 215 0 255 215 0 255 215 0 255 215 0 255 215 0 255 215 0 255 215 0 255 215 0 255 215 0 255 215 0 255 215 0 255 215 0 255 215 0 255 215 0 255 215 0 255 215 0 255 215 0 255 215 0 255 215 0 255 215 0 255 215 0 255 215 0 255 215 0 255 215 0 255 215 0 255 215 0 255 215 0 255 215 0 255 215 0 255 215 0 255 215 0 255 215 0 255 215 0 255 215 0 255 215 0 255 215 0 255 215 0 255 215 0 255 215 0 255 215 0 255 215 0 255 215 0 255 215 0 255 215 0 255 215 0 255 215 0 255 215 0 255 215 0 255 215 0 255 215 0 255 215 0 255 215 0 255 215 0 255 215 0 255 215 0 255 215 0 255 215 0 255 215 0 255 215 0 255 215 0 255 215 0 255 215 0 255 215 0 255 215 0 255 215 0 255 215 0 255 215 0 255 215 0 255 215 0 255 215 0 255 215 0 255 215 0 255 215 0 255 215 0 255 215 0 255 215 0 255 215 0 255 215 0 255 215 0 255 215 0 255 215 0 255 215 0 255 215 0 255 215 0 255 215 0 255 215 0 255 215 0 255 215 0 255 215 0 255 215 0 255 215 0 255 215 0 255 215 0 255 215 0 255 215 0 255 215 0 255 215 0 255 215 0 255 215 0 255 215 0 255 215 0 255 215 0 255 215 0 255 215 0 255 215 0 255 215 0 255 215 0 255 215 0 255 215 0 255 215 0 255 215 0 255 215 0 255 215 0 255 215 0 255 215 0 255 215 0 255 215 0 255 215 0 255 215 0 255 215 0 255 215 0 255 215 0 255 215 0 255 215 0 255 215 0 255 215 0 255 215 0 255 215 0 255 215 0 255 215 0 255 215 0 255 215 0 255 215 0 255 215 0 255 215 0 255 215 0 255 215 0 255 215 0 255 215 0 255 215 0 255 215 0 255 215 0 255 215 0 255 215 0 255 215 0 255 215 0 255 215 0 255 215 0 255 215 0 255 215 0 255 215 0 255 215 0 255 215 0 255 215 0 255 215 0 255 215 0 255 215 0 255 215 0 255 215 0 255 215 0 255 215 0 255 215 0 255 215 0 255 215 0 255 215 0 255 215 0 255 215 0 255 215 0 255 215 0 255 215 0 255 215 0 255 215 0 255 215 0 255 215 0 255 215 0 255 215 0 255 215 0 255 215 0 255 215 0 255 215 0 255 215 0 255 215 0 255 215 0 255 215 0 255 215 0 255 215 0 255 215 0 255 215 0 255 215 0 255 215 0 255 215 0 255 215 0 255 215 0 255 215 0 255 215 0 255 215 0 255 215 0 255 215 0 255 215 0 255 215 0 255 215 0 255 215 0 255 215 0 255 215 0 255 215 0 255 215 0 255 215 0 255 215 0 255 215 0 255 215 0 255 215 0 255 215 0 255 215 0 255 215 0 255 215 0 255 215 0 255 215 0 255 215 0 255 215 0 255 215 0 255 215 0 255 215 0 255 215 0 255 215 0 255 215 0 255 215 0 255 215 0 255 215 0 255 215 0 255 215 0 255 215 0 255 215 0 255 215 0 255 215 0 255 215 0 255 215 0 255 215 0 255 215 0 255 215 0 255 215 0 255 215 0 255 215 0 255 215 0 255 215 0 255 215 0 255 215 0 255 215 0 255 215 0 255 215 0 255 215 0 255 215 0 255 215 0 255 215 0 255 215 0 255 215 0 255 215 0 255 215 0 255 215 0 255 215 0 255 215 0 255 215 0 255 215 0 255 215 0 255 215 0 255 215 0 255 215 0 255 215 0 255 215 0 255 215 0 255 215 0 255 215 0 255 215 0 255 215 0 255 215 0 255 215 0 255 215 0 255 215 0 255 215 0 255 215 0 255 215 0 255 215 0 255 215 0 255 215 0 255 215 0 255 215 0 255 215 0 255 215 0 255 215 0 255 215 0 255 215 0 255 215 0 255 215 0 255 215 0 255 215 0 255 215 0 255 215 0 
255 215 0 255 215 0 255 215 0 255 215 0 255 215 0 255 215 0 255 215 0 255 215 0 255 215 0 255 215 0 255 215 0 255 215 0 255 215 0 255 215 0 255 215 0 255 215 0 255 215 0 255 215 0 255 215 0 255 215 0 255 215 0 255 215 0 255 215 0 255 215 0 255 215 0 255 215 0 255 215 0 255 215 0 255 215 0 255 215 0 255 215 0 255 215 0 255 215 0 255 215 0 255 215 0 255 215 0 255 215 0 255 215 0 255 215 0 255 215 0 255 215 0 255 215 0 255 215 0 255 215 0 255 215 0 255 215 0 255 215 0 255 215 0 255 215 0 255 215 0 255 215 0 255 215 0 255 215 0 255 215 0 255 215 0 255 215 0 255 215 0 255 215 0 255 215 0 255 215 0 255 215 0 255 215 0 255 215 0 255 215 0 255 215 0 255 215 0 255 215 0 255 215 0 255 215 0 255 215 0 255 215 0 255 215 0 255 215 0 255 215 0 255 215 0 255 215 0 255 215 0 255 215 0 255 215 0 255 215 0 255 215 0 255 215 0 255 215 0 255 215 0 255 215 0 255 215 0 255 215 0 255 215 0 255 215 0 255 215 0 255 215 0 255 215 0 255 215 0 255 215 0 255 215 0 255 215 0 255 215 0 255 215 0 255 215 0 255 215 0 255 215 0 255 215 0 255 215 0 255 215 0 255 215 0 255 215 0 255 215 0 255 215 0 255 215 0 255 215 0 255 215 0 255 215 0 255 215 0 255 215 0 255 215 0 255 215 0 255 215 0 255 215 0 255 215 0 255 215 0 255 215 0 255 215 0 255 215 0 255 215 0 255 215 0 255 215 0 255 215 0 255 215 0 255 215 0 255 215 0 255 215 0 255 215 0 255 215 0 255 215 0 255 215 0 255 215 0 255 215 0 255 215 0 255 215 0 255 215 0 255 215 0 255 215 0 255 215 0 255 215 0 255 215 0 255 215 0 255 215 0 255 215 0 255 215 0 255 215 0 255 215 0 255 215 0 255 215 0 255 215 0 255 215 0 255 215 0 255 215 0 255 215 0 255 215 0 255 215 0 255 215 0 255 215 0 255 215 0 255 215 0 255 215 0 255 215 0 255 215 0 255 215 0 255 215 0 255 215 0 255 215 0 255 215 0 255 215 0 255 215 0 255 215 0 255 215 0 255 215 0 255 215 0 255 215 0 255 215 0 255 215 0 255 215 0 255 215 0 255 215 0 255 215 0 255 215 0 255 215 0 255 215 0 255 215 0 255 215 0 255 215 0 255 215 0 255 215 0 255 215 0 255 215 0 255 215 0 255 215 0 255 215 0 255 215 0 255 215 0 255 215 0 255 215 0 255 215 0 255 215 0 255 215 0 255 215 0 255 215 0 255 215 0 255 215 0 255 215 0 255 215 0 255 215 0 255 215 0 255 215 0 255 215 0 255 215 0 255 215 0 255 215 0 255 215 0 255 215 0 255 215 0 255 215 0 255 215 0 255 215 0 255 215 0 255 215 0 255 215 0 255 215 0 255 215 0 255 215 0 255 215 0 255 215 0 255 215 0 255 215 0 255 215 0 255 215 0 255 215 0 255 215 0 255 215 0 255 215 0 255 215 0 255 215 0 255 215 0 255 215 0 255 215 0 255 215 0 255 215 0 255 215 0 255 215 0 255 215 0 255 215 0 255 215 0 255 215 0 255 215 0 255 215 0 255 215 0 255 215 0 255 215 0 255 215 0 255 215 0 255 215 0 255 215 0 255 215 0 255 215 0 255 215 0 255 215 0 255 215 0 255 215 0 255 215 0 255 215 0 255 215 0 255 215 0 255 215 0 255 215 0 255 215 0 255 215 0 255 215 0 255 215 0 255 215 0 255 215 0 255 215 0 255 215 0 255 215 0 255 215 0 255 215 0 255 215 0 255 215 0 255 215 0 255 215 0 255 215 0 255 215 0 255 215 0 255 215 0 255 215 0 255 215 0 255 215 0 255 215 0 255 215 0 255 215 0 255 215 0 
255 215 0 255 215 0 255 215 0 255 215 0 255 215 0 255 215 0 255 215 0 255 215 0 255 215 0 255 215 0 255 215 0 255 215 0 255 215 0 255 215 0 255 215 0 255 215 0 255 215 0 255 215 0 255 215 0 255 215 0 255 215 0 255 215 0 255 215 0 255 215 0 255 215 0 255 215 0 255 215 0 255 215 0 255 215 0 255 215 0 255 215 0 255 215 0 255 215 0 255 215 0 255 215 0 255 215 0 255 215 0 255 215 0 255 215 0 255 215 0 255 215 0 255 215 0 255 215 0 255 215 0 255 215 0 255 215 0 255 215 0 255 215 0 255 215 0 255 215 0 255 215 0 255 215 0 255 215 0 255 215 0 255 215 0 255 215 0 255 215 0 255 215 0 255 215 0 255 215 0 255 215 0 255 215 0 255 215 0 255 215 0 255 215 0 255 215 0 255 215 0 255 215 0 255 215 0 255 215 0 255 215 0 255 215 0 255 215 0 255 215 0 255 215 0 255 215 0 255 215 0 255 215 0 255 215 0 255 215 0 255 215 0 255 215 0 255 215 0 255 215 0 255 215 0 255 215 0 255 215 0 255 215 0 255 215 0 255 215 0 255 215 0 255 215 0 255 215 0 255 215 0 255 215 0 255 215 0 255 215 0 255 215 0 255 215 0 255 215 0 255 215 0 255 215 0 255 215 0 255 215 0 255 215 0 255 215 0 255 215 0 255 215 0 255 215 0 255 215 0 255 215 0 255 215 0 255 215 0 255 215 0 255 215 0 255 215 0 255 215 0 255 215 0 255 215 0 255 215 0 255 215 0 255 215 0 255 215 0 255 215 0 255 215 0 255 215 0 255 215 0 255 215 0 255 215 0 255 215 0 255 215 0 255 215 0 255 215 0 255 215 0 255 215 0 255 215 0 255 215 0 255 215 0 255 215 0 255 215 0 255 215 0 255 215 0 255 215 0 255 215 0 255 215 0 255 215 0 255 215 0 255 215 0 255 215 0 255 215 0 255 215 0 255 215 0 255 215 0 255 215 0 255 215 0 255 215 0 255 215 0 255 215 0 255 215 0 255 215 0 255 215 0 255 215 0 255 215 0 255 215 0 255 215 0 255 215 0 255 215 0 255 215 0 255 215 0 255 215 0 255 215 0 255 215 0 255 215 0 255 215 0 255 215 0 255 215 0 255 215 0 255 215 0 255 215 0 255 215 0 255 215 0 255 215 0 255 215 0 255 215 0 255 215 0 255 215 0 255 215 0 255 215 0 255 215 0 255 215 0 255 215 0 255 215 0 255 215 0 255 215 0 255 215 0 255 215 0 255 215 0 255 215 0 255 215 0 255 215 0 255 215 0 255 215 0 255 215 0 255 215 0 255 215 0 255 215 0 255 215 0 255 215 0 255 215 0 255 215 0 255 215 0 255 215 0 255 215 0 255 215 0 255 215 0 255 215 0 255 215 0 255 215 0 255 215 0 255 215 0 255 215 0 255 215 0 255 215 0 255 215 0 255 215 0 255 215 0 255 215 0 255 215 0 255 215 0 255 215 0 255 215 0 255 215 0 255 215 0 255 215 0 255 215 0 255 215 0 255 215 0 255 215 0 255 215 0 255 215 0 255 215 0 255 215 0 255 215 0 255 215 0 255 215 0 255 215 0 255 215 0 255 215 0 255 215 0 255 215 0 255 215 0 255 215 0 255 215 0 255 215 0 255 215 0 255 215 0 255 215 0 255 215 0 255 215 0 255 215 0 255 215 0 255 215 0 255 215 0 255 215 0 255 215 0 255 215 0 255 215 0 255 215 0 255 215 0 255 215 0 255 215 0 255 215 0 255 215 0 255 215 0 255 215 0 255 215 0 255 215 0 255 215 0 255 215 0 255 215 0 255 215 0 255 215 0 255 215 0 255 215 0 255 215 0 255 215 0 255 215 0 255 215 0 255 215 0 255 215 0 255 215 0 255 215 0 255 215 0 255 215 0 255 215 0 255 215 0 255 215 0 255 215 0 255 215 0 255 215 0 
255 215 0 255 215 0 255 215 0 255 215 0 255 215 0 255 215 0 255 215 0 255 215 0 255 215 0 255 215 0 255 215 0 255 215 0 255 215 0 255 215 0 255 215 0 255 215 0 255 215 0 255 215 0 255 215 0 255 215 0 255 215 0 255 215 0 255 215 0 255 215 0 255 215 0 255 215 0 255 215 0 255 215 0 255 215 0 255 215 0 255 215 0 255 215 0 255 215 0 255 215 0 255 215 0 255 215 0 255 215 0 255 215 0 255 215 0 255 215 0 255 215 0 255 215 0 255 215 0 255 215 0 255 215 0 255 215 0 255 215 0 255 215 0 255 215 0 255 215 0 255 215 0 255 215 0 255 215 0 255 215 0 255 215 0 255 215 0 255 215 0 255 215 0 255 215 0 255 215 0 255 215 0 255 215 0 255 215 0 255 215 0 255 215 0 255 215 0 255 215 0 255 215 0 255 215 0 255 215 0 255 215 0 255 215 0 255 215 0 255 215 0 255 215 0 255 215 0 255 215 0 255 215 0 255 215 0 255 215 0 255 215 0 255 215 0 255 215 0 255 215 0 255 215 0 255 215 0 255 215 0 255 215 0 255 215 0 255 215 0 255 215 0 255 215 0 255 215 0 255 215 0 255 215 0 255 215 0 255 215 0 255 215 0 255 215 0 255 215 0 255 215 0 255 215 0 255 215 0 255 215 0 255 215 0 255 215 0 255 215 0 255 215 0 255 215 0 255 215 0 255 215 0 255 215 0 255 215 0 255 215 0 255 215 0 255 215 0 255 215 0 255 215 0 255 215 0 255 215 0 255 215 0 255 215 0 255 215 0 255 215 0 255 215 0 255 215 0 255 215 0 255 215 0 255 215 0 255 215 0 255 215 0 255 215 0 255 215 0 255 215 0 255 215 0 255 215 0 255 215 0 255 215 0 255 215 0 255 215 0 255 215 0 255 215 0 255 215 0 255 215 0 255 215 0 255 215 0 255 215 0 255 215 0 255 215 0 255 215 0 255 215 0 255 215 0 255 215 0 255 215 0 255 215 0 255 215 0 255 215 0 255 215 0 255 215 0 255 215 0 255 215 0 255 215 0 255 215 0 255 215 0 255 215 0 255 215 0 255 215 0 255 215 0 255 215 0 255 215 0 255 215 0 255 215 0 255 215 0 255 215 0 255 215 0 255 215 0 255 215 0 255 215 0 255 215 0 255 215 0 255 215 0 255 215 0 255 215 0 255 215 0 255 215 0 255 215 0 255 215 0 255 215 0 255 215 0 255 215 0 255 215 0 255 215 0 255 215 0 255 215 0 255 215 0 255 215 0 255 215 0 255 215 0 255 215 0 255 215 0 255 215 0 255 215 0 255 215 0 255 215 0 255 215 0 255 215 0 255 215 0 255 215 0 255 215 0 255 215 0 255 215 0 255 215 0 255 215 0 255 215 0 255 215 0 255 215 0 255 215 0 255 215 0 255 215 0 255 215 0 255 215 0 255 215 0 255 215 0 255 215 0 255 215 0 255 215 0 255 215 0 255 215 0 255 215 0 255 215 0 255 215 0 255 215 0 255 215 0 255 215 0 255 215 0 255 215 0 255 215 0 255 215 0 255 215 0 255 215 0 255 215 0 255 215 0 255 215 0 255 215 0 255 215 0 255 215 0 255 215 0 255 215 0 255 215 0 255 215 0 255 215 0 255 215 0 255 215 0 255 215 0 255 215 0 255 215 0 255 215 0 255 215 0 255 215 0 255 215 0 255 215 0 255 215 0 255 215 0 255 215 0 255 215 0 255 215 0 255 215 0 255 215 0 255 215 0 255 215 0 255 215 0 255 215 0 255 215 0 255 215 0 255 215 0 255 215 0 255 215 0 255 215 0 255 215 0 255 215 0 255 215 0 255 215 0 255 215 0 255 215 0 255 215 0 255 215 0 255 215 0 255 215 0 255 215 0 255 215 0 255 215 0 255 215 0 255 215 0 255 215 0 255 215 0 255 215 0 255 215 0 255 215 0 255 215 0 255 215 0 
255 215 0 255 215 0 255 215 0 255 215 0 255 215 0 255 215 0 255 215 0 255 215 0 255 215 0 255 215 0 255 215 0 255 215 0 255 215 0 255 215 0 255 215 0 255 215 0 255 215 0 255 215 0 255 215 0 255 215 0 255 215 0 255 215 0 255 215 0 255 215 0 255 215 0 255 215 0 255 215 0 255 215 0 255 215 0 255 215 0 255 215 0 255 215 0 255 215 0 255 215 0 255 215 0 255 215 0 255 215 0 255 215 0 255 215 0 255 215 0 255 215 0 255 215 0 255 215 0 255 215 0 255 215 0 255 215 0 255 215 0 255 215 0 255 215 0 255 215 0 255 215 0 255 215 0 255 215 0 255 215 0 255 215 0 255 215 0 255 215 0 255 215 0 255 215 0 255 215 0 255 215 0 255 215 0 255 215 0 255 215 0 255 215 0 255 215 0 255 215 0 255 215 0 255 215 0 255 215 0 255 215 0 255 215 0 255 215 0 255 215 0 255 215 0 255 215 0 255 215 0 255 215 0 255 215 0 255 215 0 255 215 0 255 215 0 255 215 0 255 215 0 255 215 0 255 215 0 255 215 0 255 215 0 255 215 0 255 215 0 255 215 0 255 215 0 255 215 0 255 215 0 255 215 0 255 215 0 255 215 0 255 215 0 255 215 0 255 215 0 255 215 0 255 215 0 255 215 0 255 215 0 255 215 0 255 215 0 255 215 0 255 215 0 255 215 0 255 215 0 255 215 0 255 215 0 255 215 0 255 215 0 255 215 0 255 215 0 255 215 0 255 215 0 255 215 0 255 215 0 255 215 0 255 215 0 255 215 0 255 215 0 255 215 0 255 215 0 255 215 0 255 215 0 255 215 0 255 215 0 255 215 0 255 215 0 255 215 0 255 215 0 255 215 0 255 215 0 255 215 0 255 215 0 255 215 0 255 215 0 255 215 0 255 215 0 255 215 0 255 215 0 255 215 0 255 215 0 255 215 0 255 215 0 255 215 0 255 215 0 255 215 0 255 215 0 255 215 0 255 215 0 255 215 0 255 215 0 255 215 0 255 215 0 255 215 0 255 215 0 255 215 0 255 215 0 255 215 0 255 215 0 255 215 0 255 215 0 255 215 0 255 215 0 255 215 0 255 215 0 255 215 0 255 215 0 255 215 0 255 215 0 255 215 0 255 215 0 255 215 0 255 215 0 255 215 0 255 215 0 255 215 0 255 215 0 255 215 0 255 215 0 255 215 0 255 215 0 255 215 0 255 215 0 255 215 0 255 215 0 255 215 0 255 215 0 255 215 0 255 215 0 255 215 0 255 215 0 255 215 0 255 215 0 255 215 0 255 215 0 255 215 0 255 215 0 255 215 0 255 215 0 255 215 0 255 215 0 255 215 0 255 215 0 255 215 0 255 215 0 255 215 0 255 215 0 255 215 0 255 215 0 255 215 0 255 215 0 255 215 0 255 215 0 255 215 0 255 215 0 255 215 0 255 215 0 255 215 0 255 215 0 255 215 0 255 215 0 255 215 0 255 215 0 255 215 0 255 215 0 255 215 0 255 215 0 255 215 0 255 215 0 255 215 0 255 215 0 255 215 0 255 215 0 255 215 0 255 215 0 255 215 0 255 215 0 255 215 0 255 215 0 255 215 0 255 215 0 255 215 0 255 215 0 255 215 0 255 215 0 255 215 0 255 215 0 255 215 0 255 215 0 255 215 0 255 215 0 255 215 0 255 215 0 255 215 0 255 215 0 255 215 0 255 215 0 255 215 0 255 215 0 255 215 0 255 215 0 255 215 0 255 215 0 255 215 0 255 215 0 255 215 0 255 215 0 255 215 0 255 215 0 255 215 0 255 215 0 255 215 0 255 215 0 255 215 0 255 215 0 255 215 0 255 215 0 255 215 0 255 215 0 255 215 0 255 215 0 255 215 0 255 215 0 255 215 0 255 215 0 255 215 0 255 215 0 255 215 0 255 215 0 255 215 0 255 215 0 255 215 0 255 215 0 255 215 0 255 215 0 
255 215 0 255 215 0 255 215 0 255 215 0 255 215 0 255 215 0 255 215 0 255 215 0 255 215 0 255 215 0 255 215 0 255 215 0 255 215 0 255 215 0 255 215 0 255 215 0 255 215 0 255 215 0 255 215 0 255 215 0 255 215 0 255 215 0 255 215 0 255 215 0 255 215 0 255 215 0 255 215 0 255 215 0 255 215 0 255 215 0 255 215 0 255 215 0 255 215 0 255 215 0 255 215 0 255 215 0 255 215 0 255 215 0 255 215 0 255 215 0 255 215 0 255 215 0 255 215 0 255 215 0 255 215 0 255 215 0 255 215 0 255 215 0 255 215 0 255 215 0 255 215 0 255 215 0 255 215 0 255 215 0 255 215 0 255 215 0 255 215 0 255 215 0 255 215 0 255 215 0 255 215 0 255 215 0 255 215 0 255 215 0 255 215 0 255 215 0 255 215 0 255 215 0 255 215 0 255 215 0 255 215 0 255 215 0 255 215 0 255 215 0 255 215 0 255 215 0 255 215 0 255 215 0 255 215 0 255 215 0 255 215 0 255 215 0 255 215 0 255 215 0 255 215 0 255 215 0 255 215 0 255 215 0 255 215 0 255 215 0 255 215 0 255 215 0 255 215 0 255 215 0 255 215 0 255 215 0 255 215 0 255 215 0 255 215 0 255 215 0 255 215 0 255 215 0 255 215 0 255 215 0 255 215 0 255 215 0 255 215 0 255 215 0 255 215 0 255 215 0 255 215 0 255 215 0 255 215 0 255 215 0 255 215 0 255 215 0 255 215 0 255 215 0 255 215 0 255 215 0 255 215 0 255 215 0 255 215 0 255 215 0 255 215 0 255 215 0 255 215 0 255 215 0 255 215 0 255 215 0 255 215 0 255 215 0 255 215 0 255 215 0 255 215 0 255 215 0 255 215 0 255 215 0 255 215 0 255 215 0 255 215 0 255 215 0 255 215 0 255 215 0 255 215 0 255 215 0 255 215 0 255 215 0 255 215 0 255 215 0 255 215 0 255 215 0 255 215 0 255 215 0 255 215 0 255 215 0 255 215 0 255 215 0 255 215 0 255 215 0 255 215 0 255 215 0 255 215 0 255 215 0 255 215 0 255 215 0 255 215 0 255 215 0 255 215 0 255 215 0 255 215 0 255 215 0 255 215 0 255 215 0 255 215 0 255 215 0 255 215 0 255 215 0 255 215 0 255 215 0 255 215 0 255 215 0 255 215 0 255 215 0 255 215 0 255 215 0 255 215 0 255 215 0 255 215 0 255 215 0 255 215 0 255 215 0 255 215 0 255 215 0 255 215 0 255 215 0 255 215 0 255 215 0 255 215 0 255 215 0 255 215 0 255 215 0 255 215 0 255 215 0 255 215 0 255 215 0 255 215 0 255 215 0 255 215 0 255 215 0 255 215 0 255 215 0 255 215 0 255 215 0 255 215 0 255 215 0 255 215 0 255 215 0 255 215 0 255 215 0 255 215 0 255 215 0 255 215 0 255 215 0 255 215 0 255 215 0 255 215 0 255 215 0 255 215 0 255 215 0 255 215 0 255 215 0 255 215 0 255 215 0 255 215 0 255 215 0 255 215 0 255 215 0 255 215 0 255 215 0 255 215 0 255 215 0 255 215 0 255 215 0 255 215 0 255 215 0 255 215 0 255 215 0 255 215 0 255 215 0 255 215 0 255 215 0 255 215 0 255 215 0 255 215 0 255 215 0 255 215 0 255 215 0 255 215 0 255 215 0 255 215 0 255 215 0 255 215 0 255 215 0 255 215 0 255 215 0 255 215 0 255 215 0 255 215 0 255 215 0 255 215 0 255 215 0 255 215 0 255 215 0 255 215 0 255 215 0 255 215 0 255 215 0 255 215 0 255 215 0 255 215 0 255 215 0 255 215 0 255 215 0 255 215 0 255 215 0 255 215 0 255 215 0 255 215 0 255 215 0 255 215 0 255 215 0 255 215 0 255 215 0 255 215 0 255 215 0 255 215 0 255 215 0 255 215 0 255 215 0 
255 215 0 255 215 0 255 215 0 255 215 0 255 215 0 255 215 0 255 215 0 255 215 0 255 215 0 255 215 0 255 215 0 255 215 0 255 215 0 255 215 0 255 215 0 255 215 0 255 215 0 255 215 0 255 215 0 255 215 0 255 215 0 255 215 0 255 215 0 255 215 0 255 215 0 255 215 0 255 215 0 255 215 0 255 215 0 255 215 0 255 215 0 255 215 0 255 215 0 255 215 0 255 215 0 255 215 0 255 215 0 255 215 0 255 215 0 255 215 0 255 215 0 255 215 0 255 215 0 255 215 0 255 215 0 255 215 0 255 215 0 255 215 0 255 215 0 255 215 0 255 215 0 255 215 0 255 215 0 255 215 0 255 215 0 255 215 0 255 215 0 255 215 0 255 215 0 255 215 0 255 215 0 255 215 0 255 215 0 255 215 0 255 215 0 255 215 0 255 215 0 255 215 0 255 215 0 255 215 0 255 215 0 255 215 0 255 215 0 255 215 0 255 215 0 255 215 0 255 215 0 255 215 0 255 215 0 255 215 0 255 215 0 255 215 0 255 215 0 255 215 0 255 215 0 255 215 0 255 215 0 255 215 0 255 215 0 255 215 0 255 215 0 255 215 0 255 215 0 255 215 0 255 215 0 255 215 0 255 215 0 255 215 0 255 215 0 255 215 0 255 215 0 255 215 0 255 215 0 255 215 0 255 215 0 255 215 0 255 215 0 255 215 0 255 215 0 255 215 0 255 215 0 255 215 0 255 215 0 255 215 0 255 215 0 255 215 0 255 215 0 255 215 0 255 215 0 255 215 0 255 215 0 255 215 0 255 215 0 255 215 0 255 215 0 255 215 0 255 215 0 255 215 0 255 215 0 255 215 0 255 215 0 255 215 0 255 215 0 255 215 0 255 215 0 255 215 0 255 215 0 255 215 0 255 215 0 255 215 0 255 215 0 255 215 0 255 215 0 255 215 0 255 215 0 255 215 0 255 215 0 255 215 0 255 215 0 255 215 0 255 215 0 255 215 0 255 215 0 255 215 0 255 215 0 255 215 0 255 215 0 255 215 0 255 215 0 255 215 0 255 215 0 255 215 0 255 215 0 255 215 0 255 215 0 255 215 0 255 215 0 255 215 0 255 215 0 255 215 0 255 215 0 255 215 0 255 215 0 255 215 0 255 215 0 255 215 0 255 215 0 255 215 0 255 215 0 255 215 0 255 215 0 255 215 0 255 215 0 255 215 0 255 215 0 255 215 0 255 215 0 255 215 0 255 215 0 255 215 0 255 215 0 255 215 0 255 215 0 255 215 0 255 215 0 255 215 0 255 215 0 255 215 0 255 215 0 255 215 0 255 215 0 255 215 0 255 215 0 255 215 0 255 215 0 255 215 0 255 215 0 255 215 0 255 215 0 255 215 0 255 215 0 255 215 0 255 215 0 255 215 0 255 215 0 255 215 0 255 215 0 255 215 0 255 215 0 255 215 0 255 215 0 255 215 0 255 215 0 255 215 0 255 215 0 255 215 0 255 215 0 255 215 0 255 215 0 255 215 0 255 215 0 255 215 0 255 215 0 255 215 0 255 215 0 255 215 0 255 215 0 255 215 0 255 215 0 255 215 0 255 215 0 255 215 0 255 215 0 255 215 0 255 215 0 255 215 0 255 215 0 255 215 0 255 215 0 255 215 0 255 215 0 255 215 0 255 215 0 255 215 0 255 215 0 255 215 0 255 215 0 255 215 0 255 215 0 255 215 0 255 215 0 255 215 0 255 215 0 255 215 0 255 215 0 255 215 0 255 215 0 255 215 0 255 215 0 255 215 0 255 215 0 255 215 0 255 215 0 255 215 0 255 215 0 255 215 0 255 215 0 255 215 0 255 215 0 255 215 0 255 215 0 255 215 0 255 215 0 255 215 0 255 215 0 255 215 0 255 215 0 255 215 0 255 215 0 255 215 0 255 215 0 255 215 0 255 215 0 255 215 0 255 215 0 255 215 0 255 215 0 255 215 0 255 215 0 255 215 0 
255 215 0 255 215 0 255 215 0 255 215 0 255 215 0 255 215 0 255 215 0 255 215 0 255 215 0 255 215 0 255 215 0 255 215 0 255 215 0 255 215 0 255 215 0 255 215 0 255 215 0 255 215 0 255 215 0 255 215 0 255 215 0 255 215 0 255 215 0 255 215 0 255 215 0 255 215 0 255 215 0 255 215 0 255 215 0 255 215 0 255 215 0 255 215 0 255 215 0 255 215 0 255 215 0 255 215 0 255 215 0 255 215 0 255 215 0 255 215 0 255 215 0 255 215 0 255 215 0 255 215 0 255 215 0 255 215 0 255 215 0 255 215 0 255 215 0 255 215 0 255 215 0 255 215 0 255 215 0 255 215 0 255 215 0 255 215 0 255 215 0 255 215 0 255 215 0 255 215 0 255 215 0 255 215 0 255 215 0 255 215 0 255 215 0 255 215 0 255 215 0 255 215 0 255 215 0 255 215 0 255 215 0 255 215 0 255 215 0 255 215 0 255 215 0 255 215 0 255 215 0 255 215 0 255 215 0 255 215 0 255 215 0 255 215 0 255 215 0 255 215 0 255 215 0 255 215 0 255 215 0 255 215 0 255 215 0 255 215 0 255 215 0 255 215 0 255 215 0 255 215 0 255 215 0 255 215 0 255 215 0 255 215 0 255 215 0 255 215 0 255 215 0 255 215 0 255 215 0 255 215 0 255 215 0 255 215 0 255 215 0 255 215 0 255 215 0 255 215 0 255 215 0 255 215 0 255 215 0 255 215 0 255 215 0 255 215 0 255 215 0 255 215 0 255 215 0 255 215 0 255 215 0 255 215 0 255 215 0 255 215 0 255 215 0 255 215 0 255 215 0 255 215 0 255 215 0 255 215 0 255 215 0 255 215 0 255 215 0 255 215 0 255 215 0 255 215 0 255 215 0 255 215 0 255 215 0 255 215 0 255 215 0 255 215 0 255 215 0 255 215 0 255 215 0 255 215 0 255 215 0 255 215 0 255 215 0 255 215 0 255 215 0 255 215 0 255 215 0 255 215 0 255 215 0 255 215 0 255 215 0 255 215 0 255 215 0 255 215 0 255 215 0 255 215 0 255 215 0 255 215 0 255 215 0 255 215 0 255 215 0 255 215 0 255 215 0 255 215 0 255 215 0 255 215 0 255 215 0 255 215 0 255 215 0 255 215 0 255 215 0 255 215 0 255 215 0 255 215 0 255 215 0 255 215 0 255 215 0 255 215 0 255 215 0 255 215 0 255 215 0 255 215 0 255 215 0 255 215 0 255 215 0 255 215 0 255 215 0 255 215 0 255 215 0 255 215 0 255 215 0 255 215 0 255 215 0 255 215 0 255 215 0 255 215 0 255 215 0 255 215 0 255 215 0 255 215 0 255 215 0 255 215 0 255 215 0 255 215 0 255 215 0 255 215 0 255 215 0 255 215 0 255 215 0 255 215 0 255 215 0 255 215 0 255 215 0 255 215 0 255 215 0 255 215 0 255 215 0 255 215 0 255 215 0 255 215 0 255 215 0 255 215 0 255 215 0 255 215 0 255 215 0 255 215 0 255 215 0 255 215 0 255 215 0 255 215 0 255 215 0 255 215 0 255 215 0 255 215 0 255 215 0 255 215 0 255 215 0 255 215 0 255 215 0 255 215 0 255 215 0 255 215 0 255 215 0 255 215 0 255 215 0 255 215 0 255 215 0 255 215 0 255 215 0 255 215 0 255 215 0 255 215 0 255 215 0 255 215 0 255 215 0 255 215 0 255 215 0 255 215 0 255 215 0 255 215 0 255 215 0 255 215 0 255 215 0 255 215 0 255 215 0 255 215 0 255 215 0 255 215 0 255 215 0 255 215 0 255 215 0 255 215 0 255 215 0 255 215 0 255 215 0 255 215 0 255 215 0 255 215 0 255 215 0 255 215 0 255 215 0 255 215 0 255 215 0 255 215 0 255 215 0 255 215 0 255 215 0 255 215 0 255 215 0 255 215 0 255 215 0 255 215 0 255 215 0 255 215 0 
255 215 0 255 215 0 255 215 0 255 215 0 255 215 0 255 215 0 255 215 0 255 215 0 255 215 0 255 215 0 255 215 0 255 215 0 255 215 0 255 215 0 255 215 0 255 215 0 255 215 0 255 215 0 255 215 0 255 215 0 255 215 0 255 215 0 255 215 0 255 215 0 255 215 0 255 215 0 255 215 0 255 215 0 255 215 0 255 215 0 255 215 0 255 215 0 255 215 0 255 215 0 255 215 0 255 215 0 255 215 0 255 215 0 255 215 0 255 215 0 255 215 0 255 215 0 255 215 0 255 215 0 255 215 0 255 215 0 255 215 0 255 215 0 255 215 0 255 215 0 255 215 0 255 215 0 255 215 0 255 215 0 255 215 0 255 215 0 255 215 0 255 215 0 255 215 0 255 215 0 255 215 0 255 215 0 255 215 0 255 215 0 255 215 0 255 215 0 255 215 0 255 215 0 255 215 0 255 215 0 255 215 0 255 215 0 255 215 0 255 215 0 255 215 0 255 215 0 255 215 0 255 215 0 255 215 0 255 215 0 255 215 0 255 215 0 255 215 0 255 215 0 255 215 0 255 215 0 255 215 0 255 215 0 255 215 0 255 215 0 255 215 0 255 215 0 255 215 0 255 215 0 255 215 0 255 215 0 255 215 0 255 215 0 255 215 0 255 215 0 255 215 0 255 215 0 255 215 0 255 215 0 255 215 0 255 215 0 255 215 0 255 215 0 255 215 0 255 215 0 255 215 0 255 215 0 255 215 0 255 215 0 255 215 0 255 215 0 255 215 0 255 215 0 255 215 0 255 215 0 255 215 0 255 215 0 255 215 0 255 215 0 255 215 0 255 215 0 255 215 0 255 215 0 255 215 0 255 215 0 255 215 0 255 215 0 255 215 0 255 215 0 255 215 0 255 215 0 255 215 0 255 215 0 255 215 0 255 215 0 255 215 0 255 215 0 255 215 0 255 215 0 255 215 0 255 215 0 255 215 0 255 215 0 255 215 0 255 215 0 255 215 0 255 215 0 255 215 0 255 215 0 255 215 0 255 215 0 255 215 0 255 215 0 255 215 0 255 215 0 255 215 0 255 215 0 255 215 0 255 215 0 255 215 0 255 215 0 255 215 0 255 215 0 255 215 0 255 215 0 255 215 0 255 215 0 255 215 0 255 215 0 255 215 0 255 215 0 255 215 0 255 215 0 255 215 0 255 215 0 255 215 0 255 215 0 255 215 0 255 215 0 255 215 0 255 215 0 255 215 0 255 215 0 255 215 0 255 215 0 255 215 0 255 215 0 255 215 0 255 215 0 255 215 0 255 215 0 255 215 0 255 215 0 255 215 0 255 215 0 255 215 0 255 215 0 255 215 0 255 215 0 255 215 0 255 215 0 255 215 0 255 215 0 255 215 0 255 215 0 255 215 0 255 215 0 255 215 0 255 215 0 255 215 0 255 215 0 255 215 0 255 215 0 255 215 0 255 215 0 255 215 0 255 215 0 255 215 0 255 215 0 255 215 0 255 215 0 255 215 0 255 215 0 255 215 0 255 215 0 255 215 0 255 215 0 255 215 0 255 215 0 255 215 0 255 215 0 255 215 0 255 215 0 255 215 0 255 215 0 255 215 0 255 215 0 255 215 0 255 215 0 255 215 0 255 215 0 255 215 0 255 215 0 255 215 0 255 215 0 255 215 0 255 215 0 255 215 0 255 215 0 255 215 0 255 215 0 255 215 0 255 215 0 255 215 0 255 215 0 255 215 0 255 215 0 255 215 0 255 215 0 255 215 0 255 215 0 255 215 0 255 215 0 255 215 0 255 215 0 255 215 0 255 215 0 255 215 0 255 215 0 255 215 0 255 215 0 255 215 0 255 215 0 255 215 0 255 215 0 255 215 0 255 215 0 255 215 0 255 215 0 255 215 0 255 215 0 255 215 0 255 215 0 255 215 0 255 215 0 255 215 0 255 215 0 255 215 0 255 215 0 255 215 0 255 215 0 255 215 0 255 215 0 255 215 0 255 215 0 
255 215 0 255 215 0 255 215 0 255 215 0 255 215 0 255 215 0 255 215 0 255 215 0 255 215 0 255 215 0 255 215 0 255 215 0 255 215 0 255 215 0 255 215 0 255 215 0 255 215 0 255 215 0 255 215 0 255 215 0 255 215 0 255 215 0 255 215 0 255 215 0 255 215 0 255 215 0 255 215 0 255 215 0 255 215 0 255 215 0 255 215 0 255 215 0 255 215 0 255 215 0 255 215 0 255 215 0 255 215 0 255 215 0 255 215 0 255 215 0 255 215 0 255 215 0 255 215 0 255 215 0 255 215 0 255 215 0 255 215 0 255 215 0 255 215 0 255 215 0 255 215 0 255 215 0 255 215 0 255 215 0 255 215 0 255 215 0 255 215 0 255 215 0 255 215 0 255 215 0 255 215 0 255 215 0 255 215 0 255 215 0 255 215 0 255 215 0 255 215 0 255 215 0 255 215 0 255 215 0 255 215 0 255 215 0 255 215 0 255 215 0 255 215 0 255 215 0 255 215 0 255 215 0 255 215 0 255 215 0 255 215 0 255 215 0 255 215 0 255 215 0 255 215 0 255 215 0 255 215 0 255 215 0 255 215 0 255 215 0 255 215 0 255 215 0 255 215 0 255 215 0 255 215 0 255 215 0 255 215 0 255 215 0 255 215 0 255 215 0 255 215 0 255 215 0 255 215 0 255 215 0 255 215 0 255 215 0 255 215 0 255 215 0 255 215 0 255 215 0 255 215 0 255 215 0 255 215 0 255 215 0 255 215 0 255 215 0 255 215 0 255 215 0 255 215 0 255 215 0 255 215 0 255 215 0 255 215 0 255 215 0 255 215 0 255 215 0 255 215 0 255 215 0 255 215 0 255 215 0 255 215 0 255 215 0 255 215 0 255 215 0 255 215 0 255 215 0 255 215 0 255 215 0 255 215 0 255 215 0 255 215 0 255 215 0 255 215 0 255 215 0 255 215 0 255 215 0 255 215 0 255 215 0 255 215 0 255 215 0 255 215 0 255 215 0 255 215 0 255 215 0 255 215 0 255 215 0 255 215 0 255 215 0 255 215 0 255 215 0 255 215 0 255 215 0 255 215 0 255 215 0 255 215 0 255 215 0 255 215 0 255 215 0 255 215 0 255 215 0 255 215 0 255 215 0 255 215 0 255 215 0 255 215 0 255 215 0 255 215 0 255 215 0 255 215 0 255 215 0 255 215 0 255 215 0 255 215 0 255 215 0 255 215 0 255 215 0 255 215 0 255 215 0 255 215 0 255 215 0 255 215 0 255 215 0 255 215 0 255 215 0 255 215 0 255 215 0 255 215 0 255 215 0 255 215 0 255 215 0 255 215 0 255 215 0 255 215 0 255 215 0 255 215 0 255 215 0 255 215 0 255 215 0 255 215 0 255 215 0 255 215 0 255 215 0 255 215 0 255 215 0 255 215 0 255 215 0 255 215 0 255 215 0 255 215 0 255 215 0 255 215 0 255 215 0 255 215 0 255 215 0 255 215 0 255 215 0 255 215 0 255 215 0 255 215 0 255 215 0 255 215 0 255 215 0 255 215 0 255 215 0 255 215 0 255 215 0 255 215 0 255 215 0 255 215 0 255 215 0 255 215 0 255 215 0 255 215 0 255 215 0 255 215 0 255 215 0 255 215 0 255 215 0 255 215 0 255 215 0 255 215 0 255 215 0 255 215 0 255 215 0 255 215 0 255 215 0 255 215 0 255 215 0 255 215 0 255 215 0 255 215 0 255 215 0 255 215 0 255 215 0 255 215 0 255 215 0 255 215 0 255 215 0 255 215 0 255 215 0 255 215 0 255 215 0 255 215 0 255 215 0 255 215 0 255 215 0 255 215 0 255 215 0 255 215 0 255 215 0 255 215 0 255 215 0 255 215 0 255 215 0 255 215 0 255 215 0 255 215 0 255 215 0 255 215 0 255 215 0 255 215 0 255 215 0 255 215 0 255 215 0 255 215 0 255 215 0 255 215 0 255 215 0 255 215 0 255 215 0 
255 215 0 255 215 0 255 215 0 255 215 0 255 215 0 255 215 0 255 215 0 255 215 0 255 215 0 255 215 0 255 215 0 255 215 0 255 215 0 255 215 0 255 215 0 255 215 0 255 215 0 255 215 0 255 215 0 255 215 0 255 215 0 255 215 0 255 215 0 255 215 0 255 215 0 255 215 0 255 215 0 255 215 0 255 215 0 255 215 0 255 215 0 255 215 0 255 215 0 255 215 0 255 215 0 255 215 0 255 215 0 255 215 0 255 215 0 255 215 0 255 215 0 255 215 0 255 215 0 255 215 0 255 215 0 255 215 0 255 215 0 255 215 0 255 215 0 255 215 0 255 215 0 255 215 0 255 215 0 255 215 0 255 215 0 255 215 0 255 215 0 255 215 0 255 215 0 255 215 0 255 215 0 255 215 0 255 215 0 255 215 0 255 215 0 255 215 0 255 215 0 255 215 0 255 215 0 255 215 0 255 215 0 255 215 0 255 215 0 255 215 0 255 215 0 255 215 0 255 215 0 255 215 0 255 215 0 255 215 0 255 215 0 255 215 0 255 215 0 255 215 0 255 215 0 255 215 0 255 215 0 255 215 0 255 215 0 255 215 0 255 215 0 255 215 0 255 215 0 255 215 0 255 215 0 255 215 0 255 215 0 255 215 0 255 215 0 255 215 0 255 215 0 255 215 0 255 215 0 255 215 0 255 215 0 255 215 0 255 215 0 255 215 0 255 215 0 255 215 0 255 215 0 255 215 0 255 215 0 255 215 0 255 215 0 255 215 0 255 215 0 255 215 0 255 215 0 255 215 0 255 215 0 255 215 0 255 215 0 255 215 0 255 215 0 255 215 0 255 215 0 255 215 0 255 215 0 255 215 0 255 215 0 255 215 0 255 215 0 255 215 0 255 215 0 255 215 0 255 215 0 255 215 0 255 215 0 255 215 0 255 215 0 255 215 0 255 215 0 255 215 0 255 215 0 255 215 0 255 215 0 255 215 0 255 215 0 255 215 0 255 215 0 255 215 0 255 215 0 255 215 0 255 215 0 255 215 0 255 215 0 255 215 0 255 215 0 255 215 0 255 215 0 255 215 0 255 215 0 255 215 0 255 215 0 255 215 0 255 215 0 255 215 0 255 215 0 255 215 0 255 215 0 255 215 0 255 215 0 255 215 0 255 215 0 255 215 0 255 215 0 255 215 0 255 215 0 255 215 0 255 215 0 255 215 0 255 215 0 255 215 0 255 215 0 255 215 0 255 215 0 255 215 0 255 215 0 255 215 0 255 215 0 255 215 0 255 215 0 255 215 0 255 215 0 255 215 0 255 215 0 255 215 0 255 215 0 255 215 0 255 215 0 255 215 0 255 215 0 255 215 0 255 215 0 255 215 0 255 215 0 255 215 0 255 215 0 255 215 0 255 215 0 255 215 0 255 215 0 255 215 0 255 215 0 255 215 0 255 215 0 255 215 0 255 215 0 255 215 0 255 215 0 255 215 0 255 215 0 255 215 0 255 215 0 255 215 0 255 215 0 255 215 0 255 215 0 255 215 0 255 215 0 255 215 0 255 215 0 255 215 0 255 215 0 255 215 0 255 215 0 255 215 0 255 215 0 255 215 0 255 215 0 255 215 0 255 215 0 255 215 0 255 215 0 255 215 0 255 215 0 255 215 0 255 215 0 255 215 0 255 215 0 255 215 0 255 215 0 255 215 0 255 215 0 255 215 0 255 215 0 255 215 0 255 215 0 255 215 0 255 215 0 255 215 0 255 215 0 255 215 0 255 215 0 255 215 0 255 215 0 255 215 0 255 215 0 255 215 0 255 215 0 255 215 0 255 215 0 255 215 0 255 215 0 255 215 0 255 215 0 255 215 0 255 215 0 255 215 0 255 215 0 255 215 0 255 215 0 255 215 0 255 215 0 255 215 0 255 215 0 255 215 0 255 215 0 255 215 0 255 215 0 255 215 0 255 215 0 255 215 0 255 215 0 255 215 0 255 215 0 255 215 0 255 215 0 255 215 0 
255 215 0 255 215 0 255 215 0 255 215 0 255 215 0 255 215 0 255 215 0 255 215 0 255 215 0 255 215 0 255 215 0 255 215 0 255 215 0 255 215 0 255 215 0 255 215 0 255 215 0 255 215 0 255 215 0 255 215 0 255 215 0 255 215 0 255 215 0 255 215 0 255 215 0 255 215 0 255 215 0 255 215 0 255 215 0 255 215 0 255 215 0 255 215 0 255 215 0 255 215 0 255 215 0 255 215 0 255 215 0 255 215 0 255 215 0 255 215 0 255 215 0 255 215 0 255 215 0 255 215 0 255 215 0 255 215 0 255 215 0 255 215 0 255 215 0 255 215 0 255 215 0 255 215 0 255 215 0 255 215 0 255 215 0 255 215 0 255 215 0 255 215 0 255 215 0 255 215 0 255 215 0 255 215 0 255 215 0 255 215 0 255 215 0 255 215 0 255 215 0 255 215 0 255 215 0 255 215 0 255 215 0 255 215 0 255 215 0 255 215 0 255 215 0 255 215 0 255 215 0 255 215 0 255 215 0 255 215 0 255 215 0 255 215 0 255 215 0 255 215 0 255 215 0 255 215 0 255 215 0 255 215 0 255 215 0 255 215 0 255 215 0 255 215 0 255 215 0 255 215 0 255 215 0 255 215 0 255 215 0 255 215 0 255 215 0 255 215 0 255 215 0 255 215 0 255 215 0 255 215 0 255 215 0 255 215 0 255 215 0 255 215 0 255 215 0 255 215 0 255 215 0 255 215 0 255 215 0 255 215 0 255 215 0 255 215 0 255 215 0 255 215 0 255 215 0 255 215 0 255 215 0 255 215 0 255 215 0 255 215 0 255 215 0 255 215 0 255 215 0 255 215 0 255 215 0 255 215 0 255 215 0 255 215 0 255 215 0 255 215 0 255 215 0 255 215 0 255 215 0 255 215 0 255 215 0 255 215 0 255 215 0 255 215 0 255 215 0 255 215 0 255 215 0 255 215 0 255 215 0 255 215 0 255 215 0 255 215 0 255 215 0 255 215 0 255 215 0 255 215 0 255 215 0 255 215 0 255 215 0 255 215 0 255 215 0 255 215 0 255 215 0 255 215 0 255 215 0 255 215 0 255 215 0 255 215 0 255 215 0 255 215 0 255 215 0 255 215 0 255 215 0 255 215 0 255 215 0 255 215 0 255 215 0 255 215 0 255 215 0 255 215 0 255 215 0 255 215 0 255 215 0 255 215 0 255 215 0 255 215 0 255 215 0 255 215 0 255 215 0 255 215 0 255 215 0 255 215 0 255 215 0 255 215 0 255 215 0 255 215 0 255 215 0 255 215 0 255 215 0 255 215 0 255 215 0 255 215 0 255 215 0 255 215 0 255 215 0 255 215 0 255 215 0 255 215 0 255 215 0 255 215 0 255 215 0 255 215 0 255 215 0 255 215 0 255 215 0 255 215 0 255 215 0 255 215 0 255 215 0 255 215 0 255 215 0 255 215 0 255 215 0 255 215 0 255 215 0 255 215 0 255 215 0 255 215 0 255 215 0 255 215 0 255 215 0 255 215 0 255 215 0 255 215 0 255 215 0 255 215 0 255 215 0 255 215 0 255 215 0 255 215 0 255 215 0 255 215 0 255 215 0 255 215 0 255 215 0 255 215 0 255 215 0 255 215 0 255 215 0 255 215 0 255 215 0 255 215 0 255 215 0 255 215 0 255 215 0 255 215 0 255 215 0 255 215 0 255 215 0 255 215 0 255 215 0 255 215 0 255 215 0 255 215 0 255 215 0 255 215 0 255 215 0 255 215 0 255 215 0 255 215 0 255 215 0 255 215 0 255 215 0 255 215 0 255 215 0 255 215 0 255 215 0 255 215 0 255 215 0 255 215 0 255 215 0 255 215 0 255 215 0 255 215 0 255 215 0 255 215 0 255 215 0 255 215 0 255 215 0 255 215 0 255 215 0 255 215 0 255 215 0 255 215 0 255 215 0 255 215 0 255 215 0 255 215 0 255 215 0 255 215 0 255 215 0 255 215 0 
255 215 0 255 215 0 255 215 0 255 215 0 255 215 0 255 215 0 255 215 0 255 215 0 255 215 0 255 215 0 255 215 0 255 215 0 255 215 0 255 215 0 255 215 0 255 215 0 255 215 0 255 215 0 255 215 0 255 215 0 255 215 0 255 215 0 255 215 0 255 215 0 255 215 0 255 215 0 255 215 0 255 215 0 255 215 0 255 215 0 255 215 0 255 215 0 255 215 0 255 215 0 255 215 0 255 215 0 255 215 0 255 215 0 255 215 0 255 215 0 255 215 0 255 215 0 255 215 0 255 215 0 255 215 0 255 215 0 255 215 0 255 215 0 255 215 0 255 215 0 255 215 0 255 215 0 255 215 0 255 215 0 255 215 0 255 215 0 255 215 0 255 215 0 255 215 0 255 215 0 255 215 0 255 215 0 255 215 0 255 215 0 255 215 0 255 215 0 255 215 0 255 215 0 255 215 0 255 215 0 255 215 0 255 215 0 255 215 0 255 215 0 255 215 0 255 215 0 255 215 0 255 215 0 255 215 0 255 215 0 255 215 0 255 215 0 255 215 0 255 215 0 255 215 0 255 215 0 255 215 0 255 215 0 255 215 0 255 215 0 255 215 0 255 215 0 255 215 0 255 215 0 255 215 0 255 215 0 255 215 0 255 215 0 255 215 0 255 215 0 255 215 0 255 215 0 255 215 0 255 215 0 255 215 0 255 215 0 255 215 0 255 215 0 255 215 0 255 215 0 255 215 0 255 215 0 255 215 0 255 215 0 255 215 0 255 215 0 255 215 0 255 215 0 255 215 0 255 215 0 255 215 0 255 215 0 255 215 0 255 215 0 255 215 0 255 215 0 255 215 0 255 215 0 255 215 0 255 215 0 255 215 0 255 215 0 255 215 0 255 215 0 255 215 0 255 215 0 255 215 0 255 215 0 255 215 0 255 215 0 255 215 0 255 215 0 255 215 0 255 215 0 255 215 0 255 215 0 255 215 0 255 215 0 255 215 0 255 215 0 255 215 0 255 215 0 255 215 0 255 215 0 255 215 0 255 215 0 255 215 0 255 215 0 255 215 0 255 215 0 255 215 0 255 215 0 255 215 0 255 215 0 255 215 0 255 215 0 255 215 0 255 215 0 255 215 0 255 215 0 255 215 0 255 215 0 255 215 0 255 215 0 255 215 0 255 215 0 255 215 0 255 215 0 255 215 0 255 215 0 255 215 0 255 215 0 255 215 0 255 215 0 255 215 0 255 215 0 255 215 0 255 215 0 255 215 0 255 215 0 255 215 0 255 215 0 255 215 0 255 215 0 255 215 0 255 215 0 255 215 0 255 215 0 255 215 0 255 215 0 255 215 0 255 215 0 255 215 0 255 215 0 255 215 0 255 215 0 255 215 0 255 215 0 255 215 0 255 215 0 255 215 0 255 215 0 255 215 0 255 215 0 255 215 0 255 215 0 255 215 0 255 215 0 255 215 0 255 215 0 255 215 0 255 215 0 255 215 0 255 215 0 255 215 0 255 215 0 255 215 0 255 215 0 255 215 0 255 215 0 255 215 0 255 215 0 255 215 0 255 215 0 255 215 0 255 215 0 255 215 0 255 215 0 255 215 0 255 215 0 255 215 0 255 215 0 255 215 0 255 215 0 255 215 0 255 215 0 255 215 0 255 215 0 255 215 0 255 215 0 255 215 0 255 215 0 255 215 0 255 215 0 255 215 0 255 215 0 255 215 0 255 215 0 255 215 0 255 215 0 255 215 0 255 215 0 255 215 0 255 215 0 255 215 0 255 215 0 255 215 0 255 215 0 255 215 0 255 215 0 255 215 0 255 215 0 255 215 0 255 215 0 255 215 0 255 215 0 255 215 0 255 215 0 255 215 0 255 215 0 255 215 0 255 215 0 255 215 0 255 215 0 255 215 0 255 215 0 255 215 0 255 215 0 255 215 0 255 215 0 255 215 0 255 215 0 255 215 0 255 215 0 255 215 0 255 215 0 255 215 0 255 215 0 255 215 0 255 215 0 
255 215 0 255 215 0 255 215 0 255 215 0 255 215 0 255 215 0 255 215 0 255 215 0 255 215 0 255 215 0 255 215 0 255 215 0 255 215 0 255 215 0 255 215 0 255 215 0 255 215 0 255 215 0 255 215 0 255 215 0 255 215 0 255 215 0 255 215 0 255 215 0 255 215 0 255 215 0 255 215 0 255 215 0 255 215 0 255 215 0 255 215 0 255 215 0 255 215 0 255 215 0 255 215 0 255 215 0 255 215 0 255 215 0 255 215 0 255 215 0 255 215 0 255 215 0 255 215 0 255 215 0 255 215 0 255 215 0 255 215 0 255 215 0 255 215 0 255 215 0 255 215 0 255 215 0 255 215 0 255 215 0 255 215 0 255 215 0 255 215 0 255 215 0 255 215 0 255 215 0 255 215 0 255 215 0 255 215 0 255 215 0 255 215 0 255 215 0 255 215 0 255 215 0 255 215 0 255 215 0 255 215 0 255 215 0 255 215 0 255 215 0 255 215 0 255 215 0 255 215 0 255 215 0 255 215 0 255 215 0 255 215 0 255 215 0 255 215 0 255 215 0 255 215 0 255 215 0 255 215 0 255 215 0 255 215 0 255 215 0 255 215 0 255 215 0 255 215 0 255 215 0 255 215 0 255 215 0 255 215 0 255 215 0 255 215 0 255 215 0 255 215 0 255 215 0 255 215 0 255 215 0 255 215 0 255 215 0 255 215 0 255 215 0 255 215 0 255 215 0 255 215 0 255 215 0 255 215 0 255 215 0 255 215 0 255 215 0 255 215 0 255 215 0 255 215 0 255 215 0 255 215 0 255 215 0 255 215 0 255 215 0 255 215 0 255 215 0 255 215 0 255 215 0 255 215 0 255 215 0 255 215 0 255 215 0 255 215 0 255 215 0 255 215 0 255 215 0 255 215 0 255 215 0 255 215 0 255 215 0 255 215 0 255 215 0 255 215 0 255 215 0 255 215 0 255 215 0 255 215 0 255 215 0 255 215 0 255 215 0 255 215 0 255 215 0 255 215 0 255 215 0 255 215 0 255 215 0 255 215 0 255 215 0 255 215 0 255 215 0 255 215 0 255 215 0 255 215 0 255 215 0 255 215 0 255 215 0 255 215 0 255 215 0 255 215 0 255 215 0 255 215 0 255 215 0 255 215 0 255 215 0 255 215 0 255 215 0 255 215 0 255 215 0 255 215 0 255 215 0 255 215 0 255 215 0 255 215 0 255 215 0 255 215 0 255 215 0 255 215 0 255 215 0 255 215 0 255 215 0 255 215 0 255 215 0 255 215 0 255 215 0 255 215 0 255 215 0 255 215 0 255 215 0 255 215 0 255 215 0 255 215 0 255 215 0 255 215 0 255 215 0 255 215 0 255 215 0 255 215 0 255 215 0 255 215 0 255 215 0 255 215 0 255 215 0 255 215 0 255 215 0 255 215 0 255 215 0 255 215 0 255 215 0 255 215 0 255 215 0 255 215 0 255 215 0 255 215 0 255 215 0 255 215 0 255 215 0 255 215 0 255 215 0 255 215 0 255 215 0 255 215 0 255 215 0 255 215 0 255 215 0 255 215 0 255 215 0 255 215 0 255 215 0 255 215 0 255 215 0 255 215 0 255 215 0 255 215 0 255 215 0 255 215 0 255 215 0 255 215 0 255 215 0 255 215 0 255 215 0 255 215 0 255 215 0 255 215 0 255 215 0 255 215 0 255 215 0 255 215 0 255 215 0 255 215 0 255 215 0 255 215 0 255 215 0 255 215 0 255 215 0 255 215 0 255 215 0 255 215 0 255 215 0 255 215 0 255 215 0 255 215 0 255 215 0 255 215 0 255 215 0 255 215 0 255 215 0 255 215 0 255 215 0 255 215 0 255 215 0 255 215 0 255 215 0 255 215 0 255 215 0 255 215 0 255 215 0 255 215 0 255 215 0 255 215 0 255 215 0 255 215 0 255 215 0 255 215 0 255 215 0 255 215 0 255 215 0 255 215 0 255 215 0 255 215 0 255 215 0 
255 215 0 255 215 0 255 215 0 255 215 0 255 215 0 255 215 0 255 215 0 255 215 0 255 215 0 255 215 0 255 215 0 255 215 0 255 215 0 255 215 0 255 215 0 255 215 0 255 215 0 255 215 0 255 215 0 255 215 0 255 215 0 255 215 0 255 215 0 255 215 0 255 215 0 255 215 0 255 215 0 255 215 0 255 215 0 255 215 0 255 215 0 255 215 0 255 215 0 255 215 0 255 215 0 255 215 0 255 215 0 255 215 0 255 215 0 255 215 0 255 215 0 255 215 0 255 215 0 255 215 0 255 215 0 255 215 0 255 215 0 255 215 0 255 215 0 255 215 0 255 215 0 255 215 0 255 215 0 255 215 0 255 215 0 255 215 0 255 215 0 255 215 0 255 215 0 255 215 0 255 215 0 255 215 0 255 215 0 255 215 0 255 215 0 255 215 0 255 215 0 255 215 0 255 215 0 255 215 0 255 215 0 255 215 0 255 215 0 255 215 0 255 215 0 255 215 0 255 215 0 255 215 0 255 215 0 255 215 0 255 215 0 255 215 0 255 215 0 255 215 0 255 215 0 255 215 0 255 215 0 255 215 0 255 215 0 255 215 0 255 215 0 255 215 0 255 215 0 255 215 0 255 215 0 255 215 0 255 215 0 255 215 0 255 215 0 255 215 0 255 215 0 255 215 0 255 215 0 255 215 0 255 215 0 255 215 0 255 215 0 255 215 0 255 215 0 255 215 0 255 215 0 255 215 0 255 215 0 255 215 0 255 215 0 255 215 0 255 215 0 255 215 0 255 215 0 255 215 0 255 215 0 255 215 0 255 215 0 255 215 0 255 215 0 255 215 0 255 215 0 255 215 0 255 215 0 255 215 0 255 215 0 255 215 0 255 215 0 255 215 0 255 215 0 255 215 0 255 215 0 255 215 0 255 215 0 255 215 0 255 215 0 255 215 0 255 215 0 255 215 0 255 215 0 255 215 0 255 215 0 255 215 0 255 215 0 255 215 0 255 215 0 255 215 0 255 215 0 255 215 0 255 215 0 255 215 0 255 215 0 255 215 0 255 215 0 255 215 0 255 215 0 255 215 0 255 215 0 255 215 0 255 215 0 255 215 0 255 215 0 255 215 0 255 215 0 255 215 0 255 215 0 255 215 0 255 215 0 255 215 0 255 215 0 255 215 0 255 215 0 255 215 0 255 215 0 255 215 0 255 215 0 255 215 0 255 215 0 255 215 0 255 215 0 255 215 0 255 215 0 255 215 0 255 215 0 255 215 0 255 215 0 255 215 0 255 215 0 255 215 0 255 215 0 255 215 0 255 215 0 255 215 0 255 215 0 255 215 0 255 215 0 255 215 0 255 215 0 255 215 0 255 215 0 255 215 0 255 215 0 255 215 0 255 215 0 255 215 0 255 215 0 255 215 0 255 215 0 255 215 0 255 215 0 255 215 0 255 215 0 255 215 0 255 215 0 255 215 0 255 215 0 255 215 0 255 215 0 255 215 0 255 215 0 255 215 0 255 215 0 255 215 0 255 215 0 255 215 0 255 215 0 255 215 0 255 215 0 255 215 0 255 215 0 255 215 0 255 215 0 255 215 0 255 215 0 255 215 0 255 215 0 255 215 0 255 215 0 255 215 0 255 215 0 255 215 0 255 215 0 255 215 0 255 215 0 255 215 0 255 215 0 255 215 0 255 215 0 255 215 0 255 215 0 255 215 0 255 215 0 255 215 0 255 215 0 255 215 0 255 215 0 255 215 0 255 215 0 255 215 0 255 215 0 255 215 0 255 215 0 255 215 0 255 215 0 255 215 0 255 215 0 255 215 0 255 215 0 255 215 0 255 215 0 255 215 0 255 215 0 255 215 0 255 215 0 255 215 0 255 215 0 255 215 0 255 215 0 255 215 0 255 215 0 255 215 0 255 215 0 255 215 0 255 215 0 255 215 0 255 215 0 255 215 0 255 215 0 255 215 0 255 215 0 255 215 0 255 215 0 255 215 0 255 215 0 255 215 0 
255 215 0 255 215 0 255 215 0 255 215 0 255 215 0 255 215 0 255 215 0 255 215 0 255 215 0 255 215 0 255 215 0 255 215 0 255 215 0 255 215 0 255 215 0 255 215 0 255 215 0 255 215 0 255 215 0 255 215 0 255 215 0 255 215 0 255 215 0 255 215 0 255 215 0 255 215 0 255 215 0 255 215 0 255 215 0 255 215 0 255 215 0 255 215 0 255 215 0 255 215 0 255 215 0 255 215 0 255 215 0 255 215 0 255 215 0 255 215 0 255 215 0 255 215 0 255 215 0 255 215 0 255 215 0 255 215 0 255 215 0 255 215 0 255 215 0 255 215 0 255 215 0 255 215 0 255 215 0 255 215 0 255 215 0 255 215 0 255 215 0 255 215 0 255 215 0 255 215 0 255 215 0 255 215 0 255 215 0 255 215 0 255 215 0 255 215 0 255 215 0 255 215 0 255 215 0 255 215 0 255 215 0 255 215 0 255 215 0 255 215 0 255 215 0 255 215 0 255 215 0 255 215 0 255 215 0 255 215 0 255 215 0 255 215 0 255 215 0 255 215 0 255 215 0 255 215 0 255 215 0 255 215 0 255 215 0 255 215 0 255 215 0 255 215 0 255 215 0 255 215 0 255 215 0 255 215 0 255 215 0 255 215 0 255 215 0 255 215 0 255 215 0 255 215 0 255 215 0 255 215 0 255 215 0 255 215 0 255 215 0 255 215 0 255 215 0 255 215 0 255 215 0 255 215 0 255 215 0 255 215 0 255 215 0 255 215 0 255 215 0 255 215 0 255 215 0 255 215 0 255 215 0 255 215 0 255 215 0 255 215 0 255 215 0 255 215 0 255 215 0 255 215 0 255 215 0 255 215 0 255 215 0 255 215 0 255 215 0 255 215 0 255 215 0 255 215 0 255 215 0 255 215 0 255 215 0 255 215 0 255 215 0 255 215 0 255 215 0 255 215 0 255 215 0 255 215 0 255 215 0 255 215 0 255 215 0 255 215 0 255 215 0 255 215 0 255 215 0 255 215 0 255 215 0 255 215 0 255 215 0 255 215 0 255 215 0 255 215 0 255 215 0 255 215 0 255 215 0 255 215 0 255 215 0 255 215 0 255 215 0 255 215 0 255 215 0 255 215 0 255 215 0 255 215 0 255 215 0 255 215 0 255 215 0 255 215 0 255 215 0 255 215 0 255 215 0 255 215 0 255 215 0 255 215 0 255 215 0 255 215 0 255 215 0 255 215 0 255 215 0 255 215 0 255 215 0 255 215 0 255 215 0 255 215 0 255 215 0 255 215 0 255 215 0 255 215 0 255 215 0 255 215 0 255 215 0 255 215 0 255 215 0 255 215 0 255 215 0 255 215 0 255 215 0 255 215 0 255 215 0 255 215 0 255 215 0 255 215 0 255 215 0 255 215 0 255 215 0 255 215 0 255 215 0 255 215 0 255 215 0 255 215 0 255 215 0 255 215 0 255 215 0 255 215 0 255 215 0 255 215 0 255 215 0 255 215 0 255 215 0 255 215 0 255 215 0 255 215 0 255 215 0 255 215 0 255 215 0 255 215 0 255 215 0 255 215 0 255 215 0 255 215 0 255 215 0 255 215 0 255 215 0 255 215 0 255 215 0 255 215 0 255 215 0 255 215 0 255 215 0 255 215 0 255 215 0 255 215 0 255 215 0 255 215 0 255 215 0 255 215 0 255 215 0 255 215 0 255 215 0 255 215 0 255 215 0 255 215 0 255 215 0 255 215 0 255 215 0 255 215 0 255 215 0 255 215 0 255 215 0 255 215 0 255 215 0 255 215 0 255 215 0 255 215 0 255 215 0 255 215 0 255 215 0 255 215 0 255 215 0 255 215 0 255 215 0 255 215 0 255 215 0 255 215 0 255 215 0 255 215 0 255 215 0 255 215 0 255 215 0 255 215 0 255 215 0 255 215 0 255 215 0 255 215 0 255 215 0 255 215 0 255 215 0 255 215 0 255 215 0 255 215 0 255 215 0 255 215 0 
255 215 0 255 215 0 255 215 0 255 215 0 255 215 0 255 215 0 255 215 0 255 215 0 255 215 0 255 215 0 255 215 0 255 215 0 255 215 0 255 215 0 255 215 0 255 215 0 255 215 0 255 215 0 255 215 0 255 215 0 255 215 0 255 215 0 255 215 0 255 215 0 255 215 0 255 215 0 255 215 0 255 215 0 255 215 0 255 215 0 255 215 0 255 215 0 255 215 0 255 215 0 255 215 0 255 215 0 255 215 0 255 215 0 255 215 0 255 215 0 255 215 0 255 215 0 255 215 0 255 215 0 255 215 0 255 215 0 255 215 0 255 215 0 255 215 0 255 215 0 255 215 0 255 215 0 255 215 0 255 215 0 255 215 0 255 215 0 255 215 0 255 215 0 255 215 0 255 215 0 255 215 0 255 215 0 255 215 0 255 215 0 255 215 0 255 215 0 255 215 0 255 215 0 255 215 0 255 215 0 255 215 0 255 215 0 255 215 0 255 215 0 255 215 0 255 215 0 255 215 0 255 215 0 255 215 0 255 215 0 255 215 0 255 215 0 255 215 0 255 215 0 255 215 0 255 215 0 255 215 0 255 215 0 255 215 0 255 215 0 255 215 0 255 215 0 255 215 0 255 215 0 255 215 0 255 215 0 255 215 0 255 215 0 255 215 0 255 215 0 255 215 0 255 215 0 255 215 0 255 215 0 255 215 0 255 215 0 255 215 0 255 215 0 255 215 0 255 215 0 255 215 0 255 215 0 255 215 0 255 215 0 255 215 0 255 215 0 255 215 0 255 215 0 255 215 0 255 215 0 255 215 0 255 215 0 255 215 0 255 215 0 255 215 0 255 215 0 255 215 0 255 215 0 255 215 0 255 215 0 255 215 0 255 215 0 255 215 0 255 215 0 255 215 0 255 215 0 255 215 0 255 215 0 255 215 0 255 215 0 255 215 0 255 215 0 255 215 0 255 215 0 255 215 0 255 215 0 255 215 0 255 215 0 255 215 0 255 215 0 255 215 0 255 215 0 255 215 0 255 215 0 255 215 0 255 215 0 255 215 0 255 215 0 255 215 0 255 215 0 255 215 0 255 215 0 255 215 0 255 215 0 255 215 0 255 215 0 255 215 0 255 215 0 255 215 0 255 215 0 255 215 0 255 215 0 255 215 0 255 215 0 255 215 0 255 215 0 255 215 0 255 215 0 255 215 0 255 215 0 255 215 0 255 215 0 255 215 0 255 215 0 255 215 0 255 215 0 255 215 0 255 215 0 255 215 0 255 215 0 255 215 0 255 215 0 255 215 0 255 215 0 255 215 0 255 215 0 255 215 0 255 215 0 255 215 0 255 215 0 255 215 0 255 215 0 255 215 0 255 215 0 255 215 0 255 215 0 255 215 0 255 215 0 255 215 0 255 215 0 255 215 0 255 215 0 255 215 0 255 215 0 255 215 0 255 215 0 255 215 0 255 215 0 255 215 0 255 215 0 255 215 0 255 215 0 255 215 0 255 215 0 255 215 0 255 215 0 255 215 0 255 215 0 255 215 0 255 215 0 255 215 0 255 215 0 255 215 0 255 215 0 255 215 0 255 215 0 255 215 0 255 215 0 255 215 0 255 215 0 255 215 0 255 215 0 255 215 0 255 215 0 255 215 0 255 215 0 255 215 0 255 215 0 255 215 0 255 215 0 255 215 0 255 215 0 255 215 0 255 215 0 255 215 0 255 215 0 255 215 0 255 215 0 255 215 0 255 215 0 255 215 0 255 215 0 255 215 0 255 215 0 255 215 0 255 215 0 255 215 0 255 215 0 255 215 0 255 215 0 255 215 0 255 215 0 255 215 0 255 215 0 255 215 0 255 215 0 255 215 0 255 215 0 255 215 0 255 215 0 255 215 0 255 215 0 255 215 0 255 215 0 255 215 0 255 215 0 255 215 0 255 215 0 255 215 0 255 215 0 255 215 0 255 215 0 255 215 0 255 215 0 255 215 0 255 215 0 255 215 0 255 215 0 255 215 0 255 215 0 
255 215 0 255 215 0 255 215 0 255 215 0 255 215 0 255 215 0 255 215 0 255 215 0 255 215 0 255 215 0 255 215 0 255 215 0 255 215 0 255 215 0 255 215 0 255 215 0 255 215 0 255 215 0 255 215 0 255 215 0 255 215 0 255 215 0 255 215 0 255 215 0 255 215 0 255 215 0 255 215 0 255 215 0 255 215 0 255 215 0 255 215 0 255 215 0 255 215 0 255 215 0 255 215 0 255 215 0 255 215 0 255 215 0 255 215 0 255 215 0 255 215 0 255 215 0 255 215 0 255 215 0 255 215 0 255 215 0 255 215 0 255 215 0 255 215 0 255 215 0 255 215 0 255 215 0 255 215 0 255 215 0 255 215 0 255 215 0 255 215 0 255 215 0 255 215 0 255 215 0 255 215 0 255 215 0 255 215 0 255 215 0 255 215 0 255 215 0 255 215 0 255 215 0 255 215 0 255 215 0 255 215 0 255 215 0 255 215 0 255 215 0 255 215 0 255 215 0 255 215 0 255 215 0 255 215 0 255 215 0 255 215 0 255 215 0 255 215 0 255 215 0 255 215 0 255 215 0 255 215 0 255 215 0 255 215 0 255 215 0 255 215 0 255 215 0 255 215 0 255 215 0 255 215 0 255 215 0 255 215 0 255 215 0 255 215 0 255 215 0 255 215 0 255 215 0 255 215 0 255 215 0 255 215 0 255 215 0 255 215 0 255 215 0 255 215 0 255 215 0 255 215 0 255 215 0 255 215 0 255 215 0 255 215 0 255 215 0 255 215 0 255 215 0 255 215 0 255 215 0 255 215 0 255 215 0 255 215 0 255 215 0 255 215 0 255 215 0 255 215 0 255 215 0 255 215 0 255 215 0 255 215 0 255 215 0 255 215 0 255 215 0 255 215 0 255 215 0 255 215 0 255 215 0 255 215 0 255 215 0 255 215 0 255 215 0 255 215 0 255 215 0 255 215 0 255 215 0 255 215 0 255 215 0 255 215 0 255 215 0 255 215 0 255 215 0 255 215 0 255 215 0 255 215 0 255 215 0 255 215 0 255 215 0 255 215 0 255 215 0 255 215 0 255 215 0 255 215 0 255 215 0 255 215 0 255 215 0 255 215 0 255 215 0 255 215 0 255 215 0 255 215 0 255 215 0 255 215 0 255 215 0 255 215 0 255 215 0 255 215 0 255 215 0 255 215 0 255 215 0 255 215 0 255 215 0 255 215 0 255 215 0 255 215 0 255 215 0 255 215 0 255 215 0 255 215 0 255 215 0 255 215 0 255 215 0 255 215 0 255 215 0 255 215 0 255 215 0 255 215 0 255 215 0 255 215 0 255 215 0 255 215 0 255 215 0 255 215 0 255 215 0 255 215 0 255 215 0 255 215 0 255 215 0 255 215 0 255 215 0 255 215 0 255 215 0 255 215 0 255 215 0 255 215 0 255 215 0 255 215 0 255 215 0 255 215 0 255 215 0 255 215 0 255 215 0 255 215 0 255 215 0 255 215 0 255 215 0 255 215 0 255 215 0 255 215 0 255 215 0 255 215 0 255 215 0 255 215 0 255 215 0 255 215 0 255 215 0 255 215 0 255 215 0 255 215 0 255 215 0 255 215 0 255 215 0 255 215 0 255 215 0 255 215 0 255 215 0 255 215 0 255 215 0 255 215 0 255 215 0 255 215 0 255 215 0 255 215 0 255 215 0 255 215 0 255 215 0 255 215 0 255 215 0 255 215 0 255 215 0 255 215 0 255 215 0 255 215 0 255 215 0 255 215 0 255 215 0 255 215 0 255 215 0 255 215 0 255 215 0 255 215 0 255 215 0 255 215 0 255 215 0 255 215 0 255 215 0 255 215 0 255 215 0 255 215 0 255 215 0 255 215 0 255 215 0 255 215 0 255 215 0 255 215 0 255 215 0 255 215 0 255 215 0 255 215 0 255 215 0 255 215 0 255 215 0 255 215 0 255 215 0 255 215 0 255 215 0 255 215 0 255 215 0 255 215 0 255 215 0 
255 215 0 255 215 0 255 215 0 255 215 0 255 215 0 255 215 0 255 215 0 255 215 0 255 215 0 255 215 0 255 215 0 255 215 0 255 215 0 255 215 0 255 215 0 255 215 0 255 215 0 255 215 0 255 215 0 255 215 0 255 215 0 255 215 0 255 215 0 255 215 0 255 215 0 255 215 0 255 215 0 255 215 0 255 215 0 255 215 0 255 215 0 255 215 0 255 215 0 255 215 0 255 215 0 255 215 0 255 215 0 255 215 0 255 215 0 255 215 0 255 215 0 255 215 0 255 215 0 255 215 0 255 215 0 255 215 0 255 215 0 255 215 0 255 215 0 255 215 0 255 215 0 255 215 0 255 215 0 255 215 0 255 215 0 255 215 0 255 215 0 255 215 0 255 215 0 255 215 0 255 215 0 255 215 0 255 215 0 255 215 0 255 215 0 255 215 0 255 215 0 255 215 0 255 215 0 255 215 0 255 215 0 255 215 0 255 215 0 255 215 0 255 215 0 255 215 0 255 215 0 255 215 0 255 215 0 255 215 0 255 215 0 255 215 0 255 215 0 255 215 0 255 215 0 255 215 0 255 215 0 255 215 0 255 215 0 255 215 0 255 215 0 255 215 0 255 215 0 255 215 0 255 215 0 255 215 0 255 215 0 255 215 0 255 215 0 255 215 0 255 215 0 255 215 0 255 215 0 255 215 0 255 215 0 255 215 0 255 215 0 255 215 0 255 215 0 255 215 0 255 215 0 255 215 0 255 215 0 255 215 0 255 215 0 255 215 0 255 215 0 255 215 0 255 215 0 255 215 0 255 215 0 255 215 0 255 215 0 255 215 0 255 215 0 255 215 0 255 215 0 255 215 0 255 215 0 255 215 0 255 215 0 255 215 0 255 215 0 255 215 0 255 215 0 255 215 0 255 215 0 255 215 0 255 215 0 255 215 0 255 215 0 255 215 0 255 215 0 255 215 0 255 215 0 255 215 0 255 215 0 255 215 0 255 215 0 255 215 0 255 215 0 255 215 0 255 215 0 255 215 0 255 215 0 255 215 0 255 215 0 255 215 0 255 215 0 255 215 0 255 215 0 255 215 0 255 215 0 255 215 0 255 215 0 255 215 0 255 215 0 255 215 0 255 215 0 255 215 0 255 215 0 255 215 0 255 215 0 255 215 0 255 215 0 255 215 0 255 215 0 255 215 0 255 215 0 255 215 0 255 215 0 255 215 0 255 215 0 255 215 0 255 215 0 255 215 0 255 215 0 255 215 0 255 215 0 255 215 0 255 215 0 255 215 0 255 215 0 255 215 0 255 215 0 255 215 0 255 215 0 255 215 0 255 215 0 255 215 0 255 215 0 255 215 0 255 215 0 255 215 0 255 215 0 255 215 0 255 215 0 255 215 0 255 215 0 255 215 0 255 215 0 255 215 0 255 215 0 255 215 0 255 215 0 255 215 0 255 215 0 255 215 0 255 215 0 255 215 0 255 215 0 255 215 0 255 215 0 255 215 0 255 215 0 255 215 0 255 215 0 255 215 0 255 215 0 255 215 0 255 215 0 255 215 0 255 215 0 255 215 0 255 215 0 255 215 0 255 215 0 255 215 0 255 215 0 255 215 0 255 215 0 255 215 0 255 215 0 255 215 0 255 215 0 255 215 0 255 215 0 255 215 0 255 215 0 255 215 0 255 215 0 255 215 0 255 215 0 255 215 0 255 215 0 255 215 0 255 215 0 255 215 0 255 215 0 255 215 0 255 215 0 255 215 0 255 215 0 255 215 0 255 215 0 255 215 0 255 215 0 255 215 0 255 215 0 255 215 0 255 215 0 255 215 0 255 215 0 255 215 0 255 215 0 255 215 0 255 215 0 255 215 0 255 215 0 255 215 0 255 215 0 255 215 0 255 215 0 255 215 0 255 215 0 255 215 0 255 215 0 255 215 0 255 215 0 255 215 0 255 215 0 255 215 0 255 215 0 255 215 0 255 215 0 255 215 0 255 215 0 255 215 0 255 215 0 255 215 0 
255 215 0 255 215 0 255 215 0 255 215 0 255 215 0 255 215 0 255 215 0 255 215 0 255 215 0 255 215 0 255 215 0 255 215 0 255 215 0 255 215 0 255 215 0 255 215 0 255 215 0 255 215 0 255 215 0 255 215 0 255 215 0 255 215 0 255 215 0 255 215 0 255 215 0 255 215 0 255 215 0 255 215 0 255 215 0 255 215 0 255 215 0 255 215 0 255 215 0 255 215 0 255 215 0 255 215 0 255 215 0 255 215 0 255 215 0 255 215 0 255 215 0 255 215 0 255 215 0 255 215 0 255 215 0 255 215 0 255 215 0 255 215 0 255 215 0 255 215 0 255 215 0 255 215 0 255 215 0 255 215 0 255 215 0 255 215 0 255 215 0 255 215 0 255 215 0 255 215 0 255 215 0 255 215 0 255 215 0 255 215 0 255 215 0 255 215 0 255 215 0 255 215 0 255 215 0 255 215 0 255 215 0 255 215 0 255 215 0 255 215 0 255 215 0 255 215 0 255 215 0 255 215 0 255 215 0 255 215 0 255 215 0 255 215 0 255 215 0 255 215 0 255 215 0 255 215 0 255 215 0 255 215 0 255 215 0 255 215 0 255 215 0 255 215 0 255 215 0 255 215 0 255 215 0 255 215 0 255 215 0 255 215 0 255 215 0 255 215 0 255 215 0 255 215 0 255 215 0 255 215 0 255 215 0 255 215 0 255 215 0 255 215 0 255 215 0 255 215 0 255 215 0 255 215 0 255 215 0 255 215 0 255 215 0 255 215 0 255 215 0 255 215 0 255 215 0 255 215 0 255 215 0 255 215 0 255 215 0 255 215 0 255 215 0 255 215 0 255 215 0 255 215 0 255 215 0 255 215 0 255 215 0 255 215 0 255 215 0 255 215 0 255 215 0 255 215 0 255 215 0 255 215 0 255 215 0 255 215 0 255 215 0 255 215 0 255 215 0 255 215 0 255 215 0 255 215 0 255 215 0 255 215 0 255 215 0 255 215 0 255 215 0 255 215 0 255 215 0 255 215 0 255 215 0 255 215 0 255 215 0 255 215 0 255 215 0 255 215 0 255 215 0 255 215 0 255 215 0 255 215 0 255 215 0 255 215 0 255 215 0 255 215 0 255 215 0 255 215 0 255 215 0 255 215 0 255 215 0 255 215 0 255 215 0 255 215 0 255 215 0 255 215 0 255 215 0 255 215 0 255 215 0 255 215 0 255 215 0 255 215 0 255 215 0 255 215 0 255 215 0 255 215 0 255 215 0 255 215 0 255 215 0 255 215 0 255 215 0 255 215 0 255 215 0 255 215 0 255 215 0 255 215 0 255 215 0 255 215 0 255 215 0 255 215 0 255 215 0 255 215 0 255 215 0 255 215 0 255 215 0 255 215 0 255 215 0 255 215 0 255 215 0 255 215 0 255 215 0 255 215 0 255 215 0 255 215 0 255 215 0 255 215 0 255 215 0 255 215 0 255 215 0 255 215 0 255 215 0 255 215 0 255 215 0 255 215 0 255 215 0 255 215 0 255 215 0 255 215 0 255 215 0 255 215 0 255 215 0 255 215 0 255 215 0 255 215 0 255 215 0 255 215 0 255 215 0 255 215 0 255 215 0 255 215 0 255 215 0 255 215 0 255 215 0 255 215 0 255 215 0 255 215 0 255 215 0 255 215 0 255 215 0 255 215 0 255 215 0 255 215 0 255 215 0 255 215 0 255 215 0 255 215 0 255 215 0 255 215 0 255 215 0 255 215 0 255 215 0 255 215 0 255 215 0 255 215 0 255 215 0 255 215 0 255 215 0 255 215 0 255 215 0 255 215 0 255 215 0 255 215 0 255 215 0 255 215 0 255 215 0 255 215 0 255 215 0 255 215 0 255 215 0 255 215 0 255 215 0 255 215 0 255 215 0 255 215 0 255 215 0 255 215 0 255 215 0 255 215 0 255 215 0 255 215 0 255 215 0 255 215 0 255 215 0 255 215 0 255 215 0 255 215 0 255 215 0 255 215 0 
255 215 0 255 215 0 255 215 0 255 215 0 255 215 0 255 215 0 255 215 0 255 215 0 255 215 0 255 215 0 255 215 0 255 215 0 255 215 0 255 215 0 255 215 0 255 215 0 255 215 0 255 215 0 255 215 0 255 215 0 255 215 0 255 215 0 255 215 0 255 215 0 255 215 0 255 215 0 255 215 0 255 215 0 255 215 0 255 215 0 255 215 0 255 215 0 255 215 0 255 215 0 255 215 0 255 215 0 255 215 0 255 215 0 255 215 0 255 215 0 255 215 0 255 215 0 255 215 0 255 215 0 255 215 0 255 215 0 255 215 0 255 215 0 255 215 0 255 215 0 255 215 0 255 215 0 255 215 0 255 215 0 255 215 0 255 215 0 255 215 0 255 215 0 255 215 0 255 215 0 255 215 0 255 215 0 255 215 0 255 215 0 255 215 0 255 215 0 255 215 0 255 215 0 255 215 0 255 215 0 255 215 0 255 215 0 255 215 0 255 215 0 255 215 0 255 215 0 255 215 0 255 215 0 255 215 0 255 215 0 255 215 0 255 215 0 255 215 0 255 215 0 255 215 0 255 215 0 255 215 0 255 215 0 255 215 0 255 215 0 255 215 0 255 215 0 255 215 0 255 215 0 255 215 0 255 215 0 255 215 0 255 215 0 255 215 0 255 215 0 255 215 0 255 215 0 255 215 0 255 215 0 255 215 0 255 215 0 255 215 0 255 215 0 255 215 0 255 215 0 255 215 0 255 215 0 255 215 0 255 215 0 255 215 0 255 215 0 255 215 0 255 215 0 255 215 0 255 215 0 255 215 0 255 215 0 255 215 0 255 215 0 255 215 0 255 215 0 255 215 0 255 215 0 255 215 0 255 215 0 255 215 0 255 215 0 255 215 0 255 215 0 255 215 0 255 215 0 255 215 0 255 215 0 255 215 0 255 215 0 255 215 0 255 215 0 255 215 0 255 215 0 255 215 0 255 215 0 255 215 0 255 215 0 255 215 0 255 215 0 255 215 0 255 215 0 255 215 0 255 215 0 255 215 0 255 215 0 255 215 0 255 215 0 255 215 0 255 215 0 255 215 0 255 215 0 255 215 0 255 215 0 255 215 0 255 215 0 255 215 0 255 215 0 255 215 0 255 215 0 255 215 0 255 215 0 255 215 0 255 215 0 255 215 0 255 215 0 255 215 0 255 215 0 255 215 0 255 215 0 255 215 0 255 215 0 255 215 0 255 215 0 255 215 0 255 215 0 255 215 0 255 215 0 255 215 0 255 215 0 255 215 0 255 215 0 255 215 0 255 215 0 255 215 0 255 215 0 255 215 0 255 215 0 255 215 0 255 215 0 255 215 0 255 215 0 255 215 0 255 215 0 255 215 0 255 215 0 255 215 0 255 215 0 255 215 0 255 215 0 255 215 0 255 215 0 255 215 0 255 215 0 255 215 0 255 215 0 255 215 0 255 215 0 255 215 0 255 215 0 255 215 0 255 215 0 255 215 0 255 215 0 255 215 0 255 215 0 255 215 0 255 215 0 255 215 0 255 215 0 255 215 0 255 215 0 255 215 0 255 215 0 255 215 0 255 215 0 255 215 0 255 215 0 255 215 0 255 215 0 255 215 0 255 215 0 255 215 0 255 215 0 255 215 0 255 215 0 255 215 0 255 215 0 255 215 0 255 215 0 255 215 0 255 215 0 255 215 0 255 215 0 255 215 0 255 215 0 255 215 0 255 215 0 255 215 0 255 215 0 255 215 0 255 215 0 255 215 0 255 215 0 255 215 0 255 215 0 255 215 0 255 215 0 255 215 0 255 215 0 255 215 0 255 215 0 255 215 0 255 215 0 255 215 0 255 215 0 255 215 0 255 215 0 255 215 0 255 215 0 255 215 0 255 215 0 255 215 0 255 215 0 255 215 0 255 215 0 255 215 0 255 215 0 255 215 0 255 215 0 255 215 0 255 215 0 255 215 0 255 215 0 255 215 0 255 215 0 255 215 0 255 215 0 255 215 0 255 215 0 
255 215 0 255 215 0 255 215 0 255 215 0 255 215 0 255 215 0 255 215 0 255 215 0 255 215 0 255 215 0 255 215 0 255 215 0 255 215 0 255 215 0 255 215 0 255 215 0 255 215 0 255 215 0 255 215 0 255 215 0 255 215 0 255 215 0 255 215 0 255 215 0 255 215 0 255 215 0 255 215 0 255 215 0 255 215 0 255 215 0 255 215 0 255 215 0 255 215 0 255 215 0 255 215 0 255 215 0 255 215 0 255 215 0 255 215 0 255 215 0 255 215 0 255 215 0 255 215 0 255 215 0 255 215 0 255 215 0 255 215 0 255 215 0 255 215 0 255 215 0 255 215 0 255 215 0 255 215 0 255 215 0 255 215 0 255 215 0 255 215 0 255 215 0 255 215 0 255 215 0 255 215 0 255 215 0 255 215 0 255 215 0 255 215 0 255 215 0 255 215 0 255 215 0 255 215 0 255 215 0 255 215 0 255 215 0 255 215 0 255 215 0 255 215 0 255 215 0 255 215 0 255 215 0 255 215 0 255 215 0 255 215 0 255 215 0 255 215 0 255 215 0 255 215 0 255 215 0 255 215 0 255 215 0 255 215 0 255 215 0 255 215 0 255 215 0 255 215 0 255 215 0 255 215 0 255 215 0 255 215 0 255 215 0 255 215 0 255 215 0 255 215 0 255 215 0 255 215 0 255 215 0 255 215 0 255 215 0 255 215 0 255 215 0 255 215 0 255 215 0 255 215 0 255 215 0 255 215 0 255 215 0 255 215 0 255 215 0 255 215 0 255 215 0 255 215 0 255 215 0 255 215 0 255 215 0 255 215 0 255 215 0 255 215 0 255 215 0 255 215 0 255 215 0 255 215 0 255 215 0 255 215 0 255 215 0 255 215 0 255 215 0 255 215 0 255 215 0 255 215 0 255 215 0 255 215 0 255 215 0 255 215 0 255 215 0 255 215 0 255 215 0 255 215 0 255 215 0 255 215 0 255 215 0 255 215 0 255 215 0 255 215 0 255 215 0 255 215 0 255 215 0 255 215 0 255 215 0 255 215 0 255 215 0 255 215 0 255 215 0 255 215 0 255 215 0 255 215 0 255 215 0 255 215 0 255 215 0 255 215 0 255 215 0 255 215 0 255 215 0 255 215 0 255 215 0 255 215 0 255 215 0 255 215 0 255 215 0 255 215 0 255 215 0 255 215 0 255 215 0 255 215 0 255 215 0 255 215 0 255 215 0 255 215 0 255 215 0 255 215 0 255 215 0 255 215 0 255 215 0 255 215 0 255 215 0 255 215 0 255 215 0 255 215 0 255 215 0 255 215 0 255 215 0 255 215 0 255 215 0 255 215 0 255 215 0 255 215 0 255 215 0 255 215 0 255 215 0 255 215 0 255 215 0 255 215 0 255 215 0 255 215 0 255 215 0 255 215 0 255 215 0 255 215 0 255 215 0 255 215 0 255 215 0 255 215 0 255 215 0 255 215 0 255 215 0 255 215 0 255 215 0 255 215 0 255 215 0 255 215 0 255 215 0 255 215 0 255 215 0 255 215 0 255 215 0 255 215 0 255 215 0 255 215 0 255 215 0 255 215 0 255 215 0 255 215 0 255 215 0 255 215 0 255 215 0 255 215 0 255 215 0 255 215 0 255 215 0 255 215 0 255 215 0 255 215 0 255 215 0 255 215 0 255 215 0 255 215 0 255 215 0 255 215 0 255 215 0 255 215 0 255 215 0 255 215 0 255 215 0 255 215 0 255 215 0 255 215 0 255 215 0 255 215 0 255 215 0 255 215 0 255 215 0 255 215 0 255 215 0 255 215 0 255 215 0 255 215 0 255 215 0 255 215 0 255 215 0 255 215 0 255 215 0 255 215 0 255 215 0 255 215 0 255 215 0 255 215 0 255 215 0 255 215 0 255 215 0 255 215 0 255 215 0 255 215 0 255 215 0 255 215 0 255 215 0 255 215 0 255 215 0 255 215 0 255 215 0 255 215 0 255 215 0 255 215 0 255 215 0 
255 215 0 255 215 0 255 215 0 255 215 0 255 215 0 255 215 0 255 215 0 255 215 0 255 215 0 255 215 0 255 215 0 255 215 0 255 215 0 255 215 0 255 215 0 255 215 0 255 215 0 255 215 0 255 215 0 255 215 0 255 215 0 255 215 0 255 215 0 255 215 0 255 215 0 255 215 0 255 215 0 255 215 0 255 215 0 255 215 0 255 215 0 255 215 0 255 215 0 255 215 0 255 215 0 255 215 0 255 215 0 255 215 0 255 215 0 255 215 0 255 215 0 255 215 0 255 215 0 255 215 0 255 215 0 255 215 0 255 215 0 255 215 0 255 215 0 255 215 0 255 215 0 255 215 0 255 215 0 255 215 0 255 215 0 255 215 0 255 215 0 255 215 0 255 215 0 255 215 0 255 215 0 255 215 0 255 215 0 255 215 0 255 215 0 255 215 0 255 215 0 255 215 0 255 215 0 255 215 0 255 215 0 255 215 0 255 215 0 255 215 0 255 215 0 255 215 0 255 215 0 255 215 0 255 215 0 255 215 0 255 215 0 255 215 0 255 215 0 255 215 0 255 215 0 255 215 0 255 215 0 255 215 0 255 215 0 255 215 0 255 215 0 255 215 0 255 215 0 255 215 0 255 215 0 255 215 0 255 215 0 255 215 0 255 215 0 255 215 0 255 215 0 255 215 0 255 215 0 255 215 0 255 215 0 255 215 0 255 215 0 255 215 0 255 215 0 255 215 0 255 215 0 255 215 0 255 215 0 255 215 0 255 215 0 255 215 0 255 215 0 255 215 0 255 215 0 255 215 0 255 215 0 255 215 0 255 215 0 255 215 0 255 215 0 255 215 0 255 215 0 255 215 0 255 215 0 255 215 0 255 215 0 255 215 0 255 215 0 255 215 0 255 215 0 255 215 0 255 215 0 255 215 0 255 215 0 255 215 0 255 215 0 255 215 0 255 215 0 255 215 0 255 215 0 255 215 0 255 215 0 255 215 0 255 215 0 255 215 0 255 215 0 255 215 0 255 215 0 255 215 0 255 215 0 255 215 0 255 215 0 255 215 0 255 215 0 255 215 0 255 215 0 255 215 0 255 215 0 255 215 0 255 215 0 255 215 0 255 215 0 255 215 0 255 215 0 255 215 0 255 215 0 255 215 0 255 215 0 255 215 0 255 215 0 255 215 0 255 215 0 255 215 0 255 215 0 255 215 0 255 215 0 255 215 0 255 215 0 255 215 0 255 215 0 255 215 0 255 215 0 255 215 0 255 215 0 255 215 0 255 215 0 255 215 0 255 215 0 255 215 0 255 215 0 255 215 0 255 215 0 255 215 0 255 215 0 255 215 0 255 215 0 255 215 0 255 215 0 255 215 0 255 215 0 255 215 0 255 215 0 255 215 0 255 215 0 255 215 0 255 215 0 255 215 0 255 215 0 255 215 0 255 215 0 255 215 0 255 215 0 255 215 0 255 215 0 255 215 0 255 215 0 255 215 0 255 215 0 255 215 0 255 215 0 255 215 0 255 215 0 255 215 0 255 215 0 255 215 0 255 215 0 255 215 0 255 215 0 255 215 0 255 215 0 255 215 0 255 215 0 255 215 0 255 215 0 255 215 0 255 215 0 255 215 0 255 215 0 255 215 0 255 215 0 255 215 0 255 215 0 255 215 0 255 215 0 255 215 0 255 215 0 255 215 0 255 215 0 255 215 0 255 215 0 255 215 0 255 215 0 255 215 0 255 215 0 255 215 0 255 215 0 255 215 0 255 215 0 255 215 0 255 215 0 255 215 0 255 215 0 255 215 0 255 215 0 255 215 0 255 215 0 255 215 0 255 215 0 255 215 0 255 215 0 255 215 0 255 215 0 255 215 0 255 215 0 255 215 0 255 215 0 255 215 0 255 215 0 255 215 0 255 215 0 255 215 0 255 215 0 255 215 0 255 215 0 255 215 0 255 215 0 255 215 0 255 215 0 255 215 0 255 215 0 255 215 0 255 215 0 255 215 0 255 215 0 255 215 0 
255 215 0 255 215 0 255 215 0 255 215 0 255 215 0 255 215 0 255 215 0 255 215 0 255 215 0 255 215 0 255 215 0 255 215 0 255 215 0 255 215 0 255 215 0 255 215 0 255 215 0 255 215 0 255 215 0 255 215 0 255 215 0 255 215 0 255 215 0 255 215 0 255 215 0 255 215 0 255 215 0 255 215 0 255 215 0 255 215 0 255 215 0 255 215 0 255 215 0 255 215 0 255 215 0 255 215 0 255 215 0 255 215 0 255 215 0 255 215 0 255 215 0 255 215 0 255 215 0 255 215 0 255 215 0 255 215 0 255 215 0 255 215 0 255 215 0 255 215 0 255 215 0 255 215 0 255 215 0 255 215 0 255 215 0 255 215 0 255 215 0 255 215 0 255 215 0 255 215 0 255 215 0 255 215 0 255 215 0 255 215 0 255 215 0 255 215 0 255 215 0 255 215 0 255 215 0 255 215 0 255 215 0 255 215 0 255 215 0 255 215 0 255 215 0 255 215 0 255 215 0 255 215 0 255 215 0 255 215 0 255 215 0 255 215 0 255 215 0 255 215 0 255 215 0 255 215 0 255 215 0 255 215 0 255 215 0 255 215 0 255 215 0 255 215 0 255 215 0 255 215 0 255 215 0 255 215 0 255 215 0 255 215 0 255 215 0 255 215 0 255 215 0 255 215 0 255 215 0 255 215 0 255 215 0 255 215 0 255 215 0 255 215 0 255 215 0 255 215 0 255 215 0 255 215 0 255 215 0 255 215 0 255 215 0 255 215 0 255 215 0 255 215 0 255 215 0 255 215 0 255 215 0 255 215 0 255 215 0 255 215 0 255 215 0 255 215 0 255 215 0 255 215 0 255 215 0 255 215 0 255 215 0 255 215 0 255 215 0 255 215 0 255 215 0 255 215 0 255 215 0 255 215 0 255 215 0 255 215 0 255 215 0 255 215 0 255 215 0 255 215 0 255 215 0 255 215 0 255 215 0 255 215 0 255 215 0 255 215 0 255 215 0 255 215 0 255 215 0 255 215 0 255 215 0 255 215 0 255 215 0 255 215 0 255 215 0 255 215 0 255 215 0 255 215 0 255 215 0 255 215 0 255 215 0 255 215 0 255 215 0 255 215 0 255 215 0 255 215 0 255 215 0 255 215 0 255 215 0 255 215 0 255 215 0 255 215 0 255 215 0 255 215 0 255 215 0 255 215 0 255 215 0 255 215 0 255 215 0 255 215 0 255 215 0 255 215 0 255 215 0 255 215 0 255 215 0 255 215 0 255 215 0 255 215 0 255 215 0 255 215 0 255 215 0 255 215 0 255 215 0 255 215 0 255 215 0 255 215 0 255 215 0 255 215 0 255 215 0 255 215 0 255 215 0 255 215 0 255 215 0 255 215 0 255 215 0 255 215 0 255 215 0 255 215 0 255 215 0 255 215 0 255 215 0 255 215 0 255 215 0 255 215 0 255 215 0 255 215 0 255 215 0 255 215 0 255 215 0 255 215 0 255 215 0 255 215 0 255 215 0 255 215 0 255 215 0 255 215 0 255 215 0 255 215 0 255 215 0 255 215 0 255 215 0 255 215 0 255 215 0 255 215 0 255 215 0 255 215 0 255 215 0 255 215 0 255 215 0 255 215 0 255 215 0 255 215 0 255 215 0 255 215 0 255 215 0 255 215 0 255 215 0 255 215 0 255 215 0 255 215 0 255 215 0 255 215 0 255 215 0 255 215 0 255 215 0 255 215 0 255 215 0 255 215 0 255 215 0 255 215 0 255 215 0 255 215 0 255 215 0 255 215 0 255 215 0 255 215 0 255 215 0 255 215 0 255 215 0 255 215 0 255 215 0 255 215 0 255 215 0 255 215 0 255 215 0 255 215 0 255 215 0 255 215 0 255 215 0 255 215 0 255 215 0 255 215 0 255 215 0 255 215 0 255 215 0 255 215 0 255 215 0 255 215 0 255 215 0 255 215 0 255 215 0 255 215 0 255 215 0 255 215 0 255 215 0 255 215 0 
255 215 0 255 215 0 255 215 0 255 215 0 255 215 0 255 215 0 255 215 0 255 215 0 255 215 0 255 215 0 255 215 0 255 215 0 255 215 0 255 215 0 255 215 0 255 215 0 255 215 0 255 215 0 255 215 0 255 215 0 255 215 0 255 215 0 255 215 0 255 215 0 255 215 0 255 215 0 255 215 0 255 215 0 255 215 0 255 215 0 255 215 0 255 215 0 255 215 0 255 215 0 255 215 0 255 215 0 255 215 0 255 215 0 255 215 0 255 215 0 255 215 0 255 215 0 255 215 0 255 215 0 255 215 0 255 215 0 255 215 0 255 215 0 255 215 0 255 215 0 255 215 0 255 215 0 255 215 0 255 215 0 255 215 0 255 215 0 255 215 0 255 215 0 255 215 0 255 215 0 255 215 0 255 215 0 255 215 0 255 215 0 255 215 0 255 215 0 255 215 0 255 215 0 255 215 0 255 215 0 255 215 0 255 215 0 255 215 0 255 215 0 255 215 0 255 215 0 255 215 0 255 215 0 255 215 0 255 215 0 255 215 0 255 215 0 255 215 0 255 215 0 255 215 0 255 215 0 255 215 0 255 215 0 255 215 0 255 215 0 255 215 0 255 215 0 255 215 0 255 215 0 255 215 0 255 215 0 255 215 0 255 215 0 255 215 0 255 215 0 255 215 0 255 215 0 255 215 0 255 215 0 255 215 0 255 215 0 255 215 0 255 215 0 255 215 0 255 215 0 255 215 0 255 215 0 255 215 0 255 215 0 255 215 0 255 215 0 255 215 0 255 215 0 255 215 0 255 215 0 255 215 0 255 215 0 255 215 0 255 215 0 255 215 0 255 215 0 255 215 0 255 215 0 255 215 0 255 215 0 255 215 0 255 215 0 255 215 0 255 215 0 255 215 0 255 215 0 255 215 0 255 215 0 255 215 0 255 215 0 255 215 0 255 215 0 255 215 0 255 215 0 255 215 0 255 215 0 255 215 0 255 215 0 255 215 0 255 215 0 255 215 0 255 215 0 255 215 0 255 215 0 255 215 0 255 215 0 255 215 0 255 215 0 255 215 0 255 215 0 255 215 0 255 215 0 255 215 0 255 215 0 255 215 0 255 215 0 255 215 0 255 215 0 255 215 0 255 215 0 255 215 0 255 215 0 255 215 0 255 215 0 255 215 0 255 215 0 255 215 0 255 215 0 255 215 0 255 215 0 255 215 0 255 215 0 255 215 0 255 215 0 255 215 0 255 215 0 255 215 0 255 215 0 255 215 0 255 215 0 255 215 0 255 215 0 255 215 0 255 215 0 255 215 0 255 215 0 255 215 0 255 215 0 255 215 0 255 215 0 255 215 0 255 215 0 255 215 0 255 215 0 255 215 0 255 215 0 255 215 0 255 215 0 255 215 0 255 215 0 255 215 0 255 215 0 255 215 0 255 215 0 255 215 0 255 215 0 255 215 0 255 215 0 255 215 0 255 215 0 255 215 0 255 215 0 255 215 0 255 215 0 255 215 0 255 215 0 255 215 0 255 215 0 255 215 0 255 215 0 255 215 0 255 215 0 255 215 0 255 215 0 255 215 0 255 215 0 255 215 0 255 215 0 255 215 0 255 215 0 255 215 0 255 215 0 255 215 0 255 215 0 255 215 0 255 215 0 255 215 0 255 215 0 255 215 0 255 215 0 255 215 0 255 215 0 255 215 0 255 215 0 255 215 0 255 215 0 255 215 0 255 215 0 255 215 0 255 215 0 255 215 0 255 215 0 255 215 0 255 215 0 255 215 0 255 215 0 255 215 0 255 215 0 255 215 0 255 215 0 255 215 0 255 215 0 255 215 0 255 215 0 255 215 0 255 215 0 255 215 0 255 215 0 255 215 0 255 215 0 255 215 0 255 215 0 255 215 0 255 215 0 255 215 0 255 215 0 255 215 0 255 215 0 255 215 0 255 215 0 255 215 0 255 215 0 255 215 0 255 215 0 255 215 0 255 215 0 255 215 0 255 215 0 255 215 0 255 215 0 
255 215 0 255 215 0 255 215 0 255 215 0 255 215 0 255 215 0 255 215 0 255 215 0 255 215 0 255 215 0 255 215 0 255 215 0 255 215 0 255 215 0 255 215 0 255 215 0 255 215 0 255 215 0 255 215 0 255 215 0 255 215 0 255 215 0 255 215 0 255 215 0 255 215 0 255 215 0 255 215 0 255 215 0 255 215 0 255 215 0 255 215 0 255 215 0 255 215 0 255 215 0 255 215 0 255 215 0 255 215 0 255 215 0 255 215 0 255 215 0 255 215 0 255 215 0 255 215 0 255 215 0 255 215 0 255 215 0 255 215 0 255 215 0 255 215 0 255 215 0 255 215 0 255 215 0 255 215 0 255 215 0 255 215 0 255 215 0 255 215 0 255 215 0 255 215 0 255 215 0 255 215 0 255 215 0 255 215 0 255 215 0 255 215 0 255 215 0 255 215 0 255 215 0 255 215 0 255 215 0 255 215 0 255 215 0 255 215 0 255 215 0 255 215 0 255 215 0 255 215 0 255 215 0 255 215 0 255 215 0 255 215 0 255 215 0 255 215 0 255 215 0 255 215 0 255 215 0 255 215 0 255 215 0 255 215 0 255 215 0 255 215 0 255 215 0 255 215 0 255 215 0 255 215 0 255 215 0 255 215 0 255 215 0 255 215 0 255 215 0 255 215 0 255 215 0 255 215 0 255 215 0 255 215 0 255 215 0 255 215 0 255 215 0 255 215 0 255 215 0 255 215 0 255 215 0 255 215 0 255 215 0 255 215 0 255 215 0 255 215 0 255 215 0 255 215 0 255 215 0 255 215 0 255 215 0 255 215 0 255 215 0 255 215 0 255 215 0 255 215 0 255 215 0 255 215 0 255 215 0 255 215 0 255 215 0 255 215 0 255 215 0 255 215 0 255 215 0 255 215 0 255 215 0 255 215 0 255 215 0 255 215 0 255 215 0 255 215 0 255 215 0 255 215 0 255 215 0 255 215 0 255 215 0 255 215 0 255 215 0 255 215 0 255 215 0 255 215 0 255 215 0 255 215 0 255 215 0 255 215 0 255 215 0 255 215 0 255 215 0 255 215 0 255 215 0 255 215 0 255 215 0 255 215 0 255 215 0 255 215 0 255 215 0 255 215 0 255 215 0 255 215 0 255 215 0 255 215 0 255 215 0 255 215 0 255 215 0 255 215 0 255 215 0 255 215 0 255 215 0 255 215 0 255 215 0 255 215 0 255 215 0 255 215 0 255 215 0 255 215 0 255 215 0 255 215 0 255 215 0 255 215 0 255 215 0 255 215 0 255 215 0 255 215 0 255 215 0 255 215 0 255 215 0 255 215 0 255 215 0 255 215 0 255 215 0 255 215 0 255 215 0 255 215 0 255 215 0 255 215 0 255 215 0 255 215 0 255 215 0 255 215 0 255 215 0 255 215 0 255 215 0 255 215 0 255 215 0 255 215 0 255 215 0 255 215 0 255 215 0 255 215 0 255 215 0 255 215 0 255 215 0 255 215 0 255 215 0 255 215 0 255 215 0 255 215 0 255 215 0 255 215 0 255 215 0 255 215 0 255 215 0 255 215 0 255 215 0 255 215 0 255 215 0 255 215 0 255 215 0 255 215 0 255 215 0 255 215 0 255 215 0 255 215 0 255 215 0 255 215 0 255 215 0 255 215 0 255 215 0 255 215 0 255 215 0 255 215 0 255 215 0 255 215 0 255 215 0 255 215 0 255 215 0 255 215 0 255 215 0 255 215 0 255 215 0 255 215 0 255 215 0 255 215 0 255 215 0 255 215 0 255 215 0 255 215 0 255 215 0 255 215 0 255 215 0 255 215 0 255 215 0 255 215 0 255 215 0 255 215 0 255 215 0 255 215 0 255 215 0 255 215 0 255 215 0 255 215 0 255 215 0 255 215 0 255 215 0 255 215 0 255 215 0 255 215 0 255 215 0 255 215 0 255 215 0 255 215 0 255 215 0 255 215 0 255 215 0 255 215 0 255 215 0 255 215 0 255 215 0 
255 215 0 255 215 0 255 215 0 255 215 0 255 215 0 255 215 0 255 215 0 255 215 0 255 215 0 255 215 0 255 215 0 255 215 0 255 215 0 255 215 0 255 215 0 255 215 0 255 215 0 255 215 0 255 215 0 255 215 0 255 215 0 255 215 0 255 215 0 255 215 0 255 215 0 255 215 0 255 215 0 255 215 0 255 215 0 255 215 0 255 215 0 255 215 0 255 215 0 255 215 0 255 215 0 255 215 0 255 215 0 255 215 0 255 215 0 255 215 0 255 215 0 255 215 0 255 215 0 255 215 0 255 215 0 255 215 0 255 215 0 255 215 0 255 215 0 255 215 0 255 215 0 255 215 0 255 215 0 255 215 0 255 215 0 255 215 0 255 215 0 255 215 0 255 215 0 255 215 0 255 215 0 255 215 0 255 215 0 255 215 0 255 215 0 255 215 0 255 215 0 255 215 0 255 215 0 255 215 0 255 215 0 255 215 0 255 215 0 255 215 0 255 215 0 255 215 0 255 215 0 255 215 0 255 215 0 255 215 0 255 215 0 255 215 0 255 215 0 255 215 0 255 215 0 255 215 0 255 215 0 255 215 0 255 215 0 255 215 0 255 215 0 255 215 0 255 215 0 255 215 0 255 215 0 255 215 0 255 215 0 255 215 0 255 215 0 255 215 0 255 215 0 255 215 0 255 215 0 255 215 0 255 215 0 255 215 0 255 215 0 255 215 0 255 215 0 255 215 0 255 215 0 255 215 0 255 215 0 255 215 0 255 215 0 255 215 0 255 215 0 255 215 0 255 215 0 255 215 0 255 215 0 255 215 0 255 215 0 255 215 0 255 215 0 255 215 0 255 215 0 255 215 0 255 215 0 255 215 0 255 215 0 255 215 0 255 215 0 255 215 0 255 215 0 255 215 0 255 215 0 255 215 0 255 215 0 255 215 0 255 215 0 255 215 0 255 215 0 255 215 0 255 215 0 255 215 0 255 215 0 255 215 0 255 215 0 255 215 0 255 215 0 255 215 0 255 215 0 255 215 0 255 215 0 255 215 0 255 215 0 255 215 0 255 215 0 255 215 0 255 215 0 255 215 0 255 215 0 255 215 0 255 215 0 255 215 0 255 215 0 255 215 0 255 215 0 255 215 0 255 215 0 255 215 0 255 215 0 255 215 0 255 215 0 255 215 0 255 215 0 255 215 0 255 215 0 255 215 0 255 215 0 255 215 0 255 215 0 255 215 0 255 215 0 255 215 0 255 215 0 255 215 0 255 215 0 255 215 0 255 215 0 255 215 0 255 215 0 255 215 0 255 215 0 255 215 0 255 215 0 255 215 0 255 215 0 255 215 0 255 215 0 255 215 0 255 215 0 255 215 0 255 215 0 255 215 0 255 215 0 255 215 0 255 215 0 255 215 0 255 215 0 255 215 0 255 215 0 255 215 0 255 215 0 255 215 0 255 215 0 255 215 0 255 215 0 255 215 0 255 215 0 255 215 0 255 215 0 255 215 0 255 215 0 255 215 0 255 215 0 255 215 0 255 215 0 255 215 0 255 215 0 255 215 0 255 215 0 255 215 0 255 215 0 255 215 0 255 215 0 255 215 0 255 215 0 255 215 0 255 215 0 255 215 0 255 215 0 255 215 0 255 215 0 255 215 0 255 215 0 255 215 0 255 215 0 255 215 0 255 215 0 255 215 0 255 215 0 255 215 0 255 215 0 255 215 0 255 215 0 255 215 0 255 215 0 255 215 0 255 215 0 255 215 0 255 215 0 255 215 0 255 215 0 255 215 0 255 215 0 255 215 0 255 215 0 255 215 0 255 215 0 255 215 0 255 215 0 255 215 0 255 215 0 255 215 0 255 215 0 255 215 0 255 215 0 255 215 0 255 215 0 255 215 0 255 215 0 255 215 0 255 215 0 255 215 0 255 215 0 255 215 0 255 215 0 255 215 0 255 215 0 255 215 0 255 215 0 255 215 0 255 215 0 255 215 0 255 215 0 255 215 0 255 215 0 255 215 0 
255 215 0 255 215 0 255 215 0 255 215 0 255 215 0 255 215 0 255 215 0 255 215 0 255 215 0 255 215 0 255 215 0 255 215 0 255 215 0 255 215 0 255 215 0 255 215 0 255 215 0 255 215 0 255 215 0 255 215 0 255 215 0 255 215 0 255 215 0 255 215 0 255 215 0 255 215 0 255 215 0 255 215 0 255 215 0 255 215 0 255 215 0 255 215 0 255 215 0 255 215 0 255 215 0 255 215 0 255 215 0 255 215 0 255 215 0 255 215 0 255 215 0 255 215 0 255 215 0 255 215 0 255 215 0 255 215 0 255 215 0 255 215 0 255 215 0 255 215 0 255 215 0 255 215 0 255 215 0 255 215 0 255 215 0 255 215 0 255 215 0 255 215 0 255 215 0 255 215 0 255 215 0 255 215 0 255 215 0 255 215 0 255 215 0 255 215 0 255 215 0 255 215 0 255 215 0 255 215 0 255 215 0 255 215 0 255 215 0 255 215 0 255 215 0 255 215 0 255 215 0 255 215 0 255 215 0 255 215 0 255 215 0 255 215 0 255 215 0 255 215 0 255 215 0 255 215 0 255 215 0 255 215 0 255 215 0 255 215 0 255 215 0 255 215 0 255 215 0 255 215 0 255 215 0 255 215 0 255 215 0 255 215 0 255 215 0 255 215 0 255 215 0 255 215 0 255 215 0 255 215 0 255 215 0 255 215 0 255 215 0 255 215 0 255 215 0 255 215 0 255 215 0 255 215 0 255 215 0 255 215 0 255 215 0 255 215 0 255 215 0 255 215 0 255 215 0 255 215 0 255 215 0 255 215 0 255 215 0 255 215 0 255 215 0 255 215 0 255 215 0 255 215 0 255 215 0 255 215 0 255 215 0 255 215 0 255 215 0 255 215 0 255 215 0 255 215 0 255 215 0 255 215 0 255 215 0 255 215 0 255 215 0 255 215 0 255 215 0 255 215 0 255 215 0 255 215 0 255 215 0 255 215 0 255 215 0 255 215 0 255 215 0 255 215 0 255 215 0 255 215 0 255 215 0 255 215 0 255 215 0 255 215 0 255 215 0 255 215 0 255 215 0 255 215 0 255 215 0 255 215 0 255 215 0 255 215 0 255 215 0 255 215 0 255 215 0 255 215 0 255 215 0 255 215 0 255 215 0 255 215 0 255 215 0 255 215 0 255 215 0 255 215 0 255 215 0 255 215 0 255 215 0 255 215 0 255 215 0 255 215 0 255 215 0 255 215 0 255 215 0 255 215 0 255 215 0 255 215 0 255 215 0 255 215 0 255 215 0 255 215 0 255 215 0 255 215 0 255 215 0 255 215 0 255 215 0 255 215 0 255 215 0 255 215 0 255 215 0 255 215 0 255 215 0 255 215 0 255 215 0 255 215 0 255 215 0 255 215 0 255 215 0 255 215 0 255 215 0 255 215 0 255 215 0 255 215 0 255 215 0 255 215 0 255 215 0 255 215 0 255 215 0 255 215 0 255 215 0 255 215 0 255 215 0 255 215 0 255 215 0 255 215 0 255 215 0 255 215 0 255 215 0 255 215 0 255 215 0 255 215 0 255 215 0 255 215 0 255 215 0 255 215 0 255 215 0 255 215 0 255 215 0 255 215 0 255 215 0 255 215 0 255 215 0 255 215 0 255 215 0 255 215 0 255 215 0 255 215 0 255 215 0 255 215 0 255 215 0 255 215 0 255 215 0 255 215 0 255 215 0 255 215 0 255 215 0 255 215 0 255 215 0 255 215 0 255 215 0 255 215 0 255 215 0 255 215 0 255 215 0 255 215 0 255 215 0 255 215 0 255 215 0 255 215 0 255 215 0 255 215 0 255 215 0 255 215 0 255 215 0 255 215 0 255 215 0 255 215 0 255 215 0 255 215 0 255 215 0 255 215 0 255 215 0 255 215 0 255 215 0 255 215 0 255 215 0 255 215 0 255 215 0 255 215 0 255 215 0 255 215 0 255 215 0 255 215 0 255 215 0 255 215 0 255 215 0 255 215 0 
255 215 0 255 215 0 255 215 0 255 215 0 255 215 0 255 215 0 255 215 0 255 215 0 255 215 0 255 215 0 255 215 0 255 215 0 255 215 0 255 215 0 255 215 0 255 215 0 255 215 0 255 215 0 255 215 0 255 215 0 255 215 0 255 215 0 255 215 0 255 215 0 255 215 0 255 215 0 255 215 0 255 215 0 255 215 0 255 215 0 255 215 0 255 215 0 255 215 0 255 215 0 255 215 0 255 215 0 255 215 0 255 215 0 255 215 0 255 215 0 255 215 0 255 215 0 255 215 0 255 215 0 255 215 0 255 215 0 255 215 0 255 215 0 255 215 0 255 215 0 255 215 0 255 215 0 255 215 0 255 215 0 255 215 0 255 215 0 255 215 0 255 215 0 255 215 0 255 215 0 255 215 0 255 215 0 255 215 0 255 215 0 255 215 0 255 215 0 255 215 0 255 215 0 255 215 0 255 215 0 255 215 0 255 215 0 255 215 0 255 215 0 255 215 0 255 215 0 255 215 0 255 215 0 255 215 0 255 215 0 255 215 0 255 215 0 255 215 0 255 215 0 255 215 0 255 215 0 255 215 0 255 215 0 255 215 0 255 215 0 255 215 0 255 215 0 255 215 0 255 215 0 255 215 0 255 215 0 255 215 0 255 215 0 255 215 0 255 215 0 255 215 0 255 215 0 255 215 0 255 215 0 255 215 0 255 215 0 255 215 0 255 215 0 255 215 0 255 215 0 255 215 0 255 215 0 255 215 0 255 215 0 255 215 0 255 215 0 255 215 0 255 215 0 255 215 0 255 215 0 255 215 0 255 215 0 255 215 0 255 215 0 255 215 0 255 215 0 255 215 0 255 215 0 255 215 0 255 215 0 255 215 0 255 215 0 255 215 0 255 215 0 255 215 0 255 215 0 255 215 0 255 215 0 255 215 0 255 215 0 255 215 0 255 215 0 255 215 0 255 215 0 255 215 0 255 215 0 255 215 0 255 215 0 255 215 0 255 215 0 255 215 0 255 215 0 255 215 0 255 215 0 255 215 0 255 215 0 255 215 0 255 215 0 255 215 0 255 215 0 255 215 0 255 215 0 255 215 0 255 215 0 255 215 0 255 215 0 255 215 0 255 215 0 255 215 0 255 215 0 255 215 0 255 215 0 255 215 0 255 215 0 255 215 0 255 215 0 255 215 0 255 215 0 255 215 0 255 215 0 255 215 0 255 215 0 255 215 0 255 215 0 255 215 0 255 215 0 255 215 0 255 215 0 255 215 0 255 215 0 255 215 0 255 215 0 255 215 0 255 215 0 255 215 0 255 215 0 255 215 0 255 215 0 255 215 0 255 215 0 255 215 0 255 215 0 255 215 0 255 215 0 255 215 0 255 215 0 255 215 0 255 215 0 255 215 0 255 215 0 255 215 0 255 215 0 255 215 0 255 215 0 255 215 0 255 215 0 255 215 0 255 215 0 255 215 0 255 215 0 255 215 0 255 215 0 255 215 0 255 215 0 255 215 0 255 215 0 255 215 0 255 215 0 255 215 0 255 215 0 255 215 0 255 215 0 255 215 0 255 215 0 255 215 0 255 215 0 255 215 0 255 215 0 255 215 0 255 215 0 255 215 0 255 215 0 255 215 0 255 215 0 255 215 0 255 215 0 255 215 0 255 215 0 255 215 0 255 215 0 255 215 0 255 215 0 255 215 0 255 215 0 255 215 0 255 215 0 255 215 0 255 215 0 255 215 0 255 215 0 255 215 0 255 215 0 255 215 0 255 215 0 255 215 0 255 215 0 255 215 0 255 215 0 255 215 0 255 215 0 255 215 0 255 215 0 255 215 0 255 215 0 255 215 0 255 215 0 255 215 0 255 215 0 255 215 0 255 215 0 255 215 0 255 215 0 255 215 0 255 215 0 255 215 0 255 215 0 255 215 0 255 215 0 255 215 0 255 215 0 255 215 0 255 215 0 255 215 0 255 215 0 255 215 0 255 215 0 255 215 0 255 215 0 255 215 0 255 215 0 
255 215 0 255 215 0 255 215 0 255 215 0 255 215 0 255 215 0 255 215 0 255 215 0 255 215 0 255 215 0 255 215 0 255 215 0 255 215 0 255 215 0 255 215 0 255 215 0 255 215 0 255 215 0 255 215 0 255 215 0 255 215 0 255 215 0 255 215 0 255 215 0 255 215 0 255 215 0 255 215 0 255 215 0 255 215 0 255 215 0 255 215 0 255 215 0 255 215 0 255 215 0 255 215 0 255 215 0 255 215 0 255 215 0 255 215 0 255 215 0 255 215 0 255 215 0 255 215 0 255 215 0 255 215 0 255 215 0 255 215 0 255 215 0 255 215 0 255 215 0 255 215 0 255 215 0 255 215 0 255 215 0 255 215 0 255 215 0 255 215 0 255 215 0 255 215 0 255 215 0 255 215 0 255 215 0 255 215 0 255 215 0 255 215 0 255 215 0 255 215 0 255 215 0 255 215 0 255 215 0 255 215 0 255 215 0 255 215 0 255 215 0 255 215 0 255 215 0 255 215 0 255 215 0 255 215 0 255 215 0 255 215 0 255 215 0 255 215 0 255 215 0 255 215 0 255 215 0 255 215 0 255 215 0 255 215 0 255 215 0 255 215 0 255 215 0 255 215 0 255 215 0 255 215 0 255 215 0 255 215 0 255 215 0 255 215 0 255 215 0 255 215 0 255 215 0 255 215 0 255 215 0 255 215 0 255 215 0 255 215 0 255 215 0 255 215 0 255 215 0 255 215 0 255 215 0 255 215 0 255 215 0 255 215 0 255 215 0 255 215 0 255 215 0 255 215 0 255 215 0 255 215 0 255 215 0 255 215 0 255 215 0 255 215 0 255 215 0 255 215 0 255 215 0 255 215 0 255 215 0 255 215 0 255 215 0 255 215 0 255 215 0 255 215 0 255 215 0 255 215 0 255 215 0 255 215 0 255 215 0 255 215 0 255 215 0 255 215 0 255 215 0 255 215 0 255 215 0 255 215 0 255 215 0 255 215 0 255 215 0 255 215 0 255 215 0 255 215 0 255 215 0 255 215 0 255 215 0 255 215 0 255 215 0 255 215 0 255 215 0 255 215 0 255 215 0 255 215 0 255 215 0 255 215 0 255 215 0 255 215 0 255 215 0 255 215 0 255 215 0 255 215 0 255 215 0 255 215 0 255 215 0 255 215 0 255 215 0 255 215 0 255 215 0 255 215 0 255 215 0 255 215 0 255 215 0 255 215 0 255 215 0 255 215 0 255 215 0 255 215 0 255 215 0 255 215 0 255 215 0 255 215 0 255 215 0 255 215 0 255 215 0 255 215 0 255 215 0 255 215 0 255 215 0 255 215 0 255 215 0 255 215 0 255 215 0 255 215 0 255 215 0 255 215 0 255 215 0 255 215 0 255 215 0 255 215 0 255 215 0 255 215 0 255 215 0 255 215 0 255 215 0 255 215 0 255 215 0 255 215 0 255 215 0 255 215 0 255 215 0 255 215 0 255 215 0 255 215 0 255 215 0 255 215 0 255 215 0 255 215 0 255 215 0 255 215 0 255 215 0 255 215 0 255 215 0 255 215 0 255 215 0 255 215 0 255 215 0 255 215 0 255 215 0 255 215 0 255 215 0 255 215 0 255 215 0 255 215 0 255 215 0 255 215 0 255 215 0 255 215 0 255 215 0 255 215 0 255 215 0 255 215 0 255 215 0 255 215 0 255 215 0 255 215 0 255 215 0 255 215 0 255 215 0 255 215 0 255 215 0 255 215 0 255 215 0 255 215 0 255 215 0 255 215 0 255 215 0 255 215 0 255 215 0 255 215 0 255 215 0 255 215 0 255 215 0 255 215 0 255 215 0 255 215 0 255 215 0 255 215 0 255 215 0 255 215 0 255 215 0 255 215 0 255 215 0 255 215 0 255 215 0 255 215 0 255 215 0 255 215 0 255 215 0 255 215 0 255 215 0 255 215 0 255 215 0 255 215 0 255 215 0 255 215 0 255 215 0 255 215 0 255 215 0 255 215 0 255 215 0 
255 215 0 255 215 0 255 215 0 255 215 0 255 215 0 255 215 0 255 215 0 255 215 0 255 215 0 255 215 0 255 215 0 255 215 0 255 215 0 255 215 0 255 215 0 255 215 0 255 215 0 255 215 0 255 215 0 255 215 0 255 215 0 255 215 0 255 215 0 255 215 0 255 215 0 255 215 0 255 215 0 255 215 0 255 215 0 255 215 0 255 215 0 255 215 0 255 215 0 255 215 0 255 215 0 255 215 0 255 215 0 255 215 0 255 215 0 255 215 0 255 215 0 255 215 0 255 215 0 255 215 0 255 215 0 255 215 0 255 215 0 255 215 0 255 215 0 255 215 0 255 215 0 255 215 0 255 215 0 255 215 0 255 215 0 255 215 0 255 215 0 255 215 0 255 215 0 255 215 0 255 215 0 255 215 0 255 215 0 255 215 0 255 215 0 255 215 0 255 215 0 255 215 0 255 215 0 255 215 0 255 215 0 255 215 0 255 215 0 255 215 0 255 215 0 255 215 0 255 215 0 255 215 0 255 215 0 255 215 0 255 215 0 255 215 0 255 215 0 255 215 0 255 215 0 255 215 0 255 215 0 255 215 0 255 215 0 255 215 0 255 215 0 255 215 0 255 215 0 255 215 0 255 215 0 255 215 0 255 215 0 255 215 0 255 215 0 255 215 0 255 215 0 255 215 0 255 215 0 255 215 0 255 215 0 255 215 0 255 215 0 255 215 0 255 215 0 255 215 0 255 215 0 255 215 0 255 215 0 255 215 0 255 215 0 255 215 0 255 215 0 255 215 0 255 215 0 255 215 0 255 215 0 255 215 0 255 215 0 255 215 0 255 215 0 255 215 0 255 215 0 255 215 0 255 215 0 255 215 0 255 215 0 255 215 0 255 215 0 255 215 0 255 215 0 255 215 0 255 215 0 255 215 0 255 215 0 255 215 0 255 215 0 255 215 0 255 215 0 255 215 0 255 215 0 255 215 0 255 215 0 255 215 0 255 215 0 255 215 0 255 215 0 255 215 0 255 215 0 255 215 0 255 215 0 255 215 0 255 215 0 255 215 0 255 215 0 255 215 0 255 215 0 255 215 0 255 215 0 255 215 0 255 215 0 255 215 0 255 215 0 255 215 0 255 215 0 255 215 0 255 215 0 255 215 0 255 215 0 255 215 0 255 215 0 255 215 0 255 215 0 255 215 0 255 215 0 255 215 0 255 215 0 255 215 0 255 215 0 255 215 0 255 215 0 255 215 0 255 215 0 255 215 0 255 215 0 255 215 0 255 215 0 255 215 0 255 215 0 255 215 0 255 215 0 255 215 0 255 215 0 255 215 0 255 215 0 255 215 0 255 215 0 255 215 0 255 215 0 255 215 0 255 215 0 255 215 0 255 215 0 255 215 0 255 215 0 255 215 0 255 215 0 255 215 0 255 215 0 255 215 0 255 215 0 255 215 0 255 215 0 255 215 0 255 215 0 255 215 0 255 215 0 255 215 0 255 215 0 255 215 0 255 215 0 255 215 0 255 215 0 255 215 0 255 215 0 255 215 0 255 215 0 255 215 0 255 215 0 255 215 0 255 215 0 255 215 0 255 215 0 255 215 0 255 215 0 255 215 0 255 215 0 255 215 0 255 215 0 255 215 0 255 215 0 255 215 0 255 215 0 255 215 0 255 215 0 255 215 0 255 215 0 255 215 0 255 215 0 255 215 0 255 215 0 255 215 0 255 215 0 255 215 0 255 215 0 255 215 0 255 215 0 255 215 0 255 215 0 255 215 0 255 215 0 255 215 0 255 215 0 255 215 0 255 215 0 255 215 0 255 215 0 255 215 0 255 215 0 255 215 0 255 215 0 255 215 0 255 215 0 255 215 0 255 215 0 255 215 0 255 215 0 255 215 0 255 215 0 255 215 0 255 215 0 255 215 0 255 215 0 255 215 0 255 215 0 255 215 0 255 215 0 255 215 0 255 215 0 255 215 0 255 215 0 255 215 0 255 215 0 255 215 0 255 215 0 255 215 0 
255 215 0 255 215 0 255 215 0 255 215 0 255 215 0 255 215 0 255 215 0 255 215 0 255 215 0 255 215 0 255 215 0 255 215 0 255 215 0 255 215 0 255 215 0 255 215 0 255 215 0 255 215 0 255 215 0 255 215 0 255 215 0 255 215 0 255 215 0 255 215 0 255 215 0 255 215 0 255 215 0 255 215 0 255 215 0 255 215 0 255 215 0 255 215 0 255 215 0 255 215 0 255 215 0 255 215 0 255 215 0 255 215 0 255 215 0 255 215 0 255 215 0 255 215 0 255 215 0 255 215 0 255 215 0 255 215 0 255 215 0 255 215 0 255 215 0 255 215 0 255 215 0 255 215 0 255 215 0 255 215 0 255 215 0 255 215 0 255 215 0 255 215 0 255 215 0 255 215 0 255 215 0 255 215 0 255 215 0 255 215 0 255 215 0 255 215 0 255 215 0 255 215 0 255 215 0 255 215 0 255 215 0 255 215 0 255 215 0 255 215 0 255 215 0 255 215 0 255 215 0 255 215 0 255 215 0 255 215 0 255 215 0 255 215 0 255 215 0 255 215 0 255 215 0 255 215 0 255 215 0 255 215 0 255 215 0 255 215 0 255 215 0 255 215 0 255 215 0 255 215 0 255 215 0 255 215 0 255 215 0 255 215 0 255 215 0 255 215 0 255 215 0 255 215 0 255 215 0 255 215 0 255 215 0 255 215 0 255 215 0 255 215 0 255 215 0 255 215 0 255 215 0 255 215 0 255 215 0 255 215 0 255 215 0 255 215 0 255 215 0 255 215 0 255 215 0 255 215 0 255 215 0 255 215 0 255 215 0 255 215 0 255 215 0 255 215 0 255 215 0 255 215 0 255 215 0 255 215 0 255 215 0 255 215 0 255 215 0 255 215 0 255 215 0 255 215 0 255 215 0 255 215 0 255 215 0 255 215 0 255 215 0 255 215 0 255 215 0 255 215 0 255 215 0 255 215 0 255 215 0 255 215 0 255 215 0 255 215 0 255 215 0 255 215 0 255 215 0 255 215 0 255 215 0 255 215 0 255 215 0 255 215 0 255 215 0 255 215 0 255 215 0 255 215 0 255 215 0 255 215 0 255 215 0 255 215 0 255 215 0 255 215 0 255 215 0 255 215 0 255 215 0 255 215 0 255 215 0 255 215 0 255 215 0 255 215 0 255 215 0 255 215 0 255 215 0 255 215 0 255 215 0 255 215 0 255 215 0 255 215 0 255 215 0 255 215 0 255 215 0 255 215 0 255 215 0 255 215 0 255 215 0 255 215 0 255 215 0 255 215 0 255 215 0 255 215 0 255 215 0 255 215 0 255 215 0 255 215 0 255 215 0 255 215 0 255 215 0 255 215 0 255 215 0 255 215 0 255 215 0 255 215 0 255 215 0 255 215 0 255 215 0 255 215 0 255 215 0 255 215 0 255 215 0 255 215 0 255 215 0 255 215 0 255 215 0 255 215 0 255 215 0 255 215 0 255 215 0 255 215 0 255 215 0 255 215 0 255 215 0 255 215 0 255 215 0 255 215 0 255 215 0 255 215 0 255 215 0 255 215 0 255 215 0 255 215 0 255 215 0 255 215 0 255 215 0 255 215 0 255 215 0 255 215 0 255 215 0 255 215 0 255 215 0 255 215 0 255 215 0 255 215 0 255 215 0 255 215 0 255 215 0 255 215 0 255 215 0 255 215 0 255 215 0 255 215 0 255 215 0 255 215 0 255 215 0 255 215 0 255 215 0 255 215 0 255 215 0 255 215 0 255 215 0 255 215 0 255 215 0 255 215 0 255 215 0 255 215 0 255 215 0 255 215 0 255 215 0 255 215 0 255 215 0 255 215 0 255 215 0 255 215 0 255 215 0 255 215 0 255 215 0 255 215 0 255 215 0 255 215 0 255 215 0 255 215 0 255 215 0 255 215 0 255 215 0 255 215 0 255 215 0 255 215 0 255 215 0 255 215 0 255 215 0 255 215 0 255 215 0 255 215 0 255 215 0 255 215 0 
255 215 0 255 215 0 255 215 0 255 215 0 255 215 0 255 215 0 255 215 0 255 215 0 255 215 0 255 215 0 255 215 0 255 215 0 255 215 0 255 215 0 255 215 0 255 215 0 255 215 0 255 215 0 255 215 0 255 215 0 255 215 0 255 215 0 255 215 0 255 215 0 255 215 0 255 215 0 255 215 0 255 215 0 255 215 0 255 215 0 255 215 0 255 215 0 255 215 0 255 215 0 255 215 0 255 215 0 255 215 0 255 215 0 255 215 0 255 215 0 255 215 0 255 215 0 255 215 0 255 215 0 255 215 0 255 215 0 255 215 0 255 215 0 255 215 0 255 215 0 255 215 0 255 215 0 255 215 0 255 215 0 255 215 0 255 215 0 255 215 0 255 215 0 255 215 0 255 215 0 255 215 0 255 215 0 255 215 0 255 215 0 255 215 0 255 215 0 255 215 0 255 215 0 255 215 0 255 215 0 255 215 0 255 215 0 255 215 0 255 215 0 255 215 0 255 215 0 255 215 0 255 215 0 255 215 0 255 215 0 255 215 0 255 215 0 255 215 0 255 215 0 255 215 0 255 215 0 255 215 0 255 215 0 255 215 0 255 215 0 255 215 0 255 215 0 255 215 0 255 215 0 255 215 0 255 215 0 255 215 0 255 215 0 255 215 0 255 215 0 255 215 0 255 215 0 255 215 0 255 215 0 255 215 0 255 215 0 255 215 0 255 215 0 255 215 0 255 215 0 255 215 0 255 215 0 255 215 0 255 215 0 255 215 0 255 215 0 255 215 0 255 215 0 255 215 0 255 215 0 255 215 0 255 215 0 255 215 0 255 215 0 255 215 0 255 215 0 255 215 0 255 215 0 255 215 0 255 215 0 255 215 0 255 215 0 255 215 0 255 215 0 255 215 0 255 215 0 255 215 0 255 215 0 255 215 0 255 215 0 255 215 0 255 215 0 255 215 0 255 215 0 255 215 0 255 215 0 255 215 0 255 215 0 255 215 0 255 215 0 255 215 0 255 215 0 255 215 0 255 215 0 255 215 0 255 215 0 255 215 0 255 215 0 255 215 0 255 215 0 255 215 0 255 215 0 255 215 0 255 215 0 255 215 0 255 215 0 255 215 0 255 215 0 255 215 0 255 215 0 255 215 0 255 215 0 255 215 0 255 215 0 255 215 0 255 215 0 255 215 0 255 215 0 255 215 0 255 215 0 255 215 0 255 215 0 255 215 0 255 215 0 255 215 0 255 215 0 255 215 0 255 215 0 255 215 0 255 215 0 255 215 0 255 215 0 255 215 0 255 215 0 255 215 0 255 215 0 255 215 0 255 215 0 255 215 0 255 215 0 255 215 0 255 215 0 255 215 0 255 215 0 255 215 0 255 215 0 255 215 0 255 215 0 255 215 0 255 215 0 255 215 0 255 215 0 255 215 0 255 215 0 255 215 0 255 215 0 255 215 0 255 215 0 255 215 0 255 215 0 255 215 0 255 215 0 255 215 0 255 215 0 255 215 0 255 215 0 255 215 0 255 215 0 255 215 0 255 215 0 255 215 0 255 215 0 255 215 0 255 215 0 255 215 0 255 215 0 255 215 0 255 215 0 255 215 0 255 215 0 255 215 0 255 215 0 255 215 0 255 215 0 255 215 0 255 215 0 255 215 0 255 215 0 255 215 0 255 215 0 255 215 0 255 215 0 255 215 0 255 215 0 255 215 0 255 215 0 255 215 0 255 215 0 255 215 0 255 215 0 255 215 0 255 215 0 255 215 0 255 215 0 255 215 0 255 215 0 255 215 0 255 215 0 255 215 0 255 215 0 255 215 0 255 215 0 255 215 0 255 215 0 255 215 0 255 215 0 255 215 0 255 215 0 255 215 0 255 215 0 255 215 0 255 215 0 255 215 0 255 215 0 255 215 0 255 215 0 255 215 0 255 215 0 255 215 0 255 215 0 255 215 0 255 215 0 255 215 0 255 215 0 255 215 0 255 215 0 255 215 0 255 215 0 255 215 0 255 215 0 
255 215 0 255 215 0 255 215 0 255 215 0 255 215 0 255 215 0 255 215 0 255 215 0 255 215 0 255 215 0 255 215 0 255 215 0 255 215 0 255 215 0 255 215 0 255 215 0 255 215 0 255 215 0 255 215 0 255 215 0 255 215 0 255 215 0 255 215 0 255 215 0 255 215 0 255 215 0 255 215 0 255 215 0 255 215 0 255 215 0 255 215 0 255 215 0 255 215 0 255 215 0 255 215 0 255 215 0 255 215 0 255 215 0 255 215 0 255 215 0 255 215 0 255 215 0 255 215 0 255 215 0 255 215 0 255 215 0 255 215 0 255 215 0 255 215 0 255 215 0 255 215 0 255 215 0 255 215 0 255 215 0 255 215 0 255 215 0 255 215 0 255 215 0 255 215 0 255 215 0 255 215 0 255 215 0 255 215 0 255 215 0 255 215 0 255 215 0 255 215 0 255 215 0 255 215 0 255 215 0 255 215 0 255 215 0 255 215 0 255 215 0 255 215 0 255 215 0 255 215 0 255 215 0 255 215 0 255 215 0 255 215 0 255 215 0 255 215 0 255 215 0 255 215 0 255 215 0 255 215 0 255 215 0 255 215 0 255 215 0 255 215 0 255 215 0 255 215 0 255 215 0 255 215 0 255 215 0 255 215 0 255 215 0 255 215 0 255 215 0 255 215 0 255 215 0 255 215 0 255 215 0 255 215 0 255 215 0 255 215 0 255 215 0 255 215 0 255 215 0 255 215 0 255 215 0 255 215 0 255 215 0 255 215 0 255 215 0 255 215 0 255 215 0 255 215 0 255 215 0 255 215 0 255 215 0 255 215 0 255 215 0 255 215 0 255 215 0 255 215 0 255 215 0 255 215 0 255 215 0 255 215 0 255 215 0 255 215 0 255 215 0 255 215 0 255 215 0 255 215 0 255 215 0 255 215 0 255 215 0 255 215 0 255 215 0 255 215 0 255 215 0 255 215 0 255 215 0 255 215 0 255 215 0 255 215 0 255 215 0 255 215 0 255 215 0 255 215 0 255 215 0 255 215 0 255 215 0 255 215 0 255 215 0 255 215 0 255 215 0 255 215 0 255 215 0 255 215 0 255 215 0 255 215 0 255 215 0 255 215 0 255 215 0 255 215 0 255 215 0 255 215 0 255 215 0 255 215 0 255 215 0 255 215 0 255 215 0 255 215 0 255 215 0 255 215 0 255 215 0 255 215 0 255 215 0 255 215 0 255 215 0 255 215 0 255 215 0 255 215 0 255 215 0 255 215 0 255 215 0 255 215 0 255 215 0 255 215 0 255 215 0 255 215 0 255 215 0 255 215 0 255 215 0 255 215 0 255 215 0 255 215 0 255 215 0 255 215 0 255 215 0 255 215 0 255 215 0 255 215 0 255 215 0 255 215 0 255 215 0 255 215 0 255 215 0 255 215 0 255 215 0 255 215 0 255 215 0 255 215 0 255 215 0 255 215 0 255 215 0 255 215 0 255 215 0 255 215 0 255 215 0 255 215 0 255 215 0 255 215 0 255 215 0 255 215 0 255 215 0 255 215 0 255 215 0 255 215 0 255 215 0 255 215 0 255 215 0 255 215 0 255 215 0 255 215 0 255 215 0 255 215 0 255 215 0 255 215 0 255 215 0 255 215 0 255 215 0 255 215 0 255 215 0 255 215 0 255 215 0 255 215 0 255 215 0 255 215 0 255 215 0 255 215 0 255 215 0 255 215 0 255 215 0 255 215 0 255 215 0 255 215 0 255 215 0 255 215 0 255 215 0 255 215 0 255 215 0 255 215 0 255 215 0 255 215 0 255 215 0 255 215 0 255 215 0 255 215 0 255 215 0 255 215 0 255 215 0 255 215 0 255 215 0 255 215 0 255 215 0 255 215 0 255 215 0 255 215 0 255 215 0 255 215 0 255 215 0 255 215 0 255 215 0 255 215 0 255 215 0 255 215 0 255 215 0 255 215 0 255 215 0 255 215 0 255 215 0 255 215 0 255 215 0 255 215 0 255 215 0 
255 215 0 255 215 0 255 215 0 255 215 0 255 215 0 255 215 0 255 215 0 255 215 0 255 215 0 255 215 0 255 215 0 255 215 0 255 215 0 255 215 0 255 215 0 255 215 0 255 215 0 255 215 0 255 215 0 255 215 0 255 215 0 255 215 0 255 215 0 255 215 0 255 215 0 255 215 0 255 215 0 255 215 0 255 215 0 255 215 0 255 215 0 255 215 0 255 215 0 255 215 0 255 215 0 255 215 0 255 215 0 255 215 0 255 215 0 255 215 0 255 215 0 255 215 0 255 215 0 255 215 0 255 215 0 255 215 0 255 215 0 255 215 0 255 215 0 255 215 0 255 215 0 255 215 0 255 215 0 255 215 0 255 215 0 255 215 0 255 215 0 255 215 0 255 215 0 255 215 0 255 215 0 255 215 0 255 215 0 255 215 0 255 215 0 255 215 0 255 215 0 255 215 0 255 215 0 255 215 0 255 215 0 255 215 0 255 215 0 255 215 0 255 215 0 255 215 0 255 215 0 255 215 0 255 215 0 255 215 0 255 215 0 255 215 0 255 215 0 255 215 0 255 215 0 255 215 0 255 215 0 255 215 0 255 215 0 255 215 0 255 215 0 255 215 0 255 215 0 255 215 0 255 215 0 255 215 0 255 215 0 255 215 0 255 215 0 255 215 0 255 215 0 255 215 0 255 215 0 255 215 0 255 215 0 255 215 0 255 215 0 255 215 0 255 215 0 255 215 0 255 215 0 255 215 0 255 215 0 255 215 0 255 215 0 255 215 0 255 215 0 255 215 0 255 215 0 255 215 0 255 215 0 255 215 0 255 215 0 255 215 0 255 215 0 255 215 0 255 215 0 255 215 0 255 215 0 255 215 0 255 215 0 255 215 0 255 215 0 255 215 0 255 215 0 255 215 0 255 215 0 255 215 0 255 215 0 255 215 0 255 215 0 255 215 0 255 215 0 255 215 0 255 215 0 255 215 0 255 215 0 255 215 0 255 215 0 255 215 0 255 215 0 255 215 0 255 215 0 255 215 0 255 215 0 255 215 0 255 215 0 255 215 0 255 215 0 255 215 0 255 215 0 255 215 0 255 215 0 255 215 0 255 215 0 255 215 0 255 215 0 255 215 0 255 215 0 255 215 0 255 215 0 255 215 0 255 215 0 255 215 0 255 215 0 255 215 0 255 215 0 255 215 0 255 215 0 255 215 0 255 215 0 255 215 0 255 215 0 255 215 0 255 215 0 255 215 0 255 215 0 255 215 0 255 215 0 255 215 0 255 215 0 255 215 0 255 215 0 255 215 0 255 215 0 255 215 0 255 215 0 255 215 0 255 215 0 255 215 0 255 215 0 255 215 0 255 215 0 255 215 0 255 215 0 255 215 0 255 215 0 255 215 0 255 215 0 255 215 0 255 215 0 255 215 0 255 215 0 255 215 0 255 215 0 255 215 0 255 215 0 255 215 0 255 215 0 255 215 0 255 215 0 255 215 0 255 215 0 255 215 0 255 215 0 255 215 0 255 215 0 255 215 0 255 215 0 255 215 0 255 215 0 255 215 0 255 215 0 255 215 0 255 215 0 255 215 0 255 215 0 255 215 0 255 215 0 255 215 0 255 215 0 255 215 0 255 215 0 255 215 0 255 215 0 255 215 0 255 215 0 255 215 0 255 215 0 255 215 0 255 215 0 255 215 0 255 215 0 255 215 0 255 215 0 255 215 0 255 215 0 255 215 0 255 215 0 255 215 0 255 215 0 255 215 0 255 215 0 255 215 0 255 215 0 255 215 0 255 215 0 255 215 0 255 215 0 255 215 0 255 215 0 255 215 0 255 215 0 255 215 0 255 215 0 255 215 0 255 215 0 255 215 0 255 215 0 255 215 0 255 215 0 255 215 0 255 215 0 255 215 0 255 215 0 255 215 0 255 215 0 255 215 0 255 215 0 255 215 0 255 215 0 255 215 0 255 215 0 255 215 0 255 215 0 255 215 0 255 215 0 255 215 0 255 215 0 255 215 0 
255 215 0 255 215 0 255 215 0 255 215 0 255 215 0 255 215 0 255 215 0 255 215 0 255 215 0 255 215 0 255 215 0 255 215 0 255 215 0 255 215 0 255 215 0 255 215 0 255 215 0 255 215 0 255 215 0 255 215 0 255 215 0 255 215 0 255 215 0 255 215 0 255 215 0 255 215 0 255 215 0 255 215 0 255 215 0 255 215 0 255 215 0 255 215 0 255 215 0 255 215 0 255 215 0 255 215 0 255 215 0 255 215 0 255 215 0 255 215 0 255 215 0 255 215 0 255 215 0 255 215 0 255 215 0 255 215 0 255 215 0 255 215 0 255 215 0 255 215 0 255 215 0 255 215 0 255 215 0 255 215 0 255 215 0 255 215 0 255 215 0 255 215 0 255 215 0 255 215 0 255 215 0 255 215 0 255 215 0 255 215 0 255 215 0 255 215 0 255 215 0 255 215 0 255 215 0 255 215 0 255 215 0 255 215 0 255 215 0 255 215 0 255 215 0 255 215 0 255 215 0 255 215 0 255 215 0 255 215 0 255 215 0 255 215 0 255 215 0 255 215 0 255 215 0 255 215 0 255 215 0 255 215 0 255 215 0 255 215 0 255 215 0 255 215 0 255 215 0 255 215 0 255 215 0 255 215 0 255 215 0 255 215 0 255 215 0 255 215 0 255 215 0 255 215 0 255 215 0 255 215 0 255 215 0 255 215 0 255 215 0 255 215 0 255 215 0 255 215 0 255 215 0 255 215 0 255 215 0 255 215 0 255 215 0 255 215 0 255 215 0 255 215 0 255 215 0 255 215 0 255 215 0 255 215 0 255 215 0 255 215 0 255 215 0 255 215 0 255 215 0 255 215 0 255 215 0 255 215 0 255 215 0 255 215 0 255 215 0 255 215 0 255 215 0 255 215 0 255 215 0 255 215 0 255 215 0 255 215 0 255 215 0 255 215 0 255 215 0 255 215 0 255 215 0 255 215 0 255 215 0 255 215 0 255 215 0 255 215 0 255 215 0 255 215 0 255 215 0 255 215 0 255 215 0 255 215 0 255 215 0 255 215 0 255 215 0 255 215 0 255 215 0 255 215 0 255 215 0 255 215 0 255 215 0 255 215 0 255 215 0 255 215 0 255 215 0 255 215 0 255 215 0 255 215 0 255 215 0 255 215 0 255 215 0 255 215 0 255 215 0 255 215 0 255 215 0 255 215 0 255 215 0 255 215 0 255 215 0 255 215 0 255 215 0 255 215 0 255 215 0 255 215 0 255 215 0 255 215 0 255 215 0 255 215 0 255 215 0 255 215 0 255 215 0 255 215 0 255 215 0 255 215 0 255 215 0 255 215 0 255 215 0 255 215 0 255 215 0 255 215 0 255 215 0 255 215 0 255 215 0 255 215 0 255 215 0 255 215 0 255 215 0 255 215 0 255 215 0 255 215 0 255 215 0 255 215 0 255 215 0 255 215 0 255 215 0 255 215 0 255 215 0 255 215 0 255 215 0 255 215 0 255 215 0 255 215 0 255 215 0 255 215 0 255 215 0 255 215 0 255 215 0 255 215 0 255 215 0 255 215 0 255 215 0 255 215 0 255 215 0 255 215 0 255 215 0 255 215 0 255 215 0 255 215 0 255 215 0 255 215 0 255 215 0 255 215 0 255 215 0 255 215 0 255 215 0 255 215 0 255 215 0 255 215 0 255 215 0 255 215 0 255 215 0 255 215 0 255 215 0 255 215 0 255 215 0 255 215 0 255 215 0 255 215 0 255 215 0 255 215 0 255 215 0 255 215 0 255 215 0 255 215 0 255 215 0 255 215 0 255 215 0 255 215 0 255 215 0 255 215 0 255 215 0 255 215 0 255 215 0 255 215 0 255 215 0 255 215 0 255 215 0 255 215 0 255 215 0 255 215 0 255 215 0 255 215 0 255 215 0 255 215 0 255 215 0 255 215 0 255 215 0 255 215 0 255 215 0 255 215 0 255 215 0 255 215 0 255 215 0 255 215 0 255 215 0 255 215 0 
255 215 0 255 215 0 255 215 0 255 215 0 255 215 0 255 215 0 255 215 0 255 215 0 255 215 0 255 215 0 255 215 0 255 215 0 255 215 0 255 215 0 255 215 0 255 215 0 255 215 0 255 215 0 255 215 0 255 215 0 255 215 0 255 215 0 255 215 0 255 215 0 255 215 0 255 215 0 255 215 0 255 215 0 255 215 0 255 215 0 255 215 0 255 215 0 255 215 0 255 215 0 255 215 0 255 215 0 255 215 0 255 215 0 255 215 0 255 215 0 255 215 0 255 215 0 255 215 0 255 215 0 255 215 0 255 215 0 255 215 0 255 215 0 255 215 0 255 215 0 255 215 0 255 215 0 255 215 0 255 215 0 255 215 0 255 215 0 255 215 0 255 215 0 255 215 0 255 215 0 255 215 0 255 215 0 255 215 0 255 215 0 255 215 0 255 215 0 255 215 0 255 215 0 255 215 0 255 215 0 255 215 0 255 215 0 255 215 0 255 215 0 255 215 0 255 215 0 255 215 0 255 215 0 255 215 0 255 215 0 255 215 0 255 215 0 255 215 0 255 215 0 255 215 0 255 215 0 255 215 0 255 215 0 255 215 0 255 215 0 255 215 0 255 215 0 255 215 0 255 215 0 255 215 0 255 215 0 255 215 0 255 215 0 255 215 0 255 215 0 255 215 0 255 215 0 255 215 0 255 215 0 255 215 0 255 215 0 255 215 0 255 215 0 255 215 0 255 215 0 255 215 0 255 215 0 255 215 0 255 215 0 255 215 0 255 215 0 255 215 0 255 215 0 255 215 0 255 215 0 255 215 0 255 215 0 255 215 0 255 215 0 255 215 0 255 215 0 255 215 0 255 215 0 255 215 0 255 215 0 255 215 0 255 215 0 255 215 0 255 215 0 255 215 0 255 215 0 255 215 0 255 215 0 255 215 0 255 215 0 255 215 0 255 215 0 255 215 0 255 215 0 255 215 0 255 215 0 255 215 0 255 215 0 255 215 0 255 215 0 255 215 0 255 215 0 255 215 0 255 215 0 255 215 0 255 215 0 255 215 0 255 215 0 255 215 0 255 215 0 255 215 0 255 215 0 255 215 0 255 215 0 255 215 0 255 215 0 255 215 0 255 215 0 255 215 0 255 215 0 255 215 0 255 215 0 255 215 0 255 215 0 255 215 0 255 215 0 255 215 0 255 215 0 255 215 0 255 215 0 255 215 0 255 215 0 255 215 0 255 215 0 255 215 0 255 215 0 255 215 0 255 215 0 255 215 0 255 215 0 255 215 0 255 215 0 255 215 0 255 215 0 255 215 0 255 215 0 255 215 0 255 215 0 255 215 0 255 215 0 255 215 0 255 215 0 255 215 0 255 215 0 255 215 0 255 215 0 255 215 0 255 215 0 255 215 0 255 215 0 255 215 0 255 215 0 255 215 0 255 215 0 255 215 0 255 215 0 255 215 0 255 215 0 255 215 0 255 215 0 255 215 0 255 215 0 255 215 0 255 215 0 255 215 0 255 215 0 255 215 0 255 215 0 255 215 0 255 215 0 255 215 0 255 215 0 255 215 0 255 215 0 255 215 0 255 215 0 255 215 0 255 215 0 255 215 0 255 215 0 255 215 0 255 215 0 255 215 0 255 215 0 255 215 0 255 215 0 255 215 0 255 215 0 255 215 0 255 215 0 255 215 0 255 215 0 255 215 0 255 215 0 255 215 0 255 215 0 255 215 0 255 215 0 255 215 0 255 215 0 255 215 0 255 215 0 255 215 0 255 215 0 255 215 0 255 215 0 255 215 0 255 215 0 255 215 0 255 215 0 255 215 0 255 215 0 255 215 0 255 215 0 255 215 0 255 215 0 255 215 0 255 215 0 255 215 0 255 215 0 255 215 0 255 215 0 255 215 0 255 215 0 255 215 0 255 215 0 255 215 0 255 215 0 255 215 0 255 215 0 255 215 0 255 215 0 255 215 0 255 215 0 255 215 0 255 215 0 255 215 0 255 215 0 255 215 0 255 215 0 
255 215 0 255 215 0 255 215 0 255 215 0 255 215 0 255 215 0 255 215 0 255 215 0 255 215 0 255 215 0 255 215 0 255 215 0 255 215 0 255 215 0 255 215 0 255 215 0 255 215 0 255 215 0 255 215 0 255 215 0 255 215 0 255 215 0 255 215 0 255 215 0 255 215 0 255 215 0 255 215 0 255 215 0 255 215 0 255 215 0 255 215 0 255 215 0 255 215 0 255 215 0 255 215 0 255 215 0 255 215 0 255 215 0 255 215 0 255 215 0 255 215 0 255 215 0 255 215 0 255 215 0 255 215 0 255 215 0 255 215 0 255 215 0 255 215 0 255 215 0 255 215 0 255 215 0 255 215 0 255 215 0 255 215 0 255 215 0 255 215 0 255 215 0 255 215 0 255 215 0 255 215 0 255 215 0 255 215 0 255 215 0 255 215 0 255 215 0 255 215 0 255 215 0 255 215 0 255 215 0 255 215 0 255 215 0 255 215 0 255 215 0 255 215 0 255 215 0 255 215 0 255 215 0 255 215 0 255 215 0 255 215 0 255 215 0 255 215 0 255 215 0 255 215 0 255 215 0 255 215 0 255 215 0 255 215 0 255 215 0 255 215 0 255 215 0 255 215 0 255 215 0 255 215 0 255 215 0 255 215 0 255 215 0 255 215 0 255 215 0 255 215 0 255 215 0 255 215 0 255 215 0 255 215 0 255 215 0 255 215 0 255 215 0 255 215 0 255 215 0 255 215 0 255 215 0 255 215 0 255 215 0 255 215 0 255 215 0 255 215 0 255 215 0 255 215 0 255 215 0 255 215 0 255 215 0 255 215 0 255 215 0 255 215 0 255 215 0 255 215 0 255 215 0 255 215 0 255 215 0 255 215 0 255 215 0 255 215 0 255 215 0 255 215 0 255 215 0 255 215 0 255 215 0 255 215 0 255 215 0 255 215 0 255 215 0 255 215 0 255 215 0 255 215 0 255 215 0 255 215 0 255 215 0 255 215 0 255 215 0 255 215 0 255 215 0 255 215 0 255 215 0 255 215 0 255 215 0 255 215 0 255 215 0 255 215 0 255 215 0 255 215 0 255 215 0 255 215 0 255 215 0 255 215 0 255 215 0 255 215 0 255 215 0 255 215 0 255 215 0 255 215 0 255 215 0 255 215 0 255 215 0 255 215 0 255 215 0 255 215 0 255 215 0 255 215 0 255 215 0 255 215 0 255 215 0 255 215 0 255 215 0 255 215 0 255 215 0 255 215 0 255 215 0 255 215 0 255 215 0 255 215 0 255 215 0 255 215 0 255 215 0 255 215 0 255 215 0 255 215 0 255 215 0 255 215 0 255 215 0 255 215 0 255 215 0 255 215 0 255 215 0 255 215 0 255 215 0 255 215 0 255 215 0 255 215 0 255 215 0 255 215 0 255 215 0 255 215 0 255 215 0 255 215 0 255 215 0 255 215 0 255 215 0 255 215 0 255 215 0 255 215 0 255 215 0 255 215 0 255 215 0 255 215 0 255 215 0 255 215 0 255 215 0 255 215 0 255 215 0 255 215 0 255 215 0 255 215 0 255 215 0 255 215 0 255 215 0 255 215 0 255 215 0 255 215 0 255 215 0 255 215 0 255 215 0 255 215 0 255 215 0 255 215 0 255 215 0 255 215 0 255 215 0 255 215 0 255 215 0 255 215 0 255 215 0 255 215 0 255 215 0 255 215 0 255 215 0 255 215 0 255 215 0 255 215 0 255 215 0 255 215 0 255 215 0 255 215 0 255 215 0 255 215 0 255 215 0 255 215 0 255 215 0 255 215 0 255 215 0 255 215 0 255 215 0 255 215 0 255 215 0 255 215 0 255 215 0 255 215 0 255 215 0 255 215 0 255 215 0 255 215 0 255 215 0 255 215 0 255 215 0 255 215 0 255 215 0 255 215 0 255 215 0 255 215 0 255 215 0 255 215 0 255 215 0 255 215 0 255 215 0 255 215 0 255 215 0 255 215 0 255 215 0 255 215 0 255 215 0 
255 215 0 255 215 0 255 215 0 255 215 0 255 215 0 255 215 0 255 215 0 255 215 0 255 215 0 255 215 0 255 215 0 255 215 0 255 215 0 255 215 0 255 215 0 255 215 0 255 215 0 255 215 0 255 215 0 255 215 0 255 215 0 255 215 0 255 215 0 255 215 0 255 215 0 255 215 0 255 215 0 255 215 0 255 215 0 255 215 0 255 215 0 255 215 0 255 215 0 255 215 0 255 215 0 255 215 0 255 215 0 255 215 0 255 215 0 255 215 0 255 215 0 255 215 0 255 215 0 255 215 0 255 215 0 255 215 0 255 215 0 255 215 0 255 215 0 255 215 0 255 215 0 255 215 0 255 215 0 255 215 0 255 215 0 255 215 0 255 215 0 255 215 0 255 215 0 255 215 0 255 215 0 255 215 0 255 215 0 255 215 0 255 215 0 255 215 0 255 215 0 255 215 0 255 215 0 255 215 0 255 215 0 255 215 0 255 215 0 255 215 0 255 215 0 255 215 0 255 215 0 255 215 0 255 215 0 255 215 0 255 215 0 255 215 0 255 215 0 255 215 0 255 215 0 255 215 0 255 215 0 255 215 0 255 215 0 255 215 0 255 215 0 255 215 0 255 215 0 255 215 0 255 215 0 255 215 0 255 215 0 255 215 0 255 215 0 255 215 0 255 215 0 255 215 0 255 215 0 255 215 0 255 215 0 255 215 0 255 215 0 255 215 0 255 215 0 255 215 0 255 215 0 255 215 0 255 215 0 255 215 0 255 215 0 255 215 0 255 215 0 255 215 0 255 215 0 255 215 0 255 215 0 255 215 0 255 215 0 255 215 0 255 215 0 255 215 0 255 215 0 255 215 0 255 215 0 255 215 0 255 215 0 255 215 0 255 215 0 255 215 0 255 215 0 255 215 0 255 215 0 255 215 0 255 215 0 255 215 0 255 215 0 255 215 0 255 215 0 255 215 0 255 215 0 255 215 0 255 215 0 255 215 0 255 215 0 255 215 0 255 215 0 255 215 0 255 215 0 255 215 0 255 215 0 255 215 0 255 215 0 255 215 0 255 215 0 255 215 0 255 215 0 255 215 0 255 215 0 255 215 0 255 215 0 255 215 0 255 215 0 255 215 0 255 215 0 255 215 0 255 215 0 255 215 0 255 215 0 255 215 0 255 215 0 255 215 0 255 215 0 255 215 0 255 215 0 255 215 0 255 215 0 255 215 0 255 215 0 255 215 0 255 215 0 255 215 0 255 215 0 255 215 0 255 215 0 255 215 0 255 215 0 255 215 0 255 215 0 255 215 0 255 215 0 255 215 0 255 215 0 255 215 0 255 215 0 255 215 0 255 215 0 255 215 0 255 215 0 255 215 0 255 215 0 255 215 0 255 215 0 255 215 0 255 215 0 255 215 0 255 215 0 255 215 0 255 215 0 255 215 0 255 215 0 255 215 0 255 215 0 255 215 0 255 215 0 255 215 0 255 215 0 255 215 0 255 215 0 255 215 0 255 215 0 255 215 0 255 215 0 255 215 0 255 215 0 255 215 0 255 215 0 255 215 0 255 215 0 255 215 0 255 215 0 255 215 0 255 215 0 255 215 0 255 215 0 255 215 0 255 215 0 255 215 0 255 215 0 255 215 0 255 215 0 255 215 0 255 215 0 255 215 0 255 215 0 255 215 0 255 215 0 255 215 0 255 215 0 255 215 0 255 215 0 255 215 0 255 215 0 255 215 0 255 215 0 255 215 0 255 215 0 255 215 0 255 215 0 255 215 0 255 215 0 255 215 0 255 215 0 255 215 0 255 215 0 255 215 0 255 215 0 255 215 0 255 215 0 255 215 0 255 215 0 255 215 0 255 215 0 255 215 0 255 215 0 255 215 0 255 215 0 255 215 0 255 215 0 255 215 0 255 215 0 255 215 0 255 215 0 255 215 0 255 215 0 255 215 0 255 215 0 255 215 0 255 215 0 255 215 0 255 215 0 255 215 0 255 215 0 255 215 0 255 215 0 255 215 0 
255 215 0 255 215 0 255 215 0 255 215 0 255 215 0 255 215 0 255 215 0 255 215 0 255 215 0 255 215 0 255 215 0 255 215 0 255 215 0 255 215 0 255 215 0 255 215 0 255 215 0 255 215 0 255 215 0 255 215 0 255 215 0 255 215 0 255 215 0 255 215 0 255 215 0 255 215 0 255 215 0 255 215 0 255 215 0 255 215 0 255 215 0 255 215 0 255 215 0 255 215 0 255 215 0 255 215 0 255 215 0 255 215 0 255 215 0 255 215 0 255 215 0 255 215 0 255 215 0 255 215 0 255 215 0 255 215 0 255 215 0 255 215 0 255 215 0 255 215 0 255 215 0 255 215 0 255 215 0 255 215 0 255 215 0 255 215 0 255 215 0 255 215 0 255 215 0 255 215 0 255 215 0 255 215 0 255 215 0 255 215 0 255 215 0 255 215 0 255 215 0 255 215 0 255 215 0 255 215 0 255 215 0 255 215 0 255 215 0 255 215 0 255 215 0 255 215 0 255 215 0 255 215 0 255 215 0 255 215 0 255 215 0 255 215 0 255 215 0 255 215 0 255 215 0 255 215 0 255 215 0 255 215 0 255 215 0 255 215 0 255 215 0 255 215 0 255 215 0 255 215 0 255 215 0 255 215 0 255 215 0 255 215 0 255 215 0 255 215 0 255 215 0 255 215 0 255 215 0 255 215 0 255 215 0 255 215 0 255 215 0 255 215 0 255 215 0 255 215 0 255 215 0 255 215 0 255 215 0 255 215 0 255 215 0 255 215 0 255 215 0 255 215 0 255 215 0 255 215 0 255 215 0 255 215 0 255 215 0 255 215 0 255 215 0 255 215 0 255 215 0 255 215 0 255 215 0 255 215 0 255 215 0 255 215 0 255 215 0 255 215 0 255 215 0 255 215 0 255 215 0 255 215 0 255 215 0 255 215 0 255 215 0 255 215 0 255 215 0 255 215 0 255 215 0 255 215 0 255 215 0 255 215 0 255 215 0 255 215 0 255 215 0 255 215 0 255 215 0 255 215 0 255 215 0 255 215 0 255 215 0 255 215 0 255 215 0 255 215 0 255 215 0 255 215 0 255 215 0 255 215 0 255 215 0 255 215 0 255 215 0 255 215 0 255 215 0 255 215 0 255 215 0 255 215 0 255 215 0 255 215 0 255 215 0 255 215 0 255 215 0 255 215 0 255 215 0 255 215 0 255 215 0 255 215 0 255 215 0 255 215 0 255 215 0 255 215 0 255 215 0 255 215 0 255 215 0 255 215 0 255 215 0 255 215 0 255 215 0 255 215 0 255 215 0 255 215 0 255 215 0 255 215 0 255 215 0 255 215 0 255 215 0 255 215 0 255 215 0 255 215 0 255 215 0 255 215 0 255 215 0 255 215 0 255 215 0 255 215 0 255 215 0 255 215 0 255 215 0 255 215 0 255 215 0 255 215 0 255 215 0 255 215 0 255 215 0 255 215 0 255 215 0 255 215 0 255 215 0 255 215 0 255 215 0 255 215 0 255 215 0 255 215 0 255 215 0 255 215 0 255 215 0 255 215 0 255 215 0 255 215 0 255 215 0 255 215 0 255 215 0 255 215 0 255 215 0 255 215 0 255 215 0 255 215 0 255 215 0 255 215 0 255 215 0 255 215 0 255 215 0 255 215 0 255 215 0 255 215 0 255 215 0 255 215 0 255 215 0 255 215 0 255 215 0 255 215 0 255 215 0 255 215 0 255 215 0 255 215 0 255 215 0 255 215 0 255 215 0 255 215 0 255 215 0 255 215 0 255 215 0 255 215 0 255 215 0 255 215 0 255 215 0 255 215 0 255 215 0 255 215 0 255 215 0 255 215 0 255 215 0 255 215 0 255 215 0 255 215 0 255 215 0 255 215 0 255 215 0 255 215 0 255 215 0 255 215 0 255 215 0 255 215 0 255 215 0 255 215 0 255 215 0 255 215 0 255 215 0 255 215 0 255 215 0 255 215 0 255 215 0 255 215 0 255 215 0 255 215 0 
255 215 0 255 215 0 255 215 0 255 215 0 255 215 0 255 215 0 255 215 0 255 215 0 255 215 0 255 215 0 255 215 0 255 215 0 255 215 0 255 215 0 255 215 0 255 215 0 255 215 0 255 215 0 255 215 0 255 215 0 255 215 0 255 215 0 255 215 0 255 215 0 255 215 0 255 215 0 255 215 0 255 215 0 255 215 0 255 215 0 255 215 0 255 215 0 255 215 0 255 215 0 255 215 0 255 215 0 255 215 0 255 215 0 255 215 0 255 215 0 255 215 0 255 215 0 255 215 0 255 215 0 255 215 0 255 215 0 255 215 0 255 215 0 255 215 0 255 215 0 255 215 0 255 215 0 255 215 0 255 215 0 255 215 0 255 215 0 255 215 0 255 215 0 255 215 0 255 215 0 255 215 0 255 215 0 255 215 0 255 215 0 255 215 0 255 215 0 255 215 0 255 215 0 255 215 0 255 215 0 255 215 0 255 215 0 255 215 0 255 215 0 255 215 0 255 215 0 255 215 0 255 215 0 255 215 0 255 215 0 255 215 0 255 215 0 255 215 0 255 215 0 255 215 0 255 215 0 255 215 0 255 215 0 255 215 0 255 215 0 255 215 0 255 215 0 255 215 0 255 215 0 255 215 0 255 215 0 255 215 0 255 215 0 255 215 0 255 215 0 255 215 0 255 215 0 255 215 0 255 215 0 255 215 0 255 215 0 255 215 0 255 215 0 255 215 0 255 215 0 255 215 0 255 215 0 255 215 0 255 215 0 255 215 0 255 215 0 255 215 0 255 215 0 255 215 0 255 215 0 255 215 0 255 215 0 255 215 0 255 215 0 255 215 0 255 215 0 255 215 0 255 215 0 255 215 0 255 215 0 255 215 0 255 215 0 255 215 0 255 215 0 255 215 0 255 215 0 255 215 0 255 215 0 255 215 0 255 215 0 255 215 0 255 215 0 255 215 0 255 215 0 255 215 0 255 215 0 255 215 0 255 215 0 255 215 0 255 215 0 255 215 0 255 215 0 255 215 0 255 215 0 255 215 0 255 215 0 255 215 0 255 215 0 255 215 0 255 215 0 255 215 0 255 215 0 255 215 0 255 215 0 255 215 0 255 215 0 255 215 0 255 215 0 255 215 0 255 215 0 255 215 0 255 215 0 255 215 0 255 215 0 255 215 0 255 215 0 255 215 0 255 215 0 255 215 0 255 215 0 255 215 0 255 215 0 255 215 0 255 215 0 255 215 0 255 215 0 255 215 0 255 215 0 255 215 0 255 215 0 255 215 0 255 215 0 255 215 0 255 215 0 255 215 0 255 215 0 255 215 0 255 215 0 255 215 0 255 215 0 255 215 0 255 215 0 255 215 0 255 215 0 255 215 0 255 215 0 255 215 0 255 215 0 255 215 0 255 215 0 255 215 0 255 215 0 255 215 0 255 215 0 255 215 0 255 215 0 255 215 0 255 215 0 255 215 0 255 215 0 255 215 0 255 215 0 255 215 0 255 215 0 255 215 0 255 215 0 255 215 0 255 215 0 255 215 0 255 215 0 255 215 0 255 215 0 255 215 0 255 215 0 255 215 0 255 215 0 255 215 0 255 215 0 255 215 0 255 215 0 255 215 0 255 215 0 255 215 0 255 215 0 255 215 0 255 215 0 255 215 0 255 215 0 255 215 0 255 215 0 255 215 0 255 215 0 255 215 0 255 215 0 255 215 0 255 215 0 255 215 0 255 215 0 255 215 0 255 215 0 255 215 0 255 215 0 255 215 0 255 215 0 255 215 0 255 215 0 255 215 0 255 215 0 255 215 0 255 215 0 255 215 0 255 215 0 255 215 0 255 215 0 255 215 0 255 215 0 255 215 0 255 215 0 255 215 0 255 215 0 255 215 0 255 215 0 255 215 0 255 215 0 255 215 0 255 215 0 255 215 0 255 215 0 255 215 0 255 215 0 255 215 0 255 215 0 255 215 0 255 215 0 255 215 0 255 215 0 255 215 0 255 215 0 255 215 0 255 215 0 
255 215 0 255 215 0 255 215 0 255 215 0 255 215 0 255 215 0 255 215 0 255 215 0 255 215 0 255 215 0 255 215 0 255 215 0 255 215 0 255 215 0 255 215 0 255 215 0 255 215 0 255 215 0 255 215 0 255 215 0 255 215 0 255 215 0 255 215 0 255 215 0 255 215 0 255 215 0 255 215 0 255 215 0 255 215 0 255 215 0 255 215 0 255 215 0 255 215 0 255 215 0 255 215 0 255 215 0 255 215 0 255 215 0 255 215 0 255 215 0 255 215 0 255 215 0 255 215 0 255 215 0 255 215 0 255 215 0 255 215 0 255 215 0 255 215 0 255 215 0 255 215 0 255 215 0 255 215 0 255 215 0 255 215 0 255 215 0 255 215 0 255 215 0 255 215 0 255 215 0 255 215 0 255 215 0 255 215 0 255 215 0 255 215 0 255 215 0 255 215 0 255 215 0 255 215 0 255 215 0 255 215 0 255 215 0 255 215 0 255 215 0 255 215 0 255 215 0 255 215 0 255 215 0 255 215 0 255 215 0 255 215 0 255 215 0 255 215 0 255 215 0 255 215 0 255 215 0 255 215 0 255 215 0 255 215 0 255 215 0 255 215 0 255 215 0 255 215 0 255 215 0 255 215 0 255 215 0 255 215 0 255 215 0 255 215 0 255 215 0 255 215 0 255 215 0 255 215 0 255 215 0 255 215 0 255 215 0 255 215 0 255 215 0 255 215 0 255 215 0 255 215 0 255 215 0 255 215 0 255 215 0 255 215 0 255 215 0 255 215 0 255 215 0 255 215 0 255 215 0 255 215 0 255 215 0 255 215 0 255 215 0 255 215 0 255 215 0 255 215 0 255 215 0 255 215 0 255 215 0 255 215 0 255 215 0 255 215 0 255 215 0 255 215 0 255 215 0 255 215 0 255 215 0 255 215 0 255 215 0 255 215 0 255 215 0 255 215 0 255 215 0 255 215 0 255 215 0 255 215 0 255 215 0 255 215 0 255 215 0 255 215 0 255 215 0 255 215 0 255 215 0 255 215 0 255 215 0 255 215 0 255 215 0 255 215 0 255 215 0 255 215 0 255 215 0 255 215 0 255 215 0 255 215 0 255 215 0 255 215 0 255 215 0 255 215 0 255 215 0 255 215 0 255 215 0 255 215 0 255 215 0 255 215 0 255 215 0 255 215 0 255 215 0 255 215 0 255 215 0 255 215 0 255 215 0 255 215 0 255 215 0 255 215 0 255 215 0 255 215 0 255 215 0 255 215 0 255 215 0 255 215 0 255 215 0 255 215 0 255 215 0 255 215 0 255 215 0 255 215 0 255 215 0 255 215 0 255 215 0 255 215 0 255 215 0 255 215 0 255 215 0 255 215 0 255 215 0 255 215 0 255 215 0 255 215 0 255 215 0 255 215 0 255 215 0 255 215 0 255 215 0 255 215 0 255 215 0 255 215 0 255 215 0 255 215 0 255 215 0 255 215 0 255 215 0 255 215 0 255 215 0 255 215 0 255 215 0 255 215 0 255 215 0 255 215 0 255 215 0 255 215 0 255 215 0 255 215 0 255 215 0 255 215 0 255 215 0 255 215 0 255 215 0 255 215 0 255 215 0 255 215 0 255 215 0 255 215 0 255 215 0 255 215 0 255 215 0 255 215 0 255 215 0 255 215 0 255 215 0 255 215 0 255 215 0 255 215 0 255 215 0 255 215 0 255 215 0 255 215 0 255 215 0 255 215 0 255 215 0 255 215 0 255 215 0 255 215 0 255 215 0 255 215 0 255 215 0 255 215 0 255 215 0 255 215 0 255 215 0 255 215 0 255 215 0 255 215 0 255 215 0 255 215 0 255 215 0 255 215 0 255 215 0 255 215 0 255 215 0 255 215 0 255 215 0 255 215 0 255 215 0 255 215 0 255 215 0 255 215 0 255 215 0 255 215 0 255 215 0 255 215 0 255 215 0 255 215 0 255 215 0 255 215 0 255 215 0 255 215 0 255 215 0 255 215 0 255 215 0 
255 215 0 255 215 0 255 215 0 255 215 0 255 215 0 255 215 0 255 215 0 255 215 0 255 215 0 255 215 0 255 215 0 255 215 0 255 215 0 255 215 0 255 215 0 255 215 0 255 215 0 255 215 0 255 215 0 255 215 0 255 215 0 255 215 0 255 215 0 255 215 0 255 215 0 255 215 0 255 215 0 255 215 0 255 215 0 255 215 0 255 215 0 255 215 0 255 215 0 255 215 0 255 215 0 255 215 0 255 215 0 255 215 0 255 215 0 255 215 0 255 215 0 255 215 0 255 215 0 255 215 0 255 215 0 255 215 0 255 215 0 255 215 0 255 215 0 255 215 0 255 215 0 255 215 0 255 215 0 255 215 0 255 215 0 255 215 0 255 215 0 255 215 0 255 215 0 255 215 0 255 215 0 255 215 0 255 215 0 255 215 0 255 215 0 255 215 0 255 215 0 255 215 0 255 215 0 255 215 0 255 215 0 255 215 0 255 215 0 255 215 0 255 215 0 255 215 0 255 215 0 255 215 0 255 215 0 255 215 0 255 215 0 255 215 0 255 215 0 255 215 0 255 215 0 255 215 0 255 215 0 255 215 0 255 215 0 255 215 0 255 215 0 255 215 0 255 215 0 255 215 0 255 215 0 255 215 0 255 215 0 255 215 0 255 215 0 255 215 0 255 215 0 255 215 0 255 215 0 255 215 0 255 215 0 255 215 0 255 215 0 255 215 0 255 215 0 255 215 0 255 215 0 255 215 0 255 215 0 255 215 0 255 215 0 255 215 0 255 215 0 255 215 0 255 215 0 255 215 0 255 215 0 255 215 0 255 215 0 255 215 0 255 215 0 255 215 0 255 215 0 255 215 0 255 215 0 255 215 0 255 215 0 255 215 0 255 215 0 255 215 0 255 215 0 255 215 0 255 215 0 255 215 0 255 215 0 255 215 0 255 215 0 255 215 0 255 215 0 255 215 0 255 215 0 255 215 0 255 215 0 255 215 0 255 215 0 255 215 0 255 215 0 255 215 0 255 215 0 255 215 0 255 215 0 255 215 0 255 215 0 255 215 0 255 215 0 255 215 0 255 215 0 255 215 0 255 215 0 255 215 0 255 215 0 255 215 0 255 215 0 255 215 0 255 215 0 255 215 0 255 215 0 255 215 0 255 215 0 255 215 0 255 215 0 255 215 0 255 215 0 255 215 0 255 215 0 255 215 0 255 215 0 255 215 0 255 215 0 255 215 0 255 215 0 255 215 0 255 215 0 255 215 0 255 215 0 255 215 0 255 215 0 255 215 0 255 215 0 255 215 0 255 215 0 255 215 0 255 215 0 255 215 0 255 215 0 255 215 0 255 215 0 255 215 0 255 215 0 255 215 0 255 215 0 255 215 0 255 215 0 255 215 0 255 215 0 255 215 0 255 215 0 255 215 0 255 215 0 255 215 0 255 215 0 255 215 0 255 215 0 255 215 0 255 215 0 255 215 0 255 215 0 255 215 0 255 215 0 255 215 0 255 215 0 255 215 0 255 215 0 255 215 0 255 215 0 255 215 0 255 215 0 255 215 0 255 215 0 255 215 0 255 215 0 255 215 0 255 215 0 255 215 0 255 215 0 255 215 0 255 215 0 255 215 0 255 215 0 255 215 0 255 215 0 255 215 0 255 215 0 255 215 0 255 215 0 255 215 0 255 215 0 255 215 0 255 215 0 255 215 0 255 215 0 255 215 0 255 215 0 255 215 0 255 215 0 255 215 0 255 215 0 255 215 0 255 215 0 255 215 0 255 215 0 255 215 0 255 215 0 255 215 0 255 215 0 255 215 0 255 215 0 255 215 0 255 215 0 255 215 0 255 215 0 255 215 0 255 215 0 255 215 0 255 215 0 255 215 0 255 215 0 255 215 0 255 215 0 255 215 0 255 215 0 255 215 0 255 215 0 255 215 0 255 215 0 255 215 0 255 215 0 255 215 0 255 215 0 255 215 0 255 215 0 255 215 0 255 215 0 255 215 0 255 215 0 255 215 0 
255 215 0 255 215 0 255 215 0 255 215 0 255 215 0 255 215 0 255 215 0 255 215 0 255 215 0 255 215 0 255 215 0 255 215 0 255 215 0 255 215 0 255 215 0 255 215 0 255 215 0 255 215 0 255 215 0 255 215 0 255 215 0 255 215 0 255 215 0 255 215 0 255 215 0 255 215 0 255 215 0 255 215 0 255 215 0 255 215 0 255 215 0 255 215 0 255 215 0 255 215 0 255 215 0 255 215 0 255 215 0 255 215 0 255 215 0 255 215 0 255 215 0 255 215 0 255 215 0 255 215 0 255 215 0 255 215 0 255 215 0 255 215 0 255 215 0 255 215 0 255 215 0 255 215 0 255 215 0 255 215 0 255 215 0 255 215 0 255 215 0 255 215 0 255 215 0 255 215 0 255 215 0 255 215 0 255 215 0 255 215 0 255 215 0 255 215 0 255 215 0 255 215 0 255 215 0 255 215 0 255 215 0 255 215 0 255 215 0 255 215 0 255 215 0 255 215 0 255 215 0 255 215 0 255 215 0 255 215 0 255 215 0 255 215 0 255 215 0 255 215 0 255 215 0 255 215 0 255 215 0 255 215 0 255 215 0 255 215 0 255 215 0 255 215 0 255 215 0 255 215 0 255 215 0 255 215 0 255 215 0 255 215 0 255 215 0 255 215 0 255 215 0 255 215 0 255 215 0 255 215 0 255 215 0 255 215 0 255 215 0 255 215 0 255 215 0 255 215 0 255 215 0 255 215 0 255 215 0 255 215 0 255 215 0 255 215 0 255 215 0 255 215 0 255 215 0 255 215 0 255 215 0 255 215 0 255 215 0 255 215 0 255 215 0 255 215 0 255 215 0 255 215 0 255 215 0 255 215 0 255 215 0 255 215 0 255 215 0 255 215 0 255 215 0 255 215 0 255 215 0 255 215 0 255 215 0 255 215 0 255 215 0 255 215 0 255 215 0 255 215 0 255 215 0 255 215 0 255 215 0 255 215 0 255 215 0 255 215 0 255 215 0 255 215 0 255 215 0 255 215 0 255 215 0 255 215 0 255 215 0 255 215 0 255 215 0 255 215 0 255 215 0 255 215 0 255 215 0 255 215 0 255 215 0 255 215 0 255 215 0 255 215 0 255 215 0 255 215 0 255 215 0 255 215 0 255 215 0 255 215 0 255 215 0 255 215 0 255 215 0 255 215 0 255 215 0 255 215 0 255 215 0 255 215 0 255 215 0 255 215 0 255 215 0 255 215 0 255 215 0 255 215 0 255 215 0 255 215 0 255 215 0 255 215 0 255 215 0 255 215 0 255 215 0 255 215 0 255 215 0 255 215 0 255 215 0 255 215 0 255 215 0 255 215 0 255 215 0 255 215 0 255 215 0 255 215 0 255 215 0 255 215 0 255 215 0 255 215 0 255 215 0 255 215 0 255 215 0 255 215 0 255 215 0 255 215 0 255 215 0 255 215 0 255 215 0 255 215 0 255 215 0 255 215 0 255 215 0 255 215 0 255 215 0 255 215 0 255 215 0 255 215 0 255 215 0 255 215 0 255 215 0 255 215 0 255 215 0 255 215 0 255 215 0 255 215 0 255 215 0 255 215 0 255 215 0 255 215 0 255 215 0 255 215 0 255 215 0 255 215 0 255 215 0 255 215 0 255 215 0 255 215 0 255 215 0 255 215 0 255 215 0 255 215 0 255 215 0 255 215 0 255 215 0 255 215 0 255 215 0 255 215 0 255 215 0 255 215 0 255 215 0 255 215 0 255 215 0 255 215 0 255 215 0 255 215 0 255 215 0 255 215 0 255 215 0 255 215 0 255 215 0 255 215 0 255 215 0 255 215 0 255 215 0 255 215 0 255 215 0 255 215 0 255 215 0 255 215 0 255 215 0 255 215 0 255 215 0 255 215 0 255 215 0 255 215 0 255 215 0 255 215 0 255 215 0 255 215 0 255 215 0 255 215 0 255 215 0 255 215 0 255 215 0 255 215 0 255 215 0 255 215 0 255 215 0 255 215 0 
255 215 0 255 215 0 255 215 0 255 215 0 255 215 0 255 215 0 255 215 0 255 215 0 255 215 0 255 215 0 255 215 0 255 215 0 255 215 0 255 215 0 255 215 0 255 215 0 255 215 0 255 215 0 255 215 0 255 215 0 255 215 0 255 215 0 255 215 0 255 215 0 255 215 0 255 215 0 255 215 0 255 215 0 255 215 0 255 215 0 255 215 0 255 215 0 255 215 0 255 215 0 255 215 0 255 215 0 255 215 0 255 215 0 255 215 0 255 215 0 255 215 0 255 215 0 255 215 0 255 215 0 255 215 0 255 215 0 255 215 0 255 215 0 255 215 0 255 215 0 255 215 0 255 215 0 255 215 0 255 215 0 255 215 0 255 215 0 255 215 0 255 215 0 255 215 0 255 215 0 255 215 0 255 215 0 255 215 0 255 215 0 255 215 0 255 215 0 255 215 0 255 215 0 255 215 0 255 215 0 255 215 0 255 215 0 255 215 0 255 215 0 255 215 0 255 215 0 255 215 0 255 215 0 255 215 0 255 215 0 255 215 0 255 215 0 255 215 0 255 215 0 255 215 0 255 215 0 255 215 0 255 215 0 255 215 0 255 215 0 255 215 0 255 215 0 255 215 0 255 215 0 255 215 0 255 215 0 255 215 0 255 215 0 255 215 0 255 215 0 255 215 0 255 215 0 255 215 0 255 215 0 255 215 0 255 215 0 255 215 0 255 215 0 255 215 0 255 215 0 255 215 0 255 215 0 255 215 0 255 215 0 255 215 0 255 215 0 255 215 0 255 215 0 255 215 0 255 215 0 255 215 0 255 215 0 255 215 0 255 215 0 255 215 0 255 215 0 255 215 0 255 215 0 255 215 0 255 215 0 255 215 0 255 215 0 255 215 0 255 215 0 255 215 0 255 215 0 255 215 0 255 215 0 255 215 0 255 215 0 255 215 0 255 215 0 255 215 0 255 215 0 255 215 0 255 215 0 255 215 0 255 215 0 255 215 0 255 215 0 255 215 0 255 215 0 255 215 0 255 215 0 255 215 0 255 215 0 255 215 0 255 215 0 255 215 0 255 215 0 255 215 0 255 215 0 255 215 0 255 215 0 255 215 0 255 215 0 255 215 0 255 215 0 255 215 0 255 215 0 255 215 0 255 215 0 255 215 0 255 215 0 255 215 0 255 215 0 255 215 0 255 215 0 255 215 0 255 215 0 255 215 0 255 215 0 255 215 0 255 215 0 255 215 0 255 215 0 255 215 0 255 215 0 255 215 0 255 215 0 255 215 0 255 215 0 255 215 0 255 215 0 255 215 0 255 215 0 255 215 0 255 215 0 255 215 0 255 215 0 255 215 0 255 215 0 255 215 0 255 215 0 255 215 0 255 215 0 255 215 0 255 215 0 255 215 0 255 215 0 255 215 0 255 215 0 255 215 0 255 215 0 255 215 0 255 215 0 255 215 0 255 215 0 255 215 0 255 215 0 255 215 0 255 215 0 255 215 0 255 215 0 255 215 0 255 215 0 255 215 0 255 215 0 255 215 0 255 215 0 255 215 0 255 215 0 255 215 0 255 215 0 255 215 0 255 215 0 255 215 0 255 215 0 255 215 0 255 215 0 255 215 0 255 215 0 255 215 0 255 215 0 255 215 0 255 215 0 255 215 0 255 215 0 255 215 0 255 215 0 255 215 0 255 215 0 255 215 0 255 215 0 255 215 0 255 215 0 255 215 0 255 215 0 255 215 0 255 215 0 255 215 0 255 215 0 255 215 0 255 215 0 255 215 0 255 215 0 255 215 0 255 215 0 255 215 0 255 215 0 255 215 0 255 215 0 255 215 0 255 215 0 255 215 0 255 215 0 255 215 0 255 215 0 255 215 0 255 215 0 255 215 0 255 215 0 255 215 0 255 215 0 255 215 0 255 215 0 255 215 0 255 215 0 255 215 0 255 215 0 255 215 0 255 215 0 255 215 0 255 215 0 255 215 0 255 215 0 255 215 0 255 215 0 255 215 0 255 215 0 
255 215 0 255 215 0 255 215 0 255 215 0 255 215 0 255 215 0 255 215 0 255 215 0 255 215 0 255 215 0 255 215 0 255 215 0 255 215 0 255 215 0 255 215 0 255 215 0 255 215 0 255 215 0 255 215 0 255 215 0 255 215 0 255 215 0 255 215 0 255 215 0 255 215 0 255 215 0 255 215 0 255 215 0 255 215 0 255 215 0 255 215 0 255 215 0 255 215 0 255 215 0 255 215 0 255 215 0 255 215 0 255 215 0 255 215 0 255 215 0 255 215 0 255 215 0 255 215 0 255 215 0 255 215 0 255 215 0 255 215 0 255 215 0 255 215 0 255 215 0 255 215 0 255 215 0 255 215 0 255 215 0 255 215 0 255 215 0 255 215 0 255 215 0 255 215 0 255 215 0 255 215 0 255 215 0 255 215 0 255 215 0 255 215 0 255 215 0 255 215 0 255 215 0 255 215 0 255 215 0 255 215 0 255 215 0 255 215 0 255 215 0 255 215 0 255 215 0 255 215 0 255 215 0 255 215 0 255 215 0 255 215 0 255 215 0 255 215 0 255 215 0 255 215 0 255 215 0 255 215 0 255 215 0 255 215 0 255 215 0 255 215 0 255 215 0 255 215 0 255 215 0 255 215 0 255 215 0 255 215 0 255 215 0 255 215 0 255 215 0 255 215 0 255 215 0 255 215 0 255 215 0 255 215 0 255 215 0 255 215 0 255 215 0 255 215 0 255 215 0 255 215 0 255 215 0 255 215 0 255 215 0 255 215 0 255 215 0 255 215 0 255 215 0 255 215 0 255 215 0 255 215 0 255 215 0 255 215 0 255 215 0 255 215 0 255 215 0 255 215 0 255 215 0 255 215 0 255 215 0 255 215 0 255 215 0 255 215 0 255 215 0 255 215 0 255 215 0 255 215 0 255 215 0 255 215 0 255 215 0 255 215 0 255 215 0 255 215 0 255 215 0 255 215 0 255 215 0 255 215 0 255 215 0 255 215 0 255 215 0 255 215 0 255 215 0 255 215 0 255 215 0 255 215 0 255 215 0 255 215 0 255 215 0 255 215 0 255 215 0 255 215 0 255 215 0 255 215 0 255 215 0 255 215 0 255 215 0 255 215 0 255 215 0 255 215 0 255 215 0 255 215 0 255 215 0 255 215 0 255 215 0 255 215 0 255 215 0 255 215 0 255 215 0 255 215 0 255 215 0 255 215 0 255 215 0 255 215 0 255 215 0 255 215 0 255 215 0 255 215 0 255 215 0 255 215 0 255 215 0 255 215 0 255 215 0 255 215 0 255 215 0 255 215 0 255 215 0 255 215 0 255 215 0 255 215 0 255 215 0 255 215 0 255 215 0 255 215 0 255 215 0 255 215 0 255 215 0 255 215 0 255 215 0 255 215 0 255 215 0 255 215 0 255 215 0 255 215 0 255 215 0 255 215 0 255 215 0 255 215 0 255 215 0 255 215 0 255 215 0 255 215 0 255 215 0 255 215 0 255 215 0 255 215 0 255 215 0 255 215 0 255 215 0 255 215 0 255 215 0 255 215 0 255 215 0 255 215 0 255 215 0 255 215 0 255 215 0 255 215 0 255 215 0 255 215 0 255 215 0 255 215 0 255 215 0 255 215 0 255 215 0 255 215 0 255 215 0 255 215 0 255 215 0 255 215 0 255 215 0 255 215 0 255 215 0 255 215 0 255 215 0 255 215 0 255 215 0 255 215 0 255 215 0 255 215 0 255 215 0 255 215 0 255 215 0 255 215 0 255 215 0 255 215 0 255 215 0 255 215 0 255 215 0 255 215 0 255 215 0 255 215 0 255 215 0 255 215 0 255 215 0 255 215 0 255 215 0 255 215 0 255 215 0 255 215 0 255 215 0 255 215 0 255 215 0 255 215 0 255 215 0 255 215 0 255 215 0 255 215 0 255 215 0 255 215 0 255 215 0 255 215 0 255 215 0 255 215 0 255 215 0 255 215 0 255 215 0 255 215 0 255 215 0 255 215 0 255 215 0 
255 215 0 255 215 0 255 215 0 255 215 0 255 215 0 255 215 0 255 215 0 255 215 0 255 215 0 255 215 0 255 215 0 255 215 0 255 215 0 255 215 0 255 215 0 255 215 0 255 215 0 255 215 0 255 215 0 255 215 0 255 215 0 255 215 0 255 215 0 255 215 0 255 215 0 255 215 0 255 215 0 255 215 0 255 215 0 255 215 0 255 215 0 255 215 0 255 215 0 255 215 0 255 215 0 255 215 0 255 215 0 255 215 0 255 215 0 255 215 0 255 215 0 255 215 0 255 215 0 255 215 0 255 215 0 255 215 0 255 215 0 255 215 0 255 215 0 255 215 0 255 215 0 255 215 0 255 215 0 255 215 0 255 215 0 255 215 0 255 215 0 255 215 0 255 215 0 255 215 0 255 215 0 255 215 0 255 215 0 255 215 0 255 215 0 255 215 0 255 215 0 255 215 0 255 215 0 255 215 0 255 215 0 255 215 0 255 215 0 255 215 0 255 215 0 255 215 0 255 215 0 255 215 0 255 215 0 255 215 0 255 215 0 255 215 0 255 215 0 255 215 0 255 215 0 255 215 0 255 215 0 255 215 0 255 215 0 255 215 0 255 215 0 255 215 0 255 215 0 255 215 0 255 215 0 255 215 0 255 215 0 255 215 0 255 215 0 255 215 0 255 215 0 255 215 0 255 215 0 255 215 0 255 215 0 255 215 0 255 215 0 255 215 0 255 215 0 255 215 0 255 215 0 255 215 0 255 215 0 255 215 0 255 215 0 255 215 0 255 215 0 255 215 0 255 215 0 255 215 0 255 215 0 255 215 0 255 215 0 255 215 0 255 215 0 255 215 0 255 215 0 255 215 0 255 215 0 255 215 0 255 215 0 255 215 0 255 215 0 255 215 0 255 215 0 255 215 0 255 215 0 255 215 0 255 215 0 255 215 0 255 215 0 255 215 0 255 215 0 255 215 0 255 215 0 255 215 0 255 215 0 255 215 0 255 215 0 255 215 0 255 215 0 255 215 0 255 215 0 255 215 0 255 215 0 255 215 0 255 215 0 255 215 0 255 215 0 255 215 0 255 215 0 255 215 0 255 215 0 255 215 0 255 215 0 255 215 0 255 215 0 255 215 0 255 215 0 255 215 0 255 215 0 255 215 0 255 215 0 255 215 0 255 215 0 255 215 0 255 215 0 255 215 0 255 215 0 255 215 0 255 215 0 255 215 0 255 215 0 255 215 0 255 215 0 255 215 0 255 215 0 255 215 0 255 215 0 255 215 0 255 215 0 255 215 0 255 215 0 255 215 0 255 215 0 255 215 0 255 215 0 255 215 0 255 215 0 255 215 0 255 215 0 255 215 0 255 215 0 255 215 0 255 215 0 255 215 0 255 215 0 255 215 0 255 215 0 255 215 0 255 215 0 255 215 0 255 215 0 255 215 0 255 215 0 255 215 0 255 215 0 255 215 0 255 215 0 255 215 0 255 215 0 255 215 0 255 215 0 255 215 0 255 215 0 255 215 0 255 215 0 255 215 0 255 215 0 255 215 0 255 215 0 255 215 0 255 215 0 255 215 0 255 215 0 255 215 0 255 215 0 255 215 0 255 215 0 255 215 0 255 215 0 255 215 0 255 215 0 255 215 0 255 215 0 255 215 0 255 215 0 255 215 0 255 215 0 255 215 0 255 215 0 255 215 0 255 215 0 255 215 0 255 215 0 255 215 0 255 215 0 255 215 0 255 215 0 255 215 0 255 215 0 255 215 0 255 215 0 255 215 0 255 215 0 255 215 0 255 215 0 255 215 0 255 215 0 255 215 0 255 215 0 255 215 0 255 215 0 255 215 0 255 215 0 255 215 0 255 215 0 255 215 0 255 215 0 255 215 0 255 215 0 255 215 0 255 215 0 255 215 0 255 215 0 255 215 0 255 215 0 255 215 0 255 215 0 255 215 0 255 215 0 255 215 0 255 215 0 255 215 0 255 215 0 255 215 0 255 215 0 255 215 0 255 215 0 255 215 0 
255 215 0 255 215 0 255 215 0 255 215 0 255 215 0 255 215 0 255 215 0 255 215 0 255 215 0 255 215 0 255 215 0 255 215 0 255 215 0 255 215 0 255 215 0 255 215 0 255 215 0 255 215 0 255 215 0 255 215 0 255 215 0 255 215 0 255 215 0 255 215 0 255 215 0 255 215 0 255 215 0 255 215 0 255 215 0 255 215 0 255 215 0 255 215 0 255 215 0 255 215 0 255 215 0 255 215 0 255 215 0 255 215 0 255 215 0 255 215 0 255 215 0 255 215 0 255 215 0 255 215 0 255 215 0 255 215 0 255 215 0 255 215 0 255 215 0 255 215 0 255 215 0 255 215 0 255 215 0 255 215 0 255 215 0 255 215 0 255 215 0 255 215 0 255 215 0 255 215 0 255 215 0 255 215 0 255 215 0 255 215 0 255 215 0 255 215 0 255 215 0 255 215 0 255 215 0 255 215 0 255 215 0 255 215 0 255 215 0 255 215 0 255 215 0 255 215 0 255 215 0 255 215 0 255 215 0 255 215 0 255 215 0 255 215 0 255 215 0 255 215 0 255 215 0 255 215 0 255 215 0 255 215 0 255 215 0 255 215 0 255 215 0 255 215 0 255 215 0 255 215 0 255 215 0 255 215 0 255 215 0 255 215 0 255 215 0 255 215 0 255 215 0 255 215 0 255 215 0 255 215 0 255 215 0 255 215 0 255 215 0 255 215 0 255 215 0 255 215 0 255 215 0 255 215 0 255 215 0 255 215 0 255 215 0 255 215 0 255 215 0 255 215 0 255 215 0 255 215 0 255 215 0 255 215 0 255 215 0 255 215 0 255 215 0 255 215 0 255 215 0 255 215 0 255 215 0 255 215 0 255 215 0 255 215 0 255 215 0 255 215 0 255 215 0 255 215 0 255 215 0 255 215 0 255 215 0 255 215 0 255 215 0 255 215 0 255 215 0 255 215 0 255 215 0 255 215 0 255 215 0 255 215 0 255 215 0 255 215 0 255 215 0 255 215 0 255 215 0 255 215 0 255 215 0 255 215 0 255 215 0 255 215 0 255 215 0 255 215 0 255 215 0 255 215 0 255 215 0 255 215 0 255 215 0 255 215 0 255 215 0 255 215 0 255 215 0 255 215 0 255 215 0 255 215 0 255 215 0 255 215 0 255 215 0 255 215 0 255 215 0 255 215 0 255 215 0 255 215 0 255 215 0 255 215 0 255 215 0 255 215 0 255 215 0 255 215 0 255 215 0 255 215 0 255 215 0 255 215 0 255 215 0 255 215 0 255 215 0 255 215 0 255 215 0 255 215 0 255 215 0 255 215 0 255 215 0 255 215 0 255 215 0 255 215 0 255 215 0 255 215 0 255 215 0 255 215 0 255 215 0 255 215 0 255 215 0 255 215 0 255 215 0 255 215 0 255 215 0 255 215 0 255 215 0 255 215 0 255 215 0 255 215 0 255 215 0 255 215 0 255 215 0 255 215 0 255 215 0 255 215 0 255 215 0 255 215 0 255 215 0 255 215 0 255 215 0 255 215 0 255 215 0 255 215 0 255 215 0 255 215 0 255 215 0 255 215 0 255 215 0 255 215 0 255 215 0 255 215 0 255 215 0 255 215 0 255 215 0 255 215 0 255 215 0 255 215 0 255 215 0 255 215 0 255 215 0 255 215 0 255 215 0 255 215 0 255 215 0 255 215 0 255 215 0 255 215 0 255 215 0 255 215 0 255 215 0 255 215 0 255 215 0 255 215 0 255 215 0 255 215 0 255 215 0 255 215 0 255 215 0 255 215 0 255 215 0 255 215 0 255 215 0 255 215 0 255 215 0 255 215 0 255 215 0 255 215 0 255 215 0 255 215 0 255 215 0 255 215 0 255 215 0 255 215 0 255 215 0 255 215 0 255 215 0 255 215 0 255 215 0 255 215 0 255 215 0 255 215 0 255 215 0 255 215 0 255 215 0 255 215 0 255 215 0 255 215 0 255 215 0 255 215 0 255 215 0 255 215 0 
255 215 0 255 215 0 255 215 0 255 215 0 255 215 0 255 215 0 255 215 0 255 215 0 255 215 0 255 215 0 255 215 0 255 215 0 255 215 0 255 215 0 255 215 0 255 215 0 255 215 0 255 215 0 255 215 0 255 215 0 255 215 0 255 215 0 255 215 0 255 215 0 255 215 0 255 215 0 255 215 0 255 215 0 255 215 0 255 215 0 255 215 0 255 215 0 255 215 0 255 215 0 255 215 0 255 215 0 255 215 0 255 215 0 255 215 0 255 215 0 255 215 0 255 215 0 255 215 0 255 215 0 255 215 0 255 215 0 255 215 0 255 215 0 255 215 0 255 215 0 255 215 0 255 215 0 255 215 0 255 215 0 255 215 0 255 215 0 255 215 0 255 215 0 255 215 0 255 215 0 255 215 0 255 215 0 255 215 0 255 215 0 255 215 0 255 215 0 255 215 0 255 215 0 255 215 0 255 215 0 255 215 0 255 215 0 255 215 0 255 215 0 255 215 0 255 215 0 255 215 0 255 215 0 255 215 0 255 215 0 255 215 0 255 215 0 255 215 0 255 215 0 255 215 0 255 215 0 255 215 0 255 215 0 255 215 0 255 215 0 255 215 0 255 215 0 255 215 0 255 215 0 255 215 0 255 215 0 255 215 0 255 215 0 255 215 0 255 215 0 255 215 0 255 215 0 255 215 0 255 215 0 255 215 0 255 215 0 255 215 0 255 215 0 255 215 0 255 215 0 255 215 0 255 215 0 255 215 0 255 215 0 255 215 0 255 215 0 255 215 0 255 215 0 255 215 0 255 215 0 255 215 0 255 215 0 255 215 0 255 215 0 255 215 0 255 215 0 255 215 0 255 215 0 255 215 0 255 215 0 255 215 0 255 215 0 255 215 0 255 215 0 255 215 0 255 215 0 255 215 0 255 215 0 255 215 0 255 215 0 255 215 0 255 215 0 255 215 0 255 215 0 255 215 0 255 215 0 255 215 0 255 215 0 255 215 0 255 215 0 255 215 0 255 215 0 255 215 0 255 215 0 255 215 0 255 215 0 255 215 0 255 215 0 255 215 0 255 215 0 255 215 0 255 215 0 255 215 0 255 215 0 255 215 0 255 215 0 255 215 0 255 215 0 255 215 0 255 215 0 255 215 0 255 215 0 255 215 0 255 215 0 255 215 0 255 215 0 255 215 0 255 215 0 255 215 0 255 215 0 255 215 0 255 215 0 255 215 0 255 215 0 255 215 0 255 215 0 255 215 0 255 215 0 255 215 0 255 215 0 255 215 0 255 215 0 255 215 0 255 215 0 255 215 0 255 215 0 255 215 0 255 215 0 255 215 0 255 215 0 255 215 0 255 215 0 255 215 0 255 215 0 255 215 0 255 215 0 255 215 0 255 215 0 255 215 0 255 215 0 255 215 0 255 215 0 255 215 0 255 215 0 255 215 0 255 215 0 255 215 0 255 215 0 255 215 0 255 215 0 255 215 0 255 215 0 255 215 0 255 215 0 255 215 0 255 215 0 255 215 0 255 215 0 255 215 0 255 215 0 255 215 0 255 215 0 255 215 0 255 215 0 255 215 0 255 215 0 255 215 0 255 215 0 255 215 0 255 215 0 255 215 0 255 215 0 255 215 0 255 215 0 255 215 0 255 215 0 255 215 0 255 215 0 255 215 0 255 215 0 255 215 0 255 215 0 255 215 0 255 215 0 255 215 0 255 215 0 255 215 0 255 215 0 255 215 0 255 215 0 255 215 0 255 215 0 255 215 0 255 215 0 255 215 0 255 215 0 255 215 0 255 215 0 255 215 0 255 215 0 255 215 0 255 215 0 255 215 0 255 215 0 255 215 0 255 215 0 255 215 0 255 215 0 255 215 0 255 215 0 255 215 0 255 215 0 255 215 0 255 215 0 255 215 0 255 215 0 255 215 0 255 215 0 255 215 0 255 215 0 255 215 0 255 215 0 255 215 0 255 215 0 255 215 0 255 215 0 255 215 0 255 215 0 255 215 0 255 215 0 
255 215 0 255 215 0 255 215 0 255 215 0 255 215 0 255 215 0 255 215 0 255 215 0 255 215 0 255 215 0 255 215 0 255 215 0 255 215 0 255 215 0 255 215 0 255 215 0 255 215 0 255 215 0 255 215 0 255 215 0 255 215 0 255 215 0 255 215 0 255 215 0 255 215 0 255 215 0 255 215 0 255 215 0 255 215 0 255 215 0 255 215 0 255 215 0 255 215 0 255 215 0 255 215 0 255 215 0 255 215 0 255 215 0 255 215 0 255 215 0 255 215 0 255 215 0 255 215 0 255 215 0 255 215 0 255 215 0 255 215 0 255 215 0 255 215 0 255 215 0 255 215 0 255 215 0 255 215 0 255 215 0 255 215 0 255 215 0 255 215 0 255 215 0 255 215 0 255 215 0 255 215 0 255 215 0 255 215 0 255 215 0 255 215 0 255 215 0 255 215 0 255 215 0 255 215 0 255 215 0 255 215 0 255 215 0 255 215 0 255 215 0 255 215 0 255 215 0 255 215 0 255 215 0 255 215 0 255 215 0 255 215 0 255 215 0 255 215 0 255 215 0 255 215 0 255 215 0 255 215 0 255 215 0 255 215 0 255 215 0 255 215 0 255 215 0 255 215 0 255 215 0 255 215 0 255 215 0 255 215 0 255 215 0 255 215 0 255 215 0 255 215 0 255 215 0 255 215 0 255 215 0 255 215 0 255 215 0 255 215 0 255 215 0 255 215 0 255 215 0 255 215 0 255 215 0 255 215 0 255 215 0 255 215 0 255 215 0 255 215 0 255 215 0 255 215 0 255 215 0 255 215 0 255 215 0 255 215 0 255 215 0 255 215 0 255 215 0 255 215 0 255 215 0 255 215 0 255 215 0 255 215 0 255 215 0 255 215 0 255 215 0 255 215 0 255 215 0 255 215 0 255 215 0 255 215 0 255 215 0 255 215 0 255 215 0 255 215 0 255 215 0 255 215 0 255 215 0 255 215 0 255 215 0 255 215 0 255 215 0 255 215 0 255 215 0 255 215 0 255 215 0 255 215 0 255 215 0 255 215 0 255 215 0 255 215 0 255 215 0 255 215 0 255 215 0 255 215 0 255 215 0 255 215 0 255 215 0 255 215 0 255 215 0 255 215 0 255 215 0 255 215 0 255 215 0 255 215 0 255 215 0 255 215 0 255 215 0 255 215 0 255 215 0 255 215 0 255 215 0 255 215 0 255 215 0 255 215 0 255 215 0 255 215 0 255 215 0 255 215 0 255 215 0 255 215 0 255 215 0 255 215 0 255 215 0 255 215 0 255 215 0 255 215 0 255 215 0 255 215 0 255 215 0 255 215 0 255 215 0 255 215 0 255 215 0 255 215 0 255 215 0 255 215 0 255 215 0 255 215 0 255 215 0 255 215 0 255 215 0 255 215 0 255 215 0 255 215 0 255 215 0 255 215 0 255 215 0 255 215 0 255 215 0 255 215 0 255 215 0 255 215 0 255 215 0 255 215 0 255 215 0 255 215 0 255 215 0 255 215 0 255 215 0 255 215 0 255 215 0 255 215 0 255 215 0 255 215 0 255 215 0 255 215 0 255 215 0 255 215 0 255 215 0 255 215 0 255 215 0 255 215 0 255 215 0 255 215 0 255 215 0 255 215 0 255 215 0 255 215 0 255 215 0 255 215 0 255 215 0 255 215 0 255 215 0 255 215 0 255 215 0 255 215 0 255 215 0 255 215 0 255 215 0 255 215 0 255 215 0 255 215 0 255 215 0 255 215 0 255 215 0 255 215 0 255 215 0 255 215 0 255 215 0 255 215 0 255 215 0 255 215 0 255 215 0 255 215 0 255 215 0 255 215 0 255 215 0 255 215 0 255 215 0 255 215 0 255 215 0 255 215 0 255 215 0 255 215 0 255 215 0 255 215 0 255 215 0 255 215 0 255 215 0 255 215 0 255 215 0 255 215 0 255 215 0 255 215 0 255 215 0 255 215 0 255 215 0 255 215 0 255 215 0 255 215 0 255 215 0 
255 215 0 255 215 0 255 215 0 255 215 0 255 215 0 255 215 0 255 215 0 255 215 0 255 215 0 255 215 0 255 215 0 255 215 0 255 215 0 255 215 0 255 215 0 255 215 0 255 215 0 255 215 0 255 215 0 255 215 0 255 215 0 255 215 0 255 215 0 255 215 0 255 215 0 255 215 0 255 215 0 255 215 0 255 215 0 255 215 0 255 215 0 255 215 0 255 215 0 255 215 0 255 215 0 255 215 0 255 215 0 255 215 0 255 215 0 255 215 0 255 215 0 255 215 0 255 215 0 255 215 0 255 215 0 255 215 0 255 215 0 255 215 0 255 215 0 255 215 0 255 215 0 255 215 0 255 215 0 255 215 0 255 215 0 255 215 0 255 215 0 255 215 0 255 215 0 255 215 0 255 215 0 255 215 0 255 215 0 255 215 0 255 215 0 255 215 0 255 215 0 255 215 0 255 215 0 255 215 0 255 215 0 255 215 0 255 215 0 255 215 0 255 215 0 255 215 0 255 215 0 255 215 0 255 215 0 255 215 0 255 215 0 255 215 0 255 215 0 255 215 0 255 215 0 255 215 0 255 215 0 255 215 0 255 215 0 255 215 0 255 215 0 255 215 0 255 215 0 255 215 0 255 215 0 255 215 0 255 215 0 255 215 0 255 215 0 255 215 0 255 215 0 255 215 0 255 215 0 255 215 0 255 215 0 255 215 0 255 215 0 255 215 0 255 215 0 255 215 0 255 215 0 255 215 0 255 215 0 255 215 0 255 215 0 255 215 0 255 215 0 255 215 0 255 215 0 255 215 0 255 215 0 255 215 0 255 215 0 255 215 0 255 215 0 255 215 0 255 215 0 255 215 0 255 215 0 255 215 0 255 215 0 255 215 0 255 215 0 255 215 0 255 215 0 255 215 0 255 215 0 255 215 0 255 215 0 255 215 0 255 215 0 255 215 0 255 215 0 255 215 0 255 215 0 255 215 0 255 215 0 255 215 0 255 215 0 255 215 0 255 215 0 255 215 0 255 215 0 255 215 0 255 215 0 255 215 0 255 215 0 255 215 0 255 215 0 255 215 0 255 215 0 255 215 0 255 215 0 255 215 0 255 215 0 255 215 0 255 215 0 255 215 0 255 215 0 255 215 0 255 215 0 255 215 0 255 215 0 255 215 0 255 215 0 255 215 0 255 215 0 255 215 0 255 215 0 255 215 0 255 215 0 255 215 0 255 215 0 255 215 0 255 215 0 255 215 0 255 215 0 255 215 0 255 215 0 255 215 0 255 215 0 255 215 0 255 215 0 255 215 0 255 215 0 255 215 0 255 215 0 255 215 0 255 215 0 255 215 0 255 215 0 255 215 0 255 215 0 255 215 0 255 215 0 255 215 0 255 215 0 255 215 0 255 215 0 255 215 0 255 215 0 255 215 0 255 215 0 255 215 0 255 215 0 255 215 0 255 215 0 255 215 0 255 215 0 255 215 0 255 215 0 255 215 0 255 215 0 255 215 0 255 215 0 255 215 0 255 215 0 255 215 0 255 215 0 255 215 0 255 215 0 255 215 0 255 215 0 255 215 0 255 215 0 255 215 0 255 215 0 255 215 0 255 215 0 255 215 0 255 215 0 255 215 0 255 215 0 255 215 0 255 215 0 255 215 0 255 215 0 255 215 0 255 215 0 255 215 0 255 215 0 255 215 0 255 215 0 255 215 0 255 215 0 255 215 0 255 215 0 255 215 0 255 215 0 255 215 0 255 215 0 255 215 0 255 215 0 255 215 0 255 215 0 255 215 0 255 215 0 255 215 0 255 215 0 255 215 0 255 215 0 255 215 0 255 215 0 255 215 0 255 215 0 255 215 0 255 215 0 255 215 0 255 215 0 255 215 0 255 215 0 255 215 0 255 215 0 255 215 0 255 215 0 255 215 0 255 215 0 255 215 0 255 215 0 255 215 0 255 215 0 255 215 0 255 215 0 255 215 0 255 215 0 255 215 0 255 215 0 255 215 0 255 215 0 255 215 0 
255 215 0 255 215 0 255 215 0 255 215 0 255 215 0 255 215 0 255 215 0 255 215 0 255 215 0 255 215 0 255 215 0 255 215 0 255 215 0 255 215 0 255 215 0 255 215 0 255 215 0 255 215 0 255 215 0 255 215 0 255 215 0 255 215 0 255 215 0 255 215 0 255 215 0 255 215 0 255 215 0 255 215 0 255 215 0 255 215 0 255 215 0 255 215 0 255 215 0 255 215 0 255 215 0 255 215 0 255 215 0 255 215 0 255 215 0 255 215 0 255 215 0 255 215 0 255 215 0 255 215 0 255 215 0 255 215 0 255 215 0 255 215 0 255 215 0 255 215 0 255 215 0 255 215 0 255 215 0 255 215 0 255 215 0 255 215 0 255 215 0 255 215 0 255 215 0 255 215 0 255 215 0 255 215 0 255 215 0 255 215 0 255 215 0 255 215 0 255 215 0 255 215 0 255 215 0 255 215 0 255 215 0 255 215 0 255 215 0 255 215 0 255 215 0 255 215 0 255 215 0 255 215 0 255 215 0 255 215 0 255 215 0 255 215 0 255 215 0 255 215 0 255 215 0 255 215 0 255 215 0 255 215 0 255 215 0 255 215 0 255 215 0 255 215 0 255 215 0 255 215 0 255 215 0 255 215 0 255 215 0 255 215 0 255 215 0 255 215 0 255 215 0 255 215 0 255 215 0 255 215 0 255 215 0 255 215 0 255 215 0 255 215 0 255 215 0 255 215 0 255 215 0 255 215 0 255 215 0 255 215 0 255 215 0 255 215 0 255 215 0 255 215 0 255 215 0 255 215 0 255 215 0 255 215 0 255 215 0 255 215 0 255 215 0 255 215 0 255 215 0 255 215 0 255 215 0 255 215 0 255 215 0 255 215 0 255 215 0 255 215 0 255 215 0 255 215 0 255 215 0 255 215 0 255 215 0 255 215 0 255 215 0 255 215 0 255 215 0 255 215 0 255 215 0 255 215 0 255 215 0 255 215 0 255 215 0 255 215 0 255 215 0 255 215 0 255 215 0 255 215 0 255 215 0 255 215 0 255 215 0 255 215 0 255 215 0 255 215 0 255 215 0 255 215 0 255 215 0 255 215 0 255 215 0 255 215 0 255 215 0 255 215 0 255 215 0 255 215 0 255 215 0 255 215 0 255 215 0 255 215 0 255 215 0 255 215 0 255 215 0 255 215 0 255 215 0 255 215 0 255 215 0 255 215 0 255 215 0 255 215 0 255 215 0 255 215 0 255 215 0 255 215 0 255 215 0 255 215 0 255 215 0 255 215 0 255 215 0 255 215 0 255 215 0 255 215 0 255 215 0 255 215 0 255 215 0 255 215 0 255 215 0 255 215 0 255 215 0 255 215 0 255 215 0 255 215 0 255 215 0 255 215 0 255 215 0 255 215 0 255 215 0 255 215 0 255 215 0 255 215 0 255 215 0 255 215 0 255 215 0 255 215 0 255 215 0 255 215 0 255 215 0 255 215 0 255 215 0 255 215 0 255 215 0 255 215 0 255 215 0 255 215 0 255 215 0 255 215 0 255 215 0 255 215 0 255 215 0 255 215 0 255 215 0 255 215 0 255 215 0 255 215 0 255 215 0 255 215 0 255 215 0 255 215 0 255 215 0 255 215 0 255 215 0 255 215 0 255 215 0 255 215 0 255 215 0 255 215 0 255 215 0 255 215 0 255 215 0 255 215 0 255 215 0 255 215 0 255 215 0 255 215 0 255 215 0 255 215 0 255 215 0 255 215 0 255 215 0 255 215 0 255 215 0 255 215 0 255 215 0 255 215 0 255 215 0 255 215 0 255 215 0 255 215 0 255 215 0 255 215 0 255 215 0 255 215 0 255 215 0 255 215 0 255 215 0 255 215 0 255 215 0 255 215 0 255 215 0 255 215 0 255 215 0 255 215 0 255 215 0 255 215 0 255 215 0 255 215 0 255 215 0 255 215 0 255 215 0 255 215 0 255 215 0 255 215 0 255 215 0 255 215 0 255 215 0 255 215 0 
255 215 0 255 215 0 255 215 0 255 215 0 255 215 0 255 215 0 255 215 0 255 215 0 255 215 0 255 215 0 255 215 0 255 215 0 255 215 0 255 215 0 255 215 0 255 215 0 255 215 0 255 215 0 255 215 0 255 215 0 255 215 0 255 215 0 255 215 0 255 215 0 255 215 0 255 215 0 255 215 0 255 215 0 255 215 0 255 215 0 255 215 0 255 215 0 255 215 0 255 215 0 255 215 0 255 215 0 255 215 0 255 215 0 255 215 0 255 215 0 255 215 0 255 215 0 255 215 0 255 215 0 255 215 0 255 215 0 255 215 0 255 215 0 255 215 0 255 215 0 255 215 0 255 215 0 255 215 0 255 215 0 255 215 0 255 215 0 255 215 0 255 215 0 255 215 0 255 215 0 255 215 0 255 215 0 255 215 0 255 215 0 255 215 0 255 215 0 255 215 0 255 215 0 255 215 0 255 215 0 255 215 0 255 215 0 255 215 0 255 215 0 255 215 0 255 215 0 255 215 0 255 215 0 255 215 0 255 215 0 255 215 0 255 215 0 255 215 0 255 215 0 255 215 0 255 215 0 255 215 0 255 215 0 255 215 0 255 215 0 255 215 0 255 215 0 255 215 0 255 215 0 255 215 0 255 215 0 255 215 0 255 215 0 255 215 0 255 215 0 255 215 0 255 215 0 255 215 0 255 215 0 255 215 0 255 215 0 255 215 0 255 215 0 255 215 0 255 215 0 255 215 0 255 215 0 255 215 0 255 215 0 255 215 0 255 215 0 255 215 0 255 215 0 255 215 0 255 215 0 255 215 0 255 215 0 255 215 0 255 215 0 255 215 0 255 215 0 255 215 0 255 215 0 255 215 0 255 215 0 255 215 0 255 215 0 255 215 0 255 215 0 255 215 0 255 215 0 255 215 0 255 215 0 255 215 0 255 215 0 255 215 0 255 215 0 255 215 0 255 215 0 255 215 0 255 215 0 255 215 0 255 215 0 255 215 0 255 215 0 255 215 0 255 215 0 255 215 0 255 215 0 255 215 0 255 215 0 255 215 0 255 215 0 255 215 0 255 215 0 255 215 0 255 215 0 255 215 0 255 215 0 255 215 0 255 215 0 255 215 0 255 215 0 255 215 0 255 215 0 255 215 0 255 215 0 255 215 0 255 215 0 255 215 0 255 215 0 255 215 0 255 215 0 255 215 0 255 215 0 255 215 0 255 215 0 255 215 0 255 215 0 255 215 0 255 215 0 255 215 0 255 215 0 255 215 0 255 215 0 255 215 0 255 215 0 255 215 0 255 215 0 255 215 0 255 215 0 255 215 0 255 215 0 255 215 0 255 215 0 255 215 0 255 215 0 255 215 0 255 215 0 255 215 0 255 215 0 255 215 0 255 215 0 255 215 0 255 215 0 255 215 0 255 215 0 255 215 0 255 215 0 255 215 0 255 215 0 255 215 0 255 215 0 255 215 0 255 215 0 255 215 0 255 215 0 255 215 0 255 215 0 255 215 0 255 215 0 255 215 0 255 215 0 255 215 0 255 215 0 255 215 0 255 215 0 255 215 0 255 215 0 255 215 0 255 215 0 255 215 0 255 215 0 255 215 0 255 215 0 255 215 0 255 215 0 255 215 0 255 215 0 255 215 0 255 215 0 255 215 0 255 215 0 255 215 0 255 215 0 255 215 0 255 215 0 255 215 0 255 215 0 255 215 0 255 215 0 255 215 0 255 215 0 255 215 0 255 215 0 255 215 0 255 215 0 255 215 0 255 215 0 255 215 0 255 215 0 255 215 0 255 215 0 255 215 0 255 215 0 255 215 0 255 215 0 255 215 0 255 215 0 255 215 0 255 215 0 255 215 0 255 215 0 255 215 0 255 215 0 255 215 0 255 215 0 255 215 0 255 215 0 255 215 0 255 215 0 255 215 0 255 215 0 255 215 0 255 215 0 255 215 0 255 215 0 255 215 0 255 215 0 255 215 0 255 215 0 255 215 0 255 215 0 255 215 0 255 215 0 
255 215 0 255 215 0 255 215 0 255 215 0 255 215 0 255 215 0 255 215 0 255 215 0 255 215 0 255 215 0 255 215 0 255 215 0 255 215 0 255 215 0 255 215 0 255 215 0 255 215 0 255 215 0 255 215 0 255 215 0 255 215 0 255 215 0 255 215 0 255 215 0 255 215 0 255 215 0 255 215 0 255 215 0 255 215 0 255 215 0 255 215 0 255 215 0 255 215 0 255 215 0 255 215 0 255 215 0 255 215 0 255 215 0 255 215 0 255 215 0 255 215 0 255 215 0 255 215 0 255 215 0 255 215 0 255 215 0 255 215 0 255 215 0 255 215 0 255 215 0 255 215 0 255 215 0 255 215 0 255 215 0 255 215 0 255 215 0 255 215 0 255 215 0 255 215 0 255 215 0 255 215 0 255 215 0 255 215 0 255 215 0 255 215 0 255 215 0 255 215 0 255 215 0 255 215 0 255 215 0 255 215 0 255 215 0 255 215 0 255 215 0 255 215 0 255 215 0 255 215 0 255 215 0 255 215 0 255 215 0 255 215 0 255 215 0 255 215 0 255 215 0 255 215 0 255 215 0 255 215 0 255 215 0 255 215 0 255 215 0 255 215 0 255 215 0 255 215 0 255 215 0 255 215 0 255 215 0 255 215 0 255 215 0 255 215 0 255 215 0 255 215 0 255 215 0 255 215 0 255 215 0 255 215 0 255 215 0 255 215 0 255 215 0 255 215 0 255 215 0 255 215 0 255 215 0 255 215 0 255 215 0 255 215 0 255 215 0 255 215 0 255 215 0 255 215 0 255 215 0 255 215 0 255 215 0 255 215 0 255 215 0 255 215 0 255 215 0 255 215 0 255 215 0 255 215 0 255 215 0 255 215 0 255 215 0 255 215 0 255 215 0 255 215 0 255 215 0 255 215 0 255 215 0 255 215 0 255 215 0 255 215 0 255 215 0 255 215 0 255 215 0 255 215 0 255 215 0 255 215 0 255 215 0 255 215 0 255 215 0 255 215 0 255 215 0 255 215 0 255 215 0 255 215 0 255 215 0 255 215 0 255 215 0 255 215 0 255 215 0 255 215 0 255 215 0 255 215 0 255 215 0 255 215 0 255 215 0 255 215 0 255 215 0 255 215 0 255 215 0 255 215 0 255 215 0 255 215 0 255 215 0 255 215 0 255 215 0 255 215 0 255 215 0 255 215 0 255 215 0 255 215 0 255 215 0 255 215 0 255 215 0 255 215 0 255 215 0 255 215 0 255 215 0 255 215 0 255 215 0 255 215 0 255 215 0 255 215 0 255 215 0 255 215 0 255 215 0 255 215 0 255 215 0 255 215 0 255 215 0 255 215 0 255 215 0 255 215 0 255 215 0 255 215 0 255 215 0 255 215 0 255 215 0 255 215 0 255 215 0 255 215 0 255 215 0 255 215 0 255 215 0 255 215 0 255 215 0 255 215 0 255 215 0 255 215 0 255 215 0 255 215 0 255 215 0 255 215 0 255 215 0 255 215 0 255 215 0 255 215 0 255 215 0 255 215 0 255 215 0 255 215 0 255 215 0 255 215 0 255 215 0 255 215 0 255 215 0 255 215 0 255 215 0 255 215 0 255 215 0 255 215 0 255 215 0 255 215 0 255 215 0 255 215 0 255 215 0 255 215 0 255 215 0 255 215 0 255 215 0 255 215 0 255 215 0 255 215 0 255 215 0 255 215 0 255 215 0 255 215 0 255 215 0 255 215 0 255 215 0 255 215 0 255 215 0 255 215 0 255 215 0 255 215 0 255 215 0 255 215 0 255 215 0 255 215 0 255 215 0 255 215 0 255 215 0 255 215 0 255 215 0 255 215 0 255 215 0 255 215 0 255 215 0 255 215 0 255 215 0 255 215 0 255 215 0 255 215 0 255 215 0 255 215 0 255 215 0 255 215 0 255 215 0 255 215 0 255 215 0 255 215 0 255 215 0 255 215 0 255 215 0 255 215 0 255 215 0 255 215 0 255 215 0 255 215 0 255 215 0 
255 215 0 255 215 0 255 215 0 255 215 0 255 215 0 255 215 0 255 215 0 255 215 0 255 215 0 255 215 0 255 215 0 255 215 0 255 215 0 255 215 0 255 215 0 255 215 0 255 215 0 255 215 0 255 215 0 255 215 0 255 215 0 255 215 0 255 215 0 255 215 0 255 215 0 255 215 0 255 215 0 255 215 0 255 215 0 255 215 0 255 215 0 255 215 0 255 215 0 255 215 0 255 215 0 255 215 0 255 215 0 255 215 0 255 215 0 255 215 0 255 215 0 255 215 0 255 215 0 255 215 0 255 215 0 255 215 0 255 215 0 255 215 0 255 215 0 255 215 0 255 215 0 255 215 0 255 215 0 255 215 0 255 215 0 255 215 0 255 215 0 255 215 0 255 215 0 255 215 0 255 215 0 255 215 0 255 215 0 255 215 0 255 215 0 255 215 0 255 215 0 255 215 0 255 215 0 255 215 0 255 215 0 255 215 0 255 215 0 255 215 0 255 215 0 255 215 0 255 215 0 255 215 0 255 215 0 255 215 0 255 215 0 255 215 0 255 215 0 255 215 0 255 215 0 255 215 0 255 215 0 255 215 0 255 215 0 255 215 0 255 215 0 255 215 0 255 215 0 255 215 0 255 215 0 255 215 0 255 215 0 255 215 0 255 215 0 255 215 0 255 215 0 255 215 0 255 215 0 255 215 0 255 215 0 255 215 0 255 215 0 255 215 0 255 215 0 255 215 0 255 215 0 255 215 0 255 215 0 255 215 0 255 215 0 255 215 0 255 215 0 255 215 0 255 215 0 255 215 0 255 215 0 255 215 0 255 215 0 255 215 0 255 215 0 255 215 0 255 215 0 255 215 0 255 215 0 255 215 0 255 215 0 255 215 0 255 215 0 255 215 0 255 215 0 255 215 0 255 215 0 255 215 0 255 215 0 255 215 0 255 215 0 255 215 0 255 215 0 255 215 0 255 215 0 255 215 0 255 215 0 255 215 0 255 215 0 255 215 0 255 215 0 255 215 0 255 215 0 255 215 0 255 215 0 255 215 0 255 215 0 255 215 0 255 215 0 255 215 0 255 215 0 255 215 0 255 215 0 255 215 0 255 215 0 255 215 0 255 215 0 255 215 0 255 215 0 255 215 0 255 215 0 255 215 0 255 215 0 255 215 0 255 215 0 255 215 0 255 215 0 255 215 0 255 215 0 255 215 0 255 215 0 255 215 0 255 215 0 255 215 0 255 215 0 255 215 0 255 215 0 255 215 0 255 215 0 255 215 0 255 215 0 255 215 0 255 215 0 255 215 0 255 215 0 255 215 0 255 215 0 255 215 0 255 215 0 255 215 0 255 215 0 255 215 0 255 215 0 255 215 0 255 215 0 255 215 0 255 215 0 255 215 0 255 215 0 255 215 0 255 215 0 255 215 0 255 215 0 255 215 0 255 215 0 255 215 0 255 215 0 255 215 0 255 215 0 255 215 0 255 215 0 255 215 0 255 215 0 255 215 0 255 215 0 255 215 0 255 215 0 255 215 0 255 215 0 255 215 0 255 215 0 255 215 0 255 215 0 255 215 0 255 215 0 255 215 0 255 215 0 255 215 0 255 215 0 255 215 0 255 215 0 255 215 0 255 215 0 255 215 0 255 215 0 255 215 0 255 215 0 255 215 0 255 215 0 255 215 0 255 215 0 255 215 0 255 215 0 255 215 0 255 215 0 255 215 0 255 215 0 255 215 0 255 215 0 255 215 0 255 215 0 255 215 0 255 215 0 255 215 0 255 215 0 255 215 0 255 215 0 255 215 0 255 215 0 255 215 0 255 215 0 255 215 0 255 215 0 255 215 0 255 215 0 255 215 0 255 215 0 255 215 0 255 215 0 255 215 0 255 215 0 255 215 0 255 215 0 255 215 0 255 215 0 255 215 0 255 215 0 255 215 0 255 215 0 255 215 0 255 215 0 255 215 0 255 215 0 255 215 0 255 215 0 255 215 0 255 215 0 255 215 0 255 215 0 255 215 0 
255 215 0 255 215 0 255 215 0 255 215 0 255 215 0 255 215 0 255 215 0 255 215 0 255 215 0 255 215 0 255 215 0 255 215 0 255 215 0 255 215 0 255 215 0 255 215 0 255 215 0 255 215 0 255 215 0 255 215 0 255 215 0 255 215 0 255 215 0 255 215 0 255 215 0 255 215 0 255 215 0 255 215 0 255 215 0 255 215 0 255 215 0 255 215 0 255 215 0 255 215 0 255 215 0 255 215 0 255 215 0 255 215 0 255 215 0 255 215 0 255 215 0 255 215 0 255 215 0 255 215 0 255 215 0 255 215 0 255 215 0 255 215 0 255 215 0 255 215 0 255 215 0 255 215 0 255 215 0 255 215 0 255 215 0 255 215 0 255 215 0 255 215 0 255 215 0 255 215 0 255 215 0 255 215 0 255 215 0 255 215 0 255 215 0 255 215 0 255 215 0 255 215 0 255 215 0 255 215 0 255 215 0 255 215 0 255 215 0 255 215 0 255 215 0 255 215 0 255 215 0 255 215 0 255 215 0 255 215 0 255 215 0 255 215 0 255 215 0 255 215 0 255 215 0 255 215 0 255 215 0 255 215 0 255 215 0 255 215 0 255 215 0 255 215 0 255 215 0 255 215 0 255 215 0 255 215 0 255 215 0 255 215 0 255 215 0 255 215 0 255 215 0 255 215 0 255 215 0 255 215 0 255 215 0 255 215 0 255 215 0 255 215 0 255 215 0 255 215 0 255 215 0 255 215 0 255 215 0 255 215 0 255 215 0 255 215 0 255 215 0 255 215 0 255 215 0 255 215 0 255 215 0 255 215 0 255 215 0 255 215 0 255 215 0 255 215 0 255 215 0 255 215 0 255 215 0 255 215 0 255 215 0 255 215 0 255 215 0 255 215 0 255 215 0 255 215 0 255 215 0 255 215 0 255 215 0 255 215 0 255 215 0 255 215 0 255 215 0 255 215 0 255 215 0 255 215 0 255 215 0 255 215 0 255 215 0 255 215 0 255 215 0 255 215 0 255 215 0 255 215 0 255 215 0 255 215 0 255 215 0 255 215 0 255 215 0 255 215 0 255 215 0 255 215 0 255 215 0 255 215 0 255 215 0 255 215 0 255 215 0 255 215 0 255 215 0 255 215 0 255 215 0 255 215 0 255 215 0 255 215 0 255 215 0 255 215 0 255 215 0 255 215 0 255 215 0 255 215 0 255 215 0 255 215 0 255 215 0 255 215 0 255 215 0 255 215 0 255 215 0 255 215 0 255 215 0 255 215 0 255 215 0 255 215 0 255 215 0 255 215 0 255 215 0 255 215 0 255 215 0 255 215 0 255 215 0 255 215 0 255 215 0 255 215 0 255 215 0 255 215 0 255 215 0 255 215 0 255 215 0 255 215 0 255 215 0 255 215 0 255 215 0 255 215 0 255 215 0 255 215 0 255 215 0 255 215 0 255 215 0 255 215 0 255 215 0 255 215 0 255 215 0 255 215 0 255 215 0 255 215 0 255 215 0 255 215 0 255 215 0 255 215 0 255 215 0 255 215 0 255 215 0 255 215 0 255 215 0 255 215 0 255 215 0 255 215 0 255 215 0 255 215 0 255 215 0 255 215 0 255 215 0 255 215 0 255 215 0 255 215 0 255 215 0 255 215 0 255 215 0 255 215 0 255 215 0 255 215 0 255 215 0 255 215 0 255 215 0 255 215 0 255 215 0 255 215 0 255 215 0 255 215 0 255 215 0 255 215 0 255 215 0 255 215 0 255 215 0 255 215 0 255 215 0 255 215 0 255 215 0 255 215 0 255 215 0 255 215 0 255 215 0 255 215 0 255 215 0 255 215 0 255 215 0 255 215 0 255 215 0 255 215 0 255 215 0 255 215 0 255 215 0 255 215 0 255 215 0 255 215 0 255 215 0 255 215 0 255 215 0 255 215 0 255 215 0 255 215 0 255 215 0 255 215 0 255 215 0 255 215 0 255 215 0 255 215 0 255 215 0 255 215 0 255 215 0 255 215 0 
255 215 0 255 215 0 255 215 0 255 215 0 255 215 0 255 215 0 255 215 0 255 215 0 255 215 0 255 215 0 255 215 0 255 215 0 255 215 0 255 215 0 255 215 0 255 215 0 255 215 0 255 215 0 255 215 0 255 215 0 255 215 0 255 215 0 255 215 0 255 215 0 255 215 0 255 215 0 255 215 0 255 215 0 255 215 0 255 215 0 255 215 0 255 215 0 255 215 0 255 215 0 255 215 0 255 215 0 255 215 0 255 215 0 255 215 0 255 215 0 255 215 0 255 215 0 255 215 0 255 215 0 255 215 0 255 215 0 255 215 0 255 215 0 255 215 0 255 215 0 255 215 0 255 215 0 255 215 0 255 215 0 255 215 0 255 215 0 255 215 0 255 215 0 255 215 0 255 215 0 255 215 0 255 215 0 255 215 0 255 215 0 255 215 0 255 215 0 255 215 0 255 215 0 255 215 0 255 215 0 255 215 0 255 215 0 255 215 0 255 215 0 255 215 0 255 215 0 255 215 0 255 215 0 255 215 0 255 215 0 255 215 0 255 215 0 255 215 0 255 215 0 255 215 0 255 215 0 255 215 0 255 215 0 255 215 0 255 215 0 255 215 0 255 215 0 255 215 0 255 215 0 255 215 0 255 215 0 255 215 0 255 215 0 255 215 0 255 215 0 255 215 0 255 215 0 255 215 0 255 215 0 255 215 0 255 215 0 255 215 0 255 215 0 255 215 0 255 215 0 255 215 0 255 215 0 255 215 0 255 215 0 255 215 0 255 215 0 255 215 0 255 215 0 255 215 0 255 215 0 255 215 0 255 215 0 255 215 0 255 215 0 255 215 0 255 215 0 255 215 0 255 215 0 255 215 0 255 215 0 255 215 0 255 215 0 255 215 0 255 215 0 255 215 0 255 215 0 255 215 0 255 215 0 255 215 0 255 215 0 255 215 0 255 215 0 255 215 0 255 215 0 255 215 0 255 215 0 255 215 0 255 215 0 255 215 0 255 215 0 255 215 0 255 215 0 255 215 0 255 215 0 255 215 0 255 215 0 255 215 0 255 215 0 255 215 0 255 215 0 255 215 0 255 215 0 255 215 0 255 215 0 255 215 0 255 215 0 255 215 0 255 215 0 255 215 0 255 215 0 255 215 0 255 215 0 255 215 0 255 215 0 255 215 0 255 215 0 255 215 0 255 215 0 255 215 0 255 215 0 255 215 0 255 215 0 255 215 0 255 215 0 255 215 0 255 215 0 255 215 0 255 215 0 255 215 0 255 215 0 255 215 0 255 215 0 255 215 0 255 215 0 255 215 0 255 215 0 255 215 0 255 215 0 255 215 0 255 215 0 255 215 0 255 215 0 255 215 0 255 215 0 255 215 0 255 215 0 255 215 0 255 215 0 255 215 0 255 215 0 255 215 0 255 215 0 255 215 0 255 215 0 255 215 0 255 215 0 255 215 0 255 215 0 255 215 0 255 215 0 255 215 0 255 215 0 255 215 0 255 215 0 255 215 0 255 215 0 255 215 0 255 215 0 255 215 0 255 215 0 255 215 0 255 215 0 255 215 0 255 215 0 255 215 0 255 215 0 255 215 0 255 215 0 255 215 0 255 215 0 255 215 0 255 215 0 255 215 0 255 215 0 255 215 0 255 215 0 255 215 0 255 215 0 255 215 0 255 215 0 255 215 0 255 215 0 255 215 0 255 215 0 255 215 0 255 215 0 255 215 0 255 215 0 255 215 0 255 215 0 255 215 0 255 215 0 255 215 0 255 215 0 255 215 0 255 215 0 255 215 0 255 215 0 255 215 0 255 215 0 255 215 0 255 215 0 255 215 0 255 215 0 255 215 0 255 215 0 255 215 0 255 215 0 255 215 0 255 215 0 255 215 0 255 215 0 255 215 0 255 215 0 255 215 0 255 215 0 255 215 0 255 215 0 255 215 0 255 215 0 255 215 0 255 215 0 255 215 0 255 215 0 255 215 0 255 215 0 255 215 0 255 215 0 255 215 0 255 215 0 
255 215 0 255 215 0 255 215 0 255 215 0 255 215 0 255 215 0 255 215 0 255 215 0 255 215 0 255 215 0 255 215 0 255 215 0 255 215 0 255 215 0 255 215 0 255 215 0 255 215 0 255 215 0 255 215 0 255 215 0 255 215 0 255 215 0 255 215 0 255 215 0 255 215 0 255 215 0 255 215 0 255 215 0 255 215 0 255 215 0 255 215 0 255 215 0 255 215 0 255 215 0 255 215 0 255 215 0 255 215 0 255 215 0 255 215 0 255 215 0 255 215 0 255 215 0 255 215 0 255 215 0 255 215 0 255 215 0 255 215 0 255 215 0 255 215 0 255 215 0 255 215 0 255 215 0 255 215 0 255 215 0 255 215 0 255 215 0 255 215 0 255 215 0 255 215 0 255 215 0 255 215 0 255 215 0 255 215 0 255 215 0 255 215 0 255 215 0 255 215 0 255 215 0 255 215 0 255 215 0 255 215 0 255 215 0 255 215 0 255 215 0 255 215 0 255 215 0 255 215 0 255 215 0 255 215 0 255 215 0 255 215 0 255 215 0 255 215 0 255 215 0 255 215 0 255 215 0 255 215 0 255 215 0 255 215 0 255 215 0 255 215 0 255 215 0 255 215 0 255 215 0 255 215 0 255 215 0 255 215 0 255 215 0 255 215 0 255 215 0 255 215 0 255 215 0 255 215 0 255 215 0 255 215 0 255 215 0 255 215 0 255 215 0 255 215 0 255 215 0 255 215 0 255 215 0 255 215 0 255 215 0 255 215 0 255 215 0 255 215 0 255 215 0 255 215 0 255 215 0 255 215 0 255 215 0 255 215 0 255 215 0 255 215 0 255 215 0 255 215 0 255 215 0 255 215 0 255 215 0 255 215 0 255 215 0 255 215 0 255 215 0 255 215 0 255 215 0 255 215 0 255 215 0 255 215 0 255 215 0 255 215 0 255 215 0 255 215 0 255 215 0 255 215 0 255 215 0 255 215 0 255 215 0 255 215 0 255 215 0 255 215 0 255 215 0 255 215 0 255 215 0 255 215 0 255 215 0 255 215 0 255 215 0 255 215 0 255 215 0 255 215 0 255 215 0 255 215 0 255 215 0 255 215 0 255 215 0 255 215 0 255 215 0 255 215 0 255 215 0 255 215 0 255 215 0 255 215 0 255 215 0 255 215 0 255 215 0 255 215 0 255 215 0 255 215 0 255 215 0 255 215 0 255 215 0 255 215 0 255 215 0 255 215 0 255 215 0 255 215 0 255 215 0 255 215 0 255 215 0 255 215 0 255 215 0 255 215 0 255 215 0 255 215 0 255 215 0 255 215 0 255 215 0 255 215 0 255 215 0 255 215 0 255 215 0 255 215 0 255 215 0 255 215 0 255 215 0 255 215 0 255 215 0 255 215 0 255 215 0 255 215 0 255 215 0 255 215 0 255 215 0 255 215 0 255 215 0 255 215 0 255 215 0 255 215 0 255 215 0 255 215 0 255 215 0 255 215 0 255 215 0 255 215 0 255 215 0 255 215 0 255 215 0 255 215 0 255 215 0 255 215 0 255 215 0 255 215 0 255 215 0 255 215 0 255 215 0 255 215 0 255 215 0 255 215 0 255 215 0 255 215 0 255 215 0 255 215 0 255 215 0 255 215 0 255 215 0 255 215 0 255 215 0 255 215 0 255 215 0 255 215 0 255 215 0 255 215 0 255 215 0 255 215 0 255 215 0 255 215 0 255 215 0 255 215 0 255 215 0 255 215 0 255 215 0 255 215 0 255 215 0 255 215 0 255 215 0 255 215 0 255 215 0 255 215 0 255 215 0 255 215 0 255 215 0 255 215 0 255 215 0 255 215 0 255 215 0 255 215 0 255 215 0 255 215 0 255 215 0 255 215 0 255 215 0 255 215 0 255 215 0 255 215 0 255 215 0 255 215 0 255 215 0 255 215 0 255 215 0 255 215 0 255 215 0 255 215 0 255 215 0 255 215 0 255 215 0 255 215 0 255 215 0 255 215 0 255 215 0 
255 215 0 255 215 0 255 215 0 255 215 0 255 215 0 255 215 0 255 215 0 255 215 0 255 215 0 255 215 0 255 215 0 255 215 0 255 215 0 255 215 0 255 215 0 255 215 0 255 215 0 255 215 0 255 215 0 255 215 0 255 215 0 255 215 0 255 215 0 255 215 0 255 215 0 255 215 0 255 215 0 255 215 0 255 215 0 255 215 0 255 215 0 255 215 0 255 215 0 255 215 0 255 215 0 255 215 0 255 215 0 255 215 0 255 215 0 255 215 0 255 215 0 255 215 0 255 215 0 255 215 0 255 215 0 255 215 0 255 215 0 255 215 0 255 215 0 255 215 0 255 215 0 255 215 0 255 215 0 255 215 0 255 215 0 255 215 0 255 215 0 255 215 0 255 215 0 255 215 0 255 215 0 255 215 0 255 215 0 255 215 0 255 215 0 255 215 0 255 215 0 255 215 0 255 215 0 255 215 0 255 215 0 255 215 0 255 215 0 255 215 0 255 215 0 255 215 0 255 215 0 255 215 0 255 215 0 255 215 0 255 215 0 255 215 0 255 215 0 255 215 0 255 215 0 255 215 0 255 215 0 255 215 0 255 215 0 255 215 0 255 215 0 255 215 0 255 215 0 255 215 0 255 215 0 255 215 0 255 215 0 255 215 0 255 215 0 255 215 0 255 215 0 255 215 0 255 215 0 255 215 0 255 215 0 255 215 0 255 215 0 255 215 0 255 215 0 255 215 0 255 215 0 255 215 0 255 215 0 255 215 0 255 215 0 255 215 0 255 215 0 255 215 0 255 215 0 255 215 0 255 215 0 255 215 0 255 215 0 255 215 0 255 215 0 255 215 0 255 215 0 255 215 0 255 215 0 255 215 0 255 215 0 255 215 0 255 215 0 255 215 0 255 215 0 255 215 0 255 215 0 255 215 0 255 215 0 255 215 0 255 215 0 255 215 0 255 215 0 255 215 0 255 215 0 255 215 0 255 215 0 255 215 0 255 215 0 255 215 0 255 215 0 255 215 0 255 215 0 255 215 0 255 215 0 255 215 0 255 215 0 255 215 0 255 215 0 255 215 0 255 215 0 255 215 0 255 215 0 255 215 0 255 215 0 255 215 0 255 215 0 255 215 0 255 215 0 255 215 0 255 215 0 255 215 0 255 215 0 255 215 0 255 215 0 255 215 0 255 215 0 255 215 0 255 215 0 255 215 0 255 215 0 255 215 0 255 215 0 255 215 0 255 215 0 255 215 0 255 215 0 255 215 0 255 215 0 255 215 0 255 215 0 255 215 0 255 215 0 255 215 0 255 215 0 255 215 0 255 215 0 255 215 0 255 215 0 255 215 0 255 215 0 255 215 0 255 215 0 255 215 0 255 215 0 255 215 0 255 215 0 255 215 0 255 215 0 255 215 0 255 215 0 255 215 0 255 215 0 255 215 0 255 215 0 255 215 0 255 215 0 255 215 0 255 215 0 255 215 0 255 215 0 255 215 0 255 215 0 255 215 0 255 215 0 255 215 0 255 215 0 255 215 0 255 215 0 255 215 0 255 215 0 255 215 0 255 215 0 255 215 0 255 215 0 255 215 0 255 215 0 255 215 0 255 215 0 255 215 0 255 215 0 255 215 0 255 215 0 255 215 0 255 215 0 255 215 0 255 215 0 255 215 0 255 215 0 255 215 0 255 215 0 255 215 0 255 215 0 255 215 0 255 215 0 255 215 0 255 215 0 255 215 0 255 215 0 255 215 0 255 215 0 255 215 0 255 215 0 255 215 0 255 215 0 255 215 0 255 215 0 255 215 0 255 215 0 255 215 0 255 215 0 255 215 0 255 215 0 255 215 0 255 215 0 255 215 0 255 215 0 255 215 0 255 215 0 255 215 0 255 215 0 255 215 0 255 215 0 255 215 0 255 215 0 255 215 0 255 215 0 255 215 0 255 215 0 255 215 0 255 215 0 255 215 0 255 215 0 255 215 0 255 215 0 255 215 0 255 215 0 255 215 0 255 215 0 255 215 0 
255 215 0 255 215 0 255 215 0 255 215 0 255 215 0 255 215 0 255 215 0 255 215 0 255 215 0 255 215 0 255 215 0 255 215 0 255 215 0 255 215 0 255 215 0 255 215 0 255 215 0 255 215 0 255 215 0 255 215 0 255 215 0 255 215 0 255 215 0 255 215 0 255 215 0 255 215 0 255 215 0 255 215 0 255 215 0 255 215 0 255 215 0 255 215 0 255 215 0 255 215 0 255 215 0 255 215 0 255 215 0 255 215 0 255 215 0 255 215 0 255 215 0 255 215 0 255 215 0 255 215 0 255 215 0 255 215 0 255 215 0 255 215 0 255 215 0 255 215 0 255 215 0 255 215 0 255 215 0 255 215 0 255 215 0 255 215 0 255 215 0 255 215 0 255 215 0 255 215 0 255 215 0 255 215 0 255 215 0 255 215 0 255 215 0 255 215 0 255 215 0 255 215 0 255 215 0 255 215 0 255 215 0 255 215 0 255 215 0 255 215 0 255 215 0 255 215 0 255 215 0 255 215 0 255 215 0 255 215 0 255 215 0 255 215 0 255 215 0 255 215 0 255 215 0 255 215 0 255 215 0 255 215 0 255 215 0 255 215 0 255 215 0 255 215 0 255 215 0 255 215 0 255 215 0 255 215 0 255 215 0 255 215 0 255 215 0 255 215 0 255 215 0 255 215 0 255 215 0 255 215 0 255 215 0 255 215 0 255 215 0 255 215 0 255 215 0 255 215 0 255 215 0 255 215 0 255 215 0 255 215 0 255 215 0 255 215 0 255 215 0 255 215 0 255 215 0 255 215 0 255 215 0 255 215 0 255 215 0 255 215 0 255 215 0 255 215 0 255 215 0 255 215 0 255 215 0 255 215 0 255 215 0 255 215 0 255 215 0 255 215 0 255 215 0 255 215 0 255 215 0 255 215 0 255 215 0 255 215 0 255 215 0 255 215 0 255 215 0 255 215 0 255 215 0 255 215 0 255 215 0 255 215 0 255 215 0 255 215 0 255 215 0 255 215 0 255 215 0 255 215 0 255 215 0 255 215 0 255 215 0 255 215 0 255 215 0 255 215 0 255 215 0 255 215 0 255 215 0 255 215 0 255 215 0 255 215 0 255 215 0 255 215 0 255 215 0 255 215 0 255 215 0 255 215 0 255 215 0 255 215 0 255 215 0 255 215 0 255 215 0 255 215 0 255 215 0 255 215 0 255 215 0 255 215 0 255 215 0 255 215 0 255 215 0 255 215 0 255 215 0 255 215 0 255 215 0 255 215 0 255 215 0 255 215 0 255 215 0 255 215 0 255 215 0 255 215 0 255 215 0 255 215 0 255 215 0 255 215 0 255 215 0 255 215 0 255 215 0 255 215 0 255 215 0 255 215 0 255 215 0 255 215 0 255 215 0 255 215 0 255 215 0 255 215 0 255 215 0 255 215 0 255 215 0 255 215 0 255 215 0 255 215 0 255 215 0 255 215 0 255 215 0 255 215 0 255 215 0 255 215 0 255 215 0 255 215 0 255 215 0 255 215 0 255 215 0 255 215 0 255 215 0 255 215 0 255 215 0 255 215 0 255 215 0 255 215 0 255 215 0 255 215 0 255 215 0 255 215 0 255 215 0 255 215 0 255 215 0 255 215 0 255 215 0 255 215 0 255 215 0 255 215 0 255 215 0 255 215 0 255 215 0 255 215 0 255 215 0 255 215 0 255 215 0 255 215 0 255 215 0 255 215 0 255 215 0 255 215 0 255 215 0 255 215 0 255 215 0 255 215 0 255 215 0 255 215 0 255 215 0 255 215 0 255 215 0 255 215 0 255 215 0 255 215 0 255 215 0 255 215 0 255 215 0 255 215 0 255 215 0 255 215 0 255 215 0 255 215 0 255 215 0 255 215 0 255 215 0 255 215 0 255 215 0 255 215 0 255 215 0 255 215 0 255 215 0 255 215 0 255 215 0 255 215 0 255 215 0 255 215 0 255 215 0 255 215 0 255 215 0 255 215 0 255 215 0 255 215 0 
255 215 0 255 215 0 255 215 0 255 215 0 255 215 0 255 215 0 255 215 0 255 215 0 255 215 0 255 215 0 255 215 0 255 215 0 255 215 0 255 215 0 255 215 0 255 215 0 255 215 0 255 215 0 255 215 0 255 215 0 255 215 0 255 215 0 255 215 0 255 215 0 255 215 0 255 215 0 255 215 0 255 215 0 255 215 0 255 215 0 255 215 0 255 215 0 255 215 0 255 215 0 255 215 0 255 215 0 255 215 0 255 215 0 255 215 0 255 215 0 255 215 0 255 215 0 255 215 0 255 215 0 255 215 0 255 215 0 255 215 0 255 215 0 255 215 0 255 215 0 255 215 0 255 215 0 255 215 0 255 215 0 255 215 0 255 215 0 255 215 0 255 215 0 255 215 0 255 215 0 255 215 0 255 215 0 255 215 0 255 215 0 255 215 0 255 215 0 255 215 0 255 215 0 255 215 0 255 215 0 255 215 0 255 215 0 255 215 0 255 215 0 255 215 0 255 215 0 255 215 0 255 215 0 255 215 0 255 215 0 255 215 0 255 215 0 255 215 0 255 215 0 255 215 0 255 215 0 255 215 0 255 215 0 255 215 0 255 215 0 255 215 0 255 215 0 255 215 0 255 215 0 255 215 0 255 215 0 255 215 0 255 215 0 255 215 0 255 215 0 255 215 0 255 215 0 255 215 0 255 215 0 255 215 0 255 215 0 255 215 0 255 215 0 255 215 0 255 215 0 255 215 0 255 215 0 255 215 0 255 215 0 255 215 0 255 215 0 255 215 0 255 215 0 255 215 0 255 215 0 255 215 0 255 215 0 255 215 0 255 215 0 255 215 0 255 215 0 255 215 0 255 215 0 255 215 0 255 215 0 255 215 0 255 215 0 255 215 0 255 215 0 255 215 0 255 215 0 255 215 0 255 215 0 255 215 0 255 215 0 255 215 0 255 215 0 255 215 0 255 215 0 255 215 0 255 215 0 255 215 0 255 215 0 255 215 0 255 215 0 255 215 0 255 215 0 255 215 0 255 215 0 255 215 0 255 215 0 255 215 0 255 215 0 255 215 0 255 215 0 255 215 0 255 215 0 255 215 0 255 215 0 255 215 0 255 215 0 255 215 0 255 215 0 255 215 0 255 215 0 255 215 0 255 215 0 255 215 0 255 215 0 255 215 0 255 215 0 255 215 0 255 215 0 255 215 0 255 215 0 255 215 0 255 215 0 255 215 0 255 215 0 255 215 0 255 215 0 255 215 0 255 215 0 255 215 0 255 215 0 255 215 0 255 215 0 255 215 0 255 215 0 255 215 0 255 215 0 255 215 0 255 215 0 255 215 0 255 215 0 255 215 0 255 215 0 255 215 0 255 215 0 255 215 0 255 215 0 255 215 0 255 215 0 255 215 0 255 215 0 255 215 0 255 215 0 255 215 0 255 215 0 255 215 0 255 215 0 255 215 0 255 215 0 255 215 0 255 215 0 255 215 0 255 215 0 255 215 0 255 215 0 255 215 0 255 215 0 255 215 0 255 215 0 255 215 0 255 215 0 255 215 0 255 215 0 255 215 0 255 215 0 255 215 0 255 215 0 255 215 0 255 215 0 255 215 0 255 215 0 255 215 0 255 215 0 255 215 0 255 215 0 255 215 0 255 215 0 255 215 0 255 215 0 255 215 0 255 215 0 255 215 0 255 215 0 255 215 0 255 215 0 255 215 0 255 215 0 255 215 0 255 215 0 255 215 0 255 215 0 255 215 0 255 215 0 255 215 0 255 215 0 255 215 0 255 215 0 255 215 0 255 215 0 255 215 0 255 215 0 255 215 0 255 215 0 255 215 0 255 215 0 255 215 0 255 215 0 255 215 0 255 215 0 255 215 0 255 215 0 255 215 0 255 215 0 255 215 0 255 215 0 255 215 0 255 215 0 255 215 0 255 215 0 255 215 0 255 215 0 255 215 0 255 215 0 255 215 0 255 215 0 255 215 0 255 215 0 255 215 0 255 215 0 255 215 0 255 215 0 
255 215 0 255 215 0 255 215 0 255 215 0 255 215 0 255 215 0 255 215 0 255 215 0 255 215 0 255 215 0 255 215 0 255 215 0 255 215 0 255 215 0 255 215 0 255 215 0 255 215 0 255 215 0 255 215 0 255 215 0 255 215 0 255 215 0 255 215 0 255 215 0 255 215 0 255 215 0 255 215 0 255 215 0 255 215 0 255 215 0 255 215 0 255 215 0 255 215 0 255 215 0 255 215 0 255 215 0 255 215 0 255 215 0 255 215 0 255 215 0 255 215 0 255 215 0 255 215 0 255 215 0 255 215 0 255 215 0 255 215 0 255 215 0 255 215 0 255 215 0 255 215 0 255 215 0 255 215 0 255 215 0 255 215 0 255 215 0 255 215 0 255 215 0 255 215 0 255 215 0 255 215 0 255 215 0 255 215 0 255 215 0 255 215 0 255 215 0 255 215 0 255 215 0 255 215 0 255 215 0 255 215 0 255 215 0 255 215 0 255 215 0 255 215 0 255 215 0 255 215 0 255 215 0 255 215 0 255 215 0 255 215 0 255 215 0 255 215 0 255 215 0 255 215 0 255 215 0 255 215 0 255 215 0 255 215 0 255 215 0 255 215 0 255 215 0 255 215 0 255 215 0 255 215 0 255 215 0 255 215 0 255 215 0 255 215 0 255 215 0 255 215 0 255 215 0 255 215 0 255 215 0 255 215 0 255 215 0 255 215 0 255 215 0 255 215 0 255 215 0 255 215 0 255 215 0 255 215 0 255 215 0 255 215 0 255 215 0 255 215 0 255 215 0 255 215 0 255 215 0 255 215 0 255 215 0 255 215 0 255 215 0 255 215 0 255 215 0 255 215 0 255 215 0 255 215 0 255 215 0 255 215 0 255 215 0 255 215 0 255 215 0 255 215 0 255 215 0 255 215 0 255 215 0 255 215 0 255 215 0 255 215 0 255 215 0 255 215 0 255 215 0 255 215 0 255 215 0 255 215 0 255 215 0 255 215 0 255 215 0 255 215 0 255 215 0 255 215 0 255 215 0 255 215 0 255 215 0 255 215 0 255 215 0 255 215 0 255 215 0 255 215 0 255 215 0 255 215 0 255 215 0 255 215 0 255 215 0 255 215 0 255 215 0 255 215 0 255 215 0 255 215 0 255 215 0 255 215 0 255 215 0 255 215 0 255 215 0 255 215 0 255 215 0 255 215 0 255 215 0 255 215 0 255 215 0 255 215 0 255 215 0 255 215 0 255 215 0 255 215 0 255 215 0 255 215 0 255 215 0 255 215 0 255 215 0 255 215 0 255 215 0 255 215 0 255 215 0 255 215 0 255 215 0 255 215 0 255 215 0 255 215 0 255 215 0 255 215 0 255 215 0 255 215 0 255 215 0 255 215 0 255 215 0 255 215 0 255 215 0 255 215 0 255 215 0 255 215 0 255 215 0 255 215 0 255 215 0 255 215 0 255 215 0 255 215 0 255 215 0 255 215 0 255 215 0 255 215 0 255 215 0 255 215 0 255 215 0 255 215 0 255 215 0 255 215 0 255 215 0 255 215 0 255 215 0 255 215 0 255 215 0 255 215 0 255 215 0 255 215 0 255 215 0 255 215 0 255 215 0 255 215 0 255 215 0 255 215 0 255 215 0 255 215 0 255 215 0 255 215 0 255 215 0 255 215 0 255 215 0 255 215 0 255 215 0 255 215 0 255 215 0 255 215 0 255 215 0 255 215 0 255 215 0 255 215 0 255 215 0 255 215 0 255 215 0 255 215 0 255 215 0 255 215 0 255 215 0 255 215 0 255 215 0 255 215 0 255 215 0 255 215 0 255 215 0 255 215 0 255 215 0 255 215 0 255 215 0 255 215 0 255 215 0 255 215 0 255 215 0 255 215 0 255 215 0 255 215 0 255 215 0 255 215 0 255 215 0 255 215 0 255 215 0 255 215 0 255 215 0 255 215 0 255 215 0 255 215 0 255 215 0 255 215 0 255 215 0 255 215 0 255 215 0 255 215 0 255 215 0 
